P3
400 225
255
176 188 187
203 213 222
206 216 224
209 218 225
176 189 187
98 125 75
97 125 74
99 127 76
95 123 73
98 126 76
98 125 75
96 124 74
94 121 72
98 126 76
98 126 75
95 123 74
95 122 72
97 124 74
98 125 75
98 126 76
99 128 78
97 125 75
97 124 74
97 124 75
101 128 77
98 125 75
95 122 74
97 125 75
95 123 73
96 123 74
100 127 77
101 129 78
157 173 164
204 214 225
200 210 218
205 215 222
207 215 223
204 214 223
206 215 223
205 216 225
194 205 211
199 210 220
214 222 230
207 216 225
204 214 222
182 194 194
138 156 137
105 131 88
98 125 75
97 125 75
95 122 73
100 128 77
98 126 75
99 127 76
99 127 76
96 123 74
97 125 75
97 124 74
96 123 74
94 121 72
100 128 77
162 177 168
209 219 229
205 215 224
205 215 223
208 218 228
205 214 222
205 215 224
207 217 226
207 217 227
208 218 228
211 220 229
213 222 233
205 215 225
208 217 227
204 214 223
203 213 221
209 218 228
207 217 227
206 215 223
202 212 221
210 220 229
202 212 219
208 218 227
204 215 225
208 218 227
203 212 218
202 212 221
205 214 221
204 214 224
203 213 222
97 124 77
99 126 76
98 126 75
96 123 74
98 125 75
95 122 73
96 124 75
97 125 75
98 126 76
95 122 73
97 124 75
95 123 74
100 128 77
96 123 74
98 125 75
118 141 108
138 157 141
183 195 196
206 215 224
198 208 216
201 212 221
209 218 228
206 215 224
207 216 222
199 210 217
206 215 225
206 216 225
205 215 224
206 216 225
208 218 226
97 124 76
98 126 75
99 126 76
96 124 75
98 125 75
97 125 75
94 122 73
95 122 73
97 124 75
97 124 74
96 123 73
97 125 75
100 127 76
97 125 76
97 125 74
97 125 75
98 126 76
97 124 74
97 124 74
100 128 78
95 121 72
102 130 79
98 125 75
98 125 75
94 121 73
95 122 74
97 124 74
98 125 75
100 128 78
96 124 74
192 203 207
208 217 225
208 217 227
206 216 226
202 212 221
203 214 223
204 214 224
209 218 226
203 213 223
204 214 222
200 210 216
204 213 220
207 216 225
201 212 222
210 219 230
210 220 231
213 222 232
204 213 221
209 218 227
208 217 227
203 212 220
213 222 231
207 217 225
206 216 224
209 219 230
206 216 225
209 218 227
211 220 231
203 212 220
206 216 226
142 160 142
95 122 73
94 121 73
101 129 78
97 124 74
96 124 74
97 124 74
97 124 74
96 123 74
97 124 74
98 126 76
97 125 75
97 125 75
96 122 73
94 122 73
99 127 76
100 128 77
96 124 74
98 126 76
100 127 77
108 133 92
129 150 127
164 180 174
170 184 176
192 203 205
197 208 216
207 217 226
206 217 228
203 212 219
208 218 227
148 165 146
95 123 73
97 125 75
92 119 71
98 125 75
99 127 76
97 124 75
97 124 74
97 124 74
98 126 76
95 122 73
99 126 76
94 121 72
99 127 76
100 128 77
97 124 74
96 124 75
100 128 77
99 127 77
97 124 74
101 128 77
100 127 77
98 125 75
97 125 75
99 127 76
98 125 75
95 123 74
96 123 73
98 126 76
132 151 129
206 217 227
205 216 226
207 216 226
211 220 230
204 213 223
209 218 228
210 218 226
207 216 225
209 217 225
207 217 228
198 209 215
206 215 224
204 214 223
212 221 231
210 220 231
204 214 223
212 220 227
207 217 228
209 218 227
209 219 228
209 219 229
212 221 231
211 220 230
211 220 229
211 220 228
206 215 223
202 213 222
209 218 228
182 195 193
96 123 74
93 120 72
98 125 76
96 123 74
98 126 76
100 128 78
100 127 77
97 125 74
97 125 75
93 120 72
96 124 74
98 126 76
97 124 74
99 127 76
97 124 74
96 124 74
94 121 72
98 125 75
97 125 76
97 124 74
97 124 75
97 125 74
98 125 75
97 124 75
100 127 76
94 121 72
95 123 74
124 145 118
214 223 233
204 214 223
204 213 221
202 212 221
212 220 230
196 207 215
210 219 230
210 219 228
209 218 225
204 214 222
205 215 223
209 219 228
206 216 225
205 215 223
207 216 224
205 214 224
207 217 227
209 219 229
204 215 226
200 211 221
209 219 228
201 211 221
210 219 230
209 218 228
199 210 218
208 218 227
198 209 216
106 131 88
97 124 74
94 121 72
98 125 75
97 124 75
97 124 75
100 128 77
94 121 72
102 130 78
101 129 77
97 125 75
96 124 75
98 126 75
96 123 74
97 124 74
99 126 76
95 123 74
95 122 73
97 125 75
100 128 77
97 124 74
98 125 74
94 122 73
98 125 75
92 119 71
110 134 98
198 208 216
204 215 224
204 214 222
202 213 222
208 217 227
210 220 230
202 213 222
208 217 225
208 217 224
208 218 225
207 216 224
208 217 226
204 214 224
195 206 215
204 214 222
209 219 228
206 216 227
207 217 225
211 220 230
207 217 225
207 217 227
205 215 225
206 216 225
204 214 222
196 207 213
103 129 85
99 126 76
97 125 75
95 123 73
95 122 73
102 129 77
97 125 74
98 126 76
99 126 75
99 126 76
97 124 74
97 124 74
98 126 74
100 127 76
100 128 77
95 122 73
101 129 78
101 129 78
97 125 75
97 124 74
101 128 76
97 125 75
96 123 74
182 194 195
95 122 73
123 143 115
163 177 168
201 211 216
193 204 208
96 123 75
99 127 76
100 127 76
98 126 76
101 128 77
94 121 72
98 125 75
94 121 73
98 125 75
98 126 76
99 126 76
95 122 73
97 124 74
97 125 75
98 126 76
98 125 75
97 124 74
98 126 76
96 123 73
99 127 77
98 125 75
100 128 77
99 126 76
99 126 76
97 124 74
99 127 77
94 122 73
143 161 144
200 211 220
200 211 221
209 218 227
209 219 229
206 215 223
202 213 222
205 215 223
202 212 221
207 216 226
205 215 223
206 215 223
205 214 222
204 214 223
206 215 224
192 202 204
156 171 160
113 136 101
96 124 75
96 123 74
95 122 73
97 124 74
98 125 74
97 124 74
97 124 74
98 126 75
98 126 76
95 123 73
99 126 76
168 183 177
199 210 218
204 214 222
205 214 223
211 220 229
204 215 226
212 221 230
200 211 220
209 219 230
204 214 224
209 218 228
206 215 224
202 213 223
210 219 229
207 217 227
210 219 229
209 219 228
204 214 224
203 214 223
207 216 225
210 219 229
208 217 226
197 208 217
210 220 231
202 213 223
202 212 220
207 216 225
208 218 227
209 218 226
201 210 217
96 124 74
97 124 75
99 127 77
94 122 74
96 123 73
96 123 74
99 127 77
95 122 73
96 124 74
99 126 75
96 124 75
97 124 74
94 121 73
97 125 75
99 126 75
94 121 73
98 126 75
96 124 75
108 134 92
152 169 155
179 192 191
199 210 217
206 215 224
210 219 228
211 221 231
208 218 227
206 216 226
206 216 226
212 220 229
189 201 207
92 119 70
100 127 76
98 126 76
99 126 75
97 124 75
94 122 73
99 126 75
96 124 75
100 127 76
95 122 72
97 124 74
97 125 76
97 125 75
96 124 74
93 120 72
100 127 76
97 125 75
99 127 76
97 125 75
95 123 74
97 125 74
94 121 72
100 128 77
95 122 73
98 126 76
98 126 75
98 126 75
100 127 77
99 126 76
105 130 87
207 216 224
207 216 224
209 218 226
208 217 227
205 214 221
210 219 230
198 208 215
213 223 234
208 218 228
205 215 223
209 219 231
204 213 221
205 216 228
210 219 231
203 213 223
210 219 228
204 214 222
207 216 225
206 215 222
206 216 223
205 215 224
202 212 220
208 217 226
207 217 227
211 220 228
206 216 225
205 215 223
201 212 220
207 216 225
207 217 227
103 129 87
99 127 76
96 124 75
99 126 76
95 123 74
97 125 75
96 124 74
98 126 76
98 126 77
97 125 75
95 123 74
96 124 74
98 125 76
92 119 71
96 124 75
97 125 75
97 124 74
96 123 74
94 121 73
95 122 73
96 124 74
93 121 72
99 126 76
97 124 75
96 123 75
99 125 80
107 131 95
140 158 139
165 178 170
187 198 201
117 139 110
97 124 76
97 124 74
97 125 75
96 124 75
96 124 74
100 127 77
97 124 74
95 123 74
95 122 73
98 125 75
98 125 75
98 126 75
93 120 72
93 121 72
98 126 76
98 125 75
97 124 75
98 126 75
97 124 74
98 126 76
98 126 76
96 124 75
97 125 74
96 123 74
100 128 78
98 126 75
98 125 75
95 123 74
172 186 183
200 211 219
202 212 221
204 214 222
206 216 226
203 213 221
207 216 226
208 218 227
207 217 226
203 213 221
196 207 216
203 213 222
204 214 223
211 220 229
204 213 221
200 211 220
201 212 222
204 214 222
204 214 222
204 214 222
214 222 232
208 218 229
202 213 222
201 212 221
206 215 221
201 211 219
208 218 229
213 222 233
210 219 228
136 154 133
97 124 74
97 125 75
98 126 76
98 125 75
100 127 76
94 122 73
97 125 75
100 127 77
95 123 74
92 119 71
98 126 76
97 125 75
99 127 76
97 124 75
96 124 74
97 125 75
95 122 73
96 123 74
97 124 75
100 128 77
94 121 72
96 124 74
99 127 77
98 126 76
96 123 74
93 121 72
96 123 74
182 195 193
207 217 227
203 213 223
203 213 222
208 217 227
204 214 225
207 216 224
207 216 225
202 212 220
208 218 227
205 214 221
212 221 233
211 221 233
205 215 225
206 216 224
204 214 221
209 219 231
212 220 229
210 219 230
204 214 223
206 216 224
212 220 231
205 215 225
199 209 218
206 216 225
207 217 227
206 216 225
136 155 135
93 121 72
99 126 75
99 126 76
98 125 75
99 127 77
98 126 76
97 124 74
100 128 76
93 120 72
97 124 75
97 124 75
98 126 76
94 122 73
97 125 76
98 126 75
94 121 72
99 127 75
98 126 76
96 124 74
94 120 72
96 123 74
94 121 72
100 128 77
99 126 76
94 121 72
177 191 191
202 213 224
210 219 229
205 214 221
206 216 225
203 213 221
210 218 227
207 217 226
205 214 222
209 219 228
206 215 224
205 214 223
203 213 221
206 215 223
209 218 228
201 211 220
207 217 227
200 211 221
202 213 222
209 218 227
199 210 220
203 213 223
197 208 216
205 215 225
203 214 223
116 139 108
95 123 74
97 124 74
100 127 76
95 123 74
95 122 74
98 125 76
98 125 76
99 126 76
98 126 76
94 121 73
94 121 72
98 126 76
97 124 74
97 125 75
98 126 76
96 124 75
97 125 75
96 122 73
98 125 75
95 122 73
98 126 76
100 127 76
154 170 157
208 216 222
96 124 74
96 124 74
92 119 70
107 133 89
163 177 167
114 138 100
95 122 73
96 123 74
96 124 74
98 125 75
98 125 75
98 125 75
93 120 72
95 122 73
95 122 73
95 123 74
94 121 72
96 124 74
97 124 74
96 123 74
97 124 74
96 123 73
97 125 75
93 121 73
97 124 74
97 125 75
96 123 74
97 124 75
93 120 72
99 127 76
94 122 73
97 125 76
119 142 113
209 218 227
204 215 226
206 216 224
206 216 226
210 219 228
204 214 223
207 217 227
208 217 226
204 213 222
204 214 222
210 220 229
209 219 229
204 213 221
206 215 224
207 217 225
215 223 233
201 211 220
188 200 201
143 161 141
106 131 87
97 124 74
96 123 74
97 124 74
99 127 76
96 124 75
96 123 73
95 123 74
94 121 72
162 177 168
206 216 224
207 217 229
209 219 228
204 214 222
204 214 224
211 220 231
211 219 229
208 217 227
205 214 223
208 217 225
210 219 228
208 219 230
200 211 220
208 217 226
204 215 225
211 220 230
199 209 218
206 216 225
211 219 228
212 221 230
201 210 219
194 206 215
208 217 226
207 216 225
203 213 221
206 216 226
209 219 230
207 217 226
196 208 215
97 125 75
100 128 77
98 126 76
100 128 78
95 123 75
98 126 76
97 125 75
97 124 74
102 129 77
97 124 74
99 127 76
95 123 74
100 128 77
96 123 73
96 123 73
100 128 77
96 124 74
94 121 72
93 120 72
94 122 74
98 125 76
96 124 74
132 151 130
173 185 179
195 206 213
201 212 221
207 217 227
212 222 233
205 214 223
196 207 211
98 125 75
97 125 76
95 123 73
95 122 73
96 124 74
98 125 75
97 125 75
98 126 76
95 122 73
97 125 75
99 126 76
96 124 74
96 123 74
99 127 76
97 125 75
98 125 74
95 122 73
97 124 74
95 122 73
94 121 71
97 124 75
98 125 75
98 125 75
95 122 73
92 120 72
99 127 77
98 126 76
97 124 74
97 125 75
137 156 132
207 217 227
205 214 222
204 214 224
207 216 224
203 213 221
202 212 220
205 215 223
208 218 227
203 213 221
212 221 230
202 213 223
210 220 230
203 213 222
209 217 227
205 216 226
214 222 232
201 211 219
201 212 221
199 209 217
206 216 226
207 217 226
205 215 224
202 212 222
211 220 230
211 220 230
200 211 219
206 217 228
199 210 219
214 222 231
191 203 208
94 121 72
98 126 75
97 125 76
97 125 76
100 127 76
96 123 73
96 123 74
96 124 75
96 123 73
97 124 75
96 123 74
99 126 76
98 126 75
95 122 73
98 126 76
96 124 75
95 122 74
94 121 73
98 126 76
98 125 75
98 126 75
96 123 74
98 125 75
99 127 76
96 123 74
97 125 75
97 124 74
97 124 75
96 123 73
141 159 145
213 221 229
206 216 225
187 199 205
174 187 184
156 172 164
138 156 138
119 142 111
95 122 73
94 121 73
96 123 74
97 124 74
96 124 74
97 125 76
96 123 73
91 118 70
96 123 74
96 123 73
100 128 78
97 125 75
95 122 73
97 124 74
97 125 75
98 125 75
97 124 74
97 124 75
98 125 75
96 123 74
94 121 72
102 129 80
195 206 213
204 214 222
202 212 221
204 213 220
211 219 227
196 207 215
211 220 228
213 222 232
203 213 220
204 214 223
208 216 225
211 221 232
204 214 221
214 222 230
200 210 218
211 220 231
203 214 223
208 218 228
206 216 224
208 217 226
209 218 227
203 213 222
203 213 222
199 209 216
204 214 222
205 215 224
206 215 223
193 203 209
190 201 207
95 123 74
97 124 75
97 124 74
99 127 76
95 122 73
98 125 75
94 121 73
96 123 74
98 126 76
98 126 75
93 120 72
97 125 75
94 121 72
92 120 71
98 126 75
96 124 75
95 123 73
96 124 74
97 124 75
96 123 74
97 125 75
99 127 76
96 123 73
97 125 75
91 118 70
94 121 72
95 122 73
126 147 121
204 213 220
209 218 226
203 213 221
208 217 227
203 214 223
206 217 227
203 214 224
198 209 216
209 219 229
201 212 220
198 209 218
207 216 226
205 215 224
205 216 226
201 211 221
204 214 223
194 204 211
208 218 228
203 212 219
205 214 222
205 216 225
203 214 224
212 221 230
206 216 226
208 217 225
208 217 227
195 205 210
103 130 83
97 125 75
98 126 76
98 126 76
93 120 72
99 126 76
99 126 75
96 123 74
98 126 76
95 122 73
95 122 73
95 123 74
98 125 75
96 123 73
98 125 75
99 127 76
96 124 75
98 126 75
97 124 74
95 123 74
98 126 76
94 121 72
97 125 75
97 124 75
97 125 75
127 147 119
209 218 228
209 219 230
200 210 218
210 219 230
210 219 228
205 215 224
206 216 226
203 213 223
204 214 224
213 222 231
205 214 222
202 213 223
213 222 230
202 212 219
199 210 220
200 210 219
207 217 226
200 211 221
206 215 225
213 222 233
202 213 221
200 211 219
206 217 227
204 214 224
155 171 164
96 123 74
97 124 74
95 123 73
97 125 76
96 123 74
100 128 77
99 127 76
95 123 73
98 125 75
101 129 78
98 125 75
99 127 77
93 120 72
98 126 76
97 124 74
97 125 76
96 124 74
99 127 76
97 124 74
98 126 76
98 125 75
97 125 75
116 139 106
193 204 208
212 222 233
96 123 73
97 124 75
96 123 74
96 123 74
94 121 73
202 212 219
182 194 194
135 154 131
95 123 74
96 124 73
98 126 75
92 119 71
97 125 75
97 124 75
96 123 74
97 125 75
92 119 71
96 123 73
97 125 75
97 124 75
97 124 74
100 128 77
98 126 76
95 122 73
95 123 74
95 123 73
97 125 75
97 124 75
100 128 77
99 126 76
99 127 77
97 125 75
123 144 114
206 216 226
208 216 225
203 213 221
203 213 223
200 211 221
206 216 225
205 215 223
205 214 221
203 213 221
205 214 222
204 214 224
206 216 226
206 216 227
204 214 225
204 214 223
206 216 225
206 216 225
202 212 221
202 210 216
203 212 219
174 187 185
128 148 124
94 122 73
97 124 74
99 126 76
96 124 74
96 123 75
98 126 76
164 179 174
206 214 222
205 215 224
212 221 231
202 213 221
208 217 227
200 211 221
207 216 226
204 214 223
200 210 219
208 217 226
209 219 231
209 218 229
203 212 220
200 211 219
206 216 225
211 220 231
209 219 229
207 217 227
205 214 222
208 217 226
209 219 228
208 217 226
198 209 218
212 220 226
210 219 228
206 215 225
205 214 223
202 212 219
193 204 210
97 124 75
98 126 76
97 124 75
96 123 74
99 127 76
100 128 77
94 121 71
94 122 73
97 124 75
99 126 76
101 129 77
99 127 77
96 123 74
95 122 73
98 126 76
96 124 74
98 126 76
100 128 77
100 127 76
97 124 75
96 123 74
96 123 74
94 121 73
97 125 75
94 122 74
128 148 121
144 162 145
182 194 196
203 213 221
183 195 195
95 123 73
98 126 76
97 125 75
99 126 76
100 128 77
93 120 71
99 127 77
94 121 73
98 126 75
97 125 75
97 124 74
96 123 74
97 125 75
97 125 74
96 123 73
96 124 74
91 118 70
97 125 75
95 122 74
96 123 74
98 125 75
96 124 74
92 119 71
98 126 75
96 124 74
98 126 75
96 123 74
95 123 74
97 124 74
151 167 154
206 217 228
194 205 211
204 215 226
206 216 224
207 217 228
210 219 229
202 212 219
207 217 227
204 215 225
206 216 226
203 214 223
204 214 224
199 209 216
211 220 231
196 207 215
204 214 222
205 215 222
209 218 228
207 216 223
206 215 224
202 212 222
207 217 228
209 218 226
212 220 230
207 216 224
209 218 228
208 218 227
207 216 225
204 215 225
177 191 187
95 123 74
99 126 76
98 125 75
99 127 76
98 126 75
98 125 75
100 128 77
96 123 74
97 124 74
97 124 75
95 123 74
95 122 73
97 124 74
92 120 72
94 121 73
95 123 74
99 126 76
97 125 75
95 123 73
97 125 75
93 120 72
99 126 76
97 124 74
95 122 72
97 125 75
97 124 74
93 120 71
96 123 74
94 121 73
182 194 191
204 214 222
198 208 215
206 215 222
204 214 222
209 218 228
201 211 218
204 214 221
200 210 217
188 201 205
175 189 187
146 162 149
150 165 153
119 141 107
101 128 82
97 125 74
97 124 75
96 123 73
95 122 73
91 119 71
97 125 75
101 129 78
98 125 75
99 127 76
95 123 74
96 123 73
94 121 73
101 129 78
97 125 75
138 157 136
203 214 224
205 215 223
198 209 217
208 217 226
201 211 221
203 212 220
206 216 225
208 217 227
200 211 220
202 212 221
215 223 234
209 219 229
216 224 232
198 210 220
208 217 225
208 217 227
206 216 225
207 217 225
209 218 227
202 212 222
201 211 220
212 221 231
203 213 223
203 213 220
208 218 229
211 220 229
205 214 223
201 211 221
153 169 158
97 124 74
101 129 78
98 126 75
98 125 76
95 123 73
97 124 74
96 123 74
97 125 74
95 122 73
94 121 72
97 124 74
99 127 77
95 122 73
95 123 73
98 125 75
96 124 74
95 123 73
98 126 76
98 126 76
97 124 75
95 121 72
99 126 76
94 121 73
95 122 73
98 125 75
95 122 72
96 124 74
176 189 186
199 210 220
212 221 231
201 211 219
208 217 227
203 212 220
208 217 225
205 214 224
208 218 229
209 218 226
210 219 228
204 214 222
206 216 226
203 213 221
207 216 226
211 220 230
202 211 220
208 217 228
208 217 227
209 218 227
204 214 223
200 210 219
214 223 233
208 217 227
206 216 225
209 217 226
203 212 220
138 156 135
96 123 74
100 127 77
97 125 76
93 120 72
99 126 75
98 126 75
98 126 76
95 122 74
98 126 76
94 122 73
98 126 77
96 123 73
97 124 75
95 122 72
95 123 73
95 123 75
97 125 75
98 126 75
95 123 74
96 123 73
98 126 76
99 126 76
98 126 76
100 128 77
96 124 74
190 201 203
204 214 225
213 222 231
207 216 226
205 215 225
210 218 226
201 211 220
203 213 220
201 212 222
203 213 223
210 219 228
206 216 225
210 219 228
211 221 232
200 211 220
199 209 216
211 220 230
208 218 228
202 213 222
208 219 229
209 218 227
209 218 228
205 215 225
210 220 230
200 211 219
106 132 91
94 121 72
100 127 77
93 121 72
98 125 75
98 125 75
95 123 74
97 125 75
97 124 74
99 126 75
97 124 75
99 127 76
94 122 73
93 120 72
95 123 74
98 126 75
98 125 75
97 125 76
100 128 76
97 124 74
96 123 74
97 123 73
97 124 77
187 199 201
202 212 221
207 216 225
98 126 75
95 123 74
98 126 76
97 124 74
97 124 74
194 204 206
203 213 221
210 218 227
192 203 207
162 177 168
101 126 82
96 124 75
93 120 72
99 127 76
94 122 73
100 128 77
97 125 74
97 125 74
100 128 77
97 124 75
97 125 75
97 124 74
97 124 74
95 122 73
99 127 76
95 122 73
97 124 74
99 127 76
97 124 75
97 124 74
99 126 76
97 125 74
116 138 107
205 215 224
206 215 224
211 220 230
212 221 232
205 215 225
208 218 226
211 220 229
205 215 222
210 219 229
201 211 217
206 216 225
210 220 230
197 208 217
205 216 227
206 215 224
203 213 222
211 220 232
206 216 224
200 211 221
209 217 225
206 215 223
208 217 227
192 204 209
159 175 164
123 144 117
94 122 72
100 128 77
99 127 77
156 171 160
210 220 231
209 218 227
209 219 229
204 214 223
201 211 219
208 217 226
204 214 223
208 217 227
211 220 231
214 223 234
203 213 221
212 221 230
205 215 224
209 218 227
196 208 217
201 212 219
201 212 221
208 217 226
201 210 218
200 210 218
205 216 225
208 218 227
209 218 226
207 215 223
207 216 226
203 213 223
210 220 230
211 220 230
183 196 198
100 128 77
96 123 73
97 124 74
97 124 74
94 121 73
100 127 76
98 126 76
96 123 74
94 122 73
97 125 75
96 123 73
96 124 74
97 125 75
97 125 75
96 124 75
96 124 74
98 126 76
97 125 75
98 126 76
97 124 74
97 125 75
96 124 74
95 123 73
99 127 76
98 126 75
94 121 72
96 123 74
95 123 74
112 135 98
156 172 158
141 159 139
116 139 104
97 124 74
92 119 71
96 123 74
94 121 72
97 124 74
95 123 74
94 121 72
96 123 74
95 123 74
96 123 74
98 125 75
96 123 74
99 127 77
99 127 76
97 125 75
94 121 72
98 126 76
97 124 74
93 120 71
95 123 74
93 120 72
95 122 74
96 124 74
97 124 75
98 126 75
98 126 76
99 126 76
158 174 165
202 213 222
198 209 215
210 219 230
203 213 220
199 210 220
209 219 230
212 221 230
203 213 222
210 219 227
206 215 224
198 209 217
209 219 230
205 215 223
206 215 224
204 214 224
206 215 224
199 209 217
196 207 218
202 213 222
208 218 228
206 215 225
207 217 228
205 215 225
205 215 224
208 218 228
208 218 227
202 212 218
206 216 225
209 217 226
137 156 135
97 124 75
97 124 74
98 125 74
96 124 74
97 125 74
98 125 75
96 123 74
94 122 73
99 126 75
95 122 73
97 124 74
100 128 77
98 125 75
97 124 74
97 125 74
98 125 75
99 126 76
96 123 73
95 122 74
97 124 74
96 123 74
96 123 73
100 127 76
96 123 74
98 125 75
96 124 75
98 125 75
98 126 76
98 125 77
198 209 216
208 217 226
204 214 224
213 221 231
202 212 220
205 215 223
206 216 227
207 217 226
206 215 223
207 216 226
216 225 234
209 218 227
206 216 226
207 216 225
205 215 224
193 204 206
184 196 194
174 188 183
151 168 154
131 151 127
113 138 100
102 129 79
96 124 74
99 127 76
95 122 74
96 124 74
95 123 74
97 124 74
98 126 76
174 188 186
204 214 222
205 215 225
206 216 225
204 213 222
209 218 226
204 214 223
211 220 229
206 215 224
205 214 223
202 212 220
203 213 220
203 213 223
206 216 226
202 213 223
199 210 219
203 214 226
204 214 223
209 219 229
204 214 224
203 213 223
199 210 218
206 217 227
207 216 225
208 218 228
207 217 227
203 214 225
193 204 210
201 211 219
108 131 94
97 125 75
96 123 74
99 127 76
98 125 75
99 127 77
101 128 77
98 126 76
98 126 76
96 123 73
98 126 76
100 127 77
97 124 74
96 123 74
98 125 75
99 127 77
97 125 75
95 123 74
96 124 74
99 127 76
97 125 74
99 126 75
91 118 71
97 125 75
96 123 73
97 125 74
98 126 77
120 143 112
211 219 229
201 211 219
211 220 229
205 214 221
207 217 227
206 216 224
211 220 230
202 213 223
209 219 229
201 212 221
204 215 223
206 216 225
206 216 226
207 216 224
203 212 219
212 220 228
202 213 222
204 213 222
206 215 222
208 216 224
199 208 216
210 220 230
199 209 217
204 213 218
207 215 223
209 218 228
192 203 206
101 129 80
96 124 75
99 126 76
98 126 76
97 125 75
98 125 75
99 127 76
98 126 76
94 121 73
95 122 73
94 121 72
100 127 76
97 125 75
95 123 74
95 122 73
99 127 75
97 125 75
94 121 72
95 122 73
99 127 76
95 123 73
96 123 73
94 121 73
96 124 74
92 119 71
143 161 141
203 213 223
206 216 224
208 217 225
204 214 224
203 214 222
212 221 230
204 214 224
205 215 225
203 212 220
204 214 223
196 208 215
210 219 228
209 219 230
202 211 219
209 219 229
199 209 216
197 207 215
212 221 232
203 213 223
207 216 227
204 214 223
204 214 224
200 211 218
209 218 229
134 153 130
97 125 74
96 123 74
99 126 75
96 123 74
97 124 75
95 123 74
94 121 73
95 122 73
97 124 74
97 124 75
95 123 73
99 126 76
97 125 75
96 123 74
96 123 73
100 127 76
95 123 73
99 127 76
98 126 76
93 120 72
99 126 76
97 124 74
156 171 157
210 219 229
210 219 229
200 210 219
97 124 73
99 127 76
93 120 71
96 124 75
97 125 75
172 185 182
203 212 219
209 218 226
197 208 216
205 214 224
198 209 217
166 180 175
124 144 117
97 124 74
96 124 74
97 124 75
98 125 75
98 125 74
94 121 72
96 124 74
98 126 76
94 120 71
100 127 76
100 127 76
99 127 76
97 124 74
98 125 76
97 125 75
94 122 73
97 124 74
98 126 76
96 123 74
95 122 76
209 218 228
208 218 228
205 214 222
202 212 219
205 216 226
212 221 230
207 216 226
201 211 220
205 215 224
211 220 229
208 217 227
195 205 214
207 218 229
210 219 228
206 216 225
208 218 228
205 216 226
202 213 222
206 217 226
201 210 217
208 218 227
210 219 228
212 221 230
202 213 222
200 211 220
182 194 192
140 158 140
113 136 105
144 162 147
208 217 225
207 217 226
201 211 217
207 216 225
206 216 225
205 215 225
204 214 223
203 213 221
209 219 229
210 219 227
207 217 229
213 221 230
208 217 227
206 217 227
209 218 228
206 216 226
204 214 223
202 212 219
208 217 224
211 220 230
210 220 230
204 214 222
206 216 225
204 213 221
200 210 217
199 209 215
202 212 220
207 217 226
180 192 192
96 124 74
96 123 74
97 125 76
94 121 73
98 125 75
95 122 73
99 127 76
99 126 75
95 122 73
95 123 74
97 124 75
95 123 74
96 123 74
97 124 74
97 124 74
94 121 72
96 123 74
94 122 73
94 122 73
95 123 74
96 123 74
96 124 74
95 122 73
96 124 75
99 127 76
97 124 74
94 121 71
98 126 76
99 127 76
174 187 184
202 212 221
206 215 224
197 208 215
153 170 156
124 144 119
102 128 84
93 120 72
99 127 77
95 122 72
99 127 76
93 120 71
95 123 74
98 125 74
96 123 73
96 123 74
96 123 74
99 126 76
95 123 74
97 125 76
98 125 75
96 123 73
97 124 75
97 125 75
96 123 74
92 119 71
98 125 75
97 124 75
94 121 73
98 126 77
192 203 208
202 212 222
197 207 214
210 219 228
206 216 226
206 215 221
206 216 224
208 217 227
207 217 226
201 210 217
205 214 222
209 219 228
214 222 232
213 221 230
205 214 222
207 216 225
202 212 220
199 208 215
202 212 219
209 218 228
210 219 229
206 215 224
207 217 226
201 212 220
205 215 223
203 213 221
206 216 225
211 220 228
205 215 223
206 215 225
118 141 109
97 124 74
95 122 73
95 122 73
94 122 73
98 126 75
97 125 75
94 121 73
100 127 76
96 124 75
98 125 75
98 126 75
96 123 74
96 123 73
97 124 75
99 127 77
96 123 74
97 124 74
95 122 73
94 122 73
98 126 76
96 124 74
98 125 75
94 121 72
98 125 75
97 124 74
94 121 72
100 127 76
94 122 73
133 152 129
206 215 224
204 215 224
206 216 225
205 215 225
204 215 223
208 217 227
210 220 231
207 216 225
199 209 217
205 216 226
206 215 222
207 217 227
207 217 227
205 214 223
202 212 222
206 217 227
212 222 232
208 217 226
203 213 223
199 209 217
208 217 225
194 205 210
191 202 206
194 206 211
162 177 168
145 163 145
140 158 140
111 135 96
109 133 91
204 214 222
203 213 223
204 215 226
202 211 220
207 216 224
202 213 223
208 217 226
207 216 224
210 220 232
202 212 218
204 214 221
197 208 214
202 211 218
200 210 218
207 217 227
200 210 218
200 211 221
210 219 229
205 215 224
208 218 229
201 212 221
212 220 230
204 214 223
202 212 220
209 218 225
200 211 222
205 215 227
206 216 224
173 186 184
99 127 76
94 121 73
100 128 77
96 123 74
97 125 75
98 126 75
94 121 72
94 121 72
94 121 73
95 122 72
98 126 76
94 121 72
100 127 77
99 127 76
96 123 74
96 123 74
98 126 76
95 123 75
95 122 73
97 124 75
96 123 73
97 124 75
99 127 77
97 124 74
96 123 74
98 125 74
98 125 75
171 185 183
199 209 215
197 207 214
209 219 229
202 212 221
209 219 228
208 217 226
204 214 225
200 211 220
208 217 227
206 217 228
207 216 225
206 217 228
200 210 219
208 218 227
206 216 227
200 210 217
208 218 227
204 213 222
209 218 228
207 216 226
210 220 232
204 215 224
206 216 225
205 216 226
197 208 215
207 217 226
127 148 119
97 125 75
95 123 74
97 124 74
95 122 73
95 123 74
94 121 72
95 122 73
98 125 76
98 125 75
97 124 75
100 127 76
95 123 73
95 122 73
96 124 75
97 124 75
93 120 71
96 123 73
96 123 74
98 126 76
94 122 73
99 127 77
95 122 73
98 126 75
95 122 73
102 127 87
200 211 220
210 220 230
202 212 220
204 214 223
207 216 222
207 217 226
200 210 219
199 210 216
205 215 226
201 212 221
205 216 226
200 211 220
214 223 232
204 213 220
202 212 221
196 207 215
213 222 231
208 218 227
207 217 226
204 214 223
210 218 226
206 215 223
207 216 225
199 210 217
165 180 177
98 126 75
98 125 75
95 122 73
98 126 75
99 127 76
93 120 72
97 124 75
95 122 73
100 128 78
95 123 74
97 124 75
98 125 75
96 123 75
93 120 71
98 125 75
95 123 74
98 126 76
97 125 75
96 124 74
98 125 75
95 123 73
97 124 75
125 145 117
201 211 219
198 208 213
207 217 225
206 216 226
98 125 75
94 122 73
97 124 74
94 122 74
98 126 76
160 176 166
208 217 226
200 210 220
202 212 220
205 215 226
207 217 226
209 219 228
207 216 224
189 201 202
132 152 129
99 125 79
96 123 74
99 126 76
97 124 75
97 126 76
97 124 75
99 126 76
99 127 76
99 127 76
94 122 74
97 124 74
95 122 73
94 121 72
98 126 75
98 126 76
97 124 74
98 126 75
96 123 73
197 207 213
216 224 232
203 213 222
203 213 220
204 213 221
206 216 225
201 211 218
203 213 222
205 215 223
202 213 223
206 215 225
207 217 226
203 213 221
208 218 227
208 217 226
213 222 233
205 215 224
202 213 221
210 219 226
211 221 232
204 214 222
201 212 221
200 211 220
202 212 222
205 215 224
208 218 229
206 215 224
203 213 221
169 182 175
182 195 194
208 217 225
206 216 225
206 216 225
210 219 229
209 219 229
210 219 227
207 216 227
201 211 219
201 212 222
201 211 220
205 215 224
203 214 224
205 215 225
210 220 231
207 216 227
201 211 218
208 218 228
206 216 225
207 217 225
210 219 229
206 216 225
206 215 224
204 214 223
207 217 227
208 217 226
201 212 224
209 219 228
183 195 197
98 125 75
99 127 76
98 125 75
96 123 74
98 125 74
97 125 74
94 121 72
97 125 75
96 123 74
97 125 74
100 128 77
100 127 77
97 125 75
99 128 78
96 123 73
95 122 73
96 123 74
100 128 77
94 122 73
97 124 74
95 123 73
94 122 73
96 123 74
96 124 74
98 125 76
98 126 76
96 124 74
98 125 76
98 126 76
178 190 188
200 210 219
211 220 230
208 217 227
207 217 226
212 220 229
198 209 216
171 186 185
151 168 155
115 138 104
96 123 74
97 125 76
95 122 73
100 128 77
99 127 77
98 126 76
97 125 75
97 124 74
96 123 74
99 126 76
98 125 75
95 122 73
94 121 73
98 126 76
98 125 75
100 128 77
99 127 77
96 124 74
98 126 75
94 121 73
203 213 222
202 212 222
196 207 213
204 214 222
199 209 217
209 219 230
211 220 228
203 213 222
210 219 228
207 217 226
205 215 224
205 214 223
210 219 229
210 220 231
202 212 220
202 212 222
203 213 222
205 215 223
211 219 229
208 216 224
207 216 225
208 218 227
204 213 219
204 214 223
206 216 226
207 217 226
207 216 224
209 219 228
201 211 220
195 206 211
93 120 71
96 123 73
97 125 75
96 123 74
96 124 74
97 124 74
98 126 75
97 124 74
96 123 73
96 124 74
95 123 74
98 126 76
96 124 74
100 128 77
98 125 75
98 125 75
97 125 75
99 126 75
97 124 74
99 126 76
93 120 72
97 124 75
98 126 76
95 122 73
95 122 73
95 123 73
99 126 76
94 121 73
99 126 76
162 177 165
208 217 227
206 215 222
211 219 227
215 223 234
200 211 219
206 216 226
210 219 228
209 219 230
204 214 222
206 215 223
214 222 232
204 214 223
206 215 223
209 218 227
208 218 228
212 221 232
206 216 227
201 212 220
205 214 222
211 220 229
199 209 216
207 216 223
204 213 221
205 215 224
205 215 227
207 217 229
205 215 223
204 214 223
166 180 173
118 141 111
146 164 148
157 173 162
168 182 175
176 188 188
187 199 201
199 210 218
211 220 230
209 217 227
211 220 231
209 219 231
206 216 225
206 216 226
201 211 221
208 217 227
204 215 226
207 216 224
205 215 224
202 212 220
210 219 229
206 216 227
207 217 226
203 213 221
207 216 225
207 217 225
208 217 227
211 220 230
201 211 218
126 147 120
97 125 74
97 124 74
100 128 78
96 123 73
99 126 75
94 122 73
95 123 74
100 128 77
93 120 71
96 123 73
97 124 74
96 123 73
96 123 74
97 124 75
92 119 71
98 126 75
98 126 76
96 123 74
97 125 75
97 125 75
95 122 73
95 123 74
98 125 75
97 124 74
97 125 75
97 125 75
118 141 105
207 216 225
208 218 228
209 218 227
206 215 224
207 217 226
203 213 223
203 213 223
207 217 227
207 216 225
200 211 222
208 217 226
207 216 224
203 212 221
205 214 223
206 216 225
195 206 215
206 216 225
197 207 214
211 220 229
200 211 220
209 217 225
203 212 220
208 218 227
207 217 227
204 214 225
207 216 225
192 204 207
95 123 75
96 124 75
95 123 75
98 125 76
97 125 76
97 124 75
95 123 74
94 122 74
98 125 75
97 125 76
96 123 74
97 124 74
95 122 73
96 123 73
96 124 74
96 124 75
96 124 74
95 123 74
99 127 76
99 126 75
94 121 73
97 124 75
97 124 74
98 126 75
95 122 73
169 184 178
201 211 219
211 221 232
209 219 230
205 215 224
208 217 226
204 213 220
203 212 219
207 217 226
204 213 220
212 221 230
200 210 220
198 209 215
206 215 223
207 215 223
204 213 221
209 218 227
211 220 229
202 212 220
204 214 223
210 219 230
197 207 212
208 218 228
206 215 223
200 210 214
110 134 96
98 126 76
94 122 74
98 125 75
98 126 75
99 126 76
98 125 75
101 129 78
98 125 76
96 123 74
96 124 75
95 122 73
98 126 76
96 123 73
99 126 76
97 124 75
95 123 73
93 121 72
95 123 74
97 124 74
105 130 87
108 132 95
129 149 122
148 164 152
157 173 161
147 164 151
128 149 126
105 130 89
95 122 73
98 125 75
97 124 74
95 122 73
96 123 74
147 164 151
205 215 224
202 213 222
205 215 224
205 214 222
205 215 224
202 212 221
208 217 226
203 213 220
201 211 218
197 208 216
147 163 146
108 133 95
99 126 75
100 128 77
99 127 76
97 125 75
99 127 76
93 120 72
94 122 73
97 124 75
98 126 76
95 122 73
97 125 76
92 119 71
98 125 74
94 121 73
94 121 73
197 207 215
210 219 228
203 213 221
204 214 223
205 215 226
204 213 222
203 212 221
206 215 223
206 215 224
213 222 231
203 213 222
202 212 220
205 215 225
200 211 219
204 214 225
202 213 222
204 214 224
203 214 224
202 212 222
203 214 225
202 212 221
200 211 220
204 214 222
202 212 221
207 217 226
207 217 227
210 220 231
207 217 226
173 187 181
98 125 76
100 126 87
158 174 164
191 203 206
205 216 226
205 215 223
203 213 220
203 214 224
206 215 222
204 214 223
201 211 220
205 215 223
213 222 232
211 221 231
204 214 223
202 212 221
204 214 224
209 219 230
204 214 222
196 207 214
203 213 222
207 216 224
204 214 223
211 220 229
206 216 228
211 220 228
204 214 224
203 212 221
180 193 192
93 121 73
96 124 75
98 126 76
95 122 73
96 123 74
95 122 73
93 120 72
96 123 74
95 123 73
99 127 75
94 121 72
97 125 76
96 123 74
99 127 76
98 125 75
97 125 75
98 126 75
99 127 75
96 124 75
95 121 73
94 121 72
97 124 75
99 126 76
98 126 76
97 124 74
97 124 75
99 127 77
97 125 75
101 129 78
201 211 216
201 211 218
198 208 214
194 205 212
202 213 221
206 216 225
197 208 215
206 217 229
210 219 229
211 221 231
196 206 210
160 175 167
140 159 139
109 133 99
98 126 75
96 123 74
95 122 73
97 125 75
99 127 77
92 120 72
93 120 71
97 124 74
97 124 74
93 120 72
95 122 74
94 121 72
95 122 73
100 128 77
99 127 77
107 132 93
204 215 225
209 218 228
209 218 229
209 217 226
210 220 232
205 215 223
204 213 221
210 220 230
210 219 229
210 219 229
208 218 229
202 212 219
210 219 228
203 213 220
203 213 221
201 211 217
205 215 223
204 214 223
199 209 217
209 218 227
208 217 228
206 215 222
204 214 222
205 214 220
204 214 224
205 214 222
204 214 224
211 220 229
205 214 222
160 175 167
95 122 73
96 123 74
98 126 75
94 121 73
96 123 74
98 125 75
97 124 75
96 123 74
96 123 74
92 119 71
95 122 73
96 123 74
97 125 75
100 128 77
99 127 76
97 124 74
98 126 76
96 124 74
98 126 76
97 124 74
95 123 74
96 123 74
98 125 76
98 125 75
96 123 74
97 125 76
98 126 75
97 125 75
96 124 74
187 199 204
204 214 223
202 212 222
204 214 221
206 216 223
209 219 229
198 209 218
204 214 222
205 215 225
199 209 217
201 212 221
201 211 219
201 212 220
203 213 222
205 216 225
208 218 228
199 210 219
204 214 223
200 210 220
205 215 225
206 216 225
204 213 222
199 210 218
204 215 224
197 209 218
203 214 223
203 213 222
208 217 225
211 220 230
136 155 134
94 122 73
95 122 73
97 124 74
96 124 74
99 127 76
99 127 76
96 124 74
105 130 90
114 137 105
132 152 127
127 147 125
153 169 154
175 188 184
181 194 194
196 208 215
206 215 222
199 210 217
210 219 230
207 216 222
206 215 222
201 212 220
207 217 226
210 219 229
207 216 225
204 215 225
200 211 221
204 214 222
180 193 192
96 123 74
95 122 73
97 124 74
96 123 74
98 125 75
99 126 75
98 125 74
96 124 74
98 126 76
95 122 73
97 124 74
93 121 73
97 124 75
96 124 75
94 122 73
94 121 72
97 124 74
99 126 75
94 122 73
94 122 73
96 124 74
95 122 73
97 124 74
98 126 76
97 125 74
98 125 75
94 121 72
171 184 180
206 216 224
211 220 229
199 211 222
202 212 222
217 226 236
208 217 226
208 217 227
205 215 224
199 209 216
201 210 217
197 208 214
206 216 225
208 217 225
209 219 228
206 216 228
204 213 221
208 218 227
208 217 228
209 218 227
206 215 223
206 216 224
209 217 225
202 212 221
212 221 232
206 215 224
209 218 227
140 158 135
97 124 75
97 124 74
96 123 74
95 122 73
100 127 77
95 123 74
96 123 74
97 124 74
99 127 76
96 124 75
95 123 74
96 124 74
97 124 74
98 126 76
97 125 75
94 122 74
97 124 75
97 125 76
96 123 74
100 128 77
99 127 76
93 121 72
96 123 74
97 124 75
106 131 92
195 206 214
206 216 226
211 220 228
213 222 232
209 218 227
207 217 226
198 208 215
200 210 218
201 210 218
203 213 223
204 213 221
209 219 229
211 219 228
205 214 222
210 219 229
199 210 219
197 208 216
203 213 222
203 213 222
203 213 221
208 218 229
210 219 227
208 216 224
204 214 221
152 169 155
99 126 75
99 126 75
92 120 72
98 125 75
96 123 73
100 127 77
94 122 73
96 123 74
96 123 74
96 124 74
99 126 76
96 124 75
100 127 81
112 136 99
132 151 128
145 161 146
160 175 165
183 195 195
191 202 206
188 199 201
202 212 219
204 215 226
160 176 169
94 121 73
97 125 75
95 123 74
101 129 78
98 125 75
95 122 72
96 123 73
100 127 77
93 121 72
98 125 75
124 145 119
200 210 218
206 215 225
213 222 232
211 220 230
205 215 224
204 214 223
207 217 227
210 219 230
203 213 220
201 211 219
201 211 219
202 212 220
171 185 180
131 150 126
96 123 73
96 124 74
100 128 77
96 124 75
100 128 77
99 126 75
96 123 73
96 123 74
97 124 74
96 123 74
101 128 77
96 123 73
92 120 72
181 194 197
211 220 229
206 216 225
199 209 216
204 214 222
208 217 226
206 215 223
212 221 231
206 216 226
203 213 222
211 221 232
203 214 223
208 217 225
198 208 215
198 209 218
206 216 224
211 220 229
201 211 220
201 212 220
202 212 219
198 209 216
203 213 223
199 210 218
200 211 218
202 212 220
206 216 225
210 219 228
210 219 228
166 179 172
96 123 74
98 126 75
95 123 73
95 122 73
118 140 109
168 182 174
188 201 204
207 217 226
204 213 221
206 216 224
207 217 227
212 220 229
206 215 223
209 219 229
201 211 218
199 209 218
203 213 224
203 213 222
204 214 223
202 213 222
210 219 227
203 213 220
208 217 224
208 218 226
207 217 228
203 214 224
203 213 222
204 215 224
166 180 172
97 124 74
96 123 73
95 123 74
97 124 74
94 121 72
96 124 74
95 122 73
97 124 75
93 120 71
97 124 74
97 126 77
99 126 76
95 122 73
97 124 75
94 121 72
95 122 73
96 124 74
99 127 76
97 124 75
98 125 75
98 125 75
97 124 74
95 122 73
94 121 72
96 123 73
93 121 72
94 121 72
96 124 75
100 127 79
198 208 215
210 219 228
202 213 222
205 215 225
213 222 232
208 217 227
206 215 223
210 219 228
208 217 225
206 215 222
208 218 227
200 211 219
207 217 226
199 210 218
185 198 199
153 169 157
131 150 126
106 132 89
96 123 74
94 122 73
100 128 77
96 123 73
98 125 75
96 124 74
97 124 74
96 124 74
98 126 76
93 121 73
99 127 77
135 154 131
203 214 222
203 213 220
207 217 226
200 212 221
204 214 224
197 208 216
207 217 227
205 215 225
198 209 216
209 218 225
202 211 218
210 218 226
209 218 229
205 215 224
206 215 223
201 211 218
205 215 226
201 212 220
202 212 221
207 216 226
198 209 217
202 212 221
204 213 220
206 217 228
210 219 228
203 213 221
206 215 223
204 214 224
205 215 225
147 164 148
96 124 74
97 125 75
95 122 74
98 125 75
95 122 73
97 124 74
97 125 75
97 124 74
100 128 77
96 124 74
98 126 76
98 126 76
97 124 75
97 125 75
95 122 73
97 125 75
101 129 77
98 125 75
95 123 74
99 126 76
96 123 74
95 123 74
94 121 73
97 124 74
96 123 74
95 122 73
95 122 72
97 124 74
113 136 102
207 217 225
196 207 216
209 217 226
200 211 219
203 213 223
200 210 219
210 219 230
211 220 229
207 216 225
206 214 222
200 211 218
206 215 224
204 214 224
208 217 226
202 213 221
203 213 222
204 214 224
203 212 218
213 222 233
207 217 225
211 221 232
210 219 229
204 214 222
205 215 224
210 220 231
205 215 225
207 215 223
207 216 226
198 209 216
97 124 75
96 124 74
96 124 75
96 123 74
97 124 74
91 118 70
96 123 73
94 121 72
91 118 70
99 126 76
95 123 74
95 122 73
97 124 74
98 125 76
97 125 75
95 122 73
97 125 76
99 125 80
128 149 124
136 156 136
144 161 142
158 174 164
166 180 171
171 184 178
193 203 204
191 202 204
203 213 220
205 214 220
140 158 137
97 124 74
100 127 76
95 122 73
97 125 75
98 125 75
96 123 73
98 125 75
92 119 71
99 127 76
99 127 76
97 125 75
95 123 74
94 121 72
95 122 73
95 122 73
93 120 72
96 124 75
95 123 74
96 123 73
98 126 75
97 124 75
91 118 71
95 123 74
98 125 75
96 125 76
97 125 75
118 141 105
200 211 218
206 217 227
206 214 222
205 215 223
208 218 228
208 218 226
207 216 225
201 212 220
207 216 225
207 217 225
207 217 226
205 215 223
202 212 220
207 218 228
209 218 227
206 215 223
201 211 220
201 211 219
200 210 218
200 210 215
203 213 223
210 219 228
209 217 225
211 221 233
206 216 225
203 214 223
178 191 190
99 127 77
99 126 76
99 126 76
98 126 75
96 124 74
96 123 75
94 122 73
97 124 74
97 125 75
95 122 73
97 125 75
96 124 75
97 124 74
94 122 73
98 125 75
98 126 76
95 123 74
95 123 73
97 124 74
93 120 73
96 123 74
100 128 77
95 122 73
98 125 76
97 125 75
175 188 186
203 213 219
199 210 217
201 211 219
208 218 225
203 213 222
210 219 229
208 217 225
205 214 223
202 212 221
202 212 220
208 218 230
203 213 222
207 217 228
206 216 227
209 218 228
204 214 222
203 213 222
192 204 210
202 212 220
213 222 233
204 214 223
200 211 218
201 211 217
184 196 196
98 125 75
98 125 75
94 121 72
103 130 86
114 136 107
131 151 125
138 156 136
146 163 153
150 165 151
173 186 182
186 198 198
187 197 199
201 211 217
202 212 220
205 214 221
204 214 221
207 216 226
203 213 222
199 209 217
203 213 221
202 212 219
205 214 221
188 200 202
98 124 77
96 124 75
96 124 74
94 121 73
96 124 75
95 122 74
98 126 76
97 125 76
100 127 76
99 126 76
93 120 72
104 130 85
206 216 226
204 214 223
208 218 229
198 209 218
209 219 230
201 212 222
205 215 223
205 215 224
197 207 215
206 216 226
202 212 221
200 211 219
211 219 228
206 214 223
183 195 196
147 165 155
99 125 79
96 123 73
96 123 73
95 122 73
94 122 73
96 123 74
99 126 75
98 126 76
97 125 75
98 125 75
94 121 73
179 191 191
212 221 232
205 215 225
195 206 214
211 220 231
205 215 223
200 210 220
211 220 228
209 218 227
203 214 224
200 210 219
204 214 224
209 219 229
204 214 222
208 218 228
209 219 228
204 215 225
203 214 223
202 213 222
202 211 218
197 207 213
210 219 228
200 211 219
205 214 223
214 223 234
207 217 227
203 213 222
202 212 220
178 191 188
97 124 75
99 126 76
96 124 75
94 122 74
95 122 74
98 126 75
98 125 75
125 145 119
158 174 165
183 196 200
203 214 223
203 213 221
202 212 221
207 217 226
213 223 235
200 211 219
205 215 225
203 214 224
204 214 223
216 224 234
204 213 223
204 215 226
204 214 223
199 209 217
210 219 229
205 214 222
204 215 224
202 212 221
168 181 176
94 121 73
92 120 72
97 125 75
99 127 76
95 122 73
98 125 74
99 127 76
97 124 75
93 120 71
94 121 72
99 127 76
97 124 75
95 122 73
98 126 76
96 123 73
96 124 75
95 122 72
98 125 76
95 122 73
95 123 74
93 121 72
95 123 74
98 126 76
97 125 76
99 127 76
94 121 73
99 126 76
101 129 78
109 132 96
209 219 228
201 211 217
204 214 222
206 215 224
204 214 223
204 214 223
198 209 216
204 214 222
203 215 226
204 213 223
209 219 229
207 215 223
202 212 220
203 212 219
206 216 224
210 219 228
205 215 226
206 216 224
177 190 189
152 168 155
114 136 106
96 123 74
95 122 73
93 120 72
99 126 76
96 123 74
97 125 75
97 124 75
96 124 74
143 161 144
206 215 223
209 218 228
197 207 213
208 217 225
212 221 230
208 217 225
201 210 217
204 213 222
214 222 231
210 219 227
204 213 220
203 213 222
204 214 223
207 216 225
201 211 218
202 212 220
210 219 228
205 215 224
200 211 221
206 215 222
205 214 220
204 212 220
194 205 213
202 211 220
202 212 220
209 219 229
204 214 223
203 213 220
203 213 222
127 149 123
94 122 73
100 128 77
97 125 75
100 128 77
94 121 72
97 124 74
98 125 76
97 124 74
95 122 73
99 127 76
100 128 77
98 125 75
97 125 75
96 123 74
97 124 74
95 123 74
94 122 73
98 125 76
97 125 75
95 122 73
97 125 75
95 122 73
96 124 74
93 121 72
94 121 72
96 123 74
98 125 75
99 126 76
156 172 160
201 211 219
207 216 226
206 215 224
206 216 224
212 221 231
203 213 220
208 219 229
204 213 220
196 208 219
206 216 226
205 215 223
203 213 222
200 210 219
206 216 225
209 218 229
204 214 223
207 216 225
199 210 221
203 213 223
202 212 221
203 212 221
206 216 224
205 215 222
209 218 227
206 216 227
206 216 227
205 215 225
206 215 223
154 170 158
97 124 74
98 125 75
98 126 76
99 126 75
99 127 77
94 122 73
94 122 73
95 122 73
96 123 74
96 123 74
95 122 73
96 123 73
97 124 75
98 125 74
95 122 73
94 122 73
98 126 76
100 128 77
99 126 76
99 126 76
98 126 75
98 125 75
97 125 75
97 125 75
96 123 73
96 123 74
98 126 76
119 141 109
192 203 207
195 206 212
194 205 207
170 183 178
159 174 165
148 165 152
141 159 140
143 160 143
125 144 121
123 145 114
108 133 91
98 124 77
93 121 73
96 124 74
96 124 74
96 124 74
97 125 75
94 121 71
99 126 75
96 124 75
99 127 76
95 122 73
95 122 73
97 124 74
94 121 72
94 121 72
99 127 76
153 169 156
208 218 228
199 209 217
207 217 226
208 217 225
207 216 226
210 219 229
197 208 216
209 218 227
204 213 222
198 210 219
202 212 220
201 211 220
196 207 214
201 211 219
201 211 220
208 216 224
209 218 227
205 215 225
207 217 227
201 212 221
201 211 219
208 217 227
204 214 222
206 215 222
204 213 220
202 212 221
124 145 114
93 120 72
98 125 75
97 125 74
95 122 73
99 126 76
98 125 75
97 125 75
92 120 72
100 128 77
98 125 75
96 123 74
96 124 74
98 125 75
94 121 73
95 123 73
97 125 75
96 123 74
96 123 74
96 123 74
96 123 74
95 123 74
99 126 76
91 117 70
98 126 75
132 150 129
204 214 224
209 219 229
206 216 225
204 214 222
201 210 216
204 214 225
203 214 225
207 217 227
196 206 210
205 215 226
204 213 221
209 219 229
204 214 224
202 214 223
205 214 222
206 216 226
211 220 229
203 213 221
196 207 212
188 200 202
174 188 184
177 191 191
168 182 177
158 172 162
180 192 191
179 192 193
189 201 206
202 212 219
203 213 219
206 216 225
206 216 225
209 218 229
208 217 225
203 214 224
206 216 225
211 220 231
204 215 223
210 220 230
207 217 227
208 218 228
194 205 213
210 219 228
213 222 233
205 214 222
212 221 231
199 209 216
198 209 218
126 147 120
97 124 75
97 124 75
97 125 75
95 123 74
97 124 74
99 126 75
97 124 74
99 127 76
95 122 72
95 122 73
95 122 73
97 124 74
194 205 211
204 215 224
205 215 222
208 218 229
204 214 222
208 218 227
211 220 230
207 216 225
206 215 222
203 213 220
211 221 231
207 216 225
210 219 227
208 217 227
202 212 219
207 216 225
198 209 217
171 184 180
123 144 114
95 122 73
95 122 73
96 123 74
97 125 75
96 123 74
93 120 72
96 123 74
95 122 73
184 195 194
202 212 221
205 215 225
192 203 210
204 214 223
200 210 216
213 222 234
200 210 217
212 220 230
207 217 226
205 215 224
207 216 227
209 218 227
212 222 232
211 220 230
207 216 225
204 214 223
205 215 224
205 216 227
206 216 226
203 212 219
202 212 222
202 212 220
210 218 227
210 219 227
209 218 228
200 210 218
205 214 223
179 191 189
95 122 73
96 123 74
97 125 76
99 126 76
95 122 73
94 121 72
99 127 76
96 124 74
95 122 72
99 126 79
119 141 114
153 169 162
197 207 215
203 212 220
209 218 228
205 215 223
198 209 217
206 216 225
204 214 224
208 217 228
191 203 210
199 209 218
202 212 220
202 212 219
203 212 220
204 214 222
202 213 223
207 217 227
158 174 164
95 122 73
92 119 71
95 122 74
96 124 75
97 125 75
93 121 73
95 123 73
97 125 75
98 126 76
95 122 73
94 121 73
96 124 75
95 122 74
97 125 75
97 124 74
98 125 75
97 125 75
99 127 76
98 125 76
95 123 74
98 126 76
97 124 74
96 123 74
93 120 72
96 123 74
97 124 74
94 121 72
97 125 75
130 149 127
207 217 227
208 217 225
207 217 225
210 220 232
203 213 222
204 214 223
211 219 227
203 213 222
211 220 230
206 215 223
210 219 230
210 219 229
208 218 226
210 218 227
203 213 222
204 214 223
209 218 226
200 210 219
211 220 230
200 211 220
208 217 226
202 212 218
180 192 194
152 168 156
117 138 109
97 125 75
97 124 74
96 123 73
97 124 74
179 192 190
210 219 228
213 221 230
213 222 231
204 214 224
210 219 228
203 214 222
208 217 224
205 215 224
205 214 222
205 216 227
209 218 228
203 212 219
204 214 225
203 213 221
210 218 227
201 211 221
203 214 222
206 215 223
207 217 226
203 212 221
202 212 220
212 221 230
206 216 224
201 211 219
210 220 230
203 214 223
204 214 223
205 214 222
192 203 209
93 120 72
98 126 76
97 124 74
93 120 72
97 125 75
95 123 73
100 127 75
94 121 72
99 126 76
94 121 72
96 123 73
98 126 76
95 122 74
97 125 75
99 127 76
95 122 73
100 128 78
97 124 74
97 124 75
93 120 71
97 124 75
93 120 71
95 123 73
96 123 73
97 125 75
95 122 73
95 122 73
97 124 74
97 124 74
186 199 204
204 213 221
206 215 224
203 213 221
202 212 221
202 213 221
201 210 215
194 205 212
201 211 219
206 216 225
203 214 225
204 214 222
200 210 217
210 219 228
207 216 225
203 213 221
203 213 224
202 211 219
204 214 223
198 208 214
211 220 230
207 217 227
207 216 225
205 214 223
203 214 225
204 215 226
207 217 227
200 210 218
203 212 217
119 142 108
94 121 72
97 124 75
96 124 75
96 124 75
94 121 72
99 127 76
95 123 74
93 121 73
98 126 76
97 125 76
98 125 75
96 123 74
99 127 77
95 123 74
95 122 73
95 122 73
96 123 74
99 127 77
94 121 72
96 124 75
97 125 75
94 121 72
96 123 74
96 123 74
95 122 72
95 123 74
97 125 75
164 179 170
198 208 216
204 214 221
204 213 221
200 211 218
207 217 227
201 210 217
198 208 215
199 209 217
206 216 225
206 216 224
198 208 215
204 214 222
204 214 222
189 200 204
187 199 203
188 200 203
179 192 192
178 191 192
164 179 170
168 182 174
156 173 162
157 172 162
147 165 151
135 154 137
118 140 110
115 138 106
117 139 106
193 204 207
195 206 213
208 218 227
199 209 217
198 209 216
202 211 218
210 219 228
211 220 230
204 214 223
200 209 216
206 215 225
205 215 224
198 209 220
200 210 219
209 219 229
206 216 227
212 220 230
207 217 225
203 213 223
209 219 229
205 216 227
199 209 216
203 213 222
204 214 224
206 217 228
196 208 217
180 193 192
99 127 77
96 124 74
96 123 73
95 123 73
94 121 73
97 124 75
95 123 74
94 121 73
95 123 74
95 122 73
97 125 74
97 124 75
99 127 77
96 122 73
96 124 74
95 122 73
96 124 74
97 125 75
94 122 74
96 123 74
99 127 76
98 125 76
94 121 72
95 123 73
102 128 86
186 198 202
204 213 220
198 208 215
196 207 211
184 198 200
186 198 200
198 207 212
174 187 185
171 184 179
168 182 176
158 173 162
157 173 162
137 157 139
144 163 146
119 140 108
109 134 96
109 135 97
99 126 78
98 126 77
95 122 74
94 120 71
98 125 75
97 125 75
93 120 72
168 181 177
206 216 224
196 207 215
203 213 221
207 217 225
202 212 218
206 216 225
206 216 224
210 219 227
202 211 219
206 216 225
201 211 218
201 212 221
199 210 218
207 216 224
201 211 221
208 218 227
210 218 227
203 213 220
200 211 217
205 215 225
209 218 228
198 208 216
161 176 168
95 122 73
99 127 76
97 124 74
98 126 76
96 123 73
98 126 76
97 125 75
97 124 74
95 123 74
96 123 74
97 125 74
95 123 74
97 124 75
190 202 205
203 213 223
210 219 229
208 218 227
199 209 217
203 213 221
209 218 227
206 215 225
206 215 222
209 218 228
204 215 225
210 219 229
205 215 224
202 213 222
208 217 224
209 219 229
204 214 223
201 211 221
205 215 224
190 201 204
151 167 156
109 132 97
95 122 72
93 120 71
95 123 74
98 125 74
98 125 75
163 178 172
206 216 225
206 216 227
204 214 221
206 216 225
208 218 228
203 213 221
200 210 219
206 216 225
204 214 223
210 220 231
199 209 216
210 220 232
211 220 231
198 209 217
210 219 227
199 210 218
211 220 229
210 218 227
206 216 224
201 211 219
204 213 222
206 217 227
201 211 221
211 220 230
206 214 220
203 212 218
201 211 219
176 189 185
95 122 73
97 124 74
95 122 74
96 124 75
98 126 76
97 124 74
97 124 74
98 126 75
99 126 76
96 123 74
98 126 77
98 125 75
97 124 76
130 151 128
179 191 191
203 213 219
203 213 222
208 216 224
204 215 224
206 216 227
204 214 224
208 217 226
203 213 221
211 221 231
202 212 221
207 217 225
208 217 226
204 214 223
139 157 140
94 121 73
95 123 73
97 124 74
94 121 73
98 125 75
96 123 74
97 124 74
95 122 73
98 126 76
95 123 74
98 126 75
96 124 75
99 126 76
95 122 73
100 128 77
96 123 74
94 122 73
94 121 72
91 118 71
97 125 75
97 124 74
93 120 72
97 124 74
97 124 74
96 123 74
96 123 73
96 123 73
99 126 76
136 155 136
202 212 220
204 213 222
206 216 226
202 212 220
201 212 219
210 220 230
204 214 223
210 219 227
203 213 222
210 220 231
202 212 219
206 215 224
209 217 227
210 218 227
208 217 227
199 210 219
205 214 222
201 210 217
211 220 230
203 214 223
206 216 224
196 208 216
204 214 223
198 208 216
202 213 222
201 211 216
157 172 163
155 171 159
121 143 110
192 204 208
206 216 226
213 222 231
209 218 227
200 210 218
200 210 217
203 212 220
205 215 224
204 214 223
209 218 226
206 215 224
200 210 217
199 209 219
208 216 225
210 219 228
205 215 224
207 216 226
208 218 227
197 208 216
204 214 221
209 219 228
213 221 231
205 214 223
206 215 224
199 211 222
197 208 216
209 218 225
208 218 227
202 212 220
181 193 193
97 124 75
92 119 71
95 122 73
94 121 72
96 123 73
96 124 75
101 128 77
96 124 74
94 121 72
97 124 74
95 122 73
100 127 76
96 123 74
97 124 75
96 124 74
97 125 75
98 126 76
96 123 73
98 126 76
94 122 73
94 121 73
95 122 73
96 124 74
95 123 74
99 127 77
95 122 73
96 124 74
100 128 77
110 133 97
202 212 222
203 213 221
206 216 227
215 224 234
204 214 222
202 212 221
205 216 225
197 208 215
205 215 223
199 210 219
204 214 222
206 216 224
212 220 230
205 215 225
202 212 219
202 212 220
203 213 222
198 208 217
205 214 221
207 217 227
202 212 219
209 218 228
203 214 224
203 213 222
200 210 217
204 213 219
200 211 222
210 219 230
192 203 209
96 124 75
95 123 73
96 122 73
98 125 75
95 122 73
95 122 73
96 123 74
98 126 76
93 120 72
95 122 74
97 124 74
95 122 73
93 119 71
99 126 75
95 122 73
96 124 75
95 122 74
99 127 76
95 123 74
100 127 76
98 126 75
95 122 73
95 122 73
94 121 72
98 125 75
97 125 76
95 122 73
107 132 93
189 201 207
206 216 224
209 218 227
211 220 229
207 216 225
209 219 227
199 210 220
203 214 223
204 213 220
206 217 229
206 216 225
206 215 224
203 213 222
205 215 225
202 213 223
207 216 224
203 212 219
203 212 220
209 219 229
203 213 220
205 215 223
206 216 224
201 211 219
208 217 226
202 212 220
205 215 224
209 218 228
173 186 183
95 123 73
96 123 74
99 125 78
100 126 81
109 133 95
120 142 113
119 140 111
130 150 126
119 140 110
131 149 130
133 152 128
138 157 134
146 163 146
153 169 155
142 160 141
146 163 149
161 176 165
140 158 140
142 159 145
161 177 171
157 173 165
144 162 147
170 184 176
162 176 170
163 178 172
168 182 177
176 190 187
153 170 156
153 170 158
163 179 174
150 166 154
162 177 170
161 176 168
165 180 175
159 174 166
169 182 178
158 173 164
162 177 170
165 180 173
173 186 182
177 190 191
178 192 191
169 183 178
175 188 187
184 197 200
193 204 207
192 203 207
184 196 199
196 207 211
196 207 214
205 214 222
156 171 159
96 123 73
99 127 77
97 124 74
94 121 73
97 125 76
97 125 75
97 125 75
97 125 75
95 122 73
95 122 73
98 126 77
97 124 75
97 125 75
97 125 74
95 122 73
96 123 74
94 121 72
98 126 75
96 123 73
96 124 75
95 123 74
98 125 76
99 127 77
129 150 128
207 217 226
207 217 226
209 219 231
205 215 223
210 219 229
208 217 226
208 217 226
209 219 229
206 216 224
204 214 223
206 215 224
208 218 229
202 211 219
207 216 223
201 212 220
206 215 223
211 219 228
205 215 223
204 213 220
204 215 226
209 217 225
204 214 223
180 193 194
96 123 73
96 124 75
93 120 72
98 125 76
95 123 74
98 125 75
101 128 77
96 123 74
94 122 73
95 122 73
98 125 75
98 125 75
98 125 76
97 124 75
168 183 178
204 214 223
198 207 213
202 213 222
204 214 223
201 211 220
201 211 219
199 208 217
199 210 218
207 216 225
204 214 224
203 213 221
204 213 221
196 207 213
203 213 221
211 221 232
203 213 222
210 220 231
203 214 223
200 211 219
201 211 219
200 210 218
179 192 194
132 152 130
101 128 79
98 125 75
92 119 71
164 178 176
208 217 225
200 211 218
202 213 225
208 218 227
208 217 228
211 221 231
206 216 226
204 214 223
200 210 216
206 216 224
200 211 219
203 213 221
205 214 222
205 215 223
200 211 221
206 216 226
205 214 222
210 219 228
209 218 229
208 216 225
196 206 213
211 220 231
210 219 228
208 218 229
207 216 224
208 218 227
206 216 225
166 181 176
96 124 74
98 126 75
98 125 75
95 122 73
96 123 74
96 124 75
97 124 74
97 125 75
96 124 74
97 124 74
98 125 75
97 125 75
96 124 74
99 126 76
94 121 73
97 125 75
148 165 147
178 190 187
189 200 205
206 215 224
208 217 226
208 217 226
206 216 226
204 214 222
206 216 226
203 213 222
201 211 220
203 213 221
146 164 148
95 122 74
92 119 71
98 125 75
96 124 74
98 125 75
100 128 77
93 120 72
97 124 74
96 123 74
98 125 75
94 122 73
96 124 74
97 124 74
99 127 76
96 122 73
96 124 75
99 127 76
93 121 71
96 123 73
98 125 75
93 120 72
95 122 73
93 121 73
99 127 76
97 125 75
96 123 74
91 118 71
95 123 74
158 174 163
202 212 220
209 220 232
201 211 219
209 218 228
207 216 224
213 223 233
211 220 230
210 218 227
202 212 218
204 214 223
210 220 233
205 216 225
206 216 225
204 213 221
207 216 224
203 213 222
209 219 230
205 215 225
203 213 221
205 214 222
194 206 213
205 215 225
206 216 225
210 219 228
202 212 221
204 214 222
207 217 227
209 217 225
202 213 222
120 142 110
152 167 154
174 188 185
187 199 204
197 208 216
203 213 222
195 205 212
213 222 231
205 214 220
203 213 221
204 215 225
206 216 225
195 207 215
209 218 227
200 210 216
209 219 228
205 215 223
208 218 226
208 218 228
212 221 232
205 215 224
202 213 221
207 216 225
210 218 226
206 216 224
206 215 225
206 216 225
209 218 227
195 206 214
145 162 145
98 126 76
94 122 74
97 124 74
98 126 76
96 123 74
97 125 75
96 123 73
95 122 74
97 124 74
99 126 76
93 120 72
100 127 77
98 125 75
98 126 76
95 122 73
93 120 72
95 122 73
96 123 74
98 125 75
97 124 74
95 122 73
94 121 72
96 123 74
95 122 73
99 127 77
99 127 77
96 124 75
96 124 74
150 166 155
203 213 222
211 221 230
205 214 222
205 215 224
208 218 227
206 216 225
205 215 226
201 211 220
209 218 229
205 215 225
206 216 224
204 213 220
203 212 221
211 220 231
203 213 222
204 213 221
198 208 214
209 219 228
208 217 227
199 210 219
203 212 218
204 213 220
204 215 226
201 211 219
207 217 225
209 218 227
210 218 226
202 212 220
148 165 149
99 127 76
95 122 73
97 124 74
98 125 75
94 121 73
97 124 74
94 122 73
96 123 73
96 124 75
97 125 75
97 125 76
97 124 74
96 124 74
95 123 74
95 123 73
98 126 75
94 121 72
97 124 75
97 125 75
98 126 76
98 125 74
96 124 75
94 121 72
98 125 75
99 127 77
100 127 76
94 122 73
141 160 142
208 217 224
208 217 225
204 213 221
198 208 215
205 215 223
207 217 227
209 219 229
195 206 213
204 214 223
202 212 223
196 207 216
210 220 230
202 213 223
201 212 220
209 218 228
203 212 220
206 216 226
206 215 223
206 215 225
210 219 229
197 207 213
206 216 226
212 221 230
202 212 219
206 215 225
203 213 221
196 206 212
104 131 85
95 122 73
97 125 75
97 125 75
99 126 75
96 123 74
97 125 75
99 127 76
98 125 75
94 122 73
95 123 73
95 122 73
96 124 74
96 123 74
96 124 74
94 121 72
98 125 75
95 123 74
94 121 72
99 127 76
97 125 75
98 126 76
95 123 74
96 124 75
96 124 74
93 120 72
158 173 165
204 215 225
203 214 223
206 215 225
198 209 216
193 205 213
206 215 225
207 216 224
203 212 220
205 215 224
202 212 221
206 215 222
209 218 228
202 213 223
209 218 229
209 219 229
205 216 227
195 207 216
205 214 222
205 215 224
205 215 224
201 211 218
200 211 220
205 215 224
204 213 220
194 204 211
107 131 91
96 123 74
93 120 72
96 124 75
99 127 76
94 122 72
93 120 72
96 123 74
96 123 75
92 119 71
99 127 77
99 126 76
93 120 72
98 126 75
97 125 76
98 125 75
97 125 75
92 120 72
98 125 75
99 126 76
96 123 74
99 127 76
96 124 75
100 126 78
196 207 213
204 214 222
210 219 229
198 208 217
207 217 226
206 216 226
201 212 222
201 212 220
192 203 210
205 215 225
203 212 221
211 219 227
211 220 231
201 211 220
208 218 228
204 215 225
209 219 228
198 209 217
203 213 222
209 219 229
202 212 222
201 211 220
203 213 220
102 127 83
96 124 74
95 122 73
98 125 75
94 120 71
97 124 74
97 125 76
97 124 74
97 125 75
96 123 74
95 122 73
98 126 76
100 127 77
97 125 75
96 124 74
165 180 174
209 219 230
200 210 217
206 215 226
199 209 217
209 219 229
200 210 219
205 215 223
201 212 222
205 215 223
206 215 223
200 210 217
206 215 223
204 215 225
201 211 221
212 221 232
206 217 227
206 217 228
201 211 218
202 212 222
210 219 229
202 213 221
204 214 221
199 209 218
190 202 205
164 178 172
105 129 90
145 163 151
205 215 225
205 214 222
204 214 221
209 218 227
203 213 221
207 217 225
196 206 214
194 205 212
210 218 227
208 217 226
202 212 220
203 214 223
202 213 225
204 214 224
208 218 227
196 207 214
201 211 220
204 214 223
205 216 227
200 210 217
204 213 221
205 214 222
205 214 222
209 218 228
206 216 225
205 214 221
202 212 219
170 184 178
100 127 76
96 123 74
100 128 77
94 121 72
95 122 73
92 119 71
96 123 74
95 122 74
96 123 74
97 124 74
95 122 73
95 123 74
95 122 72
97 124 74
97 124 74
97 124 74
99 126 75
95 122 73
97 124 79
141 159 141
176 189 184
198 209 216
200 211 220
205 215 226
199 210 219
216 224 233
201 212 221
205 215 224
141 160 143
93 120 72
95 123 73
91 118 70
95 122 73
98 126 76
96 124 74
99 126 76
96 123 74
98 125 75
95 123 73
95 122 73
96 123 74
97 124 74
96 123 74
97 124 74
99 127 76
97 124 74
98 126 76
98 126 76
96 123 74
94 121 72
96 123 74
100 128 77
97 124 74
94 121 72
96 123 73
97 124 74
98 125 76
170 183 180
213 222 231
209 219 230
200 210 219
202 213 222
204 214 221
200 210 217
206 217 227
207 217 228
206 216 225
208 217 227
209 219 229
210 219 228
202 213 223
195 205 213
211 220 230
201 212 220
204 214 224
205 215 224
197 208 214
204 214 224
196 207 216
204 214 222
199 210 219
205 215 224
207 216 226
207 217 225
199 210 220
202 212 220
189 200 201
95 122 73
95 122 73
98 126 75
98 125 74
109 133 95
143 160 143
176 189 186
184 196 196
200 211 220
208 217 228
209 219 229
205 215 225
206 217 227
204 214 222
204 213 220
201 211 220
196 207 215
202 212 219
204 213 222
206 215 223
203 214 223
200 211 221
207 217 227
211 220 230
197 208 217
201 211 218
211 220 229
201 211 220
204 213 220
126 147 118
98 126 76
97 124 74
98 125 76
96 123 74
97 125 75
96 123 74
96 123 74
95 122 73
97 124 75
100 128 78
95 123 73
96 123 74
96 123 73
97 125 75
96 124 74
94 122 73
97 124 75
96 123 74
95 122 73
97 125 76
95 122 73
96 123 74
97 124 75
98 126 75
94 121 72
98 126 75
92 119 70
97 125 75
185 197 200
199 209 217
204 213 221
204 214 224
208 217 227
210 219 229
207 216 224
199 209 218
204 214 221
209 219 229
203 213 221
204 214 224
209 218 226
207 217 225
204 214 223
207 216 224
200 211 218
205 215 225
202 212 221
206 216 225
202 213 223
206 216 225
207 217 226
205 215 225
203 214 224
202 213 222
206 215 224
212 221 231
203 213 223
109 132 95
99 127 76
93 121 72
96 123 74
97 125 75
98 125 75
94 121 72
92 120 72
96 124 74
97 124 74
95 122 73
93 121 72
96 124 75
95 122 72
97 124 75
96 124 74
95 122 73
97 125 75
97 124 74
98 125 76
96 123 74
97 124 74
94 121 72
100 128 76
95 122 73
96 124 74
96 123 74
93 121 72
181 193 193
208 217 226
207 216 223
196 207 215
206 215 221
201 211 218
201 210 217
202 212 220
208 217 227
204 213 220
210 219 228
205 215 225
200 211 219
209 219 228
205 214 223
206 215 223
200 210 216
199 209 217
199 209 217
205 214 223
206 216 226
203 214 223
208 218 228
203 213 223
211 220 228
199 209 219
207 216 226
160 176 166
96 123 73
98 125 74
100 128 78
98 125 75
99 126 75
95 123 74
96 123 74
97 125 75
96 123 74
96 123 73
97 125 75
96 123 73
96 124 75
95 122 72
95 122 73
95 123 74
99 127 76
96 123 74
97 124 75
93 120 73
99 126 76
98 125 75
93 120 72
96 124 74
97 124 75
116 139 102
202 212 219
204 214 223
210 219 229
203 213 222
207 216 226
204 215 224
198 209 218
209 218 227
208 218 227
197 209 216
200 210 217
198 208 216
208 217 225
204 215 226
208 216 224
201 211 221
210 219 227
206 215 224
209 218 227
207 215 224
208 217 227
202 212 221
206 216 225
214 222 232
207 217 225
151 167 155
98 125 75
97 125 75
96 124 74
97 125 75
98 126 75
97 125 76
92 119 71
93 119 71
94 121 73
96 123 74
93 120 72
99 126 76
95 122 74
96 124 75
98 125 75
95 122 73
96 124 75
96 123 74
97 124 75
94 121 72
97 124 74
97 124 74
100 128 77
165 179 173
200 210 218
208 218 228
201 211 220
204 213 222
209 218 229
203 213 221
202 212 219
204 214 222
202 212 219
203 214 224
200 211 219
200 210 219
204 214 222
208 216 224
205 215 224
198 208 217
204 214 223
209 219 228
202 212 221
203 213 221
209 218 228
202 211 218
144 162 147
97 124 74
95 122 74
96 124 74
97 124 74
97 125 75
100 128 77
96 123 73
97 124 74
98 125 75
98 125 75
97 124 75
96 123 73
95 122 73
95 122 73
97 124 75
151 166 154
201 211 220
211 220 229
208 218 228
205 214 221
205 215 224
205 214 223
204 213 222
199 209 219
201 211 220
205 215 223
202 211 218
206 215 223
201 211 220
210 220 229
211 220 229
207 217 226
208 217 225
203 213 222
205 215 224
207 217 226
194 206 212
215 223 231
208 218 229
204 214 224
205 215 224
197 207 212
178 190 185
181 193 195
205 215 225
203 213 223
202 212 218
203 213 222
202 213 222
209 217 226
206 215 223
207 217 226
206 216 225
201 211 219
205 216 227
211 220 230
210 219 228
208 218 226
198 209 218
206 216 227
208 217 227
208 218 228
206 216 227
209 218 228
210 219 228
204 215 227
205 214 222
205 215 222
205 215 224
208 218 227
177 190 186
96 123 74
97 124 75
92 118 70
97 124 75
94 121 73
95 123 74
95 122 73
95 122 73
96 123 74
93 120 71
96 124 74
98 126 76
95 122 74
94 121 73
94 121 73
97 124 74
96 123 74
92 119 70
94 121 72
96 123 74
96 124 74
97 124 74
131 151 125
174 187 185
192 203 208
205 215 224
200 211 219
203 213 222
126 148 118
98 125 75
92 120 71
96 123 74
99 127 76
98 125 76
94 122 73
100 127 76
100 128 77
95 122 73
95 123 74
97 125 75
99 127 77
96 124 74
94 121 72
93 120 72
98 126 76
100 128 77
95 122 72
97 124 74
96 123 73
96 123 74
100 128 77
97 124 75
97 125 75
97 125 75
96 123 74
92 120 71
97 124 75
188 199 200
202 212 220
206 216 226
205 214 222
207 217 226
208 217 225
209 218 227
197 208 216
202 213 222
208 217 226
210 219 230
206 217 229
203 213 223
200 210 220
206 216 226
207 217 226
206 215 224
203 214 224
207 217 227
201 211 218
206 215 222
202 212 221
201 211 218
205 215 224
210 219 227
202 212 221
208 218 227
197 207 216
208 218 229
167 182 176
98 126 75
96 123 73
97 125 75
100 128 77
101 129 78
98 125 75
96 123 74
97 125 75
112 137 99
137 156 134
162 178 170
187 199 201
207 217 226
203 213 220
210 219 228
200 212 222
209 219 228
199 209 216
205 216 226
207 216 227
210 220 230
203 212 220
198 208 217
203 214 223
205 214 223
202 213 224
204 213 220
207 216 225
187 199 203
95 123 73
96 123 73
97 125 74
96 124 75
96 123 74
95 122 73
94 121 72
94 121 72
97 125 75
96 123 73
98 126 76
92 120 72
96 124 74
94 122 73
99 127 77
96 123 75
96 123 74
97 124 74
96 123 74
98 125 75
92 119 71
94 122 74
96 124 74
96 123 74
96 124 74
95 122 73
97 125 75
95 122 73
108 133 91
207 217 226
206 215 224
203 212 221
202 212 222
199 210 217
205 215 222
206 215 224
208 218 228
204 214 223
200 211 220
207 216 223
206 216 224
203 214 225
206 216 225
207 217 224
205 216 226
210 220 230
197 209 220
205 215 225
203 213 221
207 216 225
204 214 221
206 217 227
200 209 216
204 214 223
209 219 228
207 217 226
210 219 229
175 188 186
95 122 73
94 121 72
97 124 75
93 120 72
99 127 77
94 122 73
98 126 76
97 124 75
95 123 73
97 124 75
93 120 71
97 125 75
92 119 71
97 125 74
96 124 74
96 123 74
92 119 70
94 121 73
93 120 72
95 123 74
98 125 75
99 127 76
96 124 74
98 125 75
96 124 74
94 121 72
95 122 73
148 165 150
202 212 221
203 214 225
206 215 224
201 210 217
204 213 222
204 214 223
196 207 214
205 214 223
206 216 226
201 211 218
202 212 221
204 214 222
203 213 223
204 214 225
210 220 231
197 207 214
207 216 225
195 206 213
208 217 226
197 208 217
197 207 214
207 216 225
207 216 225
209 218 227
207 216 225
200 211 219
203 214 224
105 130 88
98 125 74
95 123 74
93 120 72
95 121 72
97 125 76
98 125 76
97 124 74
96 123 74
96 124 75
93 120 72
97 125 75
93 120 71
94 122 73
95 123 74
98 125 75
98 125 75
98 125 75
96 123 73
96 122 73
92 119 71
93 121 72
97 124 75
98 126 76
96 122 73
96 123 74
174 187 184
203 213 222
202 212 221
200 210 219
205 215 225
203 213 222
207 216 224
200 211 219
198 209 218
201 210 217
201 211 219
200 210 218
202 212 219
200 210 216
197 207 214
206 215 224
201 212 220
208 217 227
202 212 221
199 209 215
207 216 224
197 209 217
203 213 222
201 211 218
193 204 208
169 183 180
99 127 76
98 125 75
94 121 73
96 123 74
98 125 75
98 126 76
97 125 75
99 127 76
99 126 75
100 128 77
96 124 75
96 124 74
97 124 74
99 127 77
96 124 74
96 124 75
96 124 75
96 124 74
95 122 72
95 122 73
94 121 73
97 124 74
95 122 73
114 137 103
205 214 221
201 211 220
204 215 226
211 220 228
205 214 223
207 217 227
202 213 223
200 210 218
204 214 223
207 217 227
203 213 221
205 215 223
196 207 216
195 206 213
205 215 223
208 218 226
204 214 222
199 210 218
204 214 223
207 216 223
209 219 229
202 211 217
169 182 176
95 122 73
97 124 74
98 125 74
93 121 72
96 124 74
98 125 75
94 121 72
95 123 73
96 124 74
94 121 73
96 124 75
95 122 73
99 127 76
100 128 77
97 125 75
97 125 75
123 146 115
206 215 225
206 216 224
198 208 214
202 213 223
207 216 224
201 212 222
207 217 226
208 218 227
198 209 217
199 209 217
202 212 222
201 211 220
205 215 226
205 215 225
207 217 227
199 210 220
205 214 223
202 212 219
201 211 220
201 212 221
198 209 216
195 206 213
207 217 226
208 217 227
206 216 225
208 217 226
187 198 199
98 124 74
119 140 108
167 182 174
198 208 212
204 213 220
205 214 222
207 217 227
209 219 229
212 220 229
210 219 228
207 217 227
210 219 228
209 219 228
206 216 225
206 215 221
207 216 224
207 218 231
197 209 220
207 216 225
208 218 228
206 217 227
209 219 228
207 216 225
203 214 224
209 217 225
201 211 217
207 216 224
163 178 170
96 123 73
97 125 75
94 122 73
93 121 73
99 126 75
94 121 73
99 126 76
99 127 77
96 124 75
95 122 73
91 118 70
96 123 74
96 123 73
93 120 72
96 123 73
94 122 73
94 121 72
93 120 72
98 126 76
97 124 74
94 120 72
98 126 76
98 126 76
97 124 75
96 123 76
134 152 130
165 180 173
197 208 212
121 144 114
93 120 71
95 123 74
97 124 75
98 126 76
96 124 74
97 125 75
93 120 72
94 121 71
96 123 74
94 121 72
94 122 73
96 123 74
95 122 73
95 122 72
94 122 73
98 126 76
93 120 71
98 126 76
96 124 74
97 124 74
92 119 72
96 123 74
97 125 75
97 124 75
95 123 74
96 123 74
96 123 74
95 123 74
196 207 213
207 217 226
209 219 230
211 219 228
207 216 225
209 218 227
199 210 220
207 216 226
204 214 223
200 210 216
208 217 226
205 215 225
199 211 220
208 218 227
207 217 225
204 214 222
210 219 229
200 210 218
208 217 225
210 219 230
204 214 221
197 207 214
207 217 228
195 206 212
205 215 224
209 218 226
206 215 223
200 210 217
205 215 225
146 164 149
99 127 77
97 125 75
96 123 74
96 123 73
97 124 75
96 123 74
97 123 73
98 125 75
97 125 75
97 124 74
98 125 76
98 125 76
98 124 81
131 151 129
165 180 174
182 195 196
190 201 205
210 219 227
205 215 225
204 214 223
192 202 209
204 215 226
208 217 228
204 215 225
199 209 218
211 220 229
202 212 219
210 220 230
167 181 176
96 123 74
95 121 72
95 122 73
94 121 73
93 120 71
95 122 73
99 126 75
93 120 72
95 123 74
97 124 74
96 124 74
97 124 75
98 125 75
99 127 76
95 122 73
95 123 73
96 123 74
100 128 77
96 124 75
94 121 71
95 123 74
93 120 71
95 122 73
96 123 74
93 120 71
97 125 75
92 119 71
98 125 74
143 161 144
207 217 226
205 215 226
205 215 224
196 207 215
207 216 224
205 215 225
205 215 225
207 217 228
210 219 229
202 212 220
211 220 229
203 213 221
205 215 223
207 216 224
205 214 223
208 217 227
207 217 225
209 219 229
208 218 227
207 217 226
204 214 223
201 211 220
206 217 226
205 214 223
201 211 221
206 216 227
201 211 219
204 214 222
126 146 120
96 123 74
96 123 74
98 125 75
95 122 73
92 119 71
93 119 71
94 121 73
95 123 74
100 127 77
96 124 75
99 126 76
99 126 76
95 122 73
93 121 72
94 122 73
98 125 75
96 124 74
96 124 74
98 125 75
97 124 75
98 126 75
96 124 74
98 126 76
98 125 75
97 125 75
97 125 75
96 124 74
177 189 187
205 215 225
203 213 221
200 211 220
206 215 224
199 210 218
200 210 218
204 213 222
206 216 226
207 217 226
206 215 222
206 215 222
204 213 220
205 215 224
202 212 220
205 215 223
209 218 227
197 208 218
199 210 219
206 215 224
206 216 225
209 218 227
202 212 220
208 217 227
206 216 224
203 213 224
206 216 224
172 186 183
94 122 72
94 122 73
97 125 75
94 122 73
95 122 73
96 123 74
95 122 73
97 125 74
98 126 76
98 125 75
98 126 76
93 121 72
94 122 73
95 123 73
98 126 76
99 126 76
98 125 75
97 125 75
91 118 70
94 121 72
94 121 73
97 124 74
94 121 73
97 123 73
89 116 69
111 135 99
206 215 223
204 214 222
208 217 227
200 210 216
193 204 210
211 220 231
202 211 218
206 215 223
205 214 222
197 208 216
198 209 215
203 211 216
205 215 225
203 213 223
196 207 216
212 221 231
201 211 218
206 215 225
208 218 228
198 208 214
205 215 223
208 217 225
202 212 220
207 217 226
201 211 218
113 136 101
95 122 73
92 119 71
98 125 74
97 125 74
97 124 74
95 123 73
97 124 75
99 126 75
96 123 73
95 122 72
98 125 74
94 121 72
97 124 75
100 128 77
96 123 73
92 119 71
96 123 74
99 126 76
95 122 73
97 125 75
95 122 73
93 121 72
105 130 88
191 202 205
211 221 231
201 210 220
205 214 223
202 212 221
198 208 218
211 220 229
207 217 226
201 211 219
209 218 227
210 220 230
206 216 224
202 212 219
208 218 228
205 215 225
205 214 222
196 207 214
198 209 214
205 215 224
210 219 230
200 211 218
201 211 220
191 203 207
95 121 75
97 125 75
96 123 74
95 123 73
94 122 74
97 124 74
95 123 73
96 123 74
95 123 74
94 122 72
96 123 73
111 133 98
97 125 75
95 122 73
96 123 73
95 122 74
92 119 71
100 127 81
198 208 215
208 217 226
206 214 221
206 215 223
210 218 226
206 215 224
206 215 224
204 214 222
207 217 226
203 213 221
199 210 218
205 215 225
200 212 223
205 215 226
210 219 230
201 211 219
202 212 221
202 212 220
203 213 221
202 212 221
208 217 225
209 219 227
206 216 226
205 213 221
203 213 221
203 213 223
193 204 209
97 125 75
96 123 73
97 124 74
95 122 73
134 153 135
176 189 186
203 212 219
203 214 222
204 213 220
206 215 223
199 209 218
200 211 221
209 218 227
199 209 216
199 209 216
192 203 208
205 214 223
203 212 220
196 207 217
203 213 220
203 213 221
206 216 224
207 216 226
202 212 220
208 217 226
207 217 228
202 212 221
169 183 177
95 123 74
92 120 71
97 124 74
96 123 72
95 121 73
91 118 71
95 122 73
97 125 75
95 122 73
94 121 72
92 119 71
97 125 74
95 122 73
96 123 74
90 117 69
96 123 73
99 126 75
99 126 76
97 125 76
95 122 73
95 122 72
94 121 72
96 123 74
93 120 72
98 126 76
98 126 76
97 124 75
95 122 74
179 191 191
168 181 175
124 145 117
94 121 73
96 124 75
96 123 73
97 124 74
96 124 74
97 124 74
98 126 76
96 123 74
98 126 76
98 125 75
98 125 74
94 121 72
94 122 73
95 122 73
97 125 75
93 120 72
98 126 75
93 120 72
95 122 74
97 124 74
97 124 74
96 124 74
95 122 73
97 125 76
98 125 75
95 122 73
208 218 225
204 213 220
213 222 231
205 216 227
201 212 221
201 211 218
206 215 222
208 217 225
209 218 226
209 218 229
207 216 225
206 215 225
207 217 226
197 207 214
205 214 222
209 218 228
206 216 226
200 211 221
205 214 222
204 214 223
203 213 223
211 219 228
202 211 220
200 210 219
205 215 225
200 209 217
204 213 222
205 215 223
199 210 219
126 147 116
96 123 74
97 125 75
97 124 74
96 124 74
95 123 73
99 126 76
92 119 71
93 121 72
98 125 75
96 124 74
92 119 71
91 118 70
97 125 75
97 124 74
95 123 74
97 124 74
97 125 75
112 137 98
130 151 127
161 176 167
186 198 198
202 213 221
203 212 220
200 211 219
205 216 226
204 213 222
201 211 221
204 214 223
134 153 132
98 126 76
90 116 69
96 123 73
94 121 72
96 123 73
94 122 73
95 122 73
96 123 74
95 122 73
95 122 73
95 122 73
98 126 76
94 121 73
99 126 76
94 121 73
95 123 73
97 124 74
93 120 72
95 123 73
97 125 76
97 125 75
96 123 73
95 123 74
93 121 72
96 123 75
93 121 73
99 127 77
95 123 73
168 183 181
201 211 220
202 211 220
202 211 218
207 217 226
203 213 222
215 224 233
202 213 222
202 213 222
202 212 219
202 211 218
200 210 217
208 218 226
205 214 223
198 209 216
206 216 226
204 213 221
207 217 226
209 218 226
200 210 219
206 215 225
203 213 221
210 218 224
208 217 227
210 220 230
205 215 222
208 218 228
207 216 225
190 202 209
96 124 74
95 122 73
96 124 74
94 121 72
97 125 75
97 125 75
96 123 73
98 126 76
99 126 75
100 128 77
95 122 74
98 125 75
95 122 73
95 123 73
95 123 74
93 120 71
96 123 74
97 124 75
95 123 73
95 123 73
95 121 72
96 123 74
95 123 73
97 124 74
97 125 75
96 123 74
91 118 71
120 141 111
203 212 222
201 212 221
206 216 226
208 218 228
205 214 222
207 216 224
202 212 221
206 216 226
198 208 214
201 211 221
208 217 225
203 213 221
207 216 227
208 217 225
203 213 223
201 211 220
201 211 218
210 220 231
206 216 226
201 210 217
201 211 218
205 215 226
201 211 220
196 207 218
206 216 224
201 211 218
196 205 210
107 131 94
97 125 75
95 123 74
95 122 73
95 122 73
97 124 74
92 118 70
93 120 71
97 124 75
94 121 73
99 126 76
92 119 71
92 119 70
97 125 75
97 124 74
94 121 72
97 124 74
98 125 75
95 123 74
94 122 73
95 122 73
94 121 73
97 124 75
92 119 70
96 124 75
95 122 74
175 189 189
202 212 221
206 215 224
201 212 222
201 212 221
207 216 226
201 211 219
208 217 226
210 219 228
202 212 220
208 217 228
203 213 221
205 215 224
199 209 215
203 213 222
204 214 222
197 209 218
202 212 221
202 212 220
203 213 222
201 212 221
207 216 226
208 218 230
209 218 227
199 210 219
176 188 184
94 121 72
97 125 75
95 122 73
95 122 73
97 124 74
97 124 75
95 122 73
97 125 76
97 124 74
95 123 74
96 123 74
97 124 74
97 125 76
96 124 74
98 125 75
95 122 73
96 123 74
94 121 72
95 123 74
96 123 74
96 123 74
98 126 75
95 122 73
173 186 182
205 215 225
199 209 218
203 213 223
209 219 230
207 216 224
203 213 221
208 217 226
203 212 219
205 215 224
201 212 221
200 210 217
208 217 227
207 217 228
200 211 219
206 215 223
202 213 224
209 219 229
205 215 224
199 210 220
202 211 219
209 218 227
200 210 216
122 144 110
97 124 74
99 127 76
96 123 74
94 122 73
96 123 74
97 125 75
97 125 75
99 127 76
92 119 70
98 126 76
102 130 78
213 222 232
188 199 200
141 159 140
98 124 77
95 123 74
96 124 75
96 123 73
182 194 196
214 223 233
200 209 216
201 211 221
206 216 226
200 210 216
206 215 223
211 220 230
201 212 219
203 213 223
199 210 218
206 216 226
202 211 221
195 205 212
202 212 223
205 214 222
209 219 228
201 212 222
204 214 224
207 216 225
208 217 225
208 217 226
196 207 215
211 220 227
201 211 218
208 218 228
203 214 223
97 124 74
94 121 72
98 126 76
95 122 73
97 125 75
97 125 75
102 127 84
150 167 153
177 190 188
205 215 224
210 220 229
204 214 223
193 204 211
209 219 229
207 216 224
207 217 226
203 213 221
205 215 224
202 212 222
202 213 222
201 210 217
201 212 221
201 211 219
197 207 216
205 216 226
202 212 222
206 216 225
181 193 192
95 123 74
95 123 73
94 122 73
99 126 75
96 123 73
91 118 70
96 123 73
94 121 72
94 120 71
98 125 75
94 121 72
99 126 75
95 121 72
92 119 71
98 126 76
97 125 75
97 124 74
96 123 74
98 126 76
93 121 72
97 124 75
95 122 73
96 123 73
96 123 74
98 126 76
96 123 73
94 121 72
95 123 73
199 209 217
198 208 217
205 215 223
195 206 213
162 176 173
130 152 126
101 128 82
93 121 72
101 129 78
96 124 74
95 122 73
97 124 75
98 125 75
96 123 74
95 123 75
97 124 74
95 123 74
95 122 74
92 119 71
97 124 75
99 127 77
98 125 75
97 124 74
95 122 73
96 123 74
96 124 75
93 121 72
95 122 73
113 137 102
205 215 225
205 214 220
207 216 226
206 216 225
206 216 225
200 210 216
204 214 222
195 206 212
205 214 224
215 223 232
205 215 225
204 215 225
214 223 233
199 209 218
206 216 226
203 213 221
203 214 225
209 218 228
211 220 228
204 214 222
201 210 217
207 217 227
197 207 214
206 215 223
201 211 219
203 214 222
207 217 226
205 215 225
189 200 205
105 130 89
95 123 74
97 125 75
98 125 75
97 124 75
93 120 71
96 124 75
95 122 73
100 127 76
97 124 75
99 127 76
92 119 71
96 123 74
99 126 76
98 126 77
95 122 73
94 121 71
96 123 74
94 121 72
97 124 75
99 127 76
96 123 74
100 126 81
112 135 104
139 156 139
176 188 186
188 200 205
206 216 226
203 213 221
118 139 108
98 125 75
96 123 73
98 126 76
99 127 77
95 122 73
98 125 75
97 124 75
96 123 74
98 126 76
98 125 75
96 123 74
97 124 75
96 123 73
96 123 73
92 120 72
97 125 75
98 125 76
92 118 70
92 119 71
95 122 73
96 124 74
97 124 74
99 127 77
91 118 71
95 122 73
99 127 76
95 122 73
95 122 76
201 210 216
206 215 223
207 217 226
209 218 228
199 210 217
213 222 233
203 213 222
208 217 227
206 216 226
209 218 228
201 211 220
201 212 221
210 218 226
205 214 221
209 219 228
201 211 219
207 216 224
201 212 222
206 216 227
206 216 225
202 212 220
204 214 223
209 219 228
200 211 219
200 211 221
198 208 217
200 209 217
198 208 215
166 182 176
97 125 75
95 122 74
94 122 74
99 127 76
92 119 71
99 126 76
94 122 74
96 123 73
96 123 74
92 119 71
97 125 75
94 121 72
95 123 74
98 125 75
99 126 76
99 127 77
97 125 75
99 126 75
98 126 76
96 123 74
97 125 76
95 122 73
95 122 73
95 122 74
93 119 71
95 123 74
97 125 75
156 171 163
210 219 229
201 212 221
198 208 214
213 222 233
206 215 225
204 214 222
204 214 223
206 215 226
211 221 233
202 212 220
203 213 222
199 209 216
202 212 220
197 207 214
199 209 218
204 214 222
205 215 222
196 207 214
208 217 226
204 214 221
210 219 228
202 213 222
201 212 222
203 213 221
210 219 229
205 215 224
152 168 158
99 125 75
94 121 72
94 121 73
97 124 75
96 123 74
96 123 74
95 123 74
96 123 74
98 126 76
96 123 74
94 121 73
95 123 74
96 123 74
96 123 73
96 124 74
94 121 72
97 124 75
94 122 73
95 122 73
98 125 75
96 124 75
96 123 74
98 126 75
97 124 75
95 122 74
132 152 129
205 215 223
207 217 226
204 214 223
200 210 217
210 219 229
213 222 233
206 216 223
209 218 225
202 213 223
203 213 221
207 218 229
207 216 225
205 215 223
201 212 221
210 218 227
198 209 218
202 213 222
206 216 227
204 214 223
210 218 226
207 217 226
207 217 226
199 209 216
209 218 226
191 202 207
102 130 84
95 122 73
98 126 76
98 125 75
94 121 72
94 121 72
97 124 74
96 123 74
99 127 76
93 120 72
96 123 73
95 122 74
97 125 75
99 127 77
98 126 76
96 123 73
98 125 74
95 123 74
98 125 75
95 122 73
94 121 73
97 124 74
96 123 74
121 142 115
199 210 220
199 210 218
204 214 224
202 212 221
202 212 220
212 220 229
210 219 228
207 217 228
206 215 224
205 214 223
213 222 233
207 215 223
205 215 226
208 218 229
193 205 213
208 218 227
206 216 227
196 207 214
203 213 221
204 214 224
205 214 221
205 215 224
148 165 149
94 122 73
97 125 75
97 125 75
98 125 74
99 127 76
95 123 73
99 126 75
98 126 76
94 121 73
96 124 74
99 126 75
94 121 73
206 215 224
193 205 212
203 213 220
198 209 215
164 179 172
106 132 91
92 118 71
179 191 190
208 217 225
213 221 230
201 211 220
207 216 225
199 209 215
202 212 220
202 212 220
208 218 229
201 211 219
198 208 216
200 211 219
210 219 230
208 217 225
203 213 222
207 216 225
208 218 227
210 219 228
197 207 215
205 215 222
209 218 227
201 211 220
208 217 226
201 211 221
200 210 217
204 214 223
209 218 226
101 127 81
95 122 73
98 126 75
99 126 76
93 121 72
96 123 74
97 125 75
94 121 72
99 127 76
117 140 106
160 176 167
193 204 208
211 219 228
203 212 222
199 210 218
204 213 221
210 219 227
204 213 221
204 215 225
203 213 221
205 215 222
201 210 217
199 210 218
205 214 223
204 214 224
202 212 221
204 214 223
173 187 182
95 123 73
97 125 76
95 122 74
95 123 74
90 117 69
97 124 74
92 119 71
98 125 75
95 122 73
98 125 76
91 118 70
96 123 74
95 122 73
97 124 74
93 120 72
99 127 76
97 124 74
96 124 75
98 125 75
99 127 76
94 121 73
97 125 75
98 126 76
98 125 75
95 122 72
97 124 75
95 122 72
97 124 77
209 218 227
205 214 223
209 218 229
197 209 219
212 220 228
200 210 218
197 207 212
167 181 177
134 154 136
113 138 96
96 123 74
99 127 77
96 123 74
95 123 74
97 124 74
97 124 74
93 121 72
97 124 74
96 124 74
95 122 73
93 120 71
99 126 76
96 124 74
94 121 72
96 124 74
96 124 74
93 120 71
96 122 73
115 138 106
207 216 225
209 218 226
203 213 222
202 212 220
207 216 225
211 220 229
207 217 226
200 211 219
209 218 228
206 217 229
201 212 221
204 214 224
213 222 232
207 216 226
208 218 229
204 214 223
211 220 230
210 219 229
207 217 228
204 214 223
208 217 225
208 218 229
201 211 220
205 215 223
204 214 222
207 217 226
203 214 223
199 210 221
183 196 200
96 123 74
98 125 75
96 124 75
98 125 75
93 120 71
98 125 75
98 126 76
98 126 76
96 123 73
93 120 72
96 124 74
97 125 75
94 120 72
97 125 75
95 122 73
95 122 73
99 127 76
91 118 70
96 123 74
95 123 74
98 125 74
95 123 74
97 124 75
99 126 76
97 124 74
96 123 73
95 122 72
98 123 81
140 158 142
168 182 179
146 162 148
122 143 115
104 131 83
97 124 74
94 121 72
95 122 72
96 124 74
94 121 72
95 122 73
91 118 70
91 119 72
94 121 73
93 120 71
96 123 74
96 123 73
94 121 72
98 126 76
95 122 73
93 120 72
95 122 73
97 125 75
96 124 75
95 122 73
97 124 74
95 122 73
95 122 73
98 126 76
132 152 130
205 215 224
205 215 224
194 206 215
207 216 224
207 215 224
203 213 220
204 214 223
208 217 226
205 214 223
206 215 223
202 212 220
202 211 219
207 217 225
201 211 219
208 217 227
204 214 224
205 215 224
209 218 229
207 216 226
208 218 226
203 212 221
198 210 220
193 204 211
199 210 220
204 214 222
200 210 220
206 215 222
201 211 222
114 137 103
99 126 76
92 119 71
97 124 74
95 123 74
97 125 75
93 120 72
91 118 70
95 122 72
96 124 75
97 125 75
98 125 75
96 123 73
98 125 75
92 120 72
94 121 72
96 124 74
96 123 74
98 126 76
96 124 75
95 122 74
96 122 73
93 121 72
97 124 74
96 124 74
99 126 76
93 121 72
108 132 93
196 207 213
201 212 222
205 215 223
199 209 216
195 207 217
209 218 227
205 215 224
207 217 227
199 209 215
204 214 223
205 216 225
207 217 226
210 219 228
208 218 228
204 215 225
207 217 227
204 214 223
206 216 225
203 212 220
205 215 225
200 210 218
203 213 221
207 217 226
207 217 227
202 211 217
204 213 219
196 207 215
118 141 108
95 122 73
96 124 75
95 122 73
93 120 72
98 126 76
94 121 72
96 124 75
97 124 75
98 126 75
97 124 74
94 122 73
93 119 71
97 125 75
94 121 72
95 122 73
97 125 75
96 123 73
95 122 73
97 124 74
98 126 76
95 122 73
99 126 76
98 125 75
97 124 74
95 123 73
185 197 199
216 224 232
201 210 218
204 215 224
202 212 220
208 217 226
207 216 223
205 215 225
207 216 224
199 209 219
208 218 228
197 207 214
202 212 220
208 219 229
210 219 228
201 211 219
199 208 215
209 218 226
211 220 230
209 218 228
205 214 224
209 219 229
203 212 219
205 215 224
208 217 227
126 148 119
98 126 75
97 125 75
93 120 71
95 122 74
95 123 74
93 120 72
98 126 77
92 119 72
94 122 73
95 122 73
95 122 73
95 122 73
97 124 75
96 124 75
96 124 74
92 119 71
98 126 76
98 125 75
96 123 73
98 126 75
98 125 75
98 125 75
100 126 82
181 194 193
209 218 227
207 216 227
205 215 222
199 210 218
196 207 214
205 215 223
206 216 226
208 218 228
205 215 223
207 216 226
199 209 216
212 221 229
207 216 224
197 207 214
203 213 220
205 214 221
202 212 221
203 213 222
204 214 223
204 214 222
201 211 217
180 193 194
97 125 75
96 123 74
95 123 74
93 120 72
96 123 73
93 120 71
95 122 73
98 125 75
96 123 74
96 123 73
96 123 74
96 124 74
93 119 71
191 203 208
207 217 225
211 219 228
203 213 223
208 217 227
200 211 217
166 180 175
179 191 190
203 213 221
199 209 218
207 217 225
206 217 228
197 208 215
205 214 220
208 217 225
204 212 218
197 208 216
206 215 224
208 217 226
207 216 225
205 214 223
202 213 224
200 210 219
206 216 227
206 216 226
200 210 219
205 215 226
206 217 228
202 212 221
207 216 225
201 211 218
206 216 225
204 214 225
208 218 228
112 137 99
95 122 73
96 122 73
94 121 72
96 124 75
92 119 70
95 122 73
95 122 74
95 122 73
99 127 77
96 124 75
96 124 77
135 154 131
163 178 172
202 212 220
203 212 221
197 208 217
199 210 220
196 207 213
202 211 217
198 209 218
203 213 221
198 209 219
208 218 227
201 211 220
203 213 222
203 213 221
174 187 184
97 125 74
95 122 73
100 128 77
95 122 74
97 124 75
98 125 75
96 123 73
99 126 76
96 123 74
96 124 75
95 123 74
96 123 74
94 121 72
97 125 75
99 127 77
94 122 73
95 122 73
95 122 73
95 122 74
97 125 75
95 122 73
92 119 71
97 124 75
94 121 72
97 125 75
98 125 75
94 121 72
107 131 96
203 213 222
207 218 229
200 210 219
215 223 233
199 210 217
200 210 216
210 219 229
197 208 218
206 216 224
196 207 215
187 199 202
152 169 158
103 127 85
96 123 74
94 121 72
92 119 71
96 123 73
99 126 76
93 120 71
95 122 72
94 121 73
92 118 70
95 122 73
94 121 72
97 125 75
99 126 75
97 125 75
91 118 71
141 158 141
213 221 232
195 207 215
207 216 225
201 212 221
201 211 218
202 212 220
201 212 221
210 219 230
209 218 225
199 211 222
202 212 223
206 215 224
197 207 215
208 218 228
202 212 219
210 219 228
209 218 226
199 209 217
202 212 221
209 218 228
200 210 218
206 216 225
208 218 228
207 216 226
202 212 220
205 214 223
204 214 223
202 212 221
166 181 175
99 126 75
97 125 75
96 124 74
97 124 74
96 123 74
97 125 76
95 121 72
94 122 73
96 123 74
94 121 73
93 120 72
96 122 73
92 119 71
96 124 74
95 122 73
96 124 75
95 123 74
97 125 75
97 124 74
96 123 73
96 124 75
101 129 78
95 122 73
99 126 76
95 123 73
92 119 71
99 126 75
97 125 74
150 167 153
202 212 219
205 215 224
200 211 219
199 209 215
188 200 204
173 187 183
150 167 155
122 144 113
98 125 77
92 119 71
98 126 75
96 123 73
97 125 75
93 120 71
98 126 76
96 123 73
96 123 73
97 124 74
98 125 75
96 122 73
96 123 74
95 122 73
92 119 71
98 125 75
95 123 74
98 125 75
94 121 71
95 123 74
170 183 178
210 220 230
208 218 229
203 213 223
204 213 221
194 205 212
204 214 222
206 216 225
203 213 221
205 214 222
207 217 227
197 207 215
202 212 221
201 211 219
198 209 218
207 217 228
206 216 225
193 205 212
201 211 219
194 205 213
208 218 229
209 218 227
197 208 215
203 213 222
208 217 224
208 217 226
201 212 220
210 219 228
196 206 210
97 125 74
94 121 73
97 125 75
99 126 75
94 122 73
97 124 74
97 125 75
93 121 72
95 122 72
97 125 75
100 128 77
96 123 74
97 125 75
96 123 73
97 124 74
95 123 74
95 123 74
99 126 76
93 120 71
92 118 70
94 121 73
97 125 75
96 124 75
95 122 73
97 123 73
95 122 73
94 121 72
159 175 167
201 212 221
204 215 225
202 212 219
200 210 218
199 209 217
212 220 229
207 216 223
202 212 222
204 214 223
202 212 220
204 214 222
204 214 222
207 216 225
202 213 222
204 214 222
200 210 218
206 215 222
200 210 217
206 215 222
207 216 226
205 214 222
203 213 222
198 208 217
199 210 221
212 221 231
202 212 220
166 181 176
95 122 73
95 122 73
93 121 73
96 124 74
98 126 75
93 121 73
94 121 72
94 120 72
95 122 73
98 126 76
97 125 74
95 122 73
98 126 75
97 125 75
94 122 74
97 125 75
93 120 72
99 126 75
95 123 74
95 122 73
91 118 71
94 122 73
93 120 71
95 122 72
96 123 74
150 168 154
204 213 222
211 219 227
206 216 226
204 214 222
209 219 228
202 212 219
204 214 223
205 216 226
198 209 217
205 215 225
204 214 224
199 210 219
203 213 223
205 215 222
206 215 224
207 217 226
201 212 220
197 207 214
203 213 221
206 216 226
206 216 226
207 217 228
199 208 215
207 216 225
162 177 173
95 122 73
93 120 72
90 116 69
90 117 70
95 122 73
95 122 72
101 128 76
96 123 74
94 121 73
99 126 75
95 122 73
95 122 73
95 122 73
94 121 72
93 121 73
91 118 70
98 126 76
98 125 75
93 120 72
97 125 75
95 122 73
95 122 73
96 123 74
171 184 179
197 207 214
198 208 215
196 206 213
203 213 220
203 212 219
202 212 221
206 216 225
203 213 220
200 211 221
204 214 223
208 217 226
208 217 227
210 219 230
204 214 223
208 217 225
198 208 214
207 217 228
210 220 230
205 215 224
204 215 223
203 212 220
194 204 210
108 132 93
97 124 75
94 122 73
94 121 73
96 123 74
93 121 72
93 120 72
94 122 73
99 127 76
98 125 75
98 125 75
97 124 74
94 121 73
99 126 76
205 215 225
201 212 222
207 216 225
196 207 214
196 207 216
207 217 225
205 215 226
172 186 182
127 147 122
168 183 181
208 216 225
204 213 221
193 204 211
199 209 216
200 210 217
201 212 221
206 215 223
207 216 225
208 218 229
209 218 227
193 205 214
206 216 225
204 214 223
203 214 222
199 209 218
206 215 225
203 212 219
199 209 218
198 210 218
202 211 219
203 213 222
203 212 220
200 211 221
203 213 223
114 136 102
96 124 75
97 125 75
95 122 73
91 118 70
98 125 75
92 118 70
93 120 72
98 125 75
93 121 72
94 121 73
96 124 75
97 124 74
97 125 76
102 128 85
135 155 136
184 197 198
198 208 216
208 217 228
205 214 221
198 208 214
201 212 221
209 218 226
200 211 220
209 218 227
205 214 224
206 215 223
179 191 189
95 122 74
96 124 74
96 123 74
95 123 74
94 121 73
92 119 70
98 126 76
99 126 76
97 124 74
95 123 74
96 123 74
97 123 74
94 121 72
92 120 72
95 122 74
97 125 74
95 122 73
98 126 75
90 117 69
96 124 74
98 125 75
93 120 71
94 121 72
95 122 74
95 121 72
94 121 72
95 123 73
120 142 109
196 206 213
201 211 220
206 216 226
205 214 223
200 211 220
209 219 230
204 214 224
197 208 217
210 218 226
200 210 219
198 208 214
201 212 220
204 215 224
199 210 216
161 175 165
126 147 122
96 123 74
94 121 72
97 124 73
96 123 73
95 122 74
92 119 71
95 123 74
95 122 73
95 122 73
99 126 76
91 118 71
97 124 75
154 171 161
209 219 229
208 218 226
202 212 219
204 214 222
205 214 221
204 215 224
204 215 225
207 216 224
206 216 224
195 205 212
201 212 223
206 216 225
205 215 225
200 210 217
210 219 230
205 214 221
207 216 226
202 211 217
209 218 228
204 214 223
197 207 213
202 213 222
197 208 217
209 218 228
208 218 228
198 209 217
204 213 222
209 218 226
159 174 166
93 119 71
96 123 74
96 123 74
98 126 76
99 126 76
95 123 74
96 123 74
99 127 76
95 123 74
95 123 74
97 124 74
96 123 73
98 125 75
96 124 74
95 122 73
98 125 75
93 120 72
96 123 73
97 124 74
97 125 75
95 122 74
96 124 75
96 123 74
96 123 74
98 126 76
96 123 74
97 124 74
96 123 74
173 187 184
209 219 228
199 209 216
207 216 225
205 215 223
200 210 220
207 216 225
203 213 221
203 214 224
203 212 219
186 197 198
176 190 187
168 182 178
122 144 117
99 125 82
95 122 73
98 126 76
93 121 73
98 126 76
97 125 76
95 122 73
97 124 75
94 120 72
94 122 73
98 125 75
95 123 74
98 125 74
99 127 76
97 125 78
198 209 216
209 218 226
196 208 217
206 215 224
208 218 228
205 215 223
192 203 210
208 217 227
196 206 213
200 211 219
199 209 216
204 213 223
201 211 218
207 217 226
197 208 217
202 211 217
208 217 226
205 215 225
207 217 227
199 209 217
206 216 227
204 214 224
199 210 218
199 208 214
207 217 226
200 210 216
202 212 219
205 215 223
136 155 137
95 122 73
97 123 73
94 121 72
95 122 73
98 126 76
98 125 75
97 124 74
94 121 72
94 121 72
96 123 74
98 126 75
96 124 74
96 123 74
100 128 77
95 122 73
95 122 73
94 122 73
89 116 69
95 122 73
93 121 73
98 125 75
95 122 73
94 121 72
95 122 73
95 123 74
97 125 75
101 127 83
194 206 213
203 213 220
201 211 219
201 211 221
207 217 225
203 212 220
206 215 225
205 214 223
200 210 217
202 212 220
212 221 232
205 215 225
203 213 220
206 216 226
202 212 221
204 213 222
197 208 214
204 214 221
207 216 226
203 213 220
196 206 213
198 209 216
204 213 222
202 212 219
204 213 220
203 213 221
197 208 213
117 139 106
96 123 74
96 124 74
97 125 75
96 123 74
94 122 73
95 122 73
97 124 74
99 126 75
92 120 72
95 123 73
94 122 73
91 118 70
93 120 72
97 124 75
98 125 75
96 123 73
96 123 74
97 125 75
95 123 74
93 121 72
93 120 72
96 123 74
96 124 74
95 122 73
104 130 85
198 209 214
200 211 219
208 217 226
211 220 229
202 211 219
208 218 229
202 213 223
205 215 223
200 211 220
205 216 228
196 207 215
207 217 226
207 217 227
202 213 223
206 216 225
204 213 220
208 217 225
209 218 227
212 221 231
202 212 223
205 215 224
200 210 218
207 216 224
205 216 225
205 214 221
114 136 103
93 121 72
101 128 77
95 122 73
91 117 70
96 123 74
96 124 74
92 118 70
94 121 73
97 125 75
95 122 72
95 123 74
94 120 71
95 123 74
99 127 76
90 117 70
96 123 74
97 124 75
97 125 75
96 124 74
95 122 73
94 121 72
91 118 69
119 141 111
206 216 224
203 213 221
205 215 225
207 216 225
205 215 223
208 217 227
206 216 226
201 211 219
203 213 222
199 210 218
207 216 226
207 216 224
205 214 222
199 210 218
192 203 209
202 212 219
207 215 223
206 217 227
209 219 230
201 211 220
199 209 218
200 210 218
130 150 125
93 120 73
93 121 72
95 122 72
96 124 75
97 125 75
93 120 72
96 123 74
95 121 72
98 125 75
98 126 76
97 124 74
96 123 73
98 126 76
97 124 74
203 213 222
204 214 223
206 215 224
206 215 224
201 211 219
207 217 227
207 217 228
181 193 194
100 127 77
93 120 72
98 125 80
159 175 166
189 201 204
203 213 222
206 217 228
206 215 225
195 206 214
203 214 224
209 218 226
210 218 227
212 221 231
204 213 222
203 214 224
204 214 222
194 205 214
203 213 222
203 213 221
204 214 222
205 215 225
201 211 219
209 219 228
211 219 227
209 219 231
197 208 216
131 150 126
95 122 74
93 119 71
95 122 73
101 128 77
92 119 71
95 122 73
97 124 75
96 123 74
94 121 72
96 123 74
97 124 75
96 123 74
94 122 73
95 123 74
95 122 74
95 123 74
112 135 101
152 168 159
192 203 205
197 208 216
206 216 225
200 210 219
199 209 217
201 212 220
198 208 217
201 211 219
180 193 193
94 122 73
96 123 74
96 123 74
94 122 73
95 122 73
97 124 74
94 121 73
96 124 74
93 119 70
93 120 72
98 125 75
98 125 75
93 120 72
95 122 73
96 123 74
99 127 76
97 124 74
96 124 75
97 125 75
97 125 75
96 124 74
96 124 74
97 124 74
94 121 73
96 123 74
95 122 73
92 119 70
126 147 120
203 213 221
202 211 219
200 210 218
200 210 220
197 207 214
204 214 223
206 216 226
198 209 218
202 212 220
207 217 228
204 214 224
208 218 227
203 213 221
205 215 226
209 218 227
205 215 223
202 212 220
166 181 176
135 154 133
103 128 89
96 123 74
96 124 75
91 118 71
98 125 75
94 121 73
96 123 74
97 125 75
99 127 76
172 186 183
202 212 222
208 218 227
201 212 220
197 208 214
206 215 224
197 208 215
200 210 217
207 217 227
205 215 225
207 217 227
212 221 230
203 214 224
199 210 218
209 218 226
203 212 220
206 215 222
198 209 219
202 212 221
205 215 225
203 213 222
205 215 226
194 206 213
196 207 215
200 210 216
208 217 226
200 211 219
209 218 227
205 215 223
124 145 118
97 124 75
95 122 73
96 124 75
99 126 75
93 120 72
92 119 71
94 121 73
94 121 72
97 124 75
97 125 75
95 122 73
98 126 76
101 129 77
96 123 74
97 124 74
97 124 74
96 123 74
97 125 75
91 118 70
91 119 71
95 122 73
96 123 74
96 124 74
95 123 74
95 122 74
93 120 72
93 121 72
98 125 75
191 202 206
198 209 217
205 215 224
201 212 221
206 216 226
200 210 218
199 209 215
205 215 225
203 214 223
206 216 225
209 217 224
204 214 224
199 210 219
202 212 222
204 214 222
189 199 201
177 190 189
164 178 170
139 157 138
117 139 108
99 125 80
96 123 74
97 124 74
95 122 73
94 122 73
95 122 72
99 127 76
95 123 74
132 151 128
209 219 230
203 213 221
203 214 224
202 212 219
207 217 228
209 218 226
203 213 222
206 216 224
206 216 225
204 213 220
199 209 216
203 214 225
206 215 224
199 208 215
203 213 221
205 214 221
209 218 227
200 210 218
201 212 220
208 219 230
201 211 217
202 212 219
194 205 212
200 210 217
201 211 217
206 216 226
206 215 224
199 210 219
108 132 95
96 123 74
97 124 75
97 124 74
96 123 73
97 124 74
99 126 76
94 121 72
96 124 74
93 120 72
95 123 73
96 124 74
92 119 71
96 123 73
96 124 74
97 124 74
91 118 70
92 119 71
95 123 73
97 125 75
95 122 73
95 123 74
96 124 75
97 124 75
94 121 73
94 121 72
94 120 72
143 160 147
206 216 225
209 218 226
208 218 227
208 216 224
202 212 220
207 217 228
202 212 221
204 215 226
204 212 220
201 211 219
200 211 220
205 214 221
205 216 226
204 213 219
202 212 221
213 222 231
206 215 223
208 217 225
206 216 224
202 212 221
205 215 224
205 213 219
206 216 226
204 214 221
204 213 221
200 210 218
164 179 173
93 121 73
97 124 75
96 123 74
95 122 73
93 119 71
92 119 71
96 124 74
93 120 72
95 121 72
97 124 75
94 120 72
94 121 71
95 122 72
93 120 71
98 125 75
94 121 72
97 124 74
94 120 72
95 122 74
95 123 74
96 123 73
95 122 73
97 124 75
98 126 76
97 125 75
160 174 166
205 215 224
198 208 216
207 216 226
202 213 223
201 211 219
203 214 223
205 215 224
198 209 217
207 217 225
208 218 226
203 213 221
197 208 217
201 211 218
201 211 219
205 215 226
202 213 222
201 212 221
206 215 224
203 214 224
200 210 217
201 211 219
202 212 221
202 213 222
207 216 225
158 173 163
96 123 73
99 127 76
95 122 73
96 124 74
93 120 71
97 125 75
93 120 72
95 122 73
96 123 73
96 123 74
97 124 74
97 125 75
97 124 74
98 126 75
95 122 73
98 126 75
100 128 77
99 126 75
96 124 74
94 121 73
96 123 74
95 122 73
102 127 83
197 207 210
206 215 224
205 214 223
202 212 221
195 205 212
203 213 221
208 217 226
201 211 219
203 213 222
210 220 229
198 209 216
208 218 228
206 215 224
208 217 225
209 219 229
209 219 230
202 212 222
210 220 231
205 215 225
198 208 218
208 217 228
206 215 223
149 166 153
96 124 74
95 122 73
93 120 72
94 122 73
95 122 73
97 124 74
99 126 76
96 123 74
97 126 76
94 121 72
97 124 74
96 124 74
93 119 71
97 124 74
97 124 74
204 214 225
209 218 225
204 214 223
206 216 225
210 219 228
205 215 223
204 214 221
192 203 207
94 122 74
100 127 76
97 125 75
95 122 73
98 125 75
130 150 129
177 190 190
199 210 220
205 215 223
210 219 229
205 215 225
209 218 228
197 208 215
200 210 218
197 208 215
199 209 217
203 212 220
205 215 224
202 211 218
198 209 216
208 218 228
206 216 226
198 209 217
202 212 221
205 214 223
205 215 225
133 153 130
93 120 71
93 120 72
99 127 76
92 118 70
97 124 74
97 125 75
97 124 74
95 122 73
95 122 73
96 123 73
96 124 74
95 122 73
94 121 73
92 119 70
96 123 74
99 126 76
97 125 75
99 126 76
95 122 73
130 150 126
157 173 164
194 206 213
201 212 221
206 216 225
209 218 227
205 215 225
172 185 184
96 123 74
95 123 74
97 125 74
95 123 74
94 122 73
98 125 75
93 120 72
95 122 73
94 121 72
97 124 74
95 122 73
99 127 76
98 125 74
95 122 72
95 122 72
97 124 75
95 122 73
96 123 74
93 120 72
96 124 74
95 122 72
94 121 72
93 120 72
98 126 76
96 124 73
95 123 74
96 124 74
141 158 143
203 213 221
202 212 219
203 213 222
210 218 227
206 216 226
200 210 218
193 204 213
199 209 218
206 216 226
208 218 227
202 212 220
207 217 226
207 216 225
200 210 218
205 215 226
207 217 227
202 212 221
206 216 225
207 217 227
200 210 217
192 202 203
163 177 171
113 135 100
99 126 81
95 123 73
97 124 74
95 123 74
93 120 71
175 189 188
203 213 220
198 208 215
206 215 223
200 210 220
209 219 228
198 208 217
210 219 226
202 212 220
204 214 223
206 216 224
201 211 217
198 209 216
207 216 225
197 208 217
197 207 214
201 211 220
206 216 226
205 214 222
196 207 215
203 213 218
200 210 218
206 216 223
203 214 227
204 213 222
203 213 223
206 216 226
208 217 224
207 216 224
104 130 87
95 123 74
98 125 74
93 121 72
96 123 73
97 125 75
99 126 76
94 122 73
97 125 75
92 118 70
94 121 72
95 123 75
95 122 73
97 125 75
93 120 72
96 123 73
95 122 73
95 122 74
97 125 75
99 126 76
98 125 75
98 126 75
94 122 73
97 124 75
96 123 74
95 123 74
99 126 75
95 122 73
121 143 110
212 220 229
196 207 215
204 215 225
199 210 217
205 215 223
210 219 229
200 210 217
204 213 221
204 213 220
195 206 213
198 209 216
205 214 221
203 213 221
199 210 218
204 213 221
206 216 224
203 213 221
203 213 221
203 213 221
206 216 227
194 207 216
189 201 207
167 181 177
161 177 169
139 156 136
109 134 98
96 123 74
98 125 75
166 180 175
204 214 224
205 215 225
203 213 221
198 208 214
201 209 215
202 213 222
205 215 225
209 218 226
203 212 221
204 214 224
205 215 223
201 212 221
197 207 213
196 208 217
200 211 222
202 211 218
204 214 222
205 215 226
202 212 220
205 214 222
206 216 226
206 216 226
210 219 229
205 214 223
205 215 224
200 211 220
206 215 223
173 187 185
96 124 74
100 127 76
98 126 76
96 123 74
95 123 74
96 124 74
94 121 73
98 125 75
97 125 75
94 121 72
95 122 73
97 125 74
97 124 74
94 121 72
96 123 74
95 122 74
94 120 71
98 126 76
95 122 73
96 123 74
98 126 75
96 123 73
95 123 74
94 122 73
91 118 71
99 126 76
94 121 72
188 198 200
204 214 223
203 213 221
205 215 226
201 212 221
196 207 213
203 213 223
204 214 223
209 218 227
199 210 218
206 215 223
204 214 224
205 215 225
210 219 228
207 217 227
195 206 215
205 214 222
203 213 222
206 216 225
206 216 227
210 219 227
202 213 223
203 212 220
204 214 223
200 210 218
205 215 225
207 217 225
107 132 95
94 121 72
97 125 75
96 123 73
97 125 75
97 124 75
95 122 73
95 122 74
95 123 73
90 117 69
95 122 73
97 125 75
96 124 74
99 127 76
92 119 71
100 127 77
98 125 75
96 123 73
91 118 71
95 122 73
91 118 69
96 124 75
95 123 74
96 123 74
95 123 73
104 129 91
202 212 221
200 211 220
204 213 221
207 216 226
204 214 223
206 216 226
204 213 221
200 210 215
204 213 221
196 206 212
200 210 218
201 211 220
200 211 220
198 209 219
203 213 223
203 213 220
204 214 223
203 213 221
200 209 216
205 215 223
206 215 223
213 222 233
202 211 218
205 215 224
178 192 193
97 124 77
97 125 75
98 125 75
96 124 74
95 122 73
95 122 73
93 120 71
94 121 73
94 122 74
91 118 70
94 121 73
95 123 74
98 126 75
95 122 73
95 122 73
94 122 73
95 123 75
96 124 75
95 122 73
96 124 74
97 124 75
91 118 70
98 125 74
167 180 174
211 219 228
202 212 220
205 216 225
201 211 219
203 213 222
205 214 223
212 220 228
204 214 223
202 212 217
208 218 228
207 216 224
208 217 225
194 205 213
197 207 215
199 210 217
206 215 223
210 219 228
205 215 223
203 212 222
198 208 216
204 214 224
188 200 201
97 124 74
95 122 73
93 120 71
96 123 74
93 120 71
96 124 75
95 123 74
99 126 76
97 124 74
97 124 74
95 123 73
95 122 73
95 123 74
99 126 76
98 126 76
93 119 72
138 157 139
142 160 146
148 165 152
145 162 144
149 165 153
144 162 144
150 166 153
163 177 170
179 191 188
167 182 177
160 175 169
177 190 187
163 177 171
181 193 191
167 182 178
161 175 167
193 203 205
167 181 177
156 172 165
158 174 165
161 175 166
168 181 174
160 175 171
155 170 162
153 168 157
149 166 154
134 153 133
161 175 168
162 176 167
161 175 167
160 175 169
157 173 162
154 170 156
168 182 176
152 168 157
145 162 147
145 162 146
157 172 161
149 166 152
162 177 169
154 170 160
158 172 165
149 166 152
151 167 157
155 171 161
149 166 150
153 168 158
153 170 156
151 168 155
154 170 159
160 175 165
151 167 156
161 176 169
142 160 142
154 169 159
152 168 155
147 164 148
158 173 167
203 213 220
175 187 186
182 194 195
154 170 160
150 167 154
144 162 147
145 162 145
146 163 146
148 164 152
134 153 133
133 152 132
133 153 129
135 154 133
133 151 134
144 161 144
148 166 150
148 166 153
131 149 126
139 158 138
139 156 138
145 162 148
135 155 135
131 150 128
134 153 130
136 154 132
134 153 129
140 157 139
130 150 126
126 148 123
137 157 138
146 162 145
146 162 148
180 192 192
183 195 194
184 195 195
180 192 192
176 189 189
182 194 195
183 195 196
177 190 190
180 192 194
175 188 187
181 193 194
184 195 196
183 195 199
179 191 190
185 196 198
196 208 212
180 191 189
179 192 194
181 194 195
185 197 199
187 199 202
190 201 203
182 193 194
176 189 188
157 173 168
126 147 122
110 134 96
133 152 127
175 189 188
193 205 209
178 191 191
183 195 196
186 198 201
184 197 200
179 192 191
183 194 196
186 197 197
191 203 206
190 201 204
189 201 204
186 197 198
183 196 198
192 204 206
183 195 196
180 192 192
173 187 184
186 199 202
185 196 198
191 203 208
187 198 199
184 195 198
200 210 217
194 205 210
190 201 207
193 204 207
193 204 208
184 196 198
111 132 100
108 132 95
118 140 109
116 138 106
124 145 117
125 147 117
124 145 120
128 148 124
125 146 119
121 143 114
117 139 107
117 139 108
118 140 113
114 137 103
114 137 103
117 139 108
116 138 112
117 138 110
132 152 132
118 139 108
107 132 97
132 151 125
117 139 110
124 145 119
112 134 101
106 130 94
118 139 111
120 141 112
154 168 157
186 198 201
187 198 204
189 200 203
187 199 203
182 194 198
194 205 209
195 206 213
183 195 197
187 197 201
191 203 206
194 205 210
193 204 208
186 198 203
192 203 207
185 197 201
188 199 198
192 204 208
191 202 205
192 203 207
185 196 198
192 203 207
195 206 212
191 202 207
191 201 204
199 208 214
192 203 206
182 194 195
181 194 197
168 182 175
174 188 187
194 205 209
201 211 218
190 202 207
185 197 199
193 205 211
186 197 200
192 203 206
186 199 208
188 200 204
205 215 223
185 197 200
190 200 203
193 204 209
195 206 211
196 206 210
192 203 208
181 193 193
197 208 213
184 195 196
187 198 202
189 201 207
200 209 214
199 209 214
189 201 205
188 200 202
193 204 209
141 159 142
127 148 120
120 142 111
118 140 112
119 141 113
122 143 115
113 136 104
117 138 107
114 136 105
113 135 102
126 147 124
119 141 107
119 141 108
123 144 117
115 137 105
118 139 109
128 150 125
122 143 114
116 140 108
125 146 120
126 147 122
114 137 106
132 152 129
130 151 129
114 137 104
123 145 114
126 147 121
139 157 139
193 204 210
183 195 196
187 198 201
181 193 192
197 207 211
185 198 201
187 199 203
196 207 213
181 193 195
188 200 203
173 187 187
185 197 196
183 195 197
178 191 189
187 198 199
182 195 198
178 191 193
190 201 203
186 198 200
187 199 203
183 195 198
187 200 203
190 201 202
176 189 190
189 200 203
187 198 199
182 194 194
128 148 125
130 150 125
123 145 118
122 143 117
133 152 132
131 152 127
128 148 124
134 154 130
124 144 119
134 153 131
129 150 126
131 150 128
128 148 127
126 146 121
132 152 130
127 146 126
134 152 131
129 149 124
141 159 142
131 151 130
143 160 145
132 151 130
133 152 131
140 158 140
141 159 143
143 162 144
173 187 184
188 200 204
190 201 205
183 195 196
179 191 193
171 185 183
173 187 183
178 191 191
179 192 192
175 188 187
187 198 198
177 190 190
173 186 184
175 188 186
167 181 172
181 193 195
176 189 186
176 189 187
176 188 184
172 185 182
173 187 185
180 192 192
177 189 188
179 192 191
162 176 167
133 150 134
152 168 152
151 167 154
143 161 146
149 165 151
143 160 145
150 167 153
146 163 146
141 158 142
150 167 153
143 160 143
160 175 164
149 165 149
146 162 148
148 165 153
151 168 159
143 160 144
150 166 154
152 168 156
148 166 153
142 159 142
153 168 158
140 158 139
179 191 188
162 176 168
148 165 154
163 178 169
155 171 161
156 172 163
156 172 161
177 189 188
166 181 172
178 191 188
151 168 156
166 180 174
148 165 153
154 170 160
155 170 162
157 173 163
163 178 170
153 170 160
160 175 169
147 164 152
168 183 179
157 172 162
173 186 183
164 179 172
159 175 168
158 174 165
157 173 163
165 180 176
170 183 179
176 189 188
168 183 177
177 191 188
173 186 182
166 180 176
172 185 181
170 184 179
163 177 173
161 175 167
130 150 127
95 123 74
95 123 74
95 122 73
96 123 73
97 124 74
96 124 74
94 121 73
96 123 73
188 199 200
192 203 210
203 213 222
203 213 223
201 211 219
206 215 223
196 206 214
204 214 224
204 214 222
208 217 225
180 193 193
141 159 142
99 125 80
94 121 71
96 123 73
99 126 75
95 122 73
97 124 75
94 122 73
96 123 73
97 125 75
94 121 73
97 125 75
97 124 75
97 124 75
97 124 74
162 176 170
208 218 229
206 216 226
210 219 229
207 216 223
192 203 209
213 222 233
201 211 220
199 210 220
198 207 213
201 212 221
202 212 219
206 215 224
203 213 221
200 211 218
207 217 227
205 214 222
202 212 219
201 212 222
200 211 222
206 215 223
203 214 225
195 205 213
209 219 230
199 209 217
206 215 223
183 195 197
158 172 165
203 213 219
213 222 231
203 214 222
202 212 220
206 216 225
201 211 220
205 214 223
205 215 224
201 211 218
206 215 223
206 216 226
201 211 217
203 213 220
209 218 228
203 213 221
201 212 222
201 212 221
204 214 221
206 217 228
193 205 213
204 214 222
202 212 221
204 213 222
202 212 221
204 213 221
210 219 228
206 215 223
167 181 176
97 124 74
96 124 74
96 123 73
97 124 75
98 125 75
96 124 74
96 123 73
95 123 74
95 122 73
95 122 73
96 123 74
93 120 72
101 128 78
95 123 73
94 122 74
94 121 73
93 120 72
94 121 72
95 122 73
93 121 73
95 123 74
97 124 74
92 119 72
94 122 73
96 123 74
95 122 73
99 125 80
125 145 115
171 185 182
142 159 144
100 126 83
99 126 75
96 124 74
98 125 75
96 124 74
95 122 73
94 121 73
98 125 75
97 125 75
94 121 72
94 122 73
95 122 73
93 120 72
95 122 73
97 125 76
93 120 72
95 123 74
98 125 74
99 126 76
95 122 74
98 126 76
92 118 70
95 122 73
96 124 74
97 125 75
92 120 71
146 164 149
205 215 224
199 209 218
205 214 222
196 207 215
200 209 216
196 206 211
208 218 227
203 212 222
202 212 221
199 209 216
200 210 218
201 212 222
204 214 222
201 211 219
203 213 222
196 206 214
199 209 216
207 216 223
199 210 219
200 210 218
207 216 224
198 209 217
208 218 227
201 211 219
209 218 227
202 213 222
203 214 223
205 214 224
140 160 139
96 123 73
96 123 73
93 121 73
97 125 75
99 126 76
95 123 74
97 124 74
93 120 72
96 124 74
96 124 74
96 123 74
97 124 73
92 119 71
93 120 72
96 124 75
93 120 71
96 123 74
98 125 75
97 125 76
97 124 75
95 123 73
95 123 73
96 123 74
96 124 75
95 122 72
94 121 72
101 128 77
127 148 122
200 210 217
210 219 228
193 203 209
204 214 224
204 214 225
191 202 206
180 192 191
160 175 169
152 169 159
127 148 122
101 127 85
95 122 73
94 121 72
97 125 75
94 121 72
91 118 70
96 123 74
95 122 74
93 121 72
95 123 73
96 124 74
96 123 74
90 117 70
96 123 74
95 122 72
96 123 74
98 125 75
126 146 123
203 213 220
204 214 221
206 216 225
202 212 220
197 208 216
207 217 226
209 218 226
202 212 222
206 216 225
203 213 221
207 216 226
207 217 225
204 214 223
200 210 217
201 212 222
206 216 225
203 214 224
202 211 218
195 206 214
208 218 229
208 218 226
192 203 209
203 213 222
203 213 222
196 207 214
207 217 226
198 208 215
126 147 123
95 123 74
90 117 70
95 122 74
95 122 73
95 122 73
95 122 73
95 122 73
94 122 73
99 126 76
98 125 75
97 124 75
95 122 73
97 124 74
92 119 71
97 125 74
92 119 71
97 125 75
94 121 72
97 125 75
93 120 72
94 122 73
98 126 75
95 122 73
95 122 72
96 123 73
104 130 85
193 204 209
198 208 214
202 213 222
203 213 221
201 210 217
204 214 223
201 212 221
208 217 225
201 211 220
211 219 229
204 213 220
198 209 216
195 206 214
200 210 219
207 216 225
197 207 216
194 205 211
209 218 229
198 208 215
206 216 225
202 211 217
200 210 218
198 208 217
201 211 220
206 215 224
188 201 203
98 125 78
93 120 71
96 123 74
95 123 74
94 121 72
97 124 74
95 122 73
98 126 76
94 121 73
98 126 76
94 121 72
94 122 73
96 123 74
96 124 74
94 121 73
96 123 74
94 121 72
93 119 71
94 122 73
95 122 73
96 124 75
96 123 74
92 118 70
98 126 76
160 176 169
204 213 220
202 213 224
202 212 218
202 212 222
208 218 227
208 217 226
198 209 218
201 211 217
202 212 219
198 209 215
212 221 231
199 210 217
210 219 227
198 207 214
199 209 216
193 205 211
203 214 224
210 219 229
195 206 216
205 214 221
208 217 225
201 211 218
195 205 210
114 137 101
96 123 74
98 125 75
95 122 72
95 122 73
98 125 75
95 122 73
94 121 72
95 122 73
94 121 73
94 121 72
96 123 74
96 124 75
92 118 70
93 120 72
97 125 75
94 121 73
93 120 72
97 124 75
94 120 72
95 123 74
94 122 73
191 202 205
204 213 221
212 221 232
204 213 220
207 215 224
204 214 223
201 212 219
204 214 224
208 217 227
195 207 217
176 188 185
182 194 194
155 170 161
143 160 142
112 135 105
99 125 79
94 121 73
94 121 72
93 121 72
95 122 72
98 126 76
96 123 74
95 123 74
94 122 73
98 126 75
96 123 74
161 176 172
198 209 218
199 210 220
195 206 214
208 218 228
208 217 226
197 208 216
198 209 218
196 206 212
205 215 225
196 207 215
192 204 211
186 197 201
157 172 165
118 140 113
97 125 75
97 124 75
98 125 74
95 122 73
95 122 73
96 123 73
94 120 72
92 119 70
94 121 72
97 124 74
96 124 74
146 164 150
205 215 224
204 213 220
199 210 218
195 206 212
203 213 223
201 212 222
207 216 225
201 212 221
207 216 226
198 209 217
204 213 220
203 213 222
202 212 219
210 219 227
205 215 222
202 212 220
204 214 221
195 206 212
203 213 222
210 219 230
201 211 219
203 213 221
199 210 219
204 213 220
203 214 223
202 212 220
182 194 194
97 125 76
137 157 137
167 180 175
196 206 212
203 212 220
203 213 223
203 213 221
201 212 220
201 211 222
201 211 219
203 213 223
203 212 219
209 218 227
202 212 221
198 208 214
206 216 226
205 214 223
205 215 226
206 216 226
208 217 225
200 210 218
197 207 215
208 218 228
203 213 223
203 212 218
201 211 217
205 215 224
159 174 166
98 125 75
94 121 72
91 117 70
97 124 74
96 123 73
95 122 73
96 124 74
95 122 73
95 122 73
98 126 76
97 124 74
95 122 73
95 122 74
97 125 75
95 122 72
98 125 75
94 121 72
94 122 73
97 123 74
95 122 73
96 124 74
95 122 73
96 123 74
95 122 73
97 125 75
99 127 77
96 124 74
109 132 96
201 211 220
199 211 221
198 209 215
187 199 203
158 174 166
133 153 129
97 124 77
96 123 74
99 127 76
101 129 78
97 124 74
96 123 74
93 120 72
94 120 71
96 123 74
96 124 74
97 124 74
92 119 71
101 128 77
95 123 73
97 125 75
95 123 73
94 121 73
93 120 71
95 123 74
94 121 72
94 121 73
95 122 73
172 186 182
212 220 230
206 216 227
200 209 216
197 208 216
196 207 213
206 215 222
193 204 212
203 212 220
206 216 227
202 213 223
205 215 224
205 216 225
201 211 219
206 216 226
206 216 226
198 208 216
203 214 225
204 213 221
203 213 222
200 211 219
201 211 219
205 214 224
202 212 221
189 200 206
202 213 222
206 216 226
203 214 222
206 216 225
99 125 82
92 119 71
94 121 72
92 120 72
98 125 75
94 122 73
98 126 76
94 121 72
96 123 74
97 125 75
94 121 73
93 121 72
94 121 72
96 123 74
97 124 75
95 122 73
95 122 73
95 122 74
95 122 72
96 123 74
95 122 73
97 125 75
94 121 72
97 124 74
98 126 76
96 123 75
95 123 74
98 126 76
157 172 163
202 212 222
211 220 230
204 213 221
204 213 222
201 212 220
202 212 221
207 216 224
210 219 229
202 212 221
198 208 217
212 221 232
198 208 214
183 195 198
170 183 180
161 176 169
146 162 149
128 148 127
116 138 106
95 123 73
94 121 72
94 121 72
93 120 72
96 123 74
97 124 75
95 123 74
93 120 72
97 124 74
177 190 187
207 217 227
209 218 227
206 215 225
203 212 220
204 214 223
210 219 227
198 209 218
202 212 220
209 219 229
207 216 224
206 215 224
204 213 221
211 221 232
206 216 225
206 216 226
196 206 211
204 213 220
206 215 223
208 217 226
204 215 224
204 214 223
205 215 223
207 216 224
203 213 223
199 209 217
202 213 222
190 202 207
97 125 75
94 122 73
96 124 75
91 119 71
97 124 74
92 119 71
94 121 72
94 122 73
93 120 72
96 124 74
96 124 74
96 123 73
92 119 71
95 121 73
97 124 75
95 123 74
100 128 77
94 122 73
94 121 72
94 121 73
97 124 74
94 121 72
96 123 74
95 122 73
92 119 71
94 121 72
151 168 156
200 211 220
199 210 218
198 209 218
198 208 215
202 213 224
201 211 221
205 215 225
207 216 223
201 211 218
204 215 223
199 209 216
202 212 221
200 210 218
200 211 222
204 214 223
201 212 222
202 212 222
201 210 217
210 219 230
198 208 215
200 210 218
203 213 222
201 211 220
200 210 219
200 211 220
135 153 132
94 121 72
98 126 76
94 121 72
92 120 72
97 125 75
94 121 73
96 124 75
93 120 72
97 125 76
94 121 73
95 122 73
94 122 73
96 123 74
95 122 73
97 125 75
94 121 72
96 123 74
94 121 73
96 123 74
99 127 76
98 126 75
98 126 76
96 124 75
109 133 98
197 208 214
199 209 216
207 215 221
206 215 223
204 212 219
199 209 216
213 221 230
197 207 213
201 211 221
203 213 223
204 214 222
209 218 228
201 211 218
197 208 216
197 208 217
213 222 232
207 217 228
207 216 225
202 212 220
198 207 213
203 213 222
205 215 224
199 210 218
143 161 148
99 127 76
96 123 74
94 121 73
97 125 75
97 124 74
94 121 72
91 118 70
97 125 75
96 123 73
94 121 72
98 125 75
93 120 71
94 122 73
97 124 75
98 125 75
95 122 73
96 122 72
92 119 70
94 121 72
96 124 75
95 123 74
174 186 182
204 214 224
201 212 221
206 215 222
186 198 202
177 188 187
169 182 178
147 165 152
137 156 137
120 143 110
94 121 72
94 121 72
96 123 74
96 124 75
94 122 73
94 122 73
95 122 73
95 122 73
94 121 73
95 122 73
98 126 76
95 122 73
94 121 72
95 122 73
96 123 74
97 125 76
89 115 69
142 160 146
204 213 222
202 211 220
204 213 222
198 208 216
203 214 225
209 218 228
202 211 219
195 205 212
202 212 222
199 209 217
198 209 218
200 210 217
195 206 213
202 212 220
188 199 203
142 159 144
104 128 88
97 125 76
95 123 73
95 122 73
96 124 74
97 124 74
95 122 73
96 123 73
93 120 72
139 157 140
202 212 221
205 215 224
196 207 215
204 214 222
204 214 222
200 211 220
201 212 221
203 213 221
195 206 213
200 211 219
205 215 224
202 212 223
196 206 213
195 206 213
200 210 217
205 215 224
195 205 211
205 215 224
202 212 221
200 211 219
199 210 219
209 218 228
196 206 214
199 210 217
203 213 221
196 207 214
172 185 185
95 122 73
95 122 73
91 118 70
106 131 88
145 161 148
169 183 182
193 204 209
198 209 218
195 205 213
199 209 217
198 210 219
206 216 225
200 210 220
204 214 222
200 211 220
198 209 217
197 209 219
196 207 215
198 208 214
205 215 224
206 215 225
196 206 215
206 216 226
207 216 224
201 211 218
206 215 223
200 211 221
157 172 162
94 121 73
97 124 75
98 125 75
94 121 72
94 121 72
93 120 72
97 125 76
96 124 74
95 122 73
95 122 73
101 128 77
96 123 73
96 124 74
93 120 72
96 123 74
97 124 74
96 124 75
94 121 72
94 121 73
95 122 73
94 121 72
94 121 72
95 123 74
94 121 72
95 122 73
96 124 74
98 125 75
120 141 113
200 210 218
206 215 223
200 211 219
201 211 218
204 215 224
204 214 222
191 203 206
173 186 183
143 160 143
117 140 110
97 124 74
95 122 73
99 126 75
93 120 71
95 122 73
95 123 74
95 123 73
97 125 75
97 125 75
96 124 74
91 118 70
97 125 75
99 127 76
96 124 74
93 120 72
92 120 72
94 122 73
94 121 73
176 189 188
202 212 221
202 212 223
199 209 217
201 212 221
205 215 225
202 211 219
196 206 214
211 220 231
195 205 211
197 208 214
202 211 220
200 210 218
206 215 222
201 213 222
192 204 211
212 221 230
197 207 215
205 215 224
200 211 219
213 222 233
198 208 216
204 214 223
207 217 226
205 215 226
208 218 228
207 215 223
201 212 220
188 200 203
93 121 72
93 120 72
96 123 73
95 123 74
94 121 72
96 124 74
93 120 72
96 124 74
94 122 73
96 122 73
95 123 74
93 120 72
99 127 77
98 125 75
95 123 74
96 123 75
94 121 72
94 122 73
97 124 74
96 124 74
95 122 73
97 124 75
93 121 72
97 125 75
97 124 74
96 124 74
91 118 71
97 124 76
197 208 215
203 213 221
207 217 227
203 212 221
205 215 223
205 214 220
201 211 219
208 218 228
200 211 220
203 213 222
201 211 219
204 213 221
206 215 223
206 216 225
204 214 225
206 216 226
202 212 220
207 216 225
202 212 221
206 216 225
190 201 207
182 194 195
167 181 176
147 164 152
131 151 130
129 149 123
112 136 101
98 125 77
203 212 220
202 212 223
201 212 222
192 204 212
209 218 226
206 215 223
197 207 214
206 216 224
202 212 221
207 217 227
205 215 224
204 214 222
202 211 217
199 210 218
209 219 228
202 212 220
198 208 212
215 224 236
199 209 217
197 206 212
203 213 222
212 222 234
205 215 224
204 214 222
200 211 219
200 211 218
208 216 224
151 168 154
98 125 75
96 124 74
96 123 74
94 121 72
95 122 73
93 120 72
99 126 75
91 118 71
98 125 75
90 117 69
96 124 75
96 124 75
94 121 73
94 121 73
95 123 74
94 121 73
96 123 74
95 123 74
94 122 73
96 123 73
94 121 72
94 121 72
96 123 74
98 125 75
95 122 73
101 126 83
196 207 214
203 212 220
208 217 225
202 212 219
201 211 220
195 205 213
204 214 223
198 209 216
204 214 221
210 219 229
200 210 218
204 214 222
208 217 226
207 216 224
206 217 228
194 205 213
201 211 218
201 211 218
209 218 227
203 212 220
202 211 217
205 215 223
194 206 213
199 209 218
208 217 228
179 190 189
95 122 73
96 123 74
93 120 72
95 122 73
93 120 72
93 120 72
92 119 71
96 123 73
99 127 77
92 119 71
93 120 72
95 122 73
97 124 74
91 118 71
93 120 71
94 121 72
95 123 73
97 125 75
92 120 71
93 120 71
99 126 76
96 123 74
96 123 74
94 121 72
185 197 198
209 218 227
197 208 215
205 215 224
207 216 225
196 207 215
205 214 224
204 213 219
203 214 224
208 218 228
206 216 224
205 215 224
203 213 221
203 212 219
201 211 220
205 215 226
206 216 227
201 211 219
202 212 220
201 211 219
206 216 223
203 213 223
192 204 210
171 184 182
92 119 72
96 123 75
96 123 74
96 123 73
96 123 74
95 122 73
94 121 72
96 123 74
97 125 75
94 121 72
95 122 73
95 123 74
94 122 73
94 120 72
96 124 74
95 123 73
97 124 75
96 122 73
102 126 89
116 139 106
145 162 145
135 154 135
150 167 153
129 148 124
121 141 116
93 120 71
92 120 72
96 124 74
95 122 73
95 122 73
93 120 72
96 123 74
95 122 73
92 120 72
95 122 73
91 118 70
97 124 74
93 120 72
96 123 74
97 125 74
97 125 75
94 121 72
92 120 72
97 125 75
96 124 74
94 121 73
95 122 72
95 123 75
95 123 74
137 156 138
200 210 216
204 214 222
200 211 219
205 214 223
200 211 220
200 210 216
198 208 216
207 217 228
207 216 223
202 212 220
212 221 230
205 215 226
208 217 227
203 213 223
207 217 226
204 214 222
191 203 207
177 191 191
126 145 123
97 124 74
97 124 74
94 121 73
96 123 74
98 125 75
97 125 76
143 161 145
205 216 226
196 205 211
200 211 221
207 217 227
203 213 223
200 211 221
202 213 222
202 212 220
207 216 225
196 206 212
204 215 225
200 210 217
201 211 221
206 216 226
198 209 218
196 207 215
208 217 225
202 211 218
205 215 224
197 206 210
205 216 226
206 216 225
195 205 210
202 211 219
204 214 223
197 207 215
170 183 180
97 124 75
96 123 74
99 127 77
97 124 75
94 121 73
95 123 74
108 132 95
144 161 147
165 179 172
192 203 208
205 215 225
202 212 221
203 214 225
205 215 223
205 216 227
194 205 212
202 212 219
207 216 225
201 212 220
206 215 224
206 216 224
205 214 223
208 217 226
203 213 220
209 219 229
211 220 231
201 211 218
153 168 158
96 123 74
93 121 72
96 124 74
97 124 75
98 125 76
92 119 71
96 124 75
98 126 75
93 120 72
96 124 75
92 120 72
95 122 74
97 125 76
95 122 73
96 123 74
95 122 73
95 123 74
96 123 74
93 119 71
94 122 73
98 126 75
92 118 70
97 124 74
94 121 72
96 123 74
97 124 74
93 121 72
144 162 149
201 210 216
203 214 224
203 214 225
206 216 226
208 218 227
207 216 224
204 214 221
200 209 217
201 210 218
201 211 218
198 209 214
178 191 191
140 158 142
110 133 99
94 121 72
94 121 73
92 120 71
97 125 75
95 122 73
92 119 71
97 125 76
95 122 74
96 124 74
92 119 71
100 128 77
96 124 75
95 123 73
98 124 77
209 217 225
201 211 217
204 215 224
198 209 216
205 216 227
201 212 221
199 210 218
206 216 225
205 214 224
204 214 222
205 216 228
204 214 222
199 210 218
194 204 210
208 217 228
203 213 222
204 214 220
214 223 234
198 207 213
203 213 222
203 213 223
202 213 224
196 207 218
204 214 224
206 216 225
204 214 224
195 206 214
204 214 222
152 168 155
98 126 76
91 117 70
97 125 75
91 118 71
97 124 74
96 123 74
96 123 74
97 124 74
95 123 74
97 124 76
96 123 73
93 120 71
94 121 72
92 119 70
93 120 72
93 120 72
94 121 72
90 117 69
94 121 74
95 123 74
97 124 75
92 119 71
93 120 72
95 122 73
96 123 74
96 124 74
97 125 75
132 151 133
201 211 218
199 209 215
206 215 223
200 211 219
197 208 216
200 211 220
202 211 218
205 215 224
205 216 226
199 210 219
202 212 220
206 216 226
202 213 223
205 214 225
200 211 220
206 217 229
200 210 219
202 212 221
207 217 225
201 211 219
202 212 222
206 216 225
206 215 226
206 216 226
207 217 228
195 207 215
197 207 213
178 190 188
117 140 109
123 145 118
146 163 149
154 170 159
173 185 180
175 187 186
192 202 206
198 208 215
206 215 223
200 209 217
202 213 223
199 210 220
202 211 218
208 217 226
205 214 224
198 208 216
208 217 226
197 208 215
200 210 220
198 210 219
198 208 214
202 212 221
202 212 221
202 211 218
194 206 214
204 214 223
192 203 208
98 125 78
96 123 73
99 127 77
95 123 74
93 120 72
95 122 73
96 122 73
98 125 75
94 122 72
94 121 72
98 126 76
95 122 73
93 120 72
94 122 73
96 124 75
96 123 74
97 124 74
96 123 74
97 124 74
96 123 74
97 124 75
96 123 73
96 123 74
92 119 71
93 121 72
94 121 73
155 170 161
204 213 221
201 211 219
199 210 219
195 205 212
205 214 222
203 212 222
197 207 214
207 216 225
202 212 218
207 216 224
207 218 229
200 210 218
198 208 217
200 211 220
203 213 221
194 204 211
205 216 227
201 211 220
210 219 229
202 212 221
203 213 220
202 212 220
201 211 218
196 207 214
204 213 221
119 141 113
96 122 73
98 126 75
96 123 73
96 123 74
94 121 72
96 123 74
93 120 71
95 122 74
97 124 74
96 123 74
98 126 76
94 122 73
95 122 73
96 123 74
95 123 73
96 123 73
94 122 73
93 119 71
95 122 73
95 122 74
91 118 71
97 125 75
97 125 75
141 158 143
203 213 221
207 217 228
201 211 221
206 215 223
200 210 218
201 211 220
198 209 218
203 213 221
207 217 227
204 214 222
197 208 218
201 210 218
200 210 218
201 212 220
200 211 221
205 216 226
201 212 223
198 209 216
199 209 217
207 217 226
200 210 218
201 212 221
186 198 201
105 130 90
94 122 73
96 123 74
96 124 75
96 123 74
97 125 75
96 123 73
97 125 75
90 117 70
95 121 72
99 126 78
115 138 102
121 142 113
146 164 148
147 165 153
173 186 181
175 188 190
189 199 201
203 213 220
209 218 227
199 209 217
205 216 226
107 131 96
94 122 73
95 122 73
95 123 73
95 122 73
95 123 73
95 122 73
95 122 73
97 124 74
93 120 72
94 122 73
98 126 75
97 124 75
96 123 73
93 121 72
92 118 70
96 123 74
95 123 73
94 121 73
95 121 72
94 121 72
98 125 74
94 121 72
95 122 73
95 122 74
95 122 74
93 120 71
91 117 71
113 136 104
198 209 218
210 219 229
198 209 217
211 220 230
204 213 221
206 215 223
201 211 221
197 207 215
204 213 221
204 214 224
198 209 217
195 206 213
203 214 221
197 208 214
193 205 214
196 206 212
201 211 218
204 214 223
201 211 219
182 194 197
154 170 160
113 136 102
95 123 75
93 120 72
97 124 74
114 136 107
203 212 220
202 212 220
201 212 222
202 212 221
200 210 217
206 215 224
201 211 217
209 217 225
206 216 224
206 215 224
207 217 226
204 214 224
207 216 225
202 212 221
201 212 222
202 212 221
199 209 216
203 213 220
201 211 218
205 214 222
195 206 213
205 215 226
200 211 221
199 210 220
208 218 229
203 213 222
178 191 190
95 122 73
96 123 74
97 124 75
96 123 74
90 117 70
95 123 73
96 123 74
94 121 72
96 123 73
109 133 96
137 155 138
176 188 186
198 209 216
208 217 226
203 213 223
200 211 219
204 214 222
180 192 196
204 213 220
197 208 215
203 212 220
197 207 213
198 209 217
199 210 219
206 215 224
202 212 221
200 210 219
126 145 123
93 120 72
96 123 74
97 124 74
96 124 75
94 122 73
92 119 72
95 123 73
96 124 74
95 122 74
96 123 74
94 120 71
93 120 71
95 122 74
96 124 75
95 122 73
94 121 72
95 122 73
96 124 74
96 124 74
94 122 73
97 125 74
95 122 73
95 123 73
95 122 73
94 121 72
95 123 73
95 122 72
145 162 148
204 214 223
203 213 222
196 207 215
205 215 224
191 201 208
205 214 223
206 215 225
202 213 222
208 217 226
202 213 222
198 208 216
205 216 226
196 207 213
205 215 223
196 207 212
170 183 180
153 169 160
114 137 104
94 121 73
95 122 74
97 125 76
95 122 73
95 122 72
94 121 72
98 126 75
100 127 76
96 123 74
123 145 116
204 213 221
205 214 224
201 211 218
196 207 215
206 216 227
198 209 219
200 211 222
199 208 214
205 215 224
203 213 223
199 210 217
206 215 224
201 211 218
208 218 230
206 216 225
207 218 228
205 216 225
204 213 220
203 213 223
203 213 220
196 206 211
196 207 214
200 211 220
196 206 212
202 212 220
204 214 223
186 198 202
203 213 222
133 152 131
94 121 72
95 121 72
95 122 72
93 120 72
98 126 76
94 121 72
94 121 73
94 121 72
96 123 73
94 120 72
97 124 74
97 125 75
95 122 73
94 121 73
94 122 73
93 120 72
94 121 72
94 121 73
95 122 73
94 122 73
98 126 76
97 124 75
95 122 74
93 120 72
96 124 75
95 121 72
97 125 75
159 175 167
195 207 213
203 212 219
195 206 212
208 217 229
195 206 215
207 217 227
205 215 225
197 208 216
204 213 222
200 210 219
201 211 221
204 214 224
201 211 220
204 214 222
203 213 221
205 214 224
202 213 221
202 211 219
203 214 224
201 211 219
203 213 220
212 221 230
203 213 222
207 216 225
205 215 223
199 210 218
202 212 220
133 152 130
92 119 72
97 125 75
97 125 75
92 119 71
95 123 74
98 125 75
93 120 72
96 123 74
98 124 79
123 145 114
131 151 128
141 158 139
158 174 169
151 167 157
175 188 184
170 183 182
188 200 205
199 209 216
205 214 223
195 205 210
202 213 223
208 218 228
204 213 221
190 201 208
201 210 219
197 209 217
166 180 174
94 121 73
93 121 73
97 124 74
96 123 73
94 121 72
95 123 74
95 122 73
96 123 74
93 120 71
94 122 73
94 121 73
96 123 74
97 125 75
92 119 71
93 120 72
93 120 72
93 119 71
90 116 69
95 123 74
91 118 71
95 122 72
95 122 73
96 122 73
96 123 74
96 124 74
116 139 105
200 210 216
205 214 224
203 213 222
200 211 219
204 214 224
200 210 217
205 214 222
198 209 218
198 209 218
199 210 220
198 209 217
206 215 225
202 213 222
202 212 222
205 216 225
199 210 219
204 213 221
203 213 222
205 214 222
198 209 218
204 214 221
201 211 219
201 211 219
201 211 218
203 213 222
166 179 170
95 123 74
98 125 74
90 117 70
95 123 74
95 122 74
95 122 73
98 126 76
95 122 73
97 125 75
95 122 73
95 122 73
93 119 71
97 125 75
93 120 71
98 126 76
94 121 72
94 121 73
94 121 72
91 117 70
95 122 73
93 120 71
92 119 72
97 124 74
106 131 90
189 200 203
200 210 219
204 213 221
200 212 224
199 209 218
205 215 223
204 214 223
198 209 218
201 212 222
204 214 223
195 206 216
206 215 226
200 211 220
199 209 218
200 211 220
201 211 220
197 208 215
207 216 225
206 215 221
202 212 221
208 218 227
197 209 217
196 205 211
147 164 149
95 123 74
112 134 98
118 138 110
129 150 129
133 152 130
159 174 165
155 170 160
178 191 190
176 189 187
187 198 202
199 209 216
197 207 215
204 215 224
199 209 216
203 214 223
209 219 228
200 210 218
195 205 212
200 210 219
196 208 218
211 220 230
129 150 127
95 122 72
96 124 75
93 120 72
95 123 74
95 122 73
93 120 72
94 121 72
97 123 74
96 124 75
92 119 71
94 120 71
96 124 74
95 122 73
96 124 74
97 124 74
98 126 75
93 120 72
96 123 73
94 122 73
127 147 128
96 124 75
93 120 71
94 122 73
93 120 72
92 119 71
95 123 74
94 121 73
95 122 73
97 124 74
204 214 223
202 213 223
206 216 225
198 207 213
194 205 214
200 211 220
200 210 216
204 214 223
204 214 221
194 205 213
197 207 215
199 209 219
202 212 221
204 214 223
205 214 222
200 211 220
197 207 213
191 202 209
200 210 217
207 216 225
204 214 223
197 207 215
172 187 185
130 149 125
100 126 81
124 145 116
201 211 222
200 211 221
204 215 225
195 206 216
203 212 220
203 213 221
191 202 209
206 215 223
204 213 221
207 216 223
208 217 227
201 211 218
201 211 221
201 210 217
203 212 221
201 212 220
210 220 229
197 208 215
203 213 223
202 211 219
204 214 222
199 209 218
203 212 221
204 214 222
194 205 212
212 221 230
183 196 200
95 122 73
98 126 76
97 125 74
94 121 71
92 119 71
94 122 73
93 120 72
96 123 74
93 120 71
95 123 74
97 125 75
94 122 73
101 126 86
145 163 145
170 182 178
199 209 215
193 204 212
204 214 222
209 218 228
199 209 218
202 212 218
207 216 227
197 208 218
207 217 227
196 206 213
192 203 208
208 218 228
123 143 118
97 125 75
96 124 75
93 121 73
93 120 71
93 121 72
92 119 71
96 124 74
96 123 74
96 123 73
93 120 72
95 122 73
93 121 72
90 117 69
95 123 74
92 119 70
96 123 74
95 123 74
94 121 72
91 118 70
93 119 71
90 117 69
94 121 73
95 123 73
99 126 75
96 124 75
96 123 74
96 124 74
176 189 189
200 210 218
195 206 215
200 210 219
200 210 218
206 215 223
200 210 217
201 212 221
196 207 213
200 210 217
202 212 221
201 212 222
203 212 219
208 217 227
196 208 218
205 215 222
194 205 211
203 212 220
200 210 216
193 204 208
161 176 170
139 156 141
116 138 106
95 122 73
95 122 74
94 121 72
91 118 71
96 123 74
143 160 145
197 208 215
202 213 223
206 215 223
200 209 216
205 215 223
205 214 222
205 215 225
202 212 220
200 211 220
206 215 223
203 213 223
202 212 219
202 211 218
205 215 225
206 215 225
207 217 227
204 214 224
201 211 218
202 212 220
205 215 225
203 212 223
203 213 223
199 209 214
207 216 225
199 209 217
210 219 228
202 212 220
193 205 212
101 127 83
97 125 75
93 121 73
96 123 74
93 120 71
96 123 74
92 119 71
96 124 74
91 118 70
96 122 73
96 123 73
93 120 72
98 125 75
94 121 72
95 123 73
96 123 73
96 124 74
96 123 74
94 121 73
94 122 72
92 119 71
95 122 73
97 124 75
96 123 74
92 119 70
94 121 73
95 122 72
96 124 74
187 198 201
204 214 223
210 219 229
205 215 223
201 211 220
205 215 224
204 213 220
197 208 215
202 212 220
200 210 218
202 213 222
207 216 224
203 213 222
199 210 217
191 203 210
202 212 219
202 212 221
200 210 220
208 217 227
203 213 221
201 212 223
201 211 220
207 217 227
200 210 219
207 215 221
199 210 219
201 211 219
190 202 207
92 119 71
94 121 73
95 122 74
93 120 71
93 120 71
96 124 74
94 121 73
97 124 74
92 119 71
95 122 73
95 122 73
94 121 72
94 122 73
92 119 71
95 122 73
98 125 76
97 124 74
92 119 71
98 125 75
103 129 86
114 137 103
130 149 126
135 153 136
149 166 154
142 160 142
168 181 177
174 187 187
151 167 154
122 143 113
115 138 102
108 133 93
92 119 70
95 123 73
94 122 73
95 122 73
93 120 71
95 123 74
94 121 72
93 120 72
95 122 73
93 120 72
98 125 75
93 120 71
97 125 75
96 123 74
98 125 75
97 124 74
92 119 71
93 120 71
94 121 73
92 119 72
95 122 74
98 125 75
156 171 161
206 216 226
203 214 223
206 215 224
200 211 218
204 215 225
207 217 226
206 216 225
198 209 218
207 217 225
200 210 218
196 206 212
196 206 214
200 211 221
198 209 218
212 220 229
200 211 221
199 210 220
197 208 216
201 211 219
203 213 221
202 212 222
202 211 219
200 210 215
205 214 224
198 208 215
101 126 86
95 123 74
95 122 73
97 125 75
96 123 75
95 122 73
96 123 73
95 122 73
95 122 72
97 124 75
96 124 74
92 119 72
97 124 75
94 121 72
94 122 74
93 120 72
94 122 73
96 123 74
96 123 74
96 124 74
96 123 73
97 125 75
96 123 73
96 124 74
178 191 190
198 208 214
202 212 222
201 210 215
200 211 220
208 217 226
199 209 216
194 206 216
206 215 223
198 208 216
202 212 221
198 209 217
204 215 224
198 208 215
202 211 217
186 197 202
178 191 192
185 197 198
161 175 171
174 187 181
159 174 162
140 157 139
134 154 132
174 188 185
189 200 204
197 207 212
203 213 221
205 215 225
204 214 222
196 207 215
201 211 220
206 216 227
205 214 222
205 215 222
203 212 219
207 216 225
204 214 223
197 208 216
203 213 224
200 211 218
199 210 218
200 210 216
203 213 222
203 213 222
197 208 217
164 178 173
96 123 74
95 122 73
94 122 73
94 120 72
96 123 74
93 120 72
90 117 69
95 123 73
95 122 73
94 122 73
93 121 72
95 122 74
91 117 70
96 124 74
95 122 73
94 121 72
94 121 72
95 123 74
99 127 77
115 138 104
187 199 204
176 190 188
136 156 135
94 121 72
91 119 71
96 123 74
99 127 76
97 124 75
96 123 73
95 122 73
173 187 189
200 211 219
207 216 225
204 214 223
202 212 220
199 209 216
198 209 216
201 211 219
208 218 229
199 209 217
209 218 227
204 214 223
198 208 217
205 214 222
197 206 211
196 207 214
207 218 228
200 211 219
203 213 220
194 204 212
200 210 217
208 218 228
204 213 221
205 215 224
201 211 218
164 178 172
183 195 197
199 211 221
205 214 223
202 211 219
200 210 218
203 212 219
205 215 225
203 213 221
202 212 221
204 215 225
201 211 219
208 217 225
199 209 215
201 210 217
204 214 223
196 206 212
205 214 222
205 214 224
201 210 219
199 210 221
204 213 221
192 204 212
203 212 219
193 204 211
210 219 228
198 209 217
185 197 200
97 124 75
92 120 72
99 127 76
95 123 73
94 121 73
93 120 71
95 123 74
93 120 72
89 116 69
94 122 73
95 123 74
94 121 73
98 125 75
97 124 73
94 122 73
100 126 83
130 150 129
162 178 171
193 203 209
198 208 214
194 205 212
188 200 207
206 216 225
206 216 226
199 209 216
201 211 218
204 214 222
115 138 109
96 124 74
96 124 75
99 126 75
95 122 73
97 124 74
95 122 74
92 119 71
95 123 73
92 119 72
95 123 74
97 125 75
95 122 74
96 123 74
92 119 71
94 121 72
95 122 73
92 119 72
96 123 74
98 125 75
94 121 72
95 122 73
94 121 71
95 122 73
95 122 74
95 122 73
97 125 75
92 119 70
177 189 190
201 212 222
202 211 220
202 212 220
202 212 221
202 212 220
206 216 225
207 216 226
199 210 219
208 217 227
199 209 217
205 216 228
205 215 225
205 215 224
193 204 211
197 207 213
209 218 228
201 211 219
204 215 225
208 217 226
198 208 216
198 208 216
198 210 219
196 207 212
173 186 183
145 163 148
122 145 117
92 119 71
165 179 174
205 216 227
196 207 214
201 212 220
203 214 222
200 209 218
203 213 223
198 208 216
202 212 221
188 199 205
203 213 224
202 212 221
200 210 218
203 213 221
210 219 229
198 208 214
208 217 226
200 210 217
197 209 218
199 210 218
206 216 225
200 210 218
198 208 214
203 213 222
196 206 214
193 204 211
203 213 221
202 213 222
174 187 184
97 125 74
93 120 71
96 123 74
92 119 71
95 122 73
94 121 72
97 124 75
94 121 72
93 120 72
95 123 74
94 121 72
98 126 76
95 122 73
94 121 73
96 123 73
96 123 73
96 124 74
94 121 72
96 124 74
94 122 73
97 125 75
97 125 75
92 120 72
96 123 74
94 121 72
94 121 72
96 123 74
128 147 123
202 212 221
203 213 221
204 213 222
204 214 224
199 210 220
203 214 224
197 207 215
208 217 227
209 218 228
197 207 214
205 215 224
207 216 224
194 205 211
198 209 216
200 211 219
204 213 222
208 217 224
201 212 220
206 215 223
199 210 217
195 206 213
204 213 221
205 215 225
211 220 230
191 202 209
204 214 223
202 212 221
136 156 138
96 124 75
97 125 75
97 124 74
95 123 74
93 121 73
99 126 76
96 122 73
97 125 75
96 123 74
97 125 75
98 125 74
96 124 75
95 122 73
92 119 71
99 127 76
98 126 76
93 119 71
95 123 74
97 125 75
92 118 70
98 126 76
95 122 73
100 128 77
93 120 72
97 124 75
95 123 74
147 163 152
194 204 210
201 212 222
200 211 219
199 210 217
209 218 228
193 205 211
178 191 190
191 203 206
169 183 184
180 192 190
167 180 176
180 192 190
158 173 166
138 157 140
143 161 147
142 159 141
112 135 108
124 144 117
113 134 103
118 139 109
99 124 84
98 125 78
95 122 73
95 123 74
94 121 72
108 133 93
195 206 212
195 206 214
207 217 227
202 212 220
201 211 218
204 213 222
204 214 224
208 218 226
199 210 219
212 221 232
197 208 216
204 214 224
203 213 222
197 208 215
204 214 222
207 217 226
201 211 219
207 216 225
202 212 219
207 216 224
206 216 227
201 211 219
207 215 223
206 216 225
198 208 217
141 160 141
92 119 71
94 121 73
95 123 74
92 119 70
94 121 72
97 124 74
95 123 73
95 122 74
98 125 75
92 120 72
97 125 76
96 123 74
96 124 74
96 123 74
95 122 73
91 118 70
94 121 73
95 122 72
91 118 70
97 125 75
96 123 74
97 124 78
102 127 86
135 153 134
190 201 204
183 195 197
175 189 188
174 187 184
169 182 179
154 170 161
158 173 165
144 161 144
133 152 134
136 155 134
138 155 136
128 148 124
112 135 99
107 132 90
93 121 72
95 122 73
96 123 74
94 121 73
91 118 70
97 125 75
94 121 72
96 123 74
128 146 124
199 209 216
198 209 218
202 213 222
205 215 224
199 210 219
197 207 212
200 211 222
201 212 224
207 216 224
205 215 223
203 212 220
194 206 215
199 210 218
199 209 216
208 217 227
199 210 218
201 211 219
196 207 214
201 212 220
194 206 214
200 210 216
181 193 193
96 123 74
97 124 74
95 123 73
93 120 72
92 119 71
98 126 76
92 119 71
96 123 73
95 122 73
96 124 74
93 119 71
98 125 76
96 123 73
93 120 72
95 122 74
97 124 75
97 125 76
97 124 75
97 124 74
112 135 102
196 207 213
200 211 220
198 209 216
199 209 217
174 187 186
145 162 148
98 125 80
91 118 69
97 124 75
95 122 73
94 122 73
166 180 176
203 212 219
193 204 211
195 206 213
197 208 217
205 215 225
207 216 226
196 207 214
203 213 223
194 206 216
197 207 214
199 210 217
195 206 212
198 209 218
199 209 218
197 209 218
206 215 222
192 203 209
191 202 211
190 201 208
199 209 216
198 210 220
202 213 222
205 215 224
199 211 220
200 209 218
106 131 92
125 145 117
168 182 175
197 207 213
205 214 225
202 212 222
206 216 226
206 216 226
202 212 222
200 210 218
200 210 217
201 212 219
201 211 219
201 212 221
206 215 223
205 215 224
200 209 216
195 206 213
201 211 219
210 219 230
207 216 224
202 212 220
201 212 223
197 207 214
203 212 218
201 211 221
179 191 191
97 124 74
95 122 73
93 120 71
96 123 74
94 121 73
96 123 73
97 125 75
91 118 71
96 124 74
94 121 72
96 123 73
95 123 74
100 128 77
96 123 74
96 123 74
91 118 69
94 121 72
91 118 70
99 126 78
139 157 141
158 173 163
188 200 203
196 206 214
206 215 222
204 213 221
193 204 209
202 211 217
110 134 98
96 123 73
94 121 72
98 126 75
96 123 74
93 119 70
95 123 73
98 125 75
95 123 74
93 120 72
97 124 75
94 121 73
94 121 72
97 124 74
96 123 73
97 125 75
93 120 72
96 124 74
94 122 73
93 120 72
98 126 75
96 124 75
94 121 72
93 121 72
94 122 73
94 122 73
96 123 73
94 121 72
199 209 216
202 212 220
198 208 214
200 211 219
195 206 212
197 208 216
194 205 211
200 210 219
200 210 217
204 214 224
194 205 211
195 206 214
196 207 215
210 218 226
197 207 215
199 209 216
208 217 227
200 211 220
203 213 223
204 214 223
196 207 214
205 214 223
199 209 217
206 215 223
210 220 230
207 216 224
206 216 227
191 202 209
144 160 147
158 173 163
184 196 200
195 205 209
200 211 219
203 213 222
197 208 215
196 206 214
201 210 217
209 218 227
209 218 228
199 209 217
201 210 219
204 214 223
204 213 221
202 213 222
206 216 225
197 207 214
201 211 219
203 213 221
206 215 224
191 203 210
194 205 212
202 213 223
204 214 224
197 208 216
190 202 209
205 215 225
154 170 161
97 124 75
95 122 72
97 125 74
97 125 75
93 121 72
94 121 72
96 123 75
94 121 73
93 121 72
93 120 72
93 120 72
95 122 73
97 124 74
89 116 69
96 123 73
94 122 73
98 126 76
93 120 72
93 120 72
94 121 72
99 126 76
96 123 74
93 120 71
94 121 73
93 120 71
93 119 71
97 124 74
166 181 175
204 214 221
197 208 215
207 217 226
196 206 212
204 214 224
207 216 225
195 206 213
203 213 224
201 211 218
200 210 218
197 208 214
201 211 220
206 215 224
199 210 219
204 214 224
198 208 215
197 207 212
191 202 209
199 209 218
200 209 215
204 214 224
206 215 224
199 209 216
205 215 223
194 205 213
192 202 208
201 211 216
103 128 88
96 124 75
91 118 71
96 124 75
94 121 73
94 121 72
93 121 72
91 118 70
97 124 74
95 122 73
98 125 75
96 123 74
98 126 76
95 122 72
90 118 70
96 123 74
97 125 74
95 122 73
96 124 75
91 118 70
96 123 73
97 124 74
94 121 72
94 121 72
94 122 73
92 119 71
104 128 88
196 206 211
206 216 225
206 215 224
198 208 213
194 205 212
205 214 223
201 211 221
201 210 219
205 215 224
207 216 226
194 204 212
201 210 218
196 206 213
202 212 222
195 206 214
197 208 217
204 214 224
195 206 214
201 211 219
207 216 224
204 214 223
201 212 221
198 208 217
200 210 217
197 208 215
192 203 208
131 150 131
123 144 113
124 143 119
124 145 118
131 151 127
140 159 142
133 151 131
141 159 142
136 156 138
142 160 146
148 164 149
135 153 137
161 177 168
169 183 177
162 178 172
161 176 167
150 167 160
158 174 164
165 179 172
161 176 168
168 182 178
160 175 166
152 168 156
159 174 168
153 169 156
170 183 182
150 167 154
148 165 152
157 172 162
156 171 162
161 176 166
157 172 163
164 179 172
160 176 168
164 179 172
174 186 182
166 179 174
166 180 177
182 194 195
176 190 191
177 189 189
179 191 191
189 201 205
190 201 206
204 213 221
198 208 215
197 208 216
203 213 219
198 208 216
195 206 212
116 139 108
94 122 73
91 118 70
95 123 73
93 121 73
97 124 74
95 122 72
95 122 73
97 125 74
95 122 73
95 122 73
96 123 73
94 121 73
97 124 74
96 123 74
93 120 72
93 120 71
94 122 73
93 121 73
95 122 73
95 123 74
95 122 73
99 126 82
186 198 204
204 214 223
209 219 229
204 214 221
205 216 227
201 211 221
198 208 216
205 214 221
194 205 212
204 214 223
203 214 224
198 208 215
202 212 222
205 215 223
203 212 219
203 213 223
205 215 225
202 212 219
209 219 230
200 210 217
205 214 223
180 192 194
98 124 79
97 124 75
95 122 73
95 122 72
93 120 72
94 121 73
96 123 74
96 123 74
97 124 74
94 121 72
92 119 71
91 117 70
96 123 74
95 122 73
96 123 73
96 123 73
93 121 72
90 117 70
95 122 73
99 125 77
181 194 195
208 217 227
210 218 227
202 212 219
205 215 224
207 217 225
195 207 217
199 210 219
173 186 183
117 140 108
99 127 77
100 128 77
159 175 167
197 207 214
199 210 220
209 218 227
207 216 224
198 209 216
206 216 227
203 213 222
204 214 223
207 216 225
201 211 220
205 215 222
203 213 224
201 212 221
203 213 223
196 207 214
203 212 219
209 218 226
199 209 218
207 216 225
197 207 214
199 210 221
206 216 225
211 221 232
202 211 219
199 210 219
116 139 107
96 123 74
96 124 75
102 129 82
127 146 124
170 185 183
200 211 218
203 213 221
207 217 225
203 213 221
211 220 229
203 213 223
196 206 212
202 213 223
208 217 225
204 214 223
203 212 221
195 205 213
202 212 221
193 204 212
211 220 229
202 212 219
200 211 221
203 214 223
201 210 219
208 217 226
177 191 191
95 122 73
95 122 73
97 124 75
95 123 74
96 123 73
97 125 75
91 118 70
96 123 74
94 122 73
95 123 73
94 121 72
97 124 74
95 122 73
98 126 75
93 120 72
98 126 76
98 125 76
95 122 73
97 124 74
95 122 74
93 120 72
96 123 74
120 142 111
151 168 156
176 189 190
202 211 219
197 208 217
107 131 95
92 119 71
95 123 75
99 127 77
93 120 71
97 125 75
97 125 75
92 119 72
92 119 71
94 121 73
94 121 72
92 118 70
96 124 74
99 126 76
98 125 75
94 121 72
95 122 73
92 119 71
91 118 70
98 126 76
96 123 74
95 123 73
96 123 74
97 125 75
96 123 73
97 124 75
90 117 70
111 134 100
207 216 226
203 212 221
202 213 222
200 209 217
202 211 219
208 218 228
198 208 215
207 217 227
198 209 218
200 210 217
203 213 221
198 209 219
203 213 221
204 214 224
199 209 215
201 211 218
205 214 222
206 216 225
202 212 222
205 215 224
203 213 221
198 209 218
205 215 224
203 213 221
201 212 222
198 209 219
198 209 219
204 213 221
103 128 88
96 123 74
96 123 74
97 124 79
130 150 128
143 160 141
158 174 166
193 204 209
203 213 222
200 211 220
204 213 221
201 211 219
203 214 224
206 216 223
193 204 210
204 214 223
193 204 210
207 217 227
197 208 216
197 207 215
209 219 228
195 205 212
202 211 219
202 212 220
204 214 223
209 218 228
198 209 217
203 213 222
114 136 106
95 122 73
93 121 72
92 119 72
94 121 72
95 122 74
95 122 73
93 120 71
95 122 73
93 120 72
95 122 73
94 121 72
96 124 75
99 126 76
97 124 74
98 126 75
94 121 72
93 121 72
94 121 73
97 125 75
97 125 75
96 124 75
97 124 74
94 121 72
94 121 72
95 122 74
94 122 73
92 119 71
187 199 201
208 217 226
205 216 227
198 209 218
205 215 225
203 212 219
203 213 222
203 213 221
196 207 214
203 213 223
207 217 226
201 211 219
208 217 225
204 213 221
198 209 219
203 213 221
205 215 224
202 212 222
204 214 220
202 211 218
197 208 217
204 215 224
203 214 224
194 204 211
205 215 226
207 216 226
206 216 227
170 184 182
91 118 70
93 119 70
91 118 70
91 118 70
95 122 73
96 123 73
93 121 72
92 118 70
96 123 73
96 123 74
93 121 72
91 118 71
92 119 71
94 121 72
94 122 73
95 122 73
95 123 74
94 121 73
99 126 76
90 117 69
94 121 72
98 126 76
98 126 77
97 125 75
95 123 74
98 126 75
151 168 155
201 211 221
209 218 227
203 213 221
212 220 228
201 212 222
193 203 210
207 216 224
204 214 223
204 213 221
200 209 216
205 215 225
199 210 218
200 210 217
197 208 216
199 209 214
206 216 226
195 207 215
205 215 224
203 213 221
207 217 228
208 218 227
200 211 221
201 212 222
204 214 223
204 214 221
201 211 218
98 124 80
93 121 73
95 122 73
97 124 74
93 120 72
95 123 73
87 114 68
94 121 72
96 123 74
96 123 74
93 120 72
97 125 75
98 126 76
95 123 74
97 124 75
95 123 74
96 123 74
93 120 72
95 122 73
98 125 75
93 120 72
95 122 73
94 121 72
94 122 74
98 125 78
190 202 206
202 213 222
196 206 212
202 212 219
203 212 220
211 220 230
199 209 216
199 209 218
196 207 214
199 209 217
202 211 218
211 219 227
204 214 223
197 208 217
203 213 218
202 212 219
208 217 227
202 212 220
201 210 218
200 210 218
205 215 224
204 213 220
196 207 217
205 214 223
147 164 148
95 122 73
97 124 74
90 117 70
96 124 74
95 122 73
94 120 71
92 118 70
98 125 75
97 125 75
95 123 74
95 123 73
95 122 73
94 122 73
96 123 74
94 121 72
93 121 72
95 122 72
93 120 72
92 119 71
97 125 75
97 125 75
96 122 73
161 175 169
209 218 226
205 215 224
205 215 225
197 207 215
203 214 223
208 218 230
206 215 223
200 211 221
202 213 223
208 217 226
201 211 219
204 213 220
206 215 224
194 205 212
205 214 223
197 208 214
197 208 216
202 212 220
197 207 214
197 208 217
203 214 224
124 143 120
97 124 74
93 120 72
95 122 73
95 122 73
96 124 75
94 121 73
93 120 72
95 122 73
90 117 69
94 122 73
93 120 71
97 125 74
89 115 68
93 120 71
98 126 75
96 123 74
91 118 70
92 119 71
99 127 76
158 174 164
201 211 221
196 207 214
207 216 225
201 211 219
207 216 225
202 212 220
199 209 219
204 214 224
199 210 219
198 209 217
189 200 203
146 162 150
149 166 154
196 208 216
195 206 215
205 215 224
195 206 214
201 212 220
201 211 219
203 212 220
198 209 216
210 219 227
200 211 220
203 214 225
204 214 223
202 213 223
199 209 217
201 211 217
199 209 216
197 208 217
201 212 221
202 213 223
204 213 222
199 210 218
208 218 228
202 212 221
198 208 214
206 216 225
123 145 119
97 125 75
96 123 73
94 121 72
96 124 74
95 122 73
95 122 79
137 155 136
179 190 191
197 206 212
199 210 219
206 215 226
196 206 215
199 210 220
189 200 206
203 213 221
205 215 225
203 212 220
205 215 225
200 210 216
205 215 224
202 212 220
207 216 225
201 210 216
206 216 224
204 214 223
180 192 193
93 120 71
93 120 72
96 123 73
96 124 74
96 123 73
96 124 74
94 121 73
97 125 75
93 121 73
95 122 73
93 119 71
97 124 74
96 124 74
94 121 72
96 124 75
93 120 72
91 118 71
94 121 72
98 126 76
95 122 73
94 121 72
96 124 74
95 122 74
91 118 70
91 118 71
103 127 91
148 165 152
142 160 142
107 131 92
92 119 71
95 122 73
92 119 71
93 120 71
96 124 75
97 124 74
100 127 76
93 121 73
98 126 77
95 122 73
99 126 76
93 120 72
99 126 76
94 121 72
98 125 75
93 120 72
96 123 74
94 121 72
97 125 75
97 124 74
95 122 74
93 120 72
93 121 72
93 121 72
97 124 75
122 142 115
188 199 206
209 219 229
182 194 199
189 201 207
209 219 227
202 213 221
200 211 220
201 210 217
209 219 228
199 210 218
205 214 223
203 213 221
199 208 214
202 212 222
207 217 228
200 210 218
201 211 220
199 209 217
202 212 219
206 216 225
211 220 230
198 209 217
207 216 225
203 214 224
203 213 222
205 215 223
198 208 215
187 199 203
95 123 74
93 120 72
94 122 73
92 119 71
97 124 75
93 120 72
97 124 74
93 120 72
114 136 101
140 158 144
158 173 165
179 192 190
201 211 220
203 213 221
188 199 206
205 216 227
202 212 218
204 214 224
189 199 203
195 206 213
196 207 215
201 212 222
197 208 215
210 218 227
209 218 227
202 211 218
201 212 222
198 208 213
93 120 72
97 125 76
97 124 75
96 124 75
93 120 71
97 124 74
93 120 72
95 122 73
96 124 75
95 123 74
91 118 71
97 124 74
96 124 75
96 124 75
89 115 69
96 123 74
90 116 69
95 122 73
91 118 70
95 122 73
95 122 73
95 122 72
93 120 72
95 122 73
93 120 72
94 122 73
92 119 71
145 161 151
202 212 221
202 213 221
198 209 216
199 209 216
195 206 212
204 214 224
208 218 230
212 220 229
204 214 223
201 211 218
203 213 220
194 206 213
196 207 216
205 214 222
195 207 215
204 214 221
196 207 216
194 205 211
205 215 225
204 213 222
197 206 212
197 208 215
202 212 220
204 214 222
206 215 224
199 209 216
199 210 218
119 141 113
95 122 73
97 125 75
96 123 73
95 122 74
95 122 73
97 125 75
93 120 72
92 119 70
94 121 72
94 121 72
94 121 72
89 116 68
95 122 73
99 126 76
98 126 76
96 123 74
97 124 74
96 123 73
95 122 73
95 123 74
94 121 73
93 120 71
94 120 72
94 121 73
94 122 73
93 120 72
195 206 211
196 207 215
208 217 227
206 215 222
193 205 212
207 217 226
203 213 222
202 212 223
201 211 219
204 214 226
195 206 212
199 209 217
202 213 223
207 216 225
199 210 218
204 214 222
207 217 229
202 211 219
201 211 221
194 205 213
198 209 218
199 210 217
202 212 221
203 213 223
205 214 222
203 212 219
132 151 131
92 119 71
97 125 75
92 120 72
97 125 75
96 123 73
92 120 71
94 121 72
98 125 75
97 124 74
94 121 72
94 122 72
94 121 72
91 119 71
97 125 76
97 124 75
96 123 73
97 124 75
95 123 73
95 122 73
98 125 75
94 121 73
90 118 71
92 119 71
92 119 70
140 157 143
199 209 217
199 209 215
199 209 218
199 210 217
208 218 228
200 210 218
202 212 220
205 216 227
195 205 210
204 213 221
202 212 220
201 212 223
202 212 220
203 214 225
201 211 219
201 212 221
195 207 215
193 203 210
206 215 223
194 204 210
200 210 216
206 216 227
200 211 219
169 182 180
97 124 74
93 120 71
94 121 71
93 120 72
97 124 75
96 124 75
94 121 72
97 125 75
95 122 73
95 123 74
96 124 74
97 125 75
95 122 73
96 124 74
96 123 73
94 122 73
95 122 73
97 124 75
91 117 69
96 124 75
93 119 70
95 122 73
135 154 136
202 212 218
198 209 216
208 218 228
201 210 216
200 210 218
204 214 223
203 214 224
202 213 222
202 212 220
202 212 221
197 207 216
203 212 220
199 210 219
201 211 220
198 209 217
205 215 225
204 213 219
205 215 224
204 213 221
204 214 223
203 214 224
155 171 157
94 121 72
95 123 75
93 120 71
98 125 75
95 122 73
93 120 72
95 122 74
94 121 72
96 123 73
95 122 73
95 122 73
95 122 73
92 119 71
94 121 72
96 124 75
94 122 73
93 121 73
93 121 72
95 123 74
152 167 155
187 198 204
202 211 219
203 212 220
194 205 210
205 214 223
198 209 218
201 211 221
207 216 227
195 206 216
208 217 224
195 206 214
195 206 214
196 206 215
187 199 202
160 175 167
180 192 194
198 208 216
196 208 219
196 207 214
200 210 220
198 209 217
208 217 227
195 206 214
206 216 226
206 215 223
200 210 220
203 212 222
202 212 221
198 208 215
202 213 221
207 216 224
206 215 223
203 213 222
200 211 220
201 211 221
196 206 213
202 213 221
204 214 223
199 209 216
134 152 133
91 118 70
97 124 75
96 123 73
92 119 71
94 122 73
93 120 72
97 124 74
90 117 70
115 137 107
151 167 157
186 197 198
199 209 215
208 217 226
201 212 221
197 207 214
203 213 221
203 213 222
207 217 225
190 201 207
197 206 212
204 214 223
207 216 223
197 208 215
198 210 219
200 210 216
187 198 199
94 122 73
91 118 70
94 121 72
93 119 71
93 119 71
98 125 75
95 123 74
94 121 73
94 121 72
96 123 74
96 123 73
92 119 70
93 120 71
95 122 73
95 122 73
92 119 71
91 118 70
91 118 71
94 122 73
95 123 74
95 121 72
94 121 72
95 122 74
96 123 73
91 118 70
94 122 73
100 125 82
209 218 228
201 210 218
188 200 202
140 158 140
116 139 106
93 120 72
94 122 73
95 122 73
95 122 73
97 124 74
94 121 73
94 122 73
94 120 72
95 123 73
94 121 72
97 124 75
91 118 71
96 123 74
92 119 71
96 123 74
94 121 73
95 123 73
96 124 75
91 118 70
94 122 73
96 124 75
95 123 74
133 152 130
197 207 215
206 216 226
200 210 218
206 215 222
201 210 216
209 218 229
200 210 218
196 206 212
204 213 220
209 217 225
201 211 218
203 213 223
206 217 227
198 208 215
203 212 221
206 216 226
200 211 220
194 205 211
209 218 227
197 207 215
205 215 225
205 214 221
198 208 214
202 212 222
196 207 214
204 215 224
200 211 221
162 177 172
91 118 70
94 121 73
94 121 72
96 123 74
92 118 70
95 123 73
97 124 75
90 117 70
99 127 76
92 119 71
94 121 72
93 120 72
91 118 71
117 138 108
142 160 142
163 177 171
179 191 191
202 211 217
204 214 221
201 212 222
200 209 217
200 210 216
199 208 216
197 207 214
195 206 214
204 214 222
202 211 220
155 170 164
98 126 77
94 120 72
99 126 75
90 116 69
96 124 74
95 123 74
91 118 70
95 122 74
91 118 71
94 121 73
97 124 74
91 118 70
95 122 74
95 122 74
94 121 73
95 122 73
95 122 73
92 120 72
94 121 72
97 124 74
93 120 72
96 123 74
93 120 72
96 124 74
96 124 75
97 124 74
95 122 72
163 178 175
204 213 222
209 218 228
191 203 210
202 212 222
200 210 218
206 215 222
205 215 223
198 209 217
203 213 222
196 207 213
203 213 222
201 211 219
202 212 220
195 207 215
201 211 220
206 215 224
198 208 218
208 217 226
204 214 222
207 216 226
194 205 212
195 206 214
203 214 222
203 212 221
198 209 216
202 212 219
196 206 210
92 119 71
91 117 69
96 124 74
92 119 71
95 122 73
96 123 74
96 123 74
97 124 75
93 121 72
90 117 69
92 119 71
96 123 74
97 124 74
89 116 68
91 117 70
96 124 74
93 121 73
93 120 72
96 124 75
97 124 75
95 122 73
96 124 75
96 123 73
93 120 72
96 123 74
94 121 72
138 155 138
205 214 224
196 206 214
201 210 216
204 214 224
193 204 210
202 212 222
195 206 216
201 211 218
202 212 220
202 213 221
196 206 213
206 215 223
210 220 232
201 211 220
202 212 217
203 212 219
193 204 211
202 212 222
199 209 217
198 207 214
203 213 221
209 219 228
208 218 228
204 213 221
200 210 217
192 203 207
95 122 73
92 119 71
99 126 76
97 125 75
96 123 73
97 124 73
92 119 72
93 120 72
94 121 72
93 120 72
94 121 72
92 119 71
95 123 75
96 124 74
91 118 71
97 124 75
96 123 74
96 123 73
95 123 74
97 124 74
94 122 73
96 124 74
96 123 74
95 122 73
105 128 93
193 204 211
202 212 220
205 215 224
204 213 221
203 213 221
201 211 218
192 203 208
201 212 221
199 209 217
206 216 225
195 206 214
202 212 221
208 218 228
197 207 216
201 212 221
198 209 219
202 213 224
201 211 219
197 207 215
194 205 212
205 214 224
204 214 223
197 207 215
194 205 210
107 131 98
98 125 76
98 125 75
98 126 76
97 124 75
99 126 76
98 126 75
95 122 73
95 122 73
93 120 72
95 121 72
96 124 74
92 119 70
96 124 74
97 124 75
94 121 73
91 118 70
96 124 74
94 121 73
98 125 75
96 124 74
92 119 71
108 132 95
203 213 221
206 215 223
207 215 223
203 213 222
203 213 220
193 205 213
198 209 216
200 211 219
203 213 222
195 206 213
200 211 221
206 216 226
206 216 225
194 205 211
203 214 224
195 205 213
205 215 223
205 215 223
208 218 228
199 210 218
192 204 212
161 175 168
96 123 74
95 122 73
94 121 73
96 123 74
92 119 71
96 124 74
95 123 74
92 119 71
95 122 73
99 126 76
94 121 72
94 121 72
90 117 70
92 119 71
94 121 73
93 120 72
92 119 71
94 122 73
95 122 72
123 144 118
200 210 219
201 211 220
204 215 225
203 213 222
189 200 205
201 211 218
199 210 218
197 208 217
201 211 219
199 209 217
200 210 220
209 218 228
196 206 213
199 208 215
199 210 219
107 131 90
101 128 81
134 153 132
167 181 176
204 214 221
204 213 221
207 217 227
199 210 216
199 210 219
204 213 222
196 207 216
202 212 222
206 215 225
199 209 219
202 212 220
201 211 217
197 207 214
200 210 220
202 212 222
206 215 224
196 207 216
199 209 217
202 212 220
199 209 217
202 212 222
142 160 144
93 120 72
93 120 72
94 121 72
89 115 68
97 124 74
93 121 72
93 120 72
92 120 71
95 123 73
94 121 72
94 121 72
121 142 114
162 176 170
190 201 204
199 209 216
203 213 222
200 211 219
209 219 229
208 217 227
203 213 222
194 205 213
197 208 215
200 211 219
199 209 215
202 212 220
185 197 199
94 121 73
97 125 75
96 123 74
96 123 74
95 122 72
94 121 72
91 118 70
92 119 71
93 120 71
94 121 72
95 122 73
96 123 73
95 123 73
98 126 76
94 122 73
95 122 74
94 121 73
95 122 74
98 125 75
95 122 74
88 115 68
93 121 72
93 120 72
94 121 73
94 122 73
94 121 72
113 135 101
205 214 223
200 209 215
201 210 217
201 211 220
201 212 222
196 208 215
168 182 177
132 150 132
99 125 80
93 120 71
94 122 73
94 121 72
96 123 74
94 121 72
92 119 71
96 123 73
97 124 74
88 115 68
94 121 72
94 121 73
96 123 74
95 123 74
93 120 71
96 124 75
94 121 73
95 123 74
93 120 72
158 174 166
204 214 223
201 211 219
192 202 207
206 216 226
195 205 213
207 216 226
201 211 218
202 211 220
208 217 225
196 208 217
193 204 211
207 217 227
208 218 229
205 215 225
193 204 211
199 209 217
199 209 216
199 210 219
196 207 214
202 212 221
195 206 214
206 215 224
195 206 212
206 215 223
209 219 230
208 217 225
203 213 220
135 154 134
92 119 71
98 126 75
95 123 73
90 117 70
92 119 70
95 123 74
92 119 71
97 124 75
93 120 71
94 121 71
94 121 73
93 120 72
95 122 73
92 120 72
95 122 73
94 122 74
94 122 73
101 127 83
122 144 117
149 166 153
166 181 177
187 199 201
203 214 223
190 202 208
204 213 222
199 210 219
199 209 218
134 153 132
94 121 72
94 121 72
93 121 73
95 122 73
95 122 74
93 120 71
93 121 72
95 123 74
94 122 74
96 124 75
95 123 74
92 119 71
93 120 72
97 124 74
92 119 71
98 125 75
98 125 75
90 117 70
96 124 74
97 124 75
95 122 74
96 123 75
90 117 70
94 121 72
92 119 70
95 122 73
94 121 75
191 203 208
203 212 220
194 205 212
197 208 215
209 218 227
201 210 218
206 215 225
202 211 219
203 214 224
203 213 222
199 209 217
212 221 231
199 208 216
202 212 218
199 209 217
191 202 208
207 216 225
201 211 221
206 215 225
203 212 221
198 208 216
205 214 223
207 217 226
208 217 226
200 210 218
200 210 217
196 206 211
155 170 160
90 117 70
97 124 74
93 120 71
93 120 71
90 117 69
96 123 74
93 120 71
95 122 73
91 118 70
95 122 72
97 125 75
98 125 75
95 122 74
93 120 72
91 118 70
96 123 74
92 119 71
90 117 69
97 125 75
96 123 74
91 117 70
93 120 72
94 121 72
94 122 73
91 117 70
90 117 70
178 191 191
201 211 218
203 213 222
207 216 226
207 217 226
203 214 223
198 208 216
195 205 213
204 214 225
205 215 224
205 214 222
198 208 215
200 210 218
195 205 211
196 206 213
197 207 214
192 204 212
205 214 223
207 217 226
201 212 220
203 213 223
194 205 211
203 213 224
204 214 222
202 212 220
193 204 211
132 151 130
91 118 70
97 124 75
97 124 74
94 121 72
96 123 74
93 120 72
94 121 72
94 121 72
95 122 73
95 122 73
96 123 74
94 121 72
95 122 73
97 124 74
96 124 74
91 118 70
95 122 73
95 122 73
96 123 74
97 125 76
96 123 74
94 122 74
93 120 72
90 117 70
170 183 180
198 208 216
204 214 224
199 208 214
193 204 211
204 213 221
197 207 216
193 204 210
183 195 199
200 210 217
214 223 233
201 211 219
198 209 220
197 207 215
201 212 221
205 215 222
197 207 214
197 208 217
200 211 220
199 210 219
199 209 219
209 218 227
200 211 219
201 210 219
136 154 137
92 119 71
95 123 74
95 122 73
92 120 71
94 122 73
93 120 72
95 122 73
94 122 73
95 123 74
92 119 70
94 121 73
93 120 71
96 123 74
95 122 73
93 120 71
96 124 75
88 115 69
95 122 73
92 119 71
96 123 74
95 122 73
95 123 73
177 189 188
203 213 221
201 211 220
201 212 222
203 214 225
205 215 224
196 206 216
205 214 221
199 209 217
198 209 218
197 208 215
201 211 219
205 214 223
199 210 218
204 214 223
200 210 219
203 213 222
201 212 221
204 215 225
192 203 211
200 209 218
184 195 197
95 121 78
95 122 73
97 124 75
92 119 71
92 118 70
90 116 69
99 127 76
88 115 68
96 123 73
94 121 72
93 120 72
91 118 70
97 124 75
99 127 76
93 120 71
95 122 73
96 123 73
90 117 69
95 123 73
117 138 109
199 211 220
196 206 216
210 219 229
205 214 222
207 216 226
202 212 221
196 207 216
196 207 214
202 212 221
203 213 222
197 207 214
203 213 222
201 210 219
201 211 219
202 212 221
206 216 226
128 147 124
93 120 72
95 123 74
95 122 73
105 128 92
141 158 145
184 196 199
206 215 224
201 211 218
202 210 217
196 207 217
203 213 221
203 213 223
198 208 217
192 203 210
197 207 215
199 209 215
203 213 221
202 213 221
200 209 217
202 213 222
204 214 223
204 214 224
202 212 218
195 205 212
154 170 162
94 121 73
93 120 71
94 121 72
93 120 72
95 122 73
93 120 71
93 120 71
98 126 75
96 123 74
96 123 73
96 123 73
95 122 73
97 124 74
96 123 74
122 144 115
162 175 169
197 208 214
203 213 223
206 215 224
201 211 219
204 214 222
197 207 216
209 219 230
199 209 217
197 208 216
181 194 195
95 122 73
96 123 74
95 122 73
96 124 74
94 121 73
92 119 71
98 126 75
97 125 75
96 124 74
94 121 72
96 124 74
96 123 74
93 121 73
94 121 73
97 124 74
93 120 72
96 124 75
93 120 72
95 122 72
93 120 72
101 128 77
93 120 71
98 126 75
93 120 72
94 121 72
96 123 73
119 141 115
202 212 218
197 208 217
196 207 215
198 209 217
204 214 223
201 211 220
202 212 222
196 207 216
194 205 210
175 188 186
138 155 137
108 131 94
93 120 72
93 120 72
96 123 73
98 125 76
94 121 72
93 120 71
97 124 74
95 122 74
93 120 72
98 125 75
95 122 74
97 125 75
96 124 75
96 124 74
96 124 75
173 187 186
208 217 227
204 214 222
202 212 219
196 206 212
204 214 224
197 208 213
204 213 220
200 211 217
198 208 217
204 215 225
198 208 214
200 211 221
197 208 216
203 212 220
198 208 216
207 217 225
205 214 224
196 206 211
199 208 215
203 213 220
206 216 226
198 209 215
203 214 223
207 216 226
201 211 220
201 211 221
203 213 223
119 141 111
95 122 73
90 118 70
96 123 74
97 123 73
95 122 73
91 118 71
96 123 73
95 122 74
95 122 73
95 122 72
94 120 72
97 125 74
95 122 73
95 123 74
98 126 76
96 123 74
95 122 73
93 120 72
97 124 74
95 122 74
92 119 71
96 123 74
96 122 78
127 149 121
148 165 151
172 186 185
190 200 204
101 127 86
97 124 74
94 121 73
94 121 72
91 118 71
94 121 72
94 121 72
94 121 72
95 121 72
97 124 74
89 115 69
91 118 70
95 122 73
95 122 73
93 121 72
95 122 73
94 122 73
96 124 74
96 123 74
97 124 75
97 125 75
95 122 72
94 121 72
94 122 74
91 118 70
96 123 74
94 121 73
119 141 112
201 211 220
209 219 229
204 213 222
199 210 218
197 207 214
200 210 216
198 209 216
204 214 223
195 207 215
203 213 222
203 212 220
209 219 228
205 214 222
202 212 220
208 217 225
206 215 224
204 214 224
207 217 226
201 211 221
199 210 218
204 212 218
202 212 219
203 213 222
204 214 222
201 211 219
200 210 218
202 212 221
106 130 94
96 124 74
99 127 76
98 126 76
92 120 72
97 125 75
95 123 75
96 124 74
96 124 75
91 118 71
96 123 73
94 122 73
92 119 70
96 124 75
96 123 74
94 121 72
94 122 73
97 125 75
98 125 75
96 123 73
95 122 73
92 118 71
97 124 74
94 122 73
96 124 74
97 125 75
134 153 132
192 203 209
203 213 222
197 207 216
196 208 214
203 213 220
200 211 222
200 209 215
204 214 224
199 209 217
198 209 216
202 212 218
212 221 231
209 219 228
206 215 224
203 213 223
207 216 225
197 207 215
208 217 225
207 217 226
203 213 220
200 210 219
209 219 229
199 211 221
213 222 234
199 209 217
184 196 198
95 122 73
97 124 73
93 121 72
94 122 73
92 120 72
94 121 72
94 122 73
96 123 74
93 120 72
95 123 74
94 122 73
93 120 72
94 121 73
95 123 74
95 122 73
93 120 73
92 119 71
91 118 71
90 117 69
98 126 75
95 122 74
94 121 72
97 125 75
91 118 70
129 150 126
201 211 218
189 200 207
204 214 223
195 205 212
203 213 223
197 208 216
196 207 216
202 212 219
198 208 217
203 213 221
203 212 219
207 216 224
191 202 209
203 213 223
203 212 220
194 206 214
199 210 217
191 203 210
199 209 219
197 207 215
204 213 222
202 211 219
200 209 215
178 190 190
94 121 73
92 119 71
96 124 74
95 122 74
97 124 75
95 123 74
96 123 73
98 125 75
99 126 76
96 124 75
95 123 73
94 121 72
94 121 72
95 122 73
98 125 75
91 118 71
96 123 73
93 120 72
96 123 73
90 118 70
90 116 69
89 115 69
150 166 153
204 214 223
204 213 220
196 207 215
189 201 208
208 217 227
201 212 221
201 211 219
200 210 219
197 207 215
196 206 212
206 215 225
202 213 222
200 209 217
201 210 219
200 211 222
199 209 218
194 205 212
205 214 224
198 209 218
207 216 226
190 201 206
110 133 97
98 125 75
95 122 73
93 120 72
91 117 69
93 121 72
93 120 71
91 118 71
96 123 74
91 118 71
91 118 70
96 123 74
98 124 74
96 123 73
98 125 75
95 122 74
95 123 74
95 122 73
91 117 69
105 130 90
197 209 217
203 213 222
197 208 216
205 214 223
199 210 220
205 214 221
201 210 217
203 213 223
204 213 222
201 211 221
194 204 210
203 214 225
198 208 216
205 215 223
199 209 218
200 210 219
201 210 217
142 161 145
96 123 74
98 126 76
96 123 74
97 124 74
97 124 74
94 121 72
122 142 114
169 183 180
195 206 213
200 210 218
202 213 223
197 207 215
207 216 225
197 208 216
207 217 226
198 208 217
200 210 217
199 209 217
200 211 219
202 212 221
200 209 216
196 207 215
201 212 223
195 205 213
152 168 157
93 120 72
94 121 73
94 121 72
92 119 71
92 118 71
92 119 71
94 121 72
96 123 74
91 118 71
98 125 75
93 120 72
91 118 70
94 121 72
94 121 72
94 121 72
94 122 73
97 124 74
134 153 133
158 173 167
195 206 214
200 210 217
201 211 219
197 207 215
192 204 212
196 207 215
189 200 204
93 120 72
95 122 73
96 123 74
96 124 74
90 117 70
94 121 72
96 124 74
94 121 73
97 124 74
92 119 71
95 122 73
94 121 71
94 121 73
94 122 74
93 120 71
97 124 75
95 123 74
97 124 74
92 118 70
91 117 70
97 124 75
94 121 72
94 120 72
93 120 72
93 120 71
93 121 73
144 161 143
207 216 226
198 208 214
205 214 223
193 204 211
205 215 224
211 221 230
202 211 218
198 209 217
200 210 219
205 215 223
208 216 225
198 208 216
184 195 197
157 172 163
125 143 123
105 130 89
96 123 73
95 123 74
95 122 73
96 124 74
94 122 73
94 121 73
88 115 68
95 122 74
96 123 74
94 121 72
97 124 75
192 203 208
189 201 209
202 211 218
204 215 225
208 217 227
202 212 222
196 207 214
189 200 208
204 215 225
200 210 218
197 207 214
199 209 215
204 213 223
202 212 220
192 203 210
201 210 218
206 216 226
211 220 230
211 219 226
201 211 219
207 216 226
208 216 224
203 212 220
205 216 228
201 212 221
207 216 226
200 210 218
201 211 220
98 125 80
94 121 73
95 123 74
98 125 75
94 121 72
95 122 73
97 124 75
95 122 73
97 125 75
96 123 74
95 122 73
92 119 72
97 124 74
94 122 73
91 117 69
96 123 74
95 122 73
95 122 73
95 122 73
94 120 72
90 116 69
90 117 70
98 125 75
96 124 74
98 126 76
93 121 72
95 122 73
126 146 123
190 202 206
191 203 208
168 182 176
151 166 155
123 143 120
109 133 98
95 122 73
95 122 72
95 122 73
94 121 73
97 124 75
94 122 73
97 124 74
91 118 70
93 119 70
94 121 72
91 118 70
93 121 72
98 125 75
91 117 70
91 118 70
97 124 75
92 119 71
95 122 73
99 126 76
96 123 74
93 120 72
175 189 188
198 209 218
198 208 215
205 215 224
194 205 212
204 214 224
202 212 220
192 202 208
206 215 225
200 210 218
197 207 213
204 213 223
206 216 225
211 220 230
195 206 213
203 214 224
203 213 223
202 213 223
197 207 213
197 207 216
199 209 216
196 207 216
211 220 229
204 214 223
204 214 223
202 212 220
203 213 224
167 182 176
95 123 73
95 122 72
93 119 71
98 125 75
94 122 73
92 119 71
98 125 75
99 126 76
92 119 71
97 124 75
96 123 74
98 125 75
95 122 74
98 125 76
93 120 71
91 118 70
96 124 74
93 121 72
94 122 74
93 121 73
94 121 73
92 119 70
96 124 75
93 120 72
96 124 74
95 122 72
188 199 202
196 208 217
196 207 215
194 205 212
201 210 217
201 211 219
199 209 218
198 209 214
198 209 216
208 218 228
208 217 227
208 218 229
206 216 226
199 210 219
199 208 214
198 208 213
207 217 228
198 208 215
203 213 222
195 205 213
197 208 217
199 209 217
201 211 217
197 207 214
202 211 220
199 210 219
115 136 110
94 121 71
93 120 72
92 119 71
96 124 75
94 121 72
97 125 75
96 123 73
95 122 73
94 122 73
95 122 73
99 126 76
99 127 76
94 121 72
96 123 74
92 119 70
93 120 71
99 126 75
95 122 74
94 121 72
94 122 73
95 122 73
91 118 69
94 122 73
99 126 78
184 196 198
200 211 220
198 207 214
197 208 218
199 209 216
198 209 219
204 214 224
198 209 216
198 209 219
203 213 220
203 214 224
198 209 219
196 207 215
195 206 212
199 209 218
207 217 228
206 216 225
197 208 219
204 214 223
209 217 226
199 209 215
198 209 219
192 203 208
198 209 216
120 142 111
96 123 75
95 123 73
93 120 71
93 119 71
96 124 75
97 124 74
92 118 70
94 121 72
98 125 75
95 122 73
95 122 72
94 121 72
93 120 72
92 119 72
95 122 73
91 118 70
94 121 72
96 123 74
94 121 72
93 121 72
96 124 73
121 143 113
197 209 218
202 213 222
193 204 210
199 210 216
197 208 218
197 207 214
203 214 224
195 205 213
202 211 219
195 205 213
200 210 218
204 214 223
210 219 228
204 213 221
201 211 217
196 208 217
203 213 222
199 209 217
198 209 218
200 210 218
199 208 216
132 151 133
97 124 74
93 120 72
96 122 73
93 119 71
94 121 73
98 125 75
95 122 72
92 119 71
96 124 74
94 121 73
96 123 74
91 118 70
94 121 73
96 123 73
95 122 74
95 122 73
95 122 73
92 119 71
101 126 86
183 194 197
186 198 206
204 213 221
199 208 215
189 201 208
200 210 218
203 213 221
193 205 211
204 214 222
208 218 228
197 207 216
200 210 217
204 214 221
201 212 220
193 203 209
197 208 215
203 213 223
198 208 214
149 165 157
96 122 72
96 123 73
93 120 71
91 118 70
93 120 72
94 121 72
92 120 72
94 121 72
101 127 83
148 164 152
173 186 182
202 211 218
202 212 220
197 208 215
192 203 210
201 212 221
210 219 228
207 216 226
202 213 223
201 211 218
201 211 220
203 212 220
205 214 221
202 211 218
170 184 179
98 125 75
94 121 73
95 122 73
96 124 74
91 118 70
97 124 74
94 121 73
90 117 69
93 119 71
93 120 71
94 120 72
91 118 70
93 120 72
92 119 71
96 124 74
97 124 75
91 118 70
94 121 73
92 119 70
98 125 79
139 157 138
175 188 186
195 205 210
194 206 215
199 210 219
184 196 199
98 125 75
95 122 73
93 120 72
93 121 73
94 121 73
92 119 71
94 120 71
93 120 72
93 120 71
95 123 74
94 121 72
93 120 71
96 124 75
93 120 72
94 121 73
95 122 73
94 121 73
98 125 75
95 123 74
92 118 70
94 121 73
96 123 74
93 121 72
95 122 72
93 119 71
98 125 75
139 156 140
195 207 215
201 211 220
204 213 222
198 208 217
199 210 217
195 206 213
199 209 216
200 211 219
194 205 211
200 211 220
202 211 218
203 213 223
202 212 222
202 212 219
200 210 220
197 208 216
176 189 189
151 167 154
119 140 110
97 125 75
92 119 70
95 122 73
96 123 74
90 117 69
94 122 73
94 121 72
95 123 74
196 206 211
200 210 215
196 207 216
197 207 214
199 208 214
199 209 217
199 210 219
202 212 220
196 207 215
195 206 214
201 211 219
198 209 217
202 212 220
201 210 216
201 211 220
200 210 219
200 210 218
202 211 218
196 207 216
204 214 224
196 206 214
195 206 213
196 207 215
203 213 220
196 206 213
201 210 218
198 208 213
182 194 197
96 124 74
96 123 74
94 121 72
95 122 73
99 126 76
94 121 73
95 123 74
96 123 73
99 126 75
93 120 72
97 124 74
94 122 73
96 123 74
95 122 73
94 122 73
97 125 75
93 120 71
93 121 72
96 123 74
91 118 70
95 123 73
96 124 75
91 118 70
96 123 74
97 125 75
97 125 75
94 121 73
172 186 184
203 213 220
201 210 216
201 211 220
199 209 216
204 214 224
197 208 217
193 204 211
183 194 194
162 177 169
146 163 146
122 142 119
103 129 82
94 121 72
94 121 73
92 119 71
95 122 73
95 123 73
92 120 72
97 124 75
89 115 68
93 121 72
97 125 75
98 125 75
96 124 74
94 121 73
93 120 72
101 127 83
196 207 213
200 210 219
201 212 221
202 212 222
198 209 216
209 218 227
204 213 220
198 208 215
201 211 220
203 212 221
195 206 215
198 208 216
199 209 217
207 216 226
202 212 221
198 208 218
192 204 212
200 210 220
207 217 226
203 214 222
201 210 216
193 206 215
195 206 214
193 204 211
204 214 223
201 210 219
198 208 216
122 144 117
92 119 71
93 120 71
95 123 74
95 122 73
93 120 72
92 119 71
93 120 72
95 123 74
95 123 73
96 123 73
93 120 71
92 119 71
98 125 75
98 125 75
91 118 71
94 121 72
93 119 71
93 121 72
95 122 73
93 120 71
93 120 72
93 119 71
95 123 74
98 125 75
96 123 74
130 150 125
194 205 214
210 220 229
196 206 214
203 213 221
203 213 222
203 213 222
200 211 220
191 202 208
200 211 220
205 214 223
199 209 217
192 203 209
201 212 222
191 203 211
197 208 216
202 212 221
202 210 216
199 209 215
192 204 212
202 212 220
202 212 220
205 215 224
194 204 212
206 215 224
205 214 221
163 177 173
95 122 72
98 125 74
90 116 69
96 124 75
94 122 73
95 122 73
94 121 72
94 121 72
95 123 74
94 121 72
96 124 75
92 119 72
95 122 73
93 120 72
95 122 73
93 120 72
93 120 72
95 122 73
93 120 72
92 119 72
95 122 74
97 124 75
94 121 72
96 123 74
154 170 162
196 207 215
196 208 218
203 213 223
203 214 224
198 209 217
198 207 214
193 204 210
206 215 224
205 215 224
203 212 221
196 206 212
196 207 216
200 210 216
206 215 225
199 210 217
207 216 226
201 212 222
203 213 223
197 208 215
195 206 213
199 209 218
202 212 221
202 212 220
153 169 157
95 123 74
94 121 72
95 122 73
93 120 71
94 121 73
91 117 70
97 124 74
93 120 71
98 126 75
99 126 76
96 123 74
95 122 73
98 126 76
95 123 75
97 125 75
93 120 72
94 122 73
96 123 73
92 119 71
89 116 69
97 124 75
100 126 80
193 205 211
204 214 223
202 212 222
209 218 228
208 217 227
194 205 213
190 202 208
194 204 211
197 206 213
203 212 220
205 214 222
197 207 214
205 215 225
206 215 224
200 210 217
201 212 222
199 210 219
198 208 217
208 217 227
201 210 216
199 209 215
154 170 161
95 123 73
95 121 72
94 121 72
90 117 69
90 117 70
93 120 72
95 122 73
94 122 73
91 117 69
93 120 71
96 123 73
90 116 68
92 119 72
96 124 75
86 113 67
91 118 70
94 121 72
93 120 71
95 122 73
184 196 197
205 214 222
190 203 210
203 213 221
183 195 198
165 179 172
140 159 143
120 141 114
93 120 74
206 216 226
193 204 212
185 197 203
204 213 221
196 208 216
208 218 230
200 211 220
196 207 214
204 214 223
209 219 229
183 194 195
91 118 70
96 123 74
94 121 71
95 122 72
96 124 74
95 122 73
88 114 68
96 123 73
93 121 73
99 127 77
95 122 73
109 132 100
156 170 163
190 200 202
202 211 219
202 212 221
202 212 221
197 208 215
207 217 225
184 196 203
209 218 228
200 210 219
202 212 220
201 212 222
177 189 188
94 121 72
91 118 71
96 123 73
94 121 73
94 122 73
95 122 73
94 121 72
94 121 72
94 121 73
91 118 69
91 118 71
90 117 70
95 122 73
92 119 72
95 123 73
93 120 72
93 120 72
96 123 74
97 124 75
95 123 74
94 120 72
94 121 72
99 126 78
136 155 140
173 186 184
169 182 179
97 124 74
93 120 72
96 123 75
92 119 71
92 120 72
96 124 75
89 116 68
91 118 71
97 124 74
90 116 69
93 120 72
96 123 73
95 123 74
90 117 69
94 120 71
96 123 74
93 121 72
96 124 74
94 121 73
95 122 73
98 126 75
91 118 70
95 122 74
96 123 74
92 118 70
99 126 76
143 160 144
207 216 226
200 210 218
201 212 220
204 213 220
206 216 227
197 208 216
204 214 222
207 216 226
202 213 223
196 207 215
194 205 214
205 215 225
198 208 217
197 208 216
199 210 218
200 211 218
199 210 218
199 210 220
201 211 219
195 205 208
158 173 165
141 160 141
105 130 90
97 124 74
93 121 72
91 118 70
101 126 83
194 205 211
196 207 214
193 204 212
205 215 224
208 217 226
200 211 222
198 208 215
199 209 218
199 209 218
207 217 226
204 215 225
192 202 209
201 211 221
201 212 221
197 207 215
199 209 216
209 218 227
203 212 221
201 211 219
205 215 223
196 208 217
198 209 217
202 212 220
206 216 225
196 206 214
204 213 222
203 213 223
162 176 169
94 121 72
93 120 72
93 119 72
93 120 72
96 124 75
95 122 72
92 119 72
95 123 74
92 119 71
93 121 73
92 119 70
93 120 72
95 122 73
91 118 70
94 121 73
96 123 73
95 122 73
96 123 74
96 124 75
94 122 74
97 124 74
94 121 72
93 120 72
95 123 74
92 120 72
93 120 72
93 120 71
193 205 210
200 210 217
208 218 227
204 214 224
198 208 215
203 213 222
207 216 226
202 212 219
189 201 206
197 208 218
191 203 210
202 212 221
200 211 218
183 196 200
171 183 180
165 179 172
138 157 136
126 146 118
97 125 75
98 125 75
93 120 71
97 124 74
93 120 71
95 122 72
90 117 70
91 118 71
100 128 77
139 156 140
196 206 214
194 205 214
194 204 211
196 207 215
196 207 216
195 206 214
208 218 229
196 207 214
205 215 225
198 209 217
199 210 219
206 215 225
201 211 221
205 215 224
197 208 217
193 205 213
202 211 220
203 213 221
197 208 217
198 208 216
198 208 214
207 216 225
205 215 224
197 208 217
198 208 215
190 202 207
184 195 196
90 117 70
93 120 71
92 118 70
96 123 73
90 117 69
94 122 73
95 123 74
93 120 71
95 123 73
92 119 71
98 126 76
92 120 72
96 123 74
96 124 74
95 121 72
94 120 71
94 121 72
94 121 73
94 121 73
94 121 73
95 122 74
91 118 70
98 125 75
95 123 74
92 119 71
92 119 71
165 180 175
197 207 215
203 212 218
193 203 211
193 204 211
192 203 210
201 211 220
199 209 219
205 215 224
191 202 207
200 209 217
196 206 212
199 209 217
203 214 224
204 213 220
196 206 213
196 206 214
212 221 232
203 214 224
201 211 219
202 212 220
202 212 221
204 214 224
205 215 223
196 205 211
197 207 213
114 136 102
94 121 73
94 122 73
97 125 74
94 121 72
94 121 73
93 120 73
90 118 70
94 121 73
95 123 73
95 122 73
94 121 72
89 116 69
93 120 72
94 121 72
97 125 75
94 121 73
92 119 71
96 123 74
92 119 72
94 122 73
95 122 73
92 119 71
89 116 69
109 132 99
193 204 209
196 208 217
200 210 218
197 207 216
198 208 215
207 217 228
200 211 221
203 213 221
202 213 223
195 206 216
204 214 223
198 207 214
205 214 224
203 213 220
205 213 220
202 212 223
196 207 217
200 211 220
201 211 218
205 215 227
196 207 217
205 216 227
196 207 214
171 185 182
92 119 71
97 124 75
94 121 72
94 121 73
94 120 72
96 124 75
97 125 75
94 121 73
95 122 73
92 118 71
96 124 74
96 123 73
93 121 72
96 123 74
93 120 72
97 124 75
93 120 73
94 121 73
93 120 72
94 121 73
96 124 74
95 122 74
166 180 176
197 207 212
200 209 215
203 213 222
208 217 227
203 213 223
190 201 207
201 210 218
190 202 209
200 210 219
200 210 218
195 206 213
195 206 215
198 208 217
193 204 211
203 213 222
207 216 224
205 215 225
197 208 216
196 206 214
199 210 218
172 186 185
94 120 74
93 119 71
95 123 74
98 125 75
94 121 72
96 123 74
96 124 75
97 125 75
96 124 74
95 122 74
96 123 73
95 123 74
95 122 73
93 119 71
92 119 70
94 121 73
97 125 75
99 126 78
129 148 124
119 141 114
141 159 143
127 147 123
100 124 84
93 121 72
93 120 71
93 120 71
94 121 72
95 122 73
92 118 70
206 215 224
194 204 211
196 206 213
200 209 216
184 196 200
199 209 215
201 211 221
198 208 216
201 212 222
199 209 216
190 202 210
94 121 72
90 117 70
95 123 74
92 118 70
94 122 73
94 122 73
94 122 73
96 124 74
92 119 71
95 123 73
93 120 73
93 120 71
95 123 74
93 120 72
126 146 124
165 180 176
195 206 213
199 210 219
197 207 215
190 201 208
200 210 218
200 211 220
202 212 222
200 210 219
188 199 204
95 122 74
97 124 74
96 123 74
92 120 72
95 122 73
91 119 71
94 122 73
97 124 74
93 120 73
92 119 71
97 124 74
96 124 74
96 123 73
92 119 70
91 118 69
93 120 72
94 121 73
94 122 74
98 125 75
94 121 73
94 121 73
93 120 71
92 119 71
95 122 74
93 119 71
122 143 115
173 185 181
143 160 146
102 127 86
97 124 74
91 118 71
97 124 75
97 124 74
94 122 74
96 124 75
95 122 73
97 125 75
94 121 73
92 119 70
94 121 73
92 120 72
97 124 75
94 121 72
94 120 72
93 120 71
94 121 72
91 117 70
92 119 71
93 120 72
95 122 73
96 124 75
98 125 76
161 176 168
195 206 214
194 205 210
200 211 222
198 209 216
195 206 213
199 209 218
194 205 212
199 209 218
206 215 225
202 212 222
199 209 218
204 214 223
199 211 221
196 206 214
204 215 224
203 214 223
211 220 231
201 211 221
197 208 216
197 207 216
202 212 220
203 212 220
201 210 219
177 189 189
157 172 163
142 159 140
139 157 138
200 211 221
201 211 219
199 209 217
205 215 224
188 200 207
202 212 221
201 211 218
198 209 217
203 214 225
204 214 223
198 208 217
196 207 216
201 211 218
199 209 217
200 210 218
205 215 227
197 208 216
205 214 222
204 213 221
204 215 225
198 208 217
197 208 216
200 210 218
205 214 223
194 205 211
195 206 212
200 210 218
140 159 143
90 117 70
98 126 75
94 121 73
95 123 74
95 122 74
98 126 75
94 121 72
92 119 71
92 119 71
95 123 74
92 118 71
95 122 72
97 125 76
90 117 70
93 120 72
92 119 71
93 120 72
94 121 73
96 123 75
95 122 73
93 120 72
93 120 72
95 122 73
90 116 69
95 122 72
95 122 72
106 132 91
203 213 220
204 213 221
208 217 226
195 206 213
200 210 217
193 205 213
199 209 216
202 212 220
201 211 220
207 217 229
200 211 219
197 207 216
205 214 221
203 213 221
207 217 225
202 212 220
195 206 213
202 213 222
192 204 211
183 196 201
170 183 181
162 176 169
142 160 146
125 145 117
101 127 84
94 121 72
97 124 74
167 182 180
200 210 217
197 206 213
203 213 221
204 213 221
203 213 221
200 210 216
203 213 223
203 213 223
199 210 217
203 212 220
197 208 215
207 216 226
202 212 222
202 213 222
203 212 221
199 209 216
207 216 224
206 215 222
207 217 225
191 202 211
205 214 222
209 218 227
206 215 224
201 212 220
199 210 217
204 214 224
152 168 158
96 123 74
94 122 73
94 122 73
92 119 71
95 122 73
97 124 74
95 123 74
94 122 73
96 123 74
94 121 72
95 123 74
93 120 73
96 123 74
94 120 72
96 123 73
95 123 74
95 123 73
92 119 71
95 122 73
97 124 75
92 120 72
93 121 73
96 123 74
91 117 70
90 116 69
115 137 109
198 208 215
198 209 214
199 210 219
201 211 219
207 217 227
201 212 221
190 202 209
193 205 214
200 210 217
203 213 223
194 205 212
201 211 221
196 207 215
203 214 224
207 217 225
200 210 217
197 208 216
205 215 225
196 208 216
197 206 214
207 217 227
209 218 229
201 211 218
202 213 222
206 216 225
159 174 170
91 118 70
92 119 72
92 118 70
93 120 72
94 120 72
93 120 72
89 116 69
95 123 75
91 118 70
96 124 75
93 121 72
93 120 72
92 119 70
95 122 73
96 124 75
92 120 72
94 121 73
92 119 71
93 120 72
91 118 71
93 120 72
93 120 72
96 123 74
94 121 73
175 187 185
204 214 224
197 208 218
203 213 223
202 213 222
197 207 214
194 205 212
210 219 228
191 203 208
196 207 215
196 207 213
193 204 208
205 215 222
194 205 211
197 208 217
200 210 217
203 213 222
198 208 215
202 212 221
197 208 216
202 212 219
198 209 216
198 208 216
191 202 208
116 140 106
90 117 70
99 127 77
93 120 71
94 121 73
92 119 71
96 124 75
85 112 66
96 123 74
93 119 71
94 121 72
95 122 73
97 125 75
90 117 70
98 125 75
95 122 73
94 120 72
93 120 72
92 119 70
95 122 73
94 121 72
93 120 72
151 167 154
195 206 215
200 210 217
193 203 208
200 210 218
205 215 225
196 207 216
198 208 215
199 209 217
193 205 213
202 212 222
209 219 230
194 205 214
204 214 222
204 213 222
192 204 210
197 208 216
193 204 211
196 206 214
196 206 213
204 214 224
189 200 201
99 124 82
94 121 72
95 122 73
89 116 69
93 120 72
94 121 72
93 120 71
96 123 74
95 123 74
94 121 72
94 121 73
90 117 70
97 123 76
122 143 115
139 157 139
152 168 157
168 182 180
188 200 203
200 211 221
167 181 179
97 124 75
92 119 71
92 119 71
95 122 73
94 121 73
96 123 74
92 120 72
93 120 72
97 124 74
95 121 72
158 174 170
199 209 216
199 209 216
204 214 224
198 209 216
195 205 211
198 208 217
198 208 217
192 203 210
190 202 211
204 213 220
108 132 92
96 124 75
95 122 73
95 122 73
95 122 73
92 120 72
90 117 70
91 118 71
92 119 71
92 119 71
94 121 73
92 119 71
95 123 74
95 122 74
100 127 77
94 121 72
108 131 94
139 157 142
178 190 191
193 205 214
203 213 221
205 214 222
194 204 211
195 205 214
191 202 205
95 123 74
95 122 73
90 117 70
91 118 71
92 119 71
96 123 74
92 119 71
93 121 73
93 120 71
97 124 75
94 121 72
94 121 73
91 118 71
95 122 73
97 124 74
91 118 70
94 122 74
94 121 72
94 121 73
92 118 70
94 120 72
91 118 70
95 122 73
96 123 74
94 122 73
134 153 131
203 214 223
201 212 220
190 202 210
173 185 185
149 165 154
103 127 88
93 120 71
95 122 73
97 124 75
93 119 71
93 120 71
90 117 70
97 125 74
95 122 73
94 121 73
90 117 70
95 122 73
92 119 71
95 122 73
96 124 74
95 122 73
95 123 73
91 119 71
95 122 73
94 121 72
93 119 71
164 179 171
201 211 220
196 206 214
203 212 221
202 212 222
200 210 217
195 206 213
197 207 214
209 218 228
201 211 222
198 208 216
202 212 220
201 212 221
205 215 223
190 201 208
200 209 216
197 209 218
193 203 211
206 215 224
200 211 219
200 210 218
198 209 220
205 215 225
202 213 222
193 205 214
199 210 217
201 211 220
171 185 182
116 136 110
154 170 160
183 196 198
198 209 217
205 215 224
187 199 206
199 209 218
198 208 215
207 218 229
192 204 213
203 213 222
201 211 220
199 210 219
198 209 218
208 217 226
203 213 222
205 214 224
201 211 219
193 205 210
199 210 217
201 210 217
193 204 211
194 204 210
207 216 226
205 214 221
200 209 216
207 216 225
114 136 105
94 121 72
97 124 74
95 122 73
97 125 75
94 121 73
91 118 71
96 124 74
94 121 72
94 121 73
95 123 73
94 121 73
94 121 72
91 118 70
97 124 74
97 125 75
93 120 72
94 121 72
94 121 72
95 122 74
91 117 69
93 121 73
93 121 72
90 117 69
96 123 74
93 120 71
97 124 74
144 160 144
203 213 222
202 213 221
195 206 216
196 207 215
196 207 215
204 214 223
198 210 221
208 218 228
198 208 217
198 208 218
199 210 218
211 219 227
205 214 222
197 207 214
202 212 221
201 212 220
207 216 226
198 209 217
197 207 215
189 200 207
201 211 220
201 211 219
204 214 223
202 211 218
198 209 216
193 204 207
170 184 180
148 165 152
178 190 187
180 192 196
185 197 202
200 211 219
200 211 219
196 206 214
191 202 209
200 210 219
191 202 209
199 210 219
207 217 226
204 214 223
200 210 218
199 209 218
200 210 216
194 205 212
201 212 222
202 211 219
205 214 223
196 206 215
199 210 217
199 209 218
197 207 214
200 210 218
201 211 219
196 207 214
95 121 75
92 119 72
96 124 75
90 117 70
91 118 70
95 123 74
93 120 71
91 118 70
94 121 73
90 117 70
91 118 70
88 115 68
92 119 71
93 120 71
95 122 74
93 120 72
95 123 74
94 121 73
95 122 73
96 124 74
95 123 73
96 123 74
92 120 72
92 119 71
89 115 68
91 118 71
165 178 173
192 203 211
196 207 215
193 205 212
199 210 217
199 210 218
197 208 216
194 204 211
201 211 221
206 214 222
202 213 223
201 211 218
200 210 219
197 209 217
206 215 223
205 215 225
202 211 219
192 203 210
194 204 212
200 210 218
201 211 219
200 210 217
191 202 209
206 216 226
203 213 222
187 198 203
103 128 88
95 123 74
90 116 69
96 124 75
95 122 74
91 118 70
95 123 73
93 120 72
90 117 70
93 120 71
94 121 72
92 119 71
98 126 76
95 123 73
89 116 68
94 121 72
93 120 72
96 124 74
94 121 73
95 122 73
93 120 73
97 125 74
92 119 71
91 118 71
130 150 127
203 214 224
197 207 214
204 213 222
202 212 222
201 210 218
200 211 221
201 211 219
195 206 211
195 206 214
203 213 224
206 216 225
200 211 220
198 208 214
196 207 215
204 214 222
199 209 218
194 204 211
205 215 227
204 214 223
197 208 218
198 209 218
198 207 213
199 209 217
137 155 140
94 122 73
94 121 72
95 123 73
96 124 74
89 116 70
98 126 76
92 119 71
94 121 72
97 124 75
94 122 73
98 126 76
95 123 74
96 124 75
94 121 73
93 120 72
93 120 72
94 121 72
93 120 72
90 117 70
92 119 71
98 126 76
115 137 103
197 207 214
202 212 220
204 213 221
200 211 222
198 209 216
199 210 218
191 202 208
204 213 222
202 212 222
195 205 209
202 211 220
207 216 224
200 210 218
203 213 222
203 212 217
201 211 220
196 207 216
196 207 215
198 208 218
195 204 211
194 204 211
113 136 101
93 120 71
90 118 70
93 120 72
93 120 72
95 122 73
94 121 72
100 125 84
122 143 115
142 160 146
157 172 163
165 180 177
192 204 211
192 204 212
195 205 211
200 209 216
204 214 223
202 212 222
200 210 218
180 194 195
97 124 77
92 120 72
91 117 70
96 123 74
91 119 71
90 117 70
91 118 71
91 118 70
95 123 73
95 122 73
95 123 74
92 119 72
112 134 102
150 166 156
179 193 196
203 213 222
200 212 222
197 208 217
196 206 212
194 204 210
208 217 226
196 207 216
121 142 116
93 120 72
95 123 74
94 121 72
94 121 72
97 124 74
92 118 71
90 118 70
92 119 72
95 122 73
96 123 74
93 121 72
94 122 73
95 122 73
91 118 70
94 121 72
96 123 73
92 119 71
96 123 74
115 138 104
157 172 161
188 200 203
200 210 219
203 212 220
193 205 211
93 121 72
94 121 73
95 123 73
90 117 69
91 118 70
91 118 70
93 119 71
94 121 73
98 125 75
92 120 72
96 123 74
95 122 74
97 124 74
93 120 71
95 122 74
96 124 75
91 118 71
93 121 72
95 121 73
93 120 72
96 123 73
93 120 72
93 120 72
97 125 75
96 124 74
128 148 126
199 210 218
192 202 209
199 209 217
199 209 217
196 207 217
195 206 212
185 198 202
160 175 168
103 128 86
93 120 72
98 126 76
94 121 72
91 117 70
95 122 72
93 120 72
95 122 73
96 124 74
95 123 74
95 122 74
94 121 72
96 123 73
95 122 73
94 120 71
92 119 72
96 124 74
92 119 72
164 179 179
198 208 216
201 210 217
206 215 223
195 206 214
192 203 208
199 209 219
196 207 216
205 215 222
201 211 219
194 205 213
195 206 212
197 207 216
199 209 216
203 213 222
197 207 214
196 206 213
198 209 216
202 212 220
197 208 215
195 205 212
200 211 221
193 204 212
204 214 223
196 205 211
195 206 214
195 206 215
149 165 152
96 123 74
96 123 74
92 119 71
99 125 80
132 151 128
161 177 172
185 196 198
194 204 210
193 205 212
200 211 220
208 217 226
202 212 221
198 208 215
198 208 215
202 213 223
197 207 217
201 211 218
204 214 225
195 205 212
199 209 217
204 214 222
198 207 213
197 208 215
195 205 213
201 211 219
201 210 218
179 193 197
91 118 70
92 119 70
94 120 72
95 122 73
93 120 72
90 117 69
91 118 70
96 123 74
94 121 73
90 117 69
92 119 71
95 122 72
96 123 75
91 118 71
98 125 76
93 120 72
94 122 74
96 124 75
94 121 72
94 122 73
92 119 70
98 125 76
91 118 70
96 123 74
93 121 73
95 122 72
94 121 72
175 188 185
201 211 219
204 213 221
193 203 208
200 210 220
192 203 212
203 213 222
191 203 210
199 209 217
193 204 211
199 209 216
200 210 219
200 211 220
199 208 213
208 218 228
198 207 214
197 207 214
202 213 221
201 211 220
199 210 220
197 207 216
199 209 218
202 212 221
198 209 217
205 214 222
200 211 220
198 209 218
163 177 171
96 123 73
93 121 72
90 116 70
96 124 75
93 120 72
115 137 105
132 151 128
142 160 146
154 169 160
166 180 175
190 201 206
197 207 213
199 209 217
198 208 217
200 210 219
202 212 221
206 216 225
197 207 214
198 209 217
206 216 226
207 215 221
199 210 219
200 210 219
192 204 210
193 205 213
198 209 218
146 163 152
94 120 71
91 119 71
92 120 71
96 124 74
96 122 73
94 121 72
92 119 71
94 122 73
93 121 72
93 120 72
96 123 74
91 119 71
93 119 71
91 118 71
89 116 69
94 121 72
97 124 75
95 122 73
99 126 76
95 123 73
92 119 71
96 123 74
96 124 74
95 122 73
96 123 74
113 135 102
196 206 212
200 211 221
203 213 223
193 205 213
200 210 217
201 212 220
204 214 222
199 209 215
202 213 223
203 214 223
203 212 220
202 212 221
193 204 210
190 201 205
196 207 214
205 216 226
198 208 215
200 211 220
201 210 218
200 210 218
194 205 212
195 206 212
201 212 223
200 210 218
202 212 221
152 168 157
94 121 72
91 118 71
93 121 72
91 117 69
97 124 75
93 120 72
93 120 71
97 125 75
94 121 73
94 121 72
91 118 70
96 123 74
95 122 73
96 123 74
92 119 71
94 120 72
96 123 73
94 120 72
93 120 71
95 122 74
94 121 72
94 122 72
95 122 73
100 127 82
186 197 201
195 205 213
202 212 221
196 206 212
202 212 221
197 208 217
198 208 215
201 211 218
196 206 213
201 212 219
204 215 224
193 205 213
203 213 220
201 211 220
209 218 227
206 215 223
200 210 217
200 210 219
194 205 213
194 205 211
201 210 218
194 205 214
196 207 215
187 198 201
98 126 76
92 119 71
91 118 70
91 117 70
99 127 76
91 117 70
96 123 73
93 120 72
94 121 72
95 122 72
94 121 72
95 122 73
95 123 74
94 121 72
94 121 73
95 122 73
95 122 73
94 120 71
95 122 73
94 121 72
92 120 72
105 130 92
190 202 206
205 214 222
196 207 215
196 207 216
197 208 217
197 207 213
208 217 226
205 214 222
198 207 214
202 212 221
198 209 218
202 212 222
205 215 224
201 211 220
195 206 213
192 202 210
196 206 214
198 209 217
195 206 215
209 219 228
204 214 222
126 146 124
99 125 82
116 138 108
143 158 144
157 172 162
156 170 162
185 196 197
196 207 213
201 212 222
202 212 221
198 208 214
198 208 214
198 207 216
193 204 211
198 208 217
194 205 213
204 214 224
193 204 211
198 208 217
189 200 203
114 137 103
93 120 72
96 123 74
94 122 73
93 120 71
92 119 72
93 119 72
94 121 73
89 115 69
90 117 70
93 120 72
93 120 72
93 120 71
95 122 74
92 119 71
88 115 68
129 149 127
174 187 183
193 204 211
193 204 212
195 206 214
200 210 219
194 206 213
154 170 161
92 119 70
96 124 75
94 121 72
93 120 72
95 123 73
95 122 73
89 116 69
95 122 74
90 117 69
94 122 73
93 120 71
96 123 74
93 120 71
95 122 72
91 118 70
91 118 70
92 119 71
95 123 74
95 123 74
95 123 74
92 120 72
123 143 120
161 176 170
198 209 218
102 127 87
90 117 70
92 119 71
94 121 73
97 124 75
94 121 72
95 123 73
93 120 71
90 117 70
92 118 70
91 118 70
93 120 71
94 121 73
95 122 73
90 117 69
93 121 72
94 121 73
92 119 71
94 122 73
93 120 72
94 121 73
92 119 71
90 117 69
93 120 72
94 122 72
121 142 115
199 210 217
204 214 224
208 218 228
200 210 219
203 213 223
195 205 211
208 217 226
201 211 220
197 208 216
179 191 192
151 168 156
123 145 116
93 119 71
94 121 72
96 123 74
95 122 73
94 121 72
93 120 72
93 120 72
97 125 75
94 121 73
96 123 74
97 124 75
92 119 72
93 121 73
93 120 72
181 193 197
200 210 219
201 211 218
198 208 215
196 207 215
202 213 221
199 209 216
191 202 208
203 212 222
191 202 208
202 212 221
209 218 225
195 205 211
201 211 219
196 206 214
202 213 222
204 214 222
195 205 211
203 213 222
204 214 225
204 214 221
206 215 225
193 205 212
207 216 223
205 215 227
199 209 216
207 216 225
129 148 125
94 121 73
98 125 75
96 123 73
93 120 71
92 119 71
86 112 66
90 117 70
105 130 88
137 155 137
171 184 180
179 192 193
192 204 212
198 209 216
194 205 211
204 214 222
204 213 221
197 208 215
201 211 218
197 207 215
192 204 211
194 205 212
191 202 208
195 205 212
203 213 222
199 208 215
204 213 219
173 186 184
95 122 73
93 120 71
95 122 74
94 121 72
95 122 73
95 122 73
91 118 70
94 121 73
94 122 73
94 121 72
93 119 71
93 120 72
91 118 71
96 123 74
89 116 69
93 121 73
98 126 75
93 119 70
93 120 71
94 121 72
88 114 68
96 124 75
92 119 70
96 124 74
90 117 70
90 116 69
100 126 83
194 205 211
204 214 224
199 209 216
201 212 223
199 210 219
201 211 218
204 214 223
198 209 218
189 201 207
199 209 216
204 213 222
210 218 227
203 213 222
203 212 220
193 203 209
200 210 218
209 218 225
205 214 223
198 209 218
198 208 216
197 207 214
198 208 216
196 206 212
197 207 215
202 212 223
194 206 214
201 212 220
127 147 123
94 121 72
95 122 73
91 118 71
93 120 72
92 119 71
94 122 73
95 122 73
97 125 75
89 116 68
93 121 73
92 119 71
98 125 77
112 135 98
124 144 125
140 158 140
156 172 164
166 181 177
178 191 192
193 203 206
194 205 211
195 206 213
208 217 225
201 211 219
205 215 224
201 211 219
200 210 217
108 130 98
91 117 70
92 119 70
94 120 72
97 124 75
92 119 71
95 122 73
95 122 73
95 123 74
89 115 69
96 124 74
92 119 72
91 117 69
94 121 73
93 121 72
92 120 72
96 123 73
92 119 71
96 123 74
97 124 75
91 119 71
93 121 73
93 120 72
91 118 70
95 122 73
97 124 75
169 181 178
192 203 206
200 210 219
204 214 221
201 211 219
210 219 229
209 218 227
196 207 215
202 212 221
197 208 214
201 211 220
205 214 223
198 208 218
199 210 218
203 213 221
197 209 219
209 219 228
197 207 212
191 203 210
203 213 222
199 209 217
207 216 226
199 210 218
197 208 215
203 213 222
184 196 201
98 125 78
93 120 72
97 124 74
96 123 74
95 123 74
95 122 73
97 124 74
94 120 71
94 121 72
96 123 74
96 123 74
95 122 73
96 124 74
93 120 71
92 118 71
92 119 71
95 122 73
93 120 72
89 114 67
93 120 71
92 120 73
93 120 71
93 120 72
93 120 72
160 176 168
200 211 220
204 213 224
200 210 217
196 207 214
196 206 212
195 206 213
198 209 218
197 208 218
202 213 223
195 206 211
204 214 225
199 210 219
200 211 220
193 204 213
196 207 215
195 205 212
197 208 217
202 213 223
195 206 214
202 212 221
190 201 207
196 207 215
189 201 208
118 140 110
96 123 74
94 121 72
93 121 73
96 123 74
95 123 73
95 122 73
92 119 71
92 119 71
92 119 71
96 123 73
92 119 71
95 122 73
91 118 70
93 120 72
93 120 72
87 114 67
95 122 73
96 123 74
93 120 71
93 120 72
95 122 73
162 176 170
202 214 225
193 204 210
183 196 204
206 215 223
198 208 216
211 220 229
198 209 216
203 213 222
201 211 219
204 215 226
199 209 218
197 207 213
191 202 209
198 209 217
206 216 224
198 208 215
179 192 195
159 175 172
149 166 158
136 154 136
185 198 200
200 210 217
193 203 211
198 208 215
201 212 220
192 203 209
195 206 213
206 215 223
201 211 219
201 212 220
199 210 217
199 209 216
205 215 223
206 216 227
203 214 224
199 209 216
200 211 220
197 208 213
203 212 218
186 199 205
110 134 98
94 122 73
94 122 73
95 122 73
95 122 73
92 119 71
93 120 71
93 120 72
93 119 71
93 120 73
93 120 71
92 119 71
95 122 73
92 119 71
95 122 73
97 124 75
94 121 72
91 117 69
96 124 74
120 142 109
153 168 159
191 202 206
199 209 216
196 206 215
157 172 162
98 125 75
91 118 70
95 122 73
95 122 73
92 120 72
95 123 73
90 117 69
93 120 71
95 123 73
96 124 74
91 118 70
94 121 72
93 120 72
93 119 71
94 121 72
96 124 74
93 120 72
93 120 72
96 123 74
94 121 73
97 125 75
93 120 72
96 123 74
95 121 77
163 177 173
139 158 140
94 120 74
94 121 72
93 121 73
91 118 70
94 122 73
95 123 74
95 122 73
92 119 71
99 127 76
94 122 73
96 123 74
95 122 73
95 122 72
92 119 71
93 120 72
90 117 69
94 122 73
93 120 72
96 124 75
95 122 73
94 121 73
92 119 71
94 121 72
129 149 124
194 205 212
203 212 219
200 211 220
199 209 217
199 210 220
200 210 217
199 210 219
202 212 220
205 215 226
206 216 224
202 212 220
203 213 222
191 202 205
176 190 190
128 148 130
98 125 77
91 117 70
90 117 70
94 121 73
94 122 73
93 120 72
93 120 72
92 119 71
89 116 69
93 120 72
90 117 70
178 190 191
199 209 218
201 211 220
209 218 226
200 210 218
195 205 211
197 207 214
197 208 216
200 210 219
197 208 218
194 206 214
194 204 211
196 208 216
195 206 213
200 210 219
198 209 218
204 214 222
196 207 213
206 216 226
208 217 227
205 214 222
197 207 214
198 209 217
199 210 217
204 214 222
201 211 219
205 215 224
130 151 126
97 125 75
92 119 71
94 121 73
91 117 69
92 119 71
91 119 72
96 123 74
93 121 72
89 116 69
92 119 71
94 121 72
99 125 79
124 144 119
152 168 159
174 187 184
203 213 222
205 215 226
192 204 213
205 214 223
190 202 210
203 213 221
200 210 216
204 214 224
201 211 220
196 207 217
196 207 214
143 161 145
93 121 72
91 118 70
91 117 69
94 121 72
93 119 72
90 117 70
92 119 71
93 120 71
94 122 73
96 124 74
93 120 71
95 122 74
91 118 70
99 127 76
96 123 74
92 119 70
96 123 74
95 123 74
93 120 72
95 122 73
91 118 71
92 118 70
94 121 72
93 120 72
95 122 74
96 123 73
126 146 120
196 206 213
191 202 207
200 210 218
200 210 218
199 209 216
192 203 210
196 207 214
206 216 226
202 212 222
204 213 220
207 217 226
194 203 208
198 207 213
205 215 226
190 202 210
203 214 223
197 208 215
196 207 215
198 208 216
204 214 223
193 203 211
200 211 221
204 214 222
200 210 219
194 204 211
206 216 226
184 196 200
96 124 75
93 120 72
92 119 71
94 121 72
92 119 71
94 121 72
91 118 70
97 124 75
91 118 71
92 119 71
94 121 73
94 121 73
94 121 72
97 124 75
93 120 72
94 120 72
98 125 75
97 124 75
94 121 73
94 121 72
93 120 72
117 138 107
119 140 115
137 155 136
140 157 140
156 170 162
165 178 172
138 156 137
115 138 104
95 122 78
92 119 71
95 122 73
92 120 71
92 119 71
94 121 72
98 125 75
91 118 70
93 120 72
93 120 72
93 120 71
97 124 74
96 124 75
94 122 74
96 123 73
92 119 71
97 124 75
90 116 70
95 122 74
94 121 72
94 121 73
94 121 71
93 120 72
117 139 109
202 212 220
196 207 213
197 208 216
192 203 209
197 206 213
200 209 217
194 206 215
199 209 217
193 204 209
199 210 219
201 211 218
201 211 219
201 211 219
201 212 221
188 200 208
198 209 217
193 203 210
201 211 220
202 212 221
200 210 218
198 208 214
195 205 212
198 209 218
198 208 216
191 202 207
136 154 136
91 117 69
95 122 73
96 124 74
89 116 70
96 123 73
99 127 76
93 119 70
95 122 74
93 120 71
97 125 75
94 121 73
94 121 73
91 118 70
93 120 72
92 119 72
91 118 70
95 123 73
93 119 71
94 121 73
97 124 74
93 120 72
94 122 73
98 125 75
112 134 104
192 203 211
204 214 222
199 210 222
194 204 212
197 207 216
199 209 218
200 210 218
197 208 216
188 199 204
204 214 224
196 206 213
204 213 220
200 209 215
187 199 207
198 209 218
203 214 223
202 213 222
203 213 222
191 202 209
209 218 227
197 208 215
196 206 213
203 213 221
150 165 154
95 122 73
94 121 73
96 124 74
93 120 72
95 122 73
89 116 69
97 125 75
92 119 70
97 124 74
94 121 72
90 117 70
95 122 73
93 120 71
94 121 72
94 121 72
92 119 71
93 121 72
91 119 71
95 122 73
96 124 74
96 124 75
136 155 133
204 214 222
198 208 215
202 211 219
195 205 212
201 211 219
204 213 223
200 211 220
185 197 201
183 194 195
179 191 191
167 182 179
158 173 165
142 159 144
131 150 129
113 136 104
94 121 74
91 118 70
93 120 71
92 119 71
95 122 73
144 161 151
210 219 230
203 213 223
202 212 219
197 208 217
204 214 223
188 200 205
201 211 221
198 209 217
200 210 219
193 203 211
198 208 214
196 206 211
195 206 213
199 208 215
200 210 219
204 213 224
192 204 212
206 216 225
197 209 218
116 137 109
94 121 72
89 116 69
91 119 71
89 116 68
94 121 72
93 119 72
90 116 69
93 120 72
92 119 71
94 121 72
92 119 71
94 121 72
93 120 72
92 119 71
90 117 71
93 120 72
92 119 71
96 124 75
94 121 72
94 121 72
92 118 71
97 123 76
135 155 136
177 190 188
172 185 182
92 119 71
91 117 70
96 123 74
95 122 73
94 121 72
92 118 70
96 123 74
93 120 72
88 114 68
91 119 71
95 122 74
95 122 73
92 119 71
94 122 74
91 117 70
94 121 73
95 123 74
93 120 73
95 121 72
91 118 71
95 122 73
97 124 74
92 119 71
91 119 71
182 194 195
195 206 215
191 202 209
170 184 180
132 150 131
96 123 74
91 118 70
94 121 72
94 121 72
97 124 74
95 122 73
97 124 75
94 121 72
88 114 68
95 122 73
96 124 74
88 115 68
94 121 73
93 120 71
95 123 74
90 116 68
94 121 72
95 122 73
94 121 73
91 118 71
113 133 108
193 204 212
200 210 218
198 208 217
201 212 220
192 204 213
192 203 211
191 202 209
197 207 216
192 202 208
197 207 214
198 208 215
196 207 217
202 212 221
206 216 226
192 205 213
192 203 208
175 189 188
134 152 134
108 133 91
94 121 72
95 121 72
91 119 71
91 118 71
95 122 73
95 122 73
92 118 70
196 207 212
199 209 215
202 212 221
199 209 215
200 210 219
199 209 215
203 213 222
196 206 214
199 210 219
196 207 216
202 212 219
203 213 221
197 208 217
199 210 220
195 205 212
195 206 214
196 207 213
198 208 216
200 211 218
200 210 218
195 207 215
191 203 211
200 210 220
198 208 216
194 204 210
200 210 217
201 211 218
102 127 86
89 116 69
95 122 74
93 121 73
93 121 72
93 120 72
90 117 69
94 121 72
96 123 73
94 121 73
97 124 74
93 120 71
94 121 72
96 124 75
92 120 72
94 122 73
92 117 72
123 143 119
148 164 150
180 194 194
175 188 190
199 209 216
191 202 208
196 206 212
193 204 211
194 205 212
198 209 217
123 144 119
92 119 71
94 121 72
95 122 73
96 124 74
94 121 72
94 122 74
94 121 73
92 119 71
97 124 75
90 117 70
99 126 76
94 121 72
92 119 71
96 123 75
90 118 71
94 120 71
92 119 71
94 122 73
91 118 70
96 124 74
89 116 70
94 121 73
92 119 71
93 119 71
89 115 69
92 119 71
164 179 172
204 213 222
197 207 214
199 210 220
206 216 227
200 209 217
196 206 212
193 204 211
194 204 213
194 206 213
205 214 224
197 207 214
201 212 221
196 207 215
195 206 214
194 204 210
195 206 213
202 212 220
202 212 220
199 210 219
197 207 215
206 215 224
202 211 219
201 211 219
194 204 211
197 208 217
206 215 225
174 186 182
91 118 71
93 120 72
97 124 75
90 118 70
95 122 73
93 120 73
97 124 74
95 123 74
95 122 72
95 123 74
95 122 73
91 118 71
92 120 71
91 117 69
93 120 72
86 112 66
92 119 71
93 119 71
95 122 73
93 120 72
94 121 72
93 121 72
96 123 73
93 119 71
92 118 70
95 122 73
182 194 193
199 209 217
203 214 224
204 214 223
195 207 213
173 187 188
179 192 192
159 174 168
157 172 161
151 167 155
136 155 139
124 144 119
118 139 109
100 125 84
93 120 72
96 123 75
95 123 73
95 122 73
94 121 73
95 122 74
94 121 72
93 120 72
90 117 70
97 124 74
95 122 73
95 122 73
168 182 178
208 217 228
199 209 218
208 217 226
200 210 220
205 214 223
201 210 218
204 215 227
202 212 219
200 211 221
200 210 220
201 211 220
197 208 216
202 212 221
194 204 211
200 210 218
199 209 217
203 213 222
203 213 221
191 202 207
194 204 211
201 210 217
197 207 214
197 208 217
197 209 218
177 188 189
93 121 72
95 122 73
95 122 74
91 118 71
94 122 73
97 125 75
88 115 69
95 122 73
94 121 72
89 116 69
92 119 70
93 120 72
94 121 72
92 119 71
97 124 75
91 118 71
97 124 75
92 120 72
94 121 72
93 120 72
95 122 73
96 123 74
95 121 72
95 123 77
179 192 194
195 205 212
195 205 213
198 209 215
200 210 218
203 212 219
203 213 223
193 203 209
195 207 216
194 205 212
208 218 229
197 209 217
201 211 220
204 214 223
198 208 216
206 216 227
193 203 210
201 211 219
202 212 221
195 206 215
203 213 222
193 204 211
193 204 210
166 180 177
89 115 68
92 119 70
93 120 72
92 118 71
91 118 71
98 125 75
92 119 71
94 121 72
96 124 74
94 121 73
95 122 74
95 123 73
94 121 73
91 118 70
90 117 70
92 119 71
96 123 74
96 124 74
89 116 68
93 120 71
99 125 81
113 136 105
166 180 177
164 178 176
157 172 164
156 171 162
154 169 160
137 155 139
118 139 110
96 122 78
92 119 71
93 121 73
93 120 72
93 120 72
92 119 71
96 123 73
94 122 73
93 120 72
92 119 71
97 125 74
96 123 74
94 121 72
133 152 133
204 214 223
197 208 217
200 210 217
197 207 217
198 208 215
199 210 218
198 209 216
197 208 217
198 209 216
197 208 217
195 206 212
190 201 206
199 209 217
200 209 216
198 208 215
188 200 208
202 212 220
195 205 213
201 212 220
119 140 115
92 119 71
91 118 71
95 122 73
94 121 72
99 127 76
92 119 71
93 120 72
94 121 72
94 122 74
91 118 71
95 122 74
95 123 73
92 119 71
93 120 72
111 134 100
98 124 84
95 120 79
92 119 71
94 121 73
91 118 71
93 119 72
96 123 73
92 119 71
96 124 75
91 118 70
113 137 100
157 172 161
117 138 112
93 120 72
93 120 72
92 119 71
96 123 74
93 120 72
94 121 72
93 120 72
91 118 71
91 118 70
92 119 72
90 117 70
93 120 73
91 118 70
94 121 73
92 119 71
91 119 71
94 121 73
94 121 73
95 122 74
97 124 74
93 120 71
93 120 72
170 183 182
202 212 219
202 212 218
194 206 217
198 208 216
192 203 206
153 168 161
140 156 137
95 122 73
93 119 72
93 120 72
93 121 72
94 121 73
92 118 70
93 120 72
93 120 72
93 120 71
92 119 71
95 122 73
93 119 70
94 121 72
92 118 70
91 118 70
95 122 73
95 122 73
128 147 125
205 215 224
193 203 210
194 206 213
202 212 220
203 214 224
192 203 210
200 211 220
195 206 215
196 206 214
203 213 221
196 206 214
202 213 223
202 212 221
196 208 217
197 208 217
200 210 218
201 211 220
202 212 220
190 202 209
178 190 189
163 176 172
118 139 113
95 123 73
92 118 71
93 120 71
91 117 70
186 199 204
204 213 220
198 207 214
192 203 209
198 209 219
197 207 213
201 211 219
193 204 211
197 207 214
200 210 219
200 210 218
197 207 215
197 208 216
194 205 212
201 210 216
200 211 220
194 205 213
196 208 218
201 211 219
191 202 209
203 213 222
193 204 211
200 210 218
198 208 216
197 207 215
199 210 219
190 201 207
93 120 72
94 121 73
92 119 70
91 118 70
93 120 72
92 119 71
90 117 70
88 115 67
96 124 74
96 123 74
94 121 72
91 118 70
92 119 71
94 122 72
95 122 73
95 122 73
93 121 73
91 118 71
93 120 72
90 116 69
95 122 73
113 136 101
148 165 152
168 181 178
180 193 195
200 211 219
198 208 215
97 124 77
92 119 70
92 119 71
91 118 71
91 117 69
92 119 71
93 120 72
89 116 69
90 117 70
92 120 72
95 122 73
93 120 72
91 118 70
94 121 72
95 122 73
94 121 72
93 120 71
94 120 71
94 121 72
98 125 75
93 120 72
94 122 73
96 122 73
98 125 75
94 120 71
95 122 73
91 118 71
188 200 205
204 214 221
190 201 208
202 213 224
198 210 220
199 209 216
193 203 209
199 209 217
197 208 216
192 204 211
200 210 219
199 209 217
200 210 219
202 212 220
200 210 219
199 209 219
194 206 213
199 209 219
201 212 220
199 210 220
195 205 212
191 203 212
194 205 213
191 201 207
190 201 206
196 207 215
195 205 213
124 145 118
91 118 70
91 117 70
92 119 71
93 119 71
91 119 71
95 123 74
91 118 71
93 120 72
94 122 73
95 122 73
94 121 73
92 119 70
93 121 72
93 120 71
96 123 74
94 120 72
95 122 72
94 121 73
95 123 74
96 124 74
95 122 73
93 120 72
95 122 73
97 124 75
93 120 72
127 147 123
203 213 221
196 207 215
196 206 213
193 204 214
200 211 219
203 212 220
191 202 207
202 212 220
196 208 216
197 208 217
204 215 223
198 209 217
198 209 218
201 211 219
194 204 210
192 203 207
191 202 208
175 189 190
159 173 168
152 168 159
147 163 148
150 166 152
139 157 145
121 140 117
131 150 129
123 143 118
199 210 219
205 215 225
200 210 218
203 212 221
200 210 218
205 215 224
193 203 209
196 206 213
197 207 214
195 205 212
205 215 224
196 208 216
203 212 219
195 205 210
191 203 211
199 210 218
202 213 224
201 212 223
197 207 215
195 206 213
199 209 217
196 208 218
190 200 203
194 204 208
194 206 215
123 145 116
96 123 74
91 118 71
95 122 74
94 122 74
96 123 74
92 119 71
93 121 73
96 124 74
94 121 73
96 123 73
96 123 74
92 118 71
93 120 72
95 122 73
96 123 74
91 118 71
95 122 73
92 119 71
92 119 70
92 119 71
96 123 74
88 115 69
93 120 72
146 164 150
187 197 202
205 215 224
200 211 222
183 195 202
199 209 217
204 214 222
198 209 219
189 201 209
202 211 220
199 211 221
194 206 214
200 209 217
203 213 220
200 210 218
200 211 221
188 200 208
202 212 221
204 214 225
189 200 206
198 208 215
198 207 214
199 210 219
190 201 205
102 126 87
94 121 72
97 124 75
95 122 73
94 120 71
97 125 76
91 118 71
93 120 72
92 119 71
98 123 83
110 133 100
114 135 108
131 151 131
140 156 144
154 170 162
156 171 162
169 183 181
164 179 174
175 188 186
191 203 209
195 206 211
190 202 207
131 151 130
94 121 73
91 118 71
95 122 73
95 122 73
97 124 74
94 122 73
91 117 70
93 119 71
92 119 71
94 121 72
92 119 71
95 122 73
91 118 71
93 120 72
93 120 72
94 122 73
93 120 71
92 119 71
90 117 69
120 141 114
186 198 204
200 211 221
202 212 219
200 211 220
196 207 216
199 209 217
194 205 211
191 202 208
201 212 221
199 210 219
195 206 215
198 208 216
195 206 215
208 217 224
195 207 217
193 204 212
203 212 220
200 210 218
200 210 218
130 150 130
93 119 71
89 116 68
88 115 68
92 119 71
93 120 72
93 120 72
95 122 73
94 120 72
93 119 71
94 121 73
90 117 70
99 126 80
95 123 74
108 132 95
111 133 101
202 212 221
199 208 214
196 207 215
197 208 217
195 206 214
200 211 219
204 213 219
193 204 213
187 198 202
192 203 208
178 190 192
184 196 198
131 148 129
135 154 134
103 128 87
129 149 124
166 180 179
167 181 173
165 179 174
162 176 171
152 168 159
158 173 166
152 168 160
155 170 160
142 159 145
150 165 156
136 155 137
143 160 146
129 148 127
128 147 126
137 155 138
116 138 108
121 141 119
122 142 120
115 136 110
116 138 110
170 184 179
195 206 212
194 204 211
195 206 214
193 205 213
195 206 213
194 205 211
199 209 217
189 200 204
168 182 179
120 142 112
89 115 69
94 121 71
94 121 72
90 116 69
92 119 71
93 120 72
93 120 72
90 117 69
95 121 72
91 118 70
94 121 72
94 122 73
94 121 72
95 123 74
119 142 109
195 205 212
199 210 220
198 208 214
195 205 213
195 206 213
196 207 216
197 208 217
201 212 220
203 214 225
198 209 216
199 209 216
203 212 220
200 209 216
201 211 219
197 207 215
193 204 213
201 212 220
198 208 216
198 209 217
190 200 205
203 212 220
197 208 216
184 196 199
162 176 171
132 152 130
97 122 80
195 206 212
198 209 217
194 205 214
187 199 205
205 215 225
202 212 223
191 203 211
193 204 209
197 207 215
199 209 216
200 210 220
201 211 219
204 213 221
198 209 218
199 210 219
203 213 221
204 213 223
194 205 214
197 207 217
202 213 223
194 205 212
193 203 210
199 210 218
199 209 217
198 209 218
198 208 215
168 182 179
88 114 67
93 121 73
91 118 70
95 122 73
94 122 73
95 122 72
91 117 69
95 122 73
93 120 72
90 117 69
96 124 75
92 120 72
89 116 69
94 121 73
93 120 72
93 120 71
94 122 73
91 117 70
95 122 73
93 120 72
93 120 72
91 118 69
93 120 71
95 122 73
93 120 71
101 126 87
150 166 151
153 168 158
124 144 125
105 130 90
95 122 72
92 119 71
94 121 72
90 117 70
94 122 73
93 120 72
94 122 74
89 116 70
95 123 74
96 124 75
94 120 72
87 113 67
91 118 70
93 120 72
95 122 73
91 117 69
95 122 73
89 116 69
95 122 72
94 121 73
96 123 74
94 121 72
91 118 71
121 142 114
203 213 222
182 193 194
204 213 220
192 204 211
192 203 210
198 209 217
200 210 219
201 210 219
199 210 217
194 205 214
193 204 211
200 210 217
201 212 224
195 206 213
192 203 213
205 215 223
209 219 230
202 212 221
199 208 213
203 214 224
198 208 215
199 209 215
191 203 210
190 201 208
205 214 223
198 208 215
170 184 180
93 120 72
95 122 74
97 124 75
97 124 74
94 121 73
90 117 70
93 120 72
90 117 70
93 120 72
92 119 71
92 120 72
96 124 75
95 122 73
93 119 71
95 122 72
90 116 69
91 118 70
92 119 71
97 125 75
96 123 74
94 122 73
94 121 72
92 119 71
94 121 73
95 122 73
94 121 72
173 186 187
182 194 197
198 208 216
198 209 217
200 211 223
200 211 220
201 211 219
193 204 211
201 212 222
201 211 219
194 205 213
200 210 219
200 210 216
201 211 219
195 207 214
199 209 217
199 209 217
193 203 210
197 208 215
200 209 216
197 207 215
203 213 223
202 212 220
195 206 213
193 204 210
204 215 224
138 157 138
92 119 71
99 126 81
110 134 102
119 140 110
121 142 119
133 152 131
127 146 122
140 157 140
153 169 158
154 170 161
158 173 167
177 190 188
160 175 168
183 195 197
173 186 186
176 188 190
190 202 206
189 201 205
191 203 209
197 207 217
202 212 219
197 208 217
189 201 206
195 205 211
155 170 162
91 118 70
92 119 70
92 119 71
98 125 75
93 120 72
92 119 72
97 125 76
93 120 72
93 120 72
92 119 71
89 116 69
97 125 75
95 123 74
92 119 71
95 122 73
90 116 70
94 121 73
93 120 72
93 120 72
95 122 73
92 119 71
97 124 74
93 119 71
112 135 100
196 207 215
192 204 211
203 213 221
202 211 218
198 208 214
202 213 222
188 200 208
200 211 220
194 205 212
197 208 217
198 208 215
200 209 216
204 214 224
204 214 222
199 209 216
191 202 208
194 206 212
189 201 209
180 191 192
184 195 196
173 186 185
172 185 186
167 180 176
159 174 168
151 167 156
163 178 171
169 182 176
172 185 184
185 197 200
186 197 201
188 199 202
196 208 215
192 202 208
202 212 222
196 206 215
195 206 215
204 214 223
198 208 215
191 202 209
199 208 214
201 211 219
192 204 213
204 214 223
201 211 221
197 207 213
133 152 130
91 118 71
91 117 70
94 120 71
90 116 69
96 124 74
93 120 71
92 119 71
96 124 75
93 120 71
95 122 73
89 116 70
95 122 74
95 123 73
94 121 73
97 124 78
94 121 75
103 128 86
97 123 82
107 130 94
109 132 98
164 177 174
178 190 193
188 198 198
181 193 194
176 189 190
168 181 178
166 180 177
169 183 181
159 174 167
172 185 183
156 172 162
161 176 169
166 180 175
169 182 177
161 175 168
138 154 143
144 162 149
136 155 133
151 166 153
178 192 195
179 191 192
166 181 180
180 192 193
172 185 185
173 186 185
175 188 187
195 205 211
196 207 215
184 195 201
193 204 209
189 201 207
185 196 201
200 210 215
197 207 213
196 206 212
204 214 222
193 204 212
203 213 221
200 210 219
197 207 213
198 208 216
196 208 217
197 208 216
193 205 213
197 208 216
208 217 226
196 207 214
195 205 212
131 150 131
89 115 67
94 121 72
93 120 71
98 124 79
144 161 146
174 187 187
204 213 221
192 203 212
195 206 214
203 213 222
191 203 209
196 207 215
201 211 219
198 208 218
199 209 217
202 212 222
197 208 216
193 204 212
200 212 222
189 200 204
204 214 222
197 207 216
204 214 225
154 169 161
92 118 71
91 118 70
94 121 73
94 120 72
90 117 69
92 119 71
99 126 79
99 123 83
105 129 94
105 130 92
114 137 104
139 156 140
175 188 188
180 193 194
181 194 199
192 203 209
183 194 195
176 189 190
178 192 192
164 178 176
175 188 187
173 187 186
161 176 171
162 177 173
160 174 170
142 160 142
141 157 146
148 164 152
149 165 153
146 162 150
146 162 149
152 168 158
148 164 152
145 161 152
156 171 163
151 167 158
172 186 182
153 169 163
166 180 176
173 186 181
175 187 185
159 174 171
182 194 194
183 195 197
185 198 202
182 194 197
174 188 187
181 193 197
171 184 182
173 186 185
168 182 180
166 179 176
177 190 192
197 206 214
190 201 207
186 197 202
185 196 201
189 201 204
196 207 213
187 199 205
193 204 211
194 205 211
200 210 219
189 200 208
198 208 215
203 213 223
208 218 229
202 212 221
203 213 222
194 205 213
195 206 214
194 204 210
197 207 214
198 208 215
198 208 216
201 211 220
195 206 213
153 168 160
90 117 70
94 121 73
93 121 72
92 119 71
92 119 71
94 121 72
93 120 72
91 118 70
95 123 73
95 123 74
95 123 74
95 122 73
95 122 73
96 124 75
95 122 73
92 120 72
93 121 72
90 117 69
92 119 71
93 120 71
92 119 71
95 123 74
93 120 72
91 118 70
92 119 71
90 117 70
144 161 148
193 205 213
205 215 224
201 211 219
183 195 198
169 183 180
136 155 136
118 140 115
95 121 78
92 119 71
97 124 74
94 120 71
93 120 73
97 124 75
95 122 74
93 121 73
95 122 73
88 115 69
91 118 70
96 123 74
93 121 73
91 118 70
96 123 73
95 123 74
94 121 72
94 121 72
93 120 72
140 158 142
196 206 213
193 205 214
199 209 219
202 212 222
199 209 216
196 207 216
194 205 213
196 207 215
195 205 213
199 210 219
201 212 220
197 207 215
198 209 220
206 216 228
199 208 216
196 206 213
199 209 216
199 209 217
193 205 214
200 210 218
201 210 219
203 213 222
196 207 214
195 206 213
195 206 213
198 208 216
141 159 143
93 119 71
92 119 72
95 122 74
91 118 71
93 121 72
96 123 73
92 119 71
92 119 71
92 119 71
91 118 71
89 116 69
96 124 75
97 124 75
97 125 75
93 121 73
87 114 68
91 118 71
94 121 73
93 120 72
93 119 72
90 116 70
95 122 72
95 123 73
94 121 73
93 121 72
110 133 99
198 209 216
189 200 205
201 211 219
199 209 217
190 201 209
191 203 210
195 206 215
202 212 222
195 207 216
190 202 209
200 211 220
196 207 215
198 209 218
200 210 220
202 211 219
197 207 215
195 207 215
203 212 222
192 202 211
195 206 216
195 207 215
198 209 217
201 211 220
195 205 212
194 204 211
174 187 189
95 122 73
93 119 71
93 120 72
94 120 71
92 119 71
95 122 74
94 121 72
94 122 73
93 120 72
96 123 74
95 122 73
94 121 72
92 118 71
93 120 71
93 119 71
92 119 71
94 121 72
89 115 68
86 113 67
94 121 73
97 124 75
92 119 71
98 124 80
99 124 83
115 138 104
185 197 201
182 194 198
189 201 204
181 193 194
182 194 193
177 190 191
182 194 196
173 185 184
169 182 179
179 192 194
172 186 184
162 178 173
172 186 184
166 180 175
161 175 170
167 180 175
168 181 178
161 176 173
169 182 178
166 180 179
173 186 186
156 171 163
165 181 175
169 183 180
128 146 127
136 153 138
134 152 132
138 156 139
144 163 153
139 155 138
132 151 130
139 157 138
136 155 137
136 154 134
128 147 128
126 146 125
124 144 123
120 141 112
124 144 118
117 138 112
116 136 110
132 150 129
130 150 126
132 152 130
124 144 119
128 148 124
132 151 132
143 159 145
173 186 185
169 183 179
183 195 195
165 179 177
164 179 174
163 177 171
165 178 170
151 166 157
163 177 171
147 163 149
160 175 168
158 173 167
152 168 157
158 172 162
148 165 153
145 161 146
147 162 150
153 169 161
141 159 146
140 157 140
138 156 141
162 176 168
184 195 199
169 183 183
191 203 207
183 194 197
173 187 187
183 194 196
182 194 195
183 195 200
186 198 202
191 201 204
187 199 202
189 200 206
202 212 220
190 201 206
206 216 225
191 202 210
189 200 207
192 203 212
198 209 217
198 208 216
123 143 118
90 117 70
93 120 73
91 118 71
94 121 72
91 118 70
91 118 71
88 114 67
93 120 71
92 119 71
94 121 73
92 119 71
94 121 72
91 117 70
90 116 69
97 125 75
94 121 72
90 116 69
94 121 72
154 169 161
187 198 204
204 213 223
199 209 218
191 202 208
194 204 210
197 207 214
203 213 221
196 207 218
194 205 213
197 208 218
199 209 217
205 215 225
200 211 221
201 211 217
202 212 222
195 205 212
183 195 200
205 214 223
206 216 226
191 202 211
187 199 205
200 210 218
196 207 214
201 211 220
196 206 211
194 204 211
192 204 211
199 209 217
196 207 213
152 167 155
91 118 70
92 119 72
91 118 71
91 118 70
93 121 73
92 119 71
107 129 97
144 161 147
186 197 203
200 211 220
190 201 207
198 209 218
201 210 219
205 214 225
188 200 207
194 206 214
197 207 213
203 213 222
193 203 210
196 206 211
199 210 219
191 202 210
202 212 221
161 174 168
94 121 72
91 118 70
94 121 73
94 121 73
91 119 71
92 119 71
93 120 71
96 123 74
91 119 71
92 119 72
94 121 73
96 124 74
91 118 70
126 147 119
164 178 176
187 198 201
189 201 209
200 210 218
204 214 225
191 202 209
204 214 223
193 204 212
200 210 218
195 206 212
191 203 207
95 123 74
91 117 69
92 119 72
92 119 70
92 119 72
93 119 71
96 123 74
96 124 74
96 123 73
92 119 71
90 117 70
94 122 73
92 119 71
89 116 69
93 120 71
93 120 72
92 118 71
92 118 70
94 121 73
97 125 75
93 120 72
93 120 72
95 123 73
94 122 73
90 117 69
122 143 116
196 207 215
198 209 218
197 207 216
182 194 193
162 176 168
119 141 116
100 127 81
91 118 70
90 118 71
93 120 72
92 119 70
88 114 67
93 120 72
91 118 71
99 125 80
94 121 76
95 121 75
103 129 87
103 128 91
103 126 90
101 126 87
104 127 92
111 133 100
116 138 106
112 136 101
113 137 102
160 174 168
181 193 198
190 201 206
178 191 193
184 196 199
180 192 195
187 199 203
188 200 205
178 190 192
175 188 189
181 193 195
178 191 191
183 197 201
174 187 186
184 196 201
178 191 193
176 188 185
169 182 182
177 189 187
169 183 183
169 183 180
177 190 189
173 186 184
166 179 175
162 176 168
171 184 182
166 179 174
142 159 141
136 154 137
145 162 147
157 172 161
147 163 148
150 165 150
133 151 133
143 160 148
151 167 156
119 138 112
103 128 88
118 139 112
139 157 143
154 171 164
156 170 163
166 180 173
162 175 173
162 176 169
146 162 151
153 169 159
160 175 167
143 160 148
157 173 166
156 171 162
152 168 157
147 163 152
145 161 148
144 161 148
155 170 160
159 174 167
150 166 156
154 169 158
164 179 175
172 186 183
149 165 152
155 170 161
152 167 157
150 165 155
161 176 170
162 176 171
160 174 167
158 173 168
168 181 178
160 174 167
166 180 176
155 170 160
160 174 168
156 171 161
162 177 170
164 179 174
171 184 180
161 176 170
156 171 163
160 176 171
152 167 159
152 168 158
133 152 133
146 163 150
151 166 155
138 156 139
137 155 140
148 164 153
146 163 150
143 160 146
141 158 142
140 157 144
137 156 135
160 175 166
152 167 154
146 162 151
144 162 147
151 168 157
150 166 155
157 172 163
151 167 152
152 168 157
153 168 157
149 165 151
154 170 163
153 168 159
144 161 145
154 169 160
160 175 167
163 178 169
156 171 164
149 165 154
149 164 153
156 172 162
147 162 151
162 176 167
152 168 157
157 172 164
149 165 153
151 168 155
159 174 165
158 173 166
153 169 158
157 173 163
153 167 159
151 168 157
161 176 171
149 165 155
160 174 165
152 168 159
142 159 147
159 173 165
176 188 187
154 170 164
167 182 175
161 177 176
145 161 149
168 182 177
160 175 168
161 174 170
160 173 169
161 176 169
164 179 175
165 179 180
172 185 183
169 182 179
168 182 178
175 188 185
167 181 176
173 185 183
169 183 181
166 180 177
172 185 184
171 184 182
179 192 192
179 192 195
182 194 194
155 169 156
117 138 112
122 142 117
124 144 122
131 150 129
121 141 116
122 144 114
115 136 105
116 137 108
119 139 112
120 140 113
115 137 109
113 135 102
118 140 112
123 145 118
109 131 100
113 135 104
110 133 100
114 137 103
101 127 85
103 128 86
102 128 85
99 125 84
101 126 85
133 152 132
192 202 210
197 207 215
199 209 218
204 214 223
202 212 220
200 211 222
193 204 212
202 212 222
202 213 223
202 212 218
200 210 218
185 196 205
196 206 212
198 207 212
198 209 216
200 211 220
194 204 211
197 207 213
191 203 210
199 208 214
204 214 224
196 206 212
191 203 209
98 124 82
89 116 70
92 119 71
90 117 70
93 120 72
95 122 73
95 122 73
94 121 72
94 121 72
91 117 69
94 121 72
94 122 73
90 117 71
91 118 70
90 117 69
91 118 70
88 115 68
96 124 75
90 118 71
96 123 73
92 120 71
133 152 130
199 209 217
202 212 219
195 207 217
197 207 213
193 204 213
196 207 214
196 206 212
198 208 215
196 206 212
191 203 211
196 206 214
204 215 224
201 211 221
197 208 215
201 211 220
198 208 214
197 206 213
194 205 213
197 207 214
197 208 216
150 166 156
92 118 70
91 118 71
97 125 76
93 120 72
92 120 72
93 120 71
91 117 69
90 117 69
94 121 73
94 120 72
96 123 74
89 116 70
91 118 70
95 122 73
95 122 73
94 121 72
88 114 68
90 117 70
143 159 145
198 208 213
194 205 212
200 210 219
197 208 218
190 202 208
192 203 212
201 211 222
201 212 223
192 203 209
208 216 224
204 213 222
192 203 210
202 212 220
199 209 216
195 205 213
186 198 203
178 191 192
169 183 181
192 202 207
206 215 225
195 205 212
196 207 215
200 211 219
195 205 213
194 206 215
199 209 218
198 209 218
189 200 208
196 207 217
200 211 221
170 183 182
94 121 73
93 120 72
87 114 67
94 121 73
94 121 72
90 117 70
96 124 75
93 120 73
91 116 75
123 143 119
167 180 177
191 202 208
195 206 214
203 212 219
202 213 221
201 212 222
200 210 219
193 204 210
200 210 218
190 201 208
195 207 216
194 205 212
194 204 210
164 178 175
94 122 73
94 121 72
93 120 72
90 117 69
93 121 72
95 123 74
94 121 72
90 117 70
92 119 71
93 120 72
94 120 72
92 119 71
92 119 71
91 118 71
94 121 73
90 117 70
120 141 116
164 178 168
190 202 208
202 212 220
197 208 217
201 211 217
196 207 215
205 215 225
176 188 188
96 124 75
89 116 69
93 120 72
92 118 70
91 118 70
92 118 69
91 118 71
89 116 69
93 120 71
90 117 69
95 122 73
94 122 73
94 121 72
93 120 71
92 119 71
92 119 71
94 121 72
95 122 73
89 115 68
92 119 71
95 122 73
91 117 70
91 118 71
91 118 71
89 115 69
119 140 113
197 208 218
193 205 214
201 211 219
198 209 218
197 208 217
200 210 218
198 209 216
178 190 188
158 173 166
118 140 110
92 119 71
92 119 71
96 123 73
94 122 73
94 121 71
94 121 72
89 116 69
96 123 73
90 116 68
92 119 71
93 120 72
94 122 73
88 114 67
95 122 73
94 121 72
86 112 65
178 191 193
200 210 217
194 205 212
198 210 221
194 205 213
205 214 223
206 215 224
195 206 214
200 210 217
188 200 207
203 214 225
198 207 212
196 208 216
201 211 221
197 207 215
199 210 218
195 206 213
196 207 215
188 199 207
198 208 217
192 203 211
199 210 221
201 212 223
197 208 215
194 204 211
205 214 222
189 201 207
103 128 85
94 121 72
93 120 72
91 118 70
94 122 74
93 120 72
92 119 72
90 116 69
92 119 71
89 115 68
96 123 73
93 121 72
92 119 71
93 120 75
116 138 112
149 166 155
165 180 176
177 189 188
189 199 204
204 214 222
191 201 208
195 207 216
195 207 217
196 206 211
200 209 216
195 205 212
193 205 212
92 118 71
93 121 72
91 118 70
93 119 71
94 121 72
96 123 74
94 121 73
97 125 75
93 121 72
92 119 71
91 117 69
89 116 68
91 118 70
90 117 70
89 116 69
88 115 68
95 123 74
89 116 69
93 121 72
90 117 70
94 121 73
91 117 69
93 120 72
93 120 72
93 120 71
94 121 73
132 150 132
192 203 211
198 209 216
200 209 216
201 211 219
196 206 212
195 206 214
204 214 222
200 210 218
199 209 219
201 211 220
204 214 222
197 207 216
191 203 210
199 211 220
203 214 223
197 207 214
191 203 209
196 207 214
199 209 218
193 204 210
201 212 221
203 213 221
197 207 214
199 208 217
198 207 214
198 208 215
100 124 86
92 120 72
94 121 72
88 114 67
89 116 68
92 119 71
89 115 68
93 121 73
94 121 73
95 122 73
95 122 73
93 121 72
95 122 73
93 120 71
93 120 71
93 120 71
94 121 73
91 117 69
93 120 71
94 121 73
92 118 71
90 116 69
93 120 72
93 120 72
93 120 72
110 132 98
204 214 225
203 212 219
198 209 218
201 211 221
193 204 211
201 211 220
200 211 220
191 201 208
200 210 218
196 207 215
187 198 205
193 203 210
196 207 215
193 204 212
195 206 215
192 204 211
189 200 208
191 202 208
196 206 214
193 204 212
187 198 206
196 207 216
197 208 216
203 213 223
178 190 192
94 121 75
90 117 70
89 116 69
92 119 71
93 120 72
95 123 74
96 123 74
96 123 74
94 122 73
91 117 70
96 123 73
89 115 69
93 120 72
94 122 73
91 118 71
94 121 72
94 120 72
95 122 74
92 119 71
91 118 70
93 120 72
95 122 73
91 118 70
108 132 93
180 192 198
194 205 212
196 206 214
198 209 219
205 214 222
203 213 221
196 206 214
202 213 224
197 207 214
192 204 212
195 206 212
195 205 214
203 214 223
202 212 221
199 210 220
192 202 208
196 207 216
196 206 213
196 207 214
203 211 218
199 210 217
183 195 199
202 212 221
115 137 108
90 117 70
93 120 71
92 119 71
89 116 69
95 122 73
94 121 72
95 122 73
93 120 72
91 118 70
93 120 72
92 119 72
96 123 73
93 120 72
93 121 72
94 121 73
93 120 72
95 122 74
93 120 72
93 120 71
93 119 71
110 132 99
179 190 192
193 204 213
199 209 218
200 211 219
203 212 218
199 209 217
198 209 215
195 206 214
196 207 214
201 211 219
203 211 219
208 218 229
195 205 212
194 205 213
196 207 216
203 212 219
207 216 225
203 213 222
202 212 220
197 208 217
164 179 177
92 119 71
95 122 73
89 116 70
89 116 69
92 119 71
90 117 71
95 122 73
89 116 69
97 125 75
96 124 74
93 120 72
93 120 71
94 121 73
95 122 73
92 119 71
91 118 71
92 119 72
94 121 73
140 158 144
193 202 206
201 212 220
190 202 210
201 211 218
196 206 212
193 204 211
197 208 219
196 207 216
196 206 214
198 209 218
198 208 215
198 208 215
181 192 193
162 176 171
132 149 130
103 127 88
99 123 83
191 202 205
206 215 224
103 127 88
151 168 157
184 196 199
200 211 220
201 211 218
194 205 213
200 210 219
195 205 211
196 206 214
198 208 214
197 207 214
189 201 207
186 197 200
93 120 72
90 117 70
88 114 67
94 121 73
96 124 75
91 118 70
94 121 73
91 118 70
91 118 70
95 123 74
96 123 74
98 124 79
139 157 138
179 193 194
193 204 210
191 202 208
200 211 219
197 208 218
202 213 222
193 204 212
198 208 216
197 206 212
190 202 211
185 197 200
88 114 68
94 121 72
96 123 74
96 124 74
98 126 76
90 116 69
94 121 73
94 122 73
95 122 73
91 118 71
94 121 73
93 119 71
92 120 72
90 117 69
93 120 72
92 119 71
94 122 73
91 118 70
93 119 71
113 135 106
152 168 156
185 197 199
196 207 214
192 203 210
181 192 194
92 119 71
94 121 72
93 120 72
93 119 71
98 126 76
88 114 68
95 122 72
96 124 74
92 120 72
94 120 71
88 115 68
91 118 70
90 117 70
92 119 70
91 118 70
91 117 70
93 120 72
89 115 68
90 117 70
99 126 75
93 120 72
95 123 73
92 119 71
93 120 71
94 121 72
132 151 132
194 205 211
202 211 218
189 201 209
199 209 218
192 204 212
202 212 220
193 203 210
195 206 213
196 206 214
199 209 217
184 195 199
167 181 179
129 148 129
107 131 94
92 119 70
92 119 71
97 125 76
90 117 69
94 122 72
95 122 72
95 123 74
88 114 68
89 115 68
98 125 75
93 120 71
95 123 74
195 206 213
196 206 213
203 213 221
198 208 218
199 210 219
197 207 216
193 204 211
194 204 210
200 210 220
202 212 221
190 201 207
207 216 225
203 213 223
192 203 211
193 203 210
199 209 219
187 199 206
198 210 219
189 200 206
202 211 220
193 204 213
203 213 223
198 209 219
197 207 215
200 211 220
195 206 214
186 198 203
90 117 70
91 119 71
96 124 74
94 121 73
90 117 70
93 120 72
94 120 72
91 117 70
92 119 71
92 118 69
93 120 72
95 122 73
95 122 74
93 120 72
90 116 68
93 120 71
92 119 71
94 121 73
99 126 80
119 140 113
140 157 141
159 173 165
169 181 181
189 200 204
199 209 217
193 204 210
163 179 177
96 124 75
94 121 73
93 120 72
93 119 71
91 118 70
93 120 72
89 117 70
93 120 72
88 115 68
93 120 72
92 118 71
94 121 73
92 119 72
91 118 71
93 120 72
88 115 68
91 118 71
92 119 71
95 123 74
95 122 73
94 121 72
91 118 70
94 121 73
92 119 71
93 120 72
92 119 71
179 192 192
200 210 218
198 208 215
202 211 219
208 217 226
203 212 220
197 207 215
188 200 206
185 197 202
203 213 221
205 215 225
200 211 219
204 213 222
200 210 218
200 211 218
196 206 212
198 209 216
196 206 213
206 215 224
198 208 216
200 210 218
197 208 218
191 202 208
190 201 205
199 209 219
188 199 204
168 181 174
91 118 70
95 121 73
90 117 70
94 121 73
89 116 70
92 119 70
93 120 71
87 114 67
90 116 69
91 118 70
91 118 70
93 120 72
92 118 71
96 123 73
92 118 70
96 122 73
93 119 71
95 122 73
91 118 71
93 119 71
94 122 73
92 119 71
94 121 72
92 119 71
94 121 73
166 180 181
200 210 217
196 207 215
201 211 220
202 212 221
195 205 214
193 203 210
203 212 219
190 201 208
196 207 218
194 205 211
185 197 202
203 212 221
199 209 217
199 209 217
201 211 220
200 210 219
190 201 207
199 209 216
189 201 207
195 205 212
203 213 222
188 200 207
208 218 228
202 211 218
130 149 129
90 116 68
96 123 73
93 120 70
91 118 71
94 121 72
94 121 72
94 121 73
95 122 73
89 116 69
96 123 73
91 119 71
95 121 72
94 120 72
94 121 72
92 120 71
93 120 72
96 123 74
90 117 70
94 121 73
95 122 74
94 122 73
94 122 73
94 121 72
168 182 180
199 210 219
195 206 213
192 203 210
198 209 219
200 211 219
203 213 223
204 213 220
193 203 209
197 208 217
198 208 216
194 204 210
199 209 218
206 216 226
194 205 213
192 203 209
187 198 203
193 204 211
205 214 221
197 208 215
201 211 221
198 208 215
200 210 217
150 167 158
94 121 72
93 120 71
93 121 72
95 123 73
93 120 72
91 118 70
93 119 72
95 122 73
96 123 73
91 118 70
90 118 70
94 121 73
91 118 70
93 120 72
93 119 71
98 125 76
92 119 71
95 123 74
93 119 71
93 120 73
100 124 81
174 187 185
197 207 213
190 202 210
200 210 219
199 209 215
200 210 219
201 211 220
196 207 214
200 211 220
198 209 216
194 206 214
192 203 210
205 215 224
200 210 217
202 212 220
197 208 215
193 204 210
191 203 210
192 204 212
200 210 220
168 182 179
91 118 71
92 119 71
90 116 69
92 119 71
93 120 72
92 118 70
93 120 72
95 122 73
95 123 74
92 119 71
95 122 73
87 113 67
97 125 74
93 119 71
94 121 73
95 122 73
92 119 71
89 116 69
125 144 122
195 205 211
202 211 222
189 200 205
200 211 220
198 208 216
203 212 221
196 207 217
195 206 212
179 191 193
145 162 146
146 161 149
108 132 95
94 120 74
90 117 69
95 122 73
91 118 71
100 125 87
172 187 188
205 215 224
199 209 217
88 114 67
95 122 73
90 117 70
140 158 144
167 181 177
193 204 210
200 210 217
193 204 213
198 208 215
189 201 208
198 208 216
197 208 214
194 206 214
107 130 95
93 120 72
94 121 73
94 121 72
93 120 72
92 119 72
94 120 71
93 119 71
97 124 75
90 117 70
94 121 73
92 119 71
94 122 73
94 121 73
104 127 90
150 166 154
183 194 197
193 204 213
199 209 217
197 207 214
203 213 223
197 208 218
201 211 219
193 204 208
91 118 70
92 119 71
87 113 67
93 120 72
93 120 72
91 118 70
90 117 70
90 117 70
92 119 72
90 117 69
90 117 70
92 119 72
92 119 71
95 122 73
94 121 72
93 119 71
90 116 69
93 119 71
86 113 67
91 118 70
92 119 71
92 119 71
107 130 96
152 168 157
171 184 182
90 117 70
93 120 72
92 118 70
90 116 69
91 118 70
95 122 73
99 127 77
94 121 73
91 118 69
91 118 71
91 118 70
93 121 72
92 120 72
90 116 69
90 117 69
98 125 75
95 122 73
93 120 72
94 122 73
94 122 73
94 121 73
93 120 73
97 125 75
93 119 71
91 118 70
147 163 150
195 205 211
197 207 215
204 213 222
204 213 223
197 206 213
191 202 210
195 204 208
193 204 209
190 201 206
195 206 213
204 214 224
193 205 213
187 200 205
197 207 215
188 199 202
158 173 168
129 148 125
97 122 83
95 122 73
92 119 71
90 117 70
90 117 69
92 119 71
94 120 72
93 120 72
90 116 69
202 212 221
186 198 205
197 207 213
194 205 212
198 208 216
191 202 207
196 208 218
203 212 220
201 212 222
203 213 221
198 209 218
190 201 207
202 212 221
191 201 207
198 209 216
198 208 216
196 207 217
191 202 208
197 208 215
201 211 219
198 209 219
207 216 226
197 207 214
194 205 213
192 203 209
195 205 212
176 189 189
91 118 71
92 119 71
91 118 71
91 118 71
91 118 70
95 123 74
92 119 71
94 121 72
91 119 72
95 122 74
93 120 71
99 127 77
93 120 72
94 121 73
94 121 73
90 117 70
91 118 71
95 123 74
92 119 70
93 120 72
95 122 73
91 118 70
96 124 74
97 124 74
119 141 112
142 160 143
174 186 183
147 163 151
117 138 111
100 126 83
94 121 73
92 120 72
93 120 72
94 121 72
94 121 72
92 119 71
90 117 69
95 123 74
95 121 72
95 122 73
93 120 72
93 120 72
89 116 69
90 117 71
94 120 72
91 117 69
88 114 68
93 120 73
94 121 72
95 123 74
92 120 72
93 120 72
117 139 107
193 204 212
196 206 213
199 210 218
197 208 218
195 207 216
195 205 212
192 203 210
190 201 209
194 205 211
188 199 205
203 214 224
198 208 215
199 210 221
192 202 209
195 205 211
193 204 212
202 211 219
206 216 225
194 204 210
193 204 211
192 202 207
195 206 214
203 213 220
204 213 220
203 213 222
202 212 221
116 138 111
94 122 74
93 120 71
92 119 71
91 118 70
92 119 71
94 121 72
94 121 73
94 121 71
94 122 73
92 119 71
94 121 73
92 119 72
89 116 69
95 122 73
94 122 73
96 122 73
96 124 74
94 122 73
93 120 72
94 121 72
96 123 73
93 120 72
89 116 69
98 125 75
132 152 130
194 205 212
199 209 216
199 210 218
200 211 220
195 207 215
204 214 222
199 209 217
194 205 211
193 204 210
194 205 213
202 212 220
201 210 217
199 210 217
203 213 220
198 208 216
198 209 216
198 209 216
208 218 229
211 220 231
191 202 208
207 217 226
199 210 217
201 211 217
202 211 218
182 195 197
91 118 71
93 121 73
95 123 74
90 116 69
91 117 70
93 120 72
91 118 70
94 122 73
94 121 72
93 120 72
93 120 71
94 121 72
94 122 73
92 119 70
95 122 74
93 120 72
93 120 72
96 124 74
92 119 71
96 123 75
96 124 75
95 122 73
91 118 70
123 144 118
194 204 212
200 210 220
203 213 221
196 207 214
203 213 223
194 205 213
195 205 212
197 208 214
192 202 207
199 208 214
207 217 226
191 202 207
198 208 214
197 209 217
197 208 215
191 202 208
197 207 215
201 212 223
194 206 217
202 213 223
197 208 217
199 209 217
178 190 191
94 121 73
92 119 72
94 121 73
93 120 72
93 120 72
92 118 70
94 122 74
92 119 71
93 121 72
95 122 73
93 120 71
93 120 71
92 119 71
91 117 69
93 119 71
91 118 71
91 118 71
95 122 73
97 124 75
93 120 72
92 118 71
170 183 180
197 208 214
199 209 217
199 210 219
193 204 214
194 204 211
204 213 219
194 206 215
205 213 220
192 202 210
197 208 215
200 210 219
197 208 216
196 207 215
195 206 215
195 206 212
192 204 213
189 201 208
193 204 212
195 206 214
184 195 199
95 121 80
93 120 72
92 119 70
90 117 69
92 119 71
92 118 71
96 123 74
90 117 70
92 119 71
93 121 72
93 120 72
95 122 73
96 124 75
89 116 69
92 119 71
88 115 68
93 120 72
96 123 74
118 140 116
196 206 213
198 209 217
202 212 221
194 205 212
176 190 191
164 179 175
147 163 151
103 127 89
96 122 78
89 115 68
96 124 74
94 121 72
87 113 67
95 122 73
92 119 71
92 120 72
97 124 77
181 192 191
203 214 223
197 207 214
197 208 215
94 120 72
89 116 69
90 117 69
88 115 68
94 121 72
100 126 85
149 165 155
168 181 181
200 209 217
192 203 211
191 202 210
188 201 207
188 200 205
116 138 103
91 118 70
94 120 72
97 124 74
90 117 69
87 114 68
92 119 71
91 117 69
88 115 68
96 124 74
91 118 70
93 121 73
93 120 71
91 118 71
93 121 72
92 119 71
92 119 72
119 141 112
161 176 169
184 195 199
194 204 211
193 204 212
191 202 212
191 202 206
91 118 71
93 120 72
91 118 70
91 118 70
92 119 72
95 123 74
93 120 72
87 113 66
90 117 70
90 116 69
93 120 72
92 119 71
90 117 69
93 119 71
94 121 73
93 121 73
96 124 74
94 121 72
95 122 73
89 115 68
94 122 73
90 118 71
93 120 72
86 112 66
122 143 115
196 207 214
170 183 180
129 148 127
95 121 75
94 121 72
97 124 75
92 119 71
91 118 70
90 117 69
90 117 70
91 118 70
90 117 70
94 121 72
91 117 69
96 124 75
94 121 72
89 115 68
96 123 75
96 123 74
96 123 74
93 121 73
92 119 72
90 117 70
90 117 71
93 120 72
154 171 165
197 208 217
183 194 199
190 201 208
207 217 226
190 200 207
192 204 213
200 210 217
193 204 211
199 209 217
194 205 213
198 208 215
197 207 215
202 212 218
194 204 210
193 204 210
191 202 207
200 210 217
192 203 209
173 187 187
166 179 170
111 133 103
96 122 78
94 122 73
91 118 70
93 121 72
130 149 126
196 206 212
199 209 218
206 215 223
194 205 211
197 207 215
193 204 212
198 207 215
197 207 213
195 206 215
196 207 215
195 205 213
192 203 209
203 213 221
191 202 207
196 207 216
187 198 204
198 209 219
193 204 210
207 216 225
200 211 221
200 210 216
197 207 216
197 207 215
198 209 218
196 207 217
201 211 221
145 162 149
97 124 75
95 122 73
94 120 72
95 122 73
95 122 73
96 123 74
90 117 70
91 118 71
94 121 73
90 117 70
93 120 72
89 116 69
93 120 71
93 120 71
89 116 69
94 121 73
92 119 71
92 119 72
94 121 72
96 123 74
93 120 72
92 119 72
98 126 76
95 123 74
95 122 73
97 124 79
191 202 210
199 210 218
193 203 209
192 203 209
187 199 203
174 187 186
154 170 163
135 153 133
107 130 92
90 116 72
91 118 71
95 122 74
90 117 69
93 120 71
94 121 72
89 115 68
93 120 71
95 122 72
92 119 70
92 119 71
93 120 72
93 121 73
89 116 69
93 121 73
93 120 72
96 124 75
153 168 161
204 213 221
199 210 220
191 202 210
195 205 211
200 210 218
192 203 211
199 209 216
196 206 215
203 213 222
202 212 220
206 216 226
188 199 205
200 210 216
196 207 213
195 207 214
194 204 210
196 207 213
197 208 215
199 210 217
197 207 214
197 208 216
197 208 215
200 210 221
194 205 213
191 202 208
164 179 173
95 122 73
91 118 70
93 120 72
90 117 69
93 120 71
91 117 70
92 119 72
90 117 69
97 124 74
90 116 69
91 117 70
96 123 74
91 117 69
93 121 72
90 117 70
91 117 70
94 121 72
94 121 73
91 118 70
91 118 71
96 123 74
91 118 71
90 117 70
93 120 72
89 115 69
180 192 194
202 212 221
197 207 215
199 210 219
200 210 219
193 204 211
203 213 223
196 207 215
197 207 215
186 197 203
198 208 216
197 207 214
198 209 218
203 212 219
200 210 215
203 212 220
202 212 221
203 213 221
202 211 219
192 204 214
191 203 210
196 206 215
197 208 218
197 208 217
200 210 218
104 128 91
89 115 68
93 120 72
92 119 71
94 121 72
84 110 64
95 123 75
94 121 72
93 120 72
87 114 67
96 123 74
87 113 66
91 118 71
92 119 71
91 118 70
92 119 72
96 123 74
93 120 71
90 117 70
93 120 73
94 121 73
92 118 70
88 114 67
103 128 86
183 195 201
195 206 213
195 205 211
199 209 219
190 202 211
201 211 220
195 204 210
206 216 226
203 213 222
195 205 210
202 213 223
208 217 227
190 201 207
188 199 204
198 209 218
196 208 218
196 207 214
186 197 203
191 201 206
192 202 209
191 202 209
194 205 213
180 193 195
94 119 76
97 125 75
90 116 69
93 120 72
92 120 72
92 118 70
91 117 70
92 119 71
92 119 71
94 121 73
90 117 69
94 121 73
91 118 70
93 121 72
89 115 68
94 122 73
92 119 71
96 124 75
93 120 71
93 119 71
91 118 71
138 155 138
198 209 217
197 208 217
198 208 214
201 211 220
191 202 208
193 204 212
204 215 225
190 201 208
202 211 220
198 209 218
201 212 222
195 206 214
199 210 218
188 199 204
204 214 224
194 205 214
188 199 204
197 207 215
200 210 218
182 195 199
106 128 94
87 114 67
87 114 67
94 121 73
90 117 70
91 118 70
95 122 74
92 119 71
90 118 70
94 121 72
92 119 71
92 118 70
92 119 71
92 119 71
93 120 71
90 117 70
97 124 74
98 124 77
111 134 99
147 164 151
154 170 161
124 144 118
116 138 109
90 117 70
89 116 70
96 123 73
92 119 71
90 117 70
93 120 71
93 121 72
98 125 75
92 119 71
90 117 69
91 117 69
95 122 73
105 129 91
183 195 198
197 208 215
198 207 214
194 205 214
195 205 212
93 120 72
93 120 72
93 120 71
91 118 70
94 122 73
91 118 70
93 120 73
94 121 72
115 138 104
165 179 176
188 199 205
201 210 216
203 213 223
134 152 137
90 116 69
89 115 69
96 124 74
91 118 70
90 117 69
93 120 72
92 119 72
93 120 72
91 118 70
93 120 72
95 122 73
92 119 71
93 120 72
91 118 70
95 123 74
95 123 75
92 118 70
93 120 72
89 116 68
126 145 121
164 179 174
188 199 205
191 202 209
94 120 75
90 116 69
97 124 75
90 117 70
96 124 74
92 118 70
94 121 72
93 120 72
92 120 72
96 124 74
92 119 71
90 117 69
92 119 71
91 118 70
94 121 72
92 119 71
90 117 69
89 115 68
95 122 73
93 120 72
96 123 74
93 120 72
93 119 71
92 119 71
118 139 112
197 207 215
200 210 216
193 204 214
186 198 200
168 181 178
146 163 148
99 124 84
91 118 71
94 121 72
94 122 73
89 116 69
92 119 71
94 121 72
95 122 73
94 122 73
89 116 69
90 116 69
93 120 72
92 119 71
95 122 73
91 118 70
94 120 71
92 119 71
96 123 74
94 121 73
165 179 178
203 213 223
189 200 208
199 209 216
194 205 214
202 213 221
197 207 215
185 197 204
195 205 212
196 206 215
201 211 221
200 210 218
193 204 212
203 213 222
191 202 210
188 199 205
189 200 207
192 203 211
198 208 215
198 208 217
196 207 214
197 207 213
190 202 210
171 184 183
150 167 156
135 154 135
151 167 156
196 206 214
197 207 215
195 206 213
198 209 218
189 200 206
193 204 211
197 207 215
195 206 215
198 208 217
190 199 203
200 211 219
198 209 219
196 206 213
184 197 203
200 211 220
202 212 222
199 210 218
200 210 219
203 213 221
197 208 215
197 208 216
198 208 215
202 211 220
196 206 215
195 205 212
196 207 215
106 129 97
92 119 71
92 119 71
94 121 73
92 119 72
94 121 73
94 121 72
91 118 72
94 121 72
94 121 73
93 120 72
92 119 71
92 119 71
96 123 73
93 120 72
89 115 69
92 120 72
92 119 71
91 118 70
94 121 72
92 118 70
94 121 72
93 120 73
93 119 71
92 119 71
91 118 70
127 147 121
203 213 221
195 206 216
193 203 211
192 203 212
198 208 217
201 210 218
202 211 218
205 215 224
191 202 209
199 209 217
181 192 192
162 176 168
145 163 150
138 157 139
119 141 114
95 121 78
92 119 71
92 118 71
94 121 72
94 121 72
91 118 71
94 121 72
91 118 70
91 119 72
93 121 72
96 123 74
179 190 192
192 203 210
196 206 212
198 209 218
190 200 207
188 199 205
196 207 215
190 201 209
196 205 211
192 203 210
202 212 221
195 206 214
206 215 224
194 205 213
194 205 212
196 207 215
199 210 220
204 214 223
202 212 222
187 198 205
188 199 206
203 212 220
193 204 210
201 211 220
199 210 219
210 219 228
123 144 119
93 119 71
96 123 73
89 116 70
91 118 71
92 119 71
92 118 70
90 117 69
92 119 71
95 122 73
97 124 74
91 119 71
92 119 71
96 123 73
92 119 71
89 116 69
95 122 73
89 116 69
91 119 71
92 119 71
90 116 68
93 120 72
92 119 71
93 120 73
90 117 70
126 146 125
187 199 206
200 210 220
195 206 214
197 207 215
200 211 220
195 206 212
201 211 220
191 201 208
196 207 214
199 210 220
200 210 217
197 207 215
194 204 209
192 204 213
196 206 213
199 209 216
198 208 214
192 204 211
195 205 211
196 206 213
200 210 219
194 205 212
188 199 205
197 208 218
165 177 171
94 121 73
93 121 73
94 120 72
90 117 70
92 119 71
92 119 71
94 121 73
90 117 69
93 120 71
89 115 68
95 121 73
91 117 70
94 121 72
91 118 71
87 114 68
91 118 71
94 121 72
92 119 71
87 113 67
91 117 70
97 124 74
89 116 69
86 113 67
169 183 181
200 210 218
193 204 213
204 213 222
193 204 212
188 198 205
191 202 209
194 204 211
194 205 211
196 207 215
201 211 220
193 204 210
203 213 223
194 205 214
205 216 227
194 205 211
201 210 219
201 211 218
194 204 210
199 209 219
197 206 212
200 210 218
195 207 214
134 153 132
92 120 72
93 120 71
92 119 71
93 120 73
89 116 69
94 122 73
91 118 70
93 119 71
94 121 71
95 122 73
95 123 73
92 119 72
96 123 74
95 123 73
95 122 73
91 118 70
89 116 68
91 118 70
96 123 74
91 117 69
128 147 124
189 200 205
190 202 209
193 205 212
201 210 218
196 206 213
193 203 210
194 205 213
194 204 210
197 207 216
195 206 214
192 202 208
189 200 205
192 203 210
195 205 213
192 202 209
199 209 214
195 206 214
199 209 218
196 207 215
184 197 203
115 136 106
90 117 69
95 122 73
91 118 71
95 122 73
92 118 70
92 118 70
95 122 74
94 121 73
89 115 68
92 119 70
90 117 70
92 118 72
107 130 97
133 151 136
146 163 151
173 187 186
174 187 188
187 199 204
99 124 84
92 118 70
94 121 72
93 120 72
91 118 71
91 119 71
94 121 72
93 120 72
91 118 72
87 114 69
89 116 70
91 118 71
96 124 75
93 120 72
93 120 72
92 119 72
100 125 86
173 186 186
189 201 205
193 203 209
196 206 214
199 209 216
192 204 211
91 117 70
94 121 74
90 117 71
89 116 69
91 118 71
91 118 70
90 117 69
95 123 74
91 118 70
92 119 71
90 117 70
147 163 151
174 188 189
166 181 179
89 116 68
92 120 72
88 114 67
90 116 69
89 116 69
90 116 69
96 123 74
94 120 72
88 114 67
89 115 68
94 122 73
90 117 70
91 118 70
93 120 72
93 120 72
93 120 72
93 120 72
92 119 71
98 125 75
91 118 71
88 114 68
99 126 81
118 138 116
135 153 136
96 121 83
91 118 70
92 119 71
90 118 70
91 117 70
92 118 71
92 119 71
93 120 72
92 119 71
91 117 70
95 123 73
93 121 72
92 119 71
91 118 70
91 118 70
86 113 66
90 117 71
95 122 73
92 119 70
92 118 70
95 123 74
95 122 73
93 120 72
107 129 99
203 212 220
195 205 212
195 205 212
195 205 214
190 201 206
196 206 213
191 202 207
167 180 180
151 168 158
109 132 98
91 118 71
89 116 69
96 124 75
86 113 66
90 117 70
92 119 72
93 120 72
92 119 71
90 117 70
94 121 72
91 118 71
93 120 72
93 121 72
92 119 71
91 118 71
165 178 178
198 208 215
192 202 207
187 199 206
194 205 215
195 205 213
199 209 216
191 203 212
201 211 217
193 204 213
196 206 213
207 216 226
194 205 210
197 208 217
198 209 215
198 209 218
199 209 218
197 207 214
199 208 216
199 210 218
192 202 210
195 206 214
191 202 210
200 210 218
199 209 218
197 208 215
149 164 154
141 158 142
160 174 167
178 190 191
190 201 209
205 214 223
193 204 213
203 213 222
198 209 216
192 203 209
196 207 217
200 209 218
199 210 220
196 206 213
209 219 229
196 208 218
201 212 221
197 208 215
193 204 211
195 204 210
197 206 212
197 209 219
196 207 215
199 209 217
203 213 222
196 207 216
189 201 208
92 119 71
90 117 70
92 119 72
91 118 71
90 117 70
95 123 74
92 119 71
92 119 72
94 121 72
93 120 72
96 123 74
91 118 71
90 117 70
92 119 70
88 115 69
92 119 70
90 117 69
94 122 73
94 121 72
90 116 69
91 118 71
93 121 72
92 119 71
94 122 73
88 114 68
89 115 69
174 187 186
189 201 209
193 205 214
194 205 211
194 205 212
194 206 214
199 209 217
202 212 221
197 208 216
186 197 203
197 208 216
196 207 216
187 198 202
196 207 215
193 203 210
195 205 212
195 206 212
181 193 198
182 194 196
160 175 169
148 165 153
127 147 124
109 131 99
97 124 77
90 117 70
92 119 71
127 146 123
189 201 208
201 211 222
192 203 211
193 204 213
204 213 221
203 212 222
193 204 209
191 203 210
201 212 222
197 208 216
200 209 216
195 206 214
193 203 211
203 213 221
192 202 211
200 210 217
191 203 211
197 207 214
196 207 215
194 205 213
189 200 207
194 205 214
190 201 208
201 211 221
196 207 214
183 196 200
92 119 71
93 120 72
96 124 75
94 121 72
96 123 73
90 117 71
93 121 73
92 119 71
90 117 70
95 123 74
91 118 70
93 120 73
95 122 73
93 120 72
93 120 72
92 119 71
96 123 74
90 117 70
91 118 70
92 119 70
95 123 74
97 124 74
92 119 72
92 119 71
92 119 71
184 195 199
193 204 212
194 205 212
195 205 211
198 208 217
197 209 217
194 204 212
195 206 214
207 217 229
189 200 207
198 208 216
203 213 221
201 212 221
203 213 221
199 209 219
192 203 208
192 203 210
196 207 215
199 209 219
194 205 213
195 205 213
194 205 213
195 206 215
196 206 212
183 196 202
101 126 85
92 119 71
91 117 70
93 120 71
95 123 74
90 117 70
91 118 70
95 122 73
93 121 72
90 117 70
93 119 71
96 124 75
94 121 72
89 115 67
90 117 70
94 121 72
90 117 70
95 122 74
92 119 71
93 120 72
94 121 72
91 118 71
89 116 69
119 140 116
196 207 214
197 207 214
192 202 208
189 201 208
197 208 217
196 207 215
197 207 215
189 201 209
203 213 223
180 192 197
190 202 207
198 209 220
191 203 211
190 201 206
196 207 215
199 209 218
195 206 212
183 195 202
201 211 218
194 204 210
200 210 218
203 213 220
158 173 167
93 120 72
92 119 71
88 115 69
90 117 69
91 118 70
96 123 74
91 118 71
94 121 72
93 120 71
92 119 70
91 118 70
92 119 72
93 120 72
84 111 66
91 118 70
88 114 68
89 116 69
91 117 69
89 116 69
95 122 73
92 119 74
190 200 204
186 198 204
195 205 212
191 201 207
197 207 215
196 207 215
200 210 218
197 207 215
190 202 209
195 207 215
200 210 219
197 207 214
202 212 220
197 208 216
203 213 222
201 210 218
195 205 212
193 204 212
195 206 213
201 211 220
131 151 128
94 120 72
94 121 73
94 121 72
89 115 68
91 119 71
94 121 72
92 119 74
108 130 100
126 147 125
150 165 154
157 172 166
175 187 187
191 202 209
200 209 215
201 211 219
192 203 210
194 204 210
195 206 211
103 127 88
91 118 70
91 118 70
93 120 72
95 122 72
94 121 73
95 122 73
88 115 69
94 121 73
89 116 69
90 118 71
94 121 72
95 121 72
97 124 75
92 119 71
91 118 71
92 118 73
186 198 202
191 201 207
198 209 220
193 204 211
191 201 207
187 199 204
196 207 216
90 117 69
90 117 70
92 119 71
92 119 71
90 117 69
92 119 71
91 118 70
91 118 70
94 121 72
91 118 70
93 119 71
87 114 68
92 119 72
122 142 116
161 176 171
115 139 109
95 122 73
94 120 71
94 122 73
88 114 68
92 119 72
91 118 71
94 120 72
92 119 71
90 117 69
90 117 69
92 119 71
93 120 72
93 121 72
94 121 73
94 122 73
91 118 71
92 119 70
92 119 72
90 117 70
93 120 71
91 118 71
174 187 188
192 203 209
179 191 194
136 153 136
109 131 97
95 122 73
91 117 70
91 118 71
93 120 72
94 121 73
92 118 71
89 116 68
96 124 75
89 116 69
91 118 69
90 117 70
88 115 68
93 120 71
92 119 71
93 120 72
91 118 70
92 119 71
90 117 69
91 118 70
122 143 116
193 204 212
191 202 209
194 205 212
203 213 220
194 205 211
200 210 218
198 209 219
200 210 217
202 211 219
203 212 220
184 195 200
158 173 167
128 147 125
93 120 74
88 115 68
88 114 68
90 117 71
95 122 74
92 120 71
92 120 73
91 118 71
94 121 73
91 118 70
93 120 72
94 121 73
177 190 189
189 201 207
205 214 224
204 215 224
196 207 216
196 207 215
196 206 214
202 212 221
193 204 210
193 204 212
189 201 208
194 205 211
192 203 209
204 214 223
195 206 214
202 211 217
203 213 223
206 216 228
204 215 225
188 200 205
202 212 221
201 210 217
197 208 217
204 213 222
190 202 210
192 203 209
127 148 125
91 118 70
92 119 71
92 119 71
94 120 77
117 138 111
157 171 166
167 181 177
200 210 218
198 208 216
198 208 215
190 200 205
190 201 209
194 205 210
200 210 216
199 209 217
192 202 208
192 202 208
189 202 211
199 209 218
197 208 217
192 204 212
194 205 213
200 210 219
199 208 215
199 209 218
165 178 176
94 121 72
97 124 75
93 121 72
91 118 69
95 122 73
92 118 70
93 120 72
91 118 70
92 119 72
91 118 70
93 120 72
91 118 71
94 122 74
94 121 72
91 118 71
91 118 71
91 118 71
93 119 72
92 119 71
93 120 72
94 121 72
95 122 73
94 121 72
91 118 71
91 118 71
94 122 73
180 193 199
193 203 211
198 209 217
200 210 218
191 203 208
190 201 206
199 209 216
198 209 219
197 207 215
205 215 223
198 208 217
200 211 221
198 209 219
192 202 207
195 205 214
193 204 209
202 212 220
200 210 217
197 208 217
201 210 219
198 208 215
197 207 213
198 209 219
194 205 213
179 192 195
157 171 167
152 168 160
165 180 177
169 183 181
193 204 210
198 208 216
180 192 196
200 210 218
198 208 218
197 208 217
202 211 219
194 206 215
188 199 204
200 210 218
201 210 218
191 202 208
190 200 207
192 203 211
191 202 209
195 206 213
198 209 217
205 215 223
201 210 218
196 208 217
202 213 224
196 207 215
202 213 223
128 146 126
97 124 75
89 116 69
92 119 70
97 124 74
92 119 72
96 123 74
95 122 74
96 124 75
92 120 72
88 115 69
89 116 69
92 119 71
94 121 72
88 115 68
91 118 70
89 116 69
91 118 71
95 123 74
90 117 70
95 122 73
93 120 72
89 116 70
88 114 68
95 122 73
124 144 124
202 212 221
191 203 210
193 204 212
191 203 213
201 211 221
198 208 216
202 212 222
198 208 216
199 209 216
195 206 214
193 204 211
198 209 218
194 204 212
196 207 215
196 207 215
196 207 215
203 212 221
200 210 218
192 203 212
198 209 217
191 202 208
200 210 218
197 208 215
195 206 216
137 156 136
90 116 69
91 118 71
94 121 72
96 123 74
95 123 74
92 120 72
90 116 69
86 112 66
89 115 68
93 120 72
97 124 74
92 119 71
92 119 72
95 122 73
91 118 71
93 120 72
95 122 73
89 116 69
94 121 72
89 116 69
90 117 70
92 119 72
107 130 96
183 194 198
198 209 217
196 207 213
189 200 207
194 205 212
192 203 210
193 204 211
196 206 213
200 211 219
204 213 221
189 200 208
196 207 216
196 207 214
182 194 199
192 203 211
198 209 218
195 206 214
196 208 218
201 211 219
203 213 222
195 206 214
190 201 208
178 190 191
92 119 74
88 115 68
96 123 74
94 121 72
91 118 71
95 122 73
90 117 70
95 123 74
96 123 74
91 117 70
91 118 70
92 119 71
90 116 69
94 121 73
92 119 71
93 120 72
94 121 73
89 115 67
89 116 69
89 115 68
93 120 72
168 181 182
187 199 207
184 196 201
192 203 210
199 209 216
191 201 210
201 211 219
193 204 212
193 203 209
198 208 218
197 207 215
188 199 206
199 208 214
188 199 205
202 211 219
195 206 214
203 213 221
195 206 211
199 210 220
196 206 214
139 156 138
91 118 71
110 134 98
132 151 130
140 157 141
149 164 156
172 184 183
193 204 211
199 209 218
202 212 223
194 205 212
196 207 214
200 209 217
193 203 210
191 203 212
189 200 203
197 207 214
190 201 208
177 190 191
112 133 108
94 121 72
91 118 70
92 119 71
91 117 70
88 115 69
91 118 70
91 118 70
91 118 71
88 115 69
91 119 71
94 121 72
92 120 72
85 112 66
91 118 70
92 119 71
108 130 97
179 191 192
193 204 213
196 207 215
188 200 206
192 203 211
186 199 205
189 200 206
187 198 205
91 118 70
92 118 71
89 115 69
93 120 71
88 114 67
87 114 67
94 120 72
90 117 70
89 114 67
90 116 69
92 118 71
92 118 71
89 116 69
101 126 88
189 201 209
196 206 213
179 191 193
126 146 126
90 115 71
90 117 70
88 114 68
90 117 70
92 118 71
89 116 69
93 120 71
91 118 70
89 116 70
95 122 73
88 114 68
88 115 68
91 117 70
90 117 69
89 116 68
89 116 68
94 122 73
95 122 73
92 119 71
170 183 179
195 205 212
189 201 208
196 207 215
198 208 216
174 189 189
141 157 140
101 126 83
92 119 71
91 118 70
91 118 70
94 121 73
92 119 71
96 124 75
90 116 69
94 122 73
93 121 72
88 115 68
91 118 71
89 115 69
92 118 70
89 115 68
93 120 72
92 119 71
113 134 107
191 202 209
190 202 210
193 204 211
192 204 211
199 209 217
201 211 222
195 206 215
194 205 212
188 199 205
197 209 218
196 207 216
197 207 215
198 209 216
185 197 201
160 175 167
136 155 134
106 129 91
91 117 70
88 115 69
89 116 69
91 119 72
92 119 71
90 117 70
96 123 74
90 117 70
175 188 188
196 206 214
191 202 208
192 203 209
197 207 213
203 214 224
192 203 211
197 208 216
200 211 221
203 213 221
196 207 214
196 206 216
193 204 213
198 209 218
202 211 219
201 211 219
195 206 213
197 207 216
195 205 213
189 200 208
195 205 209
198 208 215
197 207 215
196 206 214
199 210 219
198 209 220
114 137 105
91 118 70
94 121 73
93 120 72
92 119 71
93 120 72
92 120 71
92 118 70
92 119 71
141 158 143
146 163 151
164 177 174
189 199 204
185 197 205
199 209 219
189 201 209
192 203 211
193 205 214
197 208 218
196 206 214
198 209 215
202 212 223
196 206 213
194 205 212
196 207 216
201 212 220
145 162 149
90 117 71
97 124 74
95 122 73
92 119 71
89 115 69
94 122 73
85 112 66
97 124 74
93 121 73
92 120 72
91 118 71
95 123 74
88 114 68
90 116 69
87 112 66
98 125 74
94 122 73
97 124 74
92 119 71
92 119 72
92 119 71
93 120 72
93 121 72
93 120 72
95 122 73
122 142 116
191 202 207
197 208 217
182 195 200
195 206 215
192 203 211
204 213 222
201 211 219
201 212 221
199 210 219
189 201 209
206 215 224
195 205 211
197 208 219
193 204 212
196 207 213
195 205 214
198 208 215
196 207 215
201 210 216
199 209 216
194 205 211
188 200 206
183 195 201
186 199 207
200 210 219
190 201 207
100 125 87
89 116 69
96 123 74
87 114 67
94 121 74
121 140 115
134 151 132
156 170 163
154 170 161
173 187 186
177 190 192
182 193 195
196 206 215
192 204 211
196 207 217
196 206 214
197 207 213
200 210 218
192 204 212
195 206 214
197 207 215
202 212 221
192 202 211
185 198 205
196 205 212
179 191 191
94 120 74
94 121 72
92 119 71
89 116 69
90 117 70
92 118 70
94 120 72
95 123 73
91 117 70
92 120 72
91 119 71
95 123 74
88 115 68
91 118 70
93 120 72
91 118 71
91 118 70
90 117 69
90 117 70
95 123 73
92 119 71
92 119 70
89 116 68
93 120 72
93 119 74
187 199 204
200 210 219
192 203 210
194 204 210
198 209 216
198 209 219
185 196 201
188 199 206
195 206 215
196 206 213
200 211 222
201 211 219
206 215 226
191 202 207
199 210 218
200 211 221
193 204 212
191 201 206
200 210 218
200 210 218
192 203 210
202 211 219
193 205 211
197 208 218
182 195 197
95 122 72
91 118 70
92 119 71
93 120 72
90 117 70
90 117 70
93 120 71
90 117 69
89 116 69
96 124 74
91 118 70
92 119 71
94 121 72
93 119 71
88 114 68
89 115 69
96 123 74
93 120 71
88 114 67
88 114 67
95 122 73
91 118 70
91 118 70
166 180 176
184 196 200
191 203 211
201 211 217
191 202 208
201 210 220
198 208 213
197 208 215
199 210 219
191 202 208
198 208 217
197 207 214
205 215 224
192 203 211
203 212 221
194 205 213
190 200 204
199 210 220
195 206 214
191 203 210
191 202 208
194 204 210
169 181 181
106 128 95
91 118 70
93 120 71
94 121 73
93 120 72
93 120 72
92 119 71
94 120 72
94 121 72
93 120 72
89 115 68
93 120 73
94 121 73
96 123 74
90 118 70
93 121 73
89 116 70
91 117 70
92 119 72
93 120 71
93 120 72
168 182 180
197 208 218
195 207 216
190 202 210
198 207 214
190 201 206
198 208 216
196 207 216
187 198 205
188 200 207
196 206 213
195 206 212
192 204 214
194 204 211
193 205 214
181 192 197
183 195 197
172 186 187
160 174 168
139 156 141
176 189 189
182 195 197
193 205 211
183 195 202
194 204 211
197 207 215
200 210 217
195 206 213
191 201 208
197 207 215
198 208 215
187 199 205
204 214 224
198 208 216
199 209 216
195 205 211
193 204 212
194 205 212
182 194 198
114 135 107
90 117 70
93 120 71
91 117 70
89 116 69
92 119 71
93 120 71
92 118 70
89 116 69
90 117 70
87 114 67
91 117 70
90 117 69
92 119 72
94 121 72
89 117 70
109 132 97
181 193 193
193 203 211
199 210 219
196 206 214
186 198 204
190 200 208
195 206 213
194 205 214
197 207 213
128 148 124
94 122 73
92 119 71
93 120 72
92 118 71
93 120 72
89 116 69
94 121 73
89 116 69
90 116 70
92 118 71
89 115 68
90 116 69
86 112 66
185 197 202
197 207 214
197 208 216
199 209 217
195 206 212
165 179 174
132 151 130
95 121 75
93 121 73
89 115 68
93 120 71
92 119 71
92 119 71
94 121 72
90 117 70
88 115 69
93 119 71
90 117 70
93 120 73
89 116 69
92 118 70
92 119 71
91 117 70
162 177 168
198 208 216
192 202 209
194 205 213
195 206 213
199 208 214
189 201 209
192 202 206
157 172 166
132 151 131
98 123 85
91 117 70
92 118 71
91 118 71
94 121 73
85 112 66
90 117 69
91 118 70
89 117 70
92 119 71
91 118 70
90 117 70
95 122 74
95 122 73
122 143 117
198 208 215
192 204 213
208 218 228
194 204 211
190 203 211
191 202 211
199 209 217
195 206 216
191 202 209
202 212 220
192 203 210
202 212 221
192 203 212
193 204 211
190 200 207
190 202 210
196 206 218
171 184 184
148 165 152
120 141 112
93 121 72
95 123 74
88 115 68
93 121 73
93 120 72
193 204 208
190 202 209
188 200 206
192 203 208
186 197 203
195 206 213
194 205 212
207 217 228
203 213 223
200 210 220
195 206 216
187 199 205
189 200 207
192 203 210
203 213 222
192 202 209
196 206 213
196 207 216
194 204 210
197 208 215
186 197 201
198 208 215
197 208 217
191 202 210
194 206 215
198 207 215
96 123 76
90 117 70
92 118 71
90 117 70
89 116 70
93 119 71
91 117 70
95 122 73
91 118 70
91 117 70
90 116 69
89 116 69
94 121 72
111 133 99
142 159 143
159 174 170
171 184 183
196 207 216
191 202 209
198 209 221
196 207 215
194 205 212
195 206 214
200 210 219
198 208 216
197 207 214
113 135 105
86 113 66
95 122 73
89 116 70
92 119 71
90 116 69
90 117 70
94 121 72
92 119 71
91 117 69
93 121 73
89 115 68
91 117 70
92 119 71
94 121 72
91 118 71
91 117 70
86 112 66
87 114 68
88 114 67
95 122 73
92 118 70
91 118 70
94 121 72
89 116 69
92 119 70
156 172 164
195 206 214
185 196 202
190 201 208
190 202 212
201 210 217
194 205 213
199 209 216
201 211 221
195 205 212
197 208 216
192 202 207
195 206 214
200 210 217
196 206 214
202 212 222
195 206 215
202 212 220
197 207 215
186 198 205
191 202 209
205 214 223
191 202 209
196 206 213
192 202 208
195 206 214
162 175 171
91 119 71
95 121 73
92 119 71
91 117 70
91 118 70
94 121 73
92 119 71
96 123 74
90 116 69
89 115 68
89 116 69
93 120 71
98 124 77
120 142 115
136 155 136
144 161 147
155 171 163
168 181 178
158 173 168
179 192 194
190 201 207
196 206 213
190 202 211
192 202 209
190 201 207
130 147 130
93 119 71
92 120 71
90 117 70
89 116 70
94 122 73
93 120 72
94 121 72
96 122 73
86 112 66
93 120 71
94 121 72
94 121 73
88 115 67
88 115 69
91 118 71
94 121 72
92 119 71
90 117 70
88 115 68
92 119 71
93 120 72
91 118 70
93 120 73
90 117 70
135 152 137
183 194 198
201 211 220
195 206 215
199 209 218
192 204 214
198 208 216
193 203 211
198 207 214
203 213 224
192 203 209
196 206 212
193 205 213
196 206 213
199 209 218
193 204 210
196 206 213
194 205 214
189 201 208
199 210 220
195 205 213
193 203 211
194 205 211
193 203 209
197 208 216
127 147 127
91 117 69
94 121 72
89 116 69
90 117 70
94 121 72
91 117 70
92 119 71
95 122 73
91 118 70
92 119 71
92 119 71
89 116 68
94 121 72
90 117 70
89 116 69
85 111 66
93 120 71
89 116 69
90 117 70
92 119 72
90 117 70
89 116 69
125 145 121
200 209 217
195 206 214
200 210 217
197 207 214
195 206 213
195 206 213
193 204 211
200 210 219
197 209 218
193 204 211
196 207 215
190 202 210
207 216 225
200 210 221
191 202 208
199 208 214
189 200 205
196 207 216
202 213 222
188 200 206
186 198 203
187 199 204
125 145 122
89 115 69
88 115 68
91 118 70
95 122 73
90 116 70
91 119 71
93 120 72
91 118 70
91 118 70
92 119 71
93 120 72
92 119 71
90 116 69
91 118 70
95 122 74
95 122 72
91 117 70
87 114 68
91 118 71
97 124 75
135 153 139
188 199 208
203 213 223
193 204 210
196 207 214
199 209 216
194 205 213
197 207 216
195 205 214
175 187 187
167 181 178
175 187 186
141 157 145
137 155 140
127 147 123
103 126 89
95 123 74
90 117 70
90 117 70
92 120 71
153 168 161
188 199 206
195 207 217
191 202 208
200 211 220
200 210 219
190 201 207
195 206 211
195 206 212
190 202 209
196 206 213
198 207 214
194 204 211
195 206 212
203 214 224
198 209 217
194 204 212
202 211 219
189 201 207
112 134 101
92 119 71
93 120 72
91 119 72
94 122 73
94 120 71
93 120 71
91 118 70
94 120 72
93 120 71
89 116 69
89 115 68
88 115 68
92 119 71
95 123 74
91 118 70
118 138 111
179 191 194
198 208 216
199 210 219
192 202 208
195 206 215
193 203 208
196 208 217
194 205 212
187 198 204
171 183 181
197 209 218
181 193 194
154 170 165
99 123 86
94 122 73
90 117 70
90 117 70
93 121 73
93 120 71
92 119 71
88 115 68
92 119 71
93 120 72
85 112 66
168 182 177
193 204 210
190 200 206
195 205 212
188 199 206
196 207 215
194 205 213
185 196 199
160 174 167
119 140 112
91 117 70
93 120 72
93 120 72
94 120 72
94 121 72
92 119 71
92 119 71
93 120 72
92 118 71
88 114 68
90 117 70
89 116 70
90 117 70
149 165 158
186 197 202
195 205 212
193 204 210
198 208 216
200 211 221
185 197 202
195 205 213
191 202 210
194 205 211
188 198 204
178 190 190
135 152 134
101 127 81
93 120 71
91 118 70
91 117 70
95 122 73
88 114 68
93 120 72
93 120 72
91 118 71
95 122 73
89 116 68
117 136 111
193 203 210
199 210 219
188 199 206
195 206 215
191 201 206
185 197 202
201 210 217
188 200 204
193 203 209
197 207 215
192 203 209
190 200 206
197 208 216
201 211 219
196 207 216
196 206 213
192 204 213
196 206 214
199 208 217
195 206 214
188 200 207
161 175 171
137 154 139
99 125 82
90 118 70
188 199 205
201 211 220
197 208 216
192 203 212
199 209 218
200 211 219
188 199 205
196 206 213
185 196 202
188 199 204
186 198 206
203 212 221
191 203 209
194 205 211
197 208 216
203 212 221
194 205 211
191 203 212
191 202 210
192 203 209
193 204 214
197 208 216
197 208 216
199 209 218
195 206 214
184 196 198
97 124 75
88 115 69
95 122 73
92 119 71
88 114 67
89 115 68
88 114 67
90 118 71
94 121 73
90 117 70
94 121 73
88 114 68
92 118 71
93 120 72
90 117 70
90 117 69
92 119 71
101 125 87
124 145 122
155 169 161
178 190 190
188 200 205
192 203 210
195 205 211
194 204 211
191 203 210
93 118 76
90 117 69
88 115 68
88 115 68
89 116 69
92 119 71
88 115 68
92 118 70
91 117 70
93 120 72
91 118 70
92 119 72
88 115 68
92 119 71
89 116 68
91 118 71
95 122 73
90 117 69
92 118 70
93 120 71
90 117 70
94 121 73
94 121 72
89 115 69
94 121 72
90 116 69
187 198 203
201 211 218
197 207 215
186 198 205
203 212 219
200 210 218
208 217 225
193 204 211
201 212 222
197 208 216
187 198 205
194 204 213
190 201 208
207 216 223
190 201 206
202 213 222
194 204 212
194 205 212
200 210 218
188 201 208
201 210 216
199 209 218
198 209 217
194 205 212
197 207 214
195 206 215
119 140 114
88 115 69
94 121 73
96 124 74
88 115 69
91 118 70
92 119 71
91 118 70
94 120 72
90 116 69
95 122 73
92 119 71
91 118 70
93 120 72
93 120 72
91 117 70
89 116 69
92 119 72
89 116 68
86 111 66
91 118 70
91 118 70
104 128 91
111 133 101
123 143 118
156 172 162
166 180 178
143 160 146
134 152 133
116 137 110
120 140 115
99 125 83
90 117 70
95 122 73
95 123 75
90 117 70
88 115 68
86 112 66
92 119 72
93 120 71
96 124 75
88 114 67
90 117 70
90 117 70
96 123 73
89 115 69
91 118 70
95 122 73
95 123 73
96 123 73
103 128 91
178 192 196
196 207 216
189 200 208
196 206 214
195 205 212
201 210 218
187 199 207
197 207 214
195 205 214
194 204 210
198 209 220
198 209 215
198 207 215
199 209 216
196 206 213
201 211 221
197 208 217
189 201 209
203 213 221
202 211 220
199 208 215
195 206 212
197 207 215
191 202 208
153 169 160
90 116 69
89 115 69
92 119 71
92 119 72
93 121 73
93 120 72
91 118 71
93 120 71
87 113 67
89 116 70
89 116 69
90 117 69
93 120 72
93 120 73
93 120 72
96 123 74
92 119 71
90 117 70
90 116 69
89 115 68
92 119 71
91 117 70
111 135 97
175 187 188
185 197 203
189 200 205
191 202 209
198 208 218
199 209 216
200 211 222
198 208 216
188 199 206
194 205 211
199 210 218
198 207 215
191 202 208
197 207 213
200 209 217
184 196 201
203 212 220
198 209 220
188 199 205
199 209 217
195 205 212
194 205 213
151 166 159
94 121 73
91 118 70
92 119 71
93 120 72
92 120 72
91 118 70
91 118 71
92 119 71
94 121 73
93 120 71
96 123 73
89 116 69
92 119 71
94 121 73
92 118 70
92 120 72
90 116 69
90 117 70
95 122 74
92 118 76
128 147 126
166 180 177
172 184 182
173 187 184
153 168 158
141 158 144
126 144 121
114 137 106
94 119 79
87 113 67
90 117 70
91 118 70
92 119 71
90 117 70
93 120 72
93 120 72
93 120 72
94 121 71
92 119 71
92 119 71
136 153 138
192 203 210
196 207 215
200 210 218
187 198 203
206 216 226
191 202 209
188 199 206
201 210 219
198 208 215
184 196 201
190 202 209
202 211 218
205 214 222
201 212 221
196 206 212
198 209 216
189 200 207
193 204 211
119 140 116
89 116 69
90 118 71
90 117 69
92 119 71
91 118 71
92 119 71
93 119 71
92 119 71
93 120 72
92 119 70
89 116 69
92 120 72
91 118 71
92 119 70
90 117 70
118 139 110
175 188 191
199 210 218
196 208 217
197 207 214
202 212 220
176 188 190
171 185 184
141 159 146
115 139 105
92 119 71
90 117 69
194 204 211
196 207 216
185 195 201
191 202 208
167 180 177
121 142 118
94 119 76
91 118 70
89 116 69
92 119 71
93 120 71
95 122 74
94 121 72
89 117 70
145 161 152
202 212 222
189 201 209
195 206 213
193 203 209
191 203 211
193 205 213
189 200 209
201 210 218
187 199 205
179 192 194
145 162 153
104 128 90
93 119 71
91 117 70
89 116 69
90 117 70
94 121 73
93 120 72
96 123 74
94 121 72
92 118 70
88 115 69
135 153 133
180 192 196
198 208 215
195 205 211
196 206 214
191 202 209
193 204 211
200 211 220
193 205 213
196 207 214
184 195 199
200 210 218
191 202 211
189 201 208
179 191 191
130 147 128
99 123 87
95 122 72
89 116 69
92 118 70
89 116 69
91 118 71
89 115 68
93 119 71
116 137 110
185 198 205
196 207 218
195 205 210
188 200 207
195 206 212
187 199 206
196 206 214
184 196 201
195 205 212
189 201 209
192 203 210
200 211 220
195 206 214
193 205 213
192 203 210
197 207 214
194 205 212
196 207 216
191 202 209
191 201 207
191 203 213
194 205 215
184 195 198
189 200 207
176 189 192
156 171 165
165 180 178
188 199 205
192 203 208
189 200 205
189 201 208
197 208 216
196 206 213
199 209 216
192 203 208
198 209 218
195 205 212
197 207 214
193 204 210
198 209 216
202 211 219
189 200 210
186 197 205
197 207 215
198 209 217
190 202 209
188 200 208
194 206 215
187 198 203
192 203 209
163 177 173
90 116 70
91 119 71
95 122 73
94 121 72
92 120 72
92 119 71
90 117 70
90 117 69
94 121 72
93 120 72
95 123 74
93 120 72
90 116 69
93 119 71
86 113 67
90 117 70
88 114 68
91 117 70
87 114 67
91 118 70
91 118 70
94 121 72
111 133 103
145 162 149
168 180 176
160 175 173
103 127 88
93 120 71
92 119 71
88 115 68
91 117 70
88 115 68
93 120 72
93 120 71
93 121 73
92 119 71
93 120 72
94 122 73
92 119 71
94 121 72
89 115 68
93 120 72
92 119 71
89 116 69
89 116 69
91 117 70
92 118 71
92 119 71
92 119 71
90 117 69
92 120 72
122 142 117
194 205 213
202 212 222
193 204 212
192 204 210
190 200 205
190 200 206
194 206 216
192 203 211
192 203 209
204 214 223
192 203 212
197 208 217
194 205 211
190 201 208
195 207 216
191 203 211
202 212 220
190 202 209
193 203 211
196 208 218
191 202 206
198 207 214
195 206 214
194 204 212
195 205 213
189 199 202
92 118 71
92 120 72
92 119 71
88 115 68
88 115 69
94 121 72
88 115 68
89 115 69
93 120 72
93 121 73
94 122 73
91 118 71
83 110 65
91 118 71
92 119 71
91 118 70
91 118 70
91 118 71
91 117 70
90 117 69
91 118 71
93 120 72
88 115 69
94 121 73
89 115 68
168 182 178
186 198 205
198 209 217
195 205 213
193 204 210
192 203 210
184 196 201
197 207 214
188 199 204
171 185 187
172 185 184
161 176 169
164 178 169
148 164 152
141 156 143
140 158 141
111 134 104
110 134 101
99 123 84
92 118 74
93 121 73
90 117 70
92 119 71
92 119 71
93 120 72
157 172 167
196 206 211
193 204 211
194 205 211
196 207 214
194 204 211
184 196 202
191 201 205
197 208 216
198 209 217
193 204 212
192 203 212
194 206 215
198 208 217
195 204 211
196 207 214
197 207 213
197 209 219
190 201 209
198 209 218
198 208 215
189 200 205
200 210 219
200 210 221
191 202 209
93 118 76
91 118 70
91 118 70
90 116 69
89 115 68
89 116 69
87 113 66
91 118 71
93 120 72
88 114 68
90 116 69
96 123 74
93 120 72
94 122 73
89 116 69
91 118 71
94 121 73
90 117 70
93 121 72
91 118 71
92 118 71
94 121 72
89 117 70
169 184 180
200 210 218
195 205 213
204 215 225
194 204 210
186 197 202
197 208 216
191 203 209
197 208 218
199 210 217
194 204 212
202 212 220
194 205 214
195 205 213
198 208 216
204 214 222
185 197 202
200 211 223
188 198 205
197 208 219
197 207 214
195 205 212
160 175 171
94 121 75
89 115 68
88 115 67
97 124 75
93 120 72
93 121 73
91 118 70
93 120 73
92 119 74
116 138 107
123 143 120
118 138 115
131 150 131
145 161 148
152 168 158
152 168 160
157 172 165
178 191 193
183 194 197
184 195 200
179 191 192
100 124 84
94 120 72
89 116 69
89 116 69
93 120 72
92 120 72
91 118 71
88 114 68
92 119 71
91 118 70
92 118 71
96 123 74
97 124 74
86 113 67
91 117 70
92 119 71
91 118 71
90 117 69
93 119 71
130 149 128
191 203 210
197 207 217
201 212 223
194 206 215
200 210 218
203 213 222
199 209 217
195 205 213
197 208 216
194 205 215
205 215 225
200 210 219
191 202 208
195 206 215
193 205 212
188 199 206
191 203 210
184 195 197
114 135 110
93 121 73
89 116 69
90 117 69
96 124 75
93 120 72
90 117 70
89 116 69
90 116 69
90 117 70
94 121 73
88 114 68
89 117 70
93 120 72
93 121 73
88 114 66
125 145 121
183 195 200
180 193 198
177 189 189
153 169 161
132 151 136
105 128 95
88 115 68
90 117 69
87 114 68
87 114 68
92 120 72
93 120 72
186 198 203
187 197 202
189 200 206
196 206 213
191 203 211
190 201 208
170 183 183
148 164 155
112 134 105
92 118 71
91 118 70
92 119 71
90 117 69
90 117 70
106 129 97
198 207 214
201 211 220
196 207 216
193 204 214
200 210 217
196 206 214
193 204 213
190 202 208
184 196 202
190 202 211
199 210 220
193 204 209
179 191 193
143 159 148
105 128 91
90 116 69
93 120 72
92 119 71
93 120 71
93 120 71
94 121 72
92 120 72
131 149 130
191 201 208
188 200 209
192 202 207
192 203 210
194 204 213
195 204 209
190 202 209
195 205 213
195 205 213
197 208 217
189 201 208
190 201 208
193 204 212
194 205 213
198 208 217
188 200 208
168 182 180
141 159 148
104 127 90
90 117 70
91 117 70
92 119 72
93 120 72
112 133 105
197 207 214
192 204 211
196 206 213
188 200 207
190 201 208
191 203 211
195 206 213
195 207 215
183 194 198
190 201 206
193 203 208
185 197 204
192 205 214
191 202 210
198 209 219
187 198 206
192 203 211
192 203 211
204 214 224
197 208 216
193 204 209
201 210 218
197 207 214
195 206 214
177 189 192
91 118 71
94 121 73
98 123 86
148 165 156
172 186 183
183 195 201
186 198 204
178 191 196
193 204 213
190 201 207
191 202 209
186 197 201
195 206 213
197 207 215
198 208 218
204 214 222
181 193 198
192 202 208
197 207 215
194 205 214
201 211 219
182 193 197
199 209 218
194 204 211
196 207 215
139 156 138
93 119 71
96 123 74
90 117 70
90 117 71
93 119 71
91 119 71
95 123 74
90 116 68
93 119 71
90 116 69
94 121 73
88 115 69
93 120 71
90 117 70
93 121 72
91 118 71
90 117 69
92 120 72
92 118 70
93 120 72
92 119 71
88 114 67
88 115 68
93 120 72
95 122 74
154 169 163
197 207 214
174 187 188
163 177 174
152 168 157
123 143 121
97 123 79
91 118 70
89 116 69
94 122 73
89 115 69
86 112 67
93 121 72
88 114 68
90 116 69
89 116 69
87 114 67
94 121 72
91 118 70
95 123 74
96 124 74
94 121 74
88 115 68
91 118 71
88 115 68
90 117 70
162 176 170
206 215 224
191 202 208
197 208 217
186 197 202
195 206 215
188 200 206
194 205 213
203 213 222
197 207 215
193 204 212
199 209 217
200 210 218
195 206 214
201 210 218
189 200 206
188 199 206
194 205 213
196 207 216
201 212 221
205 216 225
198 208 217
197 207 215
188 200 208
198 208 216
196 206 216
138 156 140
91 118 70
93 120 72
88 114 68
90 116 69
92 118 71
90 118 71
90 117 69
92 118 70
93 120 72
95 123 74
87 114 67
92 119 72
89 115 69
93 120 72
91 118 71
93 120 71
89 116 69
91 118 70
92 119 72
92 119 71
94 121 72
92 119 71
89 115 69
89 116 69
100 124 84
190 201 208
200 211 220
192 202 209
204 214 223
198 208 216
192 203 211
196 207 217
195 206 215
194 205 212
196 207 215
193 203 210
192 204 212
196 206 214
199 209 217
189 200 206
190 201 210
195 206 213
190 201 207
197 208 218
192 202 210
194 205 213
181 193 197
181 193 195
177 189 190
162 176 173
131 149 130
142 159 143
145 160 150
159 174 169
176 189 188
175 187 188
170 183 181
178 190 191
177 190 195
187 200 207
198 209 215
195 205 212
198 207 213
188 200 206
184 196 200
195 206 215
192 203 210
199 209 216
195 206 215
191 202 210
200 211 219
197 208 214
195 206 213
201 211 218
122 142 120
93 120 72
90 117 70
93 120 71
92 120 72
91 118 71
94 121 73
90 117 70
89 116 69
91 118 71
89 115 69
84 110 64
91 118 71
88 115 69
93 120 72
90 117 70
88 114 68
94 121 72
88 114 68
86 112 65
91 117 70
95 122 74
88 115 68
140 157 141
179 191 197
193 204 213
191 203 209
191 202 208
183 195 200
196 206 214
198 208 218
184 196 202
195 206 214
198 209 218
193 204 214
197 208 216
191 202 209
186 198 203
189 201 207
180 192 194
179 192 192
181 194 199
187 200 205
179 192 193
164 177 173
155 170 162
143 159 146
153 169 159
156 171 163
160 173 169
172 184 181
180 193 196
172 185 184
184 195 198
190 200 204
192 203 208
190 201 210
192 204 210
196 207 215
188 200 206
186 198 205
190 201 208
198 207 213
193 204 212
192 203 209
194 204 211
189 200 204
103 125 93
91 118 70
90 117 69
91 117 70
93 120 71
90 116 69
91 118 71
93 121 72
91 118 71
88 114 68
92 119 71
90 116 69
91 118 71
93 120 72
87 113 67
91 118 70
88 114 67
88 114 67
93 120 72
131 149 129
188 199 204
186 198 204
192 202 209
186 198 203
194 204 212
194 205 214
194 205 212
199 210 217
188 199 205
192 203 209
199 210 220
194 206 214
204 214 224
196 206 214
193 203 210
195 206 213
196 207 217
187 198 202
113 134 107
88 115 69
91 117 70
94 121 73
91 118 71
93 120 72
90 117 70
90 117 69
92 120 72
92 118 71
89 115 68
90 116 69
93 121 73
96 124 75
96 124 75
109 131 99
113 135 106
139 156 140
122 142 117
87 113 70
92 120 72
93 120 72
93 120 72
89 116 69
92 119 71
91 117 70
89 116 68
92 119 72
87 114 67
90 117 70
192 203 209
187 197 203
198 209 217
190 201 209
190 201 208
191 202 211
194 205 212
195 206 214
191 203 211
163 178 177
127 146 126
102 126 87
90 117 69
92 119 71
95 121 78
187 199 206
193 204 211
194 205 211
193 204 212
198 209 217
191 202 208
196 207 214
192 202 209
198 207 213
197 207 215
194 204 211
194 205 213
203 213 222
201 211 223
194 205 212
162 176 174
132 150 132
91 117 72
93 120 72
88 114 69
89 115 68
91 118 71
112 135 106
195 206 212
185 196 203
189 201 208
193 204 210
182 194 201
195 206 213
200 210 218
191 203 212
197 207 214
182 194 201
193 203 210
193 203 211
196 207 215
188 199 204
184 195 199
196 207 216
191 203 210
195 206 215
188 199 206
178 191 192
153 168 159
112 134 104
91 118 70
112 133 103
195 206 212
201 211 220
195 207 216
200 210 217
198 208 217
192 203 210
184 195 200
190 200 207
197 207 213
192 203 209
188 200 207
186 198 205
193 204 211
186 197 202
200 210 219
192 202 209
196 206 215
188 200 204
195 206 215
194 204 212
196 207 215
196 206 213
194 204 210
202 212 221
177 189 189
87 113 67
94 120 72
93 119 71
94 121 72
91 118 70
91 118 70
119 140 111
138 156 141
170 183 184
187 199 205
194 205 212
195 206 214
196 206 213
194 205 212
194 204 211
188 199 205
204 214 224
193 204 211
189 201 207
192 203 211
197 208 217
191 201 208
186 199 207
200 210 218
198 208 218
137 155 140
93 120 72
92 120 72
90 116 69
89 116 70
89 116 69
92 119 71
94 122 73
90 117 70
92 119 71
86 112 67
90 116 69
88 115 68
88 114 68
92 119 72
95 122 73
90 117 70
91 118 71
90 116 70
89 116 69
93 120 72
89 115 69
93 120 72
88 115 68
92 119 71
92 119 71
176 189 192
195 206 214
196 206 215
202 212 221
199 209 217
188 199 205
186 198 202
177 190 193
152 167 161
138 155 144
120 140 117
98 123 81
89 116 68
94 121 72
91 117 69
91 118 70
92 118 71
88 115 68
93 121 72
93 120 72
91 117 69
91 118 70
92 119 71
91 117 69
88 115 69
90 117 70
180 193 198
199 210 218
194 205 214
190 201 208
199 209 216
197 208 217
189 200 207
194 206 213
189 202 209
187 198 203
195 206 215
203 213 223
197 207 217
194 205 212
196 207 214
187 199 206
192 204 212
191 201 207
193 205 213
196 207 216
201 212 222
196 206 213
183 195 200
193 205 215
181 194 197
193 204 211
95 120 77
93 119 72
94 122 73
92 119 71
92 119 71
89 116 69
94 121 72
93 120 72
88 114 68
94 121 72
93 120 71
88 114 67
94 121 73
93 120 72
92 119 71
92 119 71
90 117 70
92 119 71
94 121 72
95 122 73
88 115 68
94 121 72
92 119 71
94 120 72
89 116 69
161 175 171
190 201 208
187 198 204
192 202 208
193 204 210
191 201 207
182 194 199
199 209 218
194 204 210
185 196 201
199 210 217
196 207 216
200 210 219
196 207 217
196 206 214
183 195 201
196 206 213
193 204 212
199 209 218
198 208 215
192 203 209
181 193 198
194 205 211
201 211 219
194 205 212
140 156 143
93 120 72
94 121 73
90 117 70
90 117 70
93 120 73
90 117 70
92 119 71
95 123 73
91 117 70
89 116 70
91 118 71
89 116 69
98 125 78
98 124 79
106 130 90
107 129 98
122 143 120
114 135 106
120 141 113
121 140 120
124 144 122
126 145 128
143 159 144
150 165 159
175 188 187
161 176 168
162 176 171
153 169 159
155 170 164
157 172 165
158 172 165
158 173 166
158 173 168
153 168 161
147 163 150
138 156 138
153 169 160
154 169 161
146 162 151
155 170 161
149 165 158
161 177 173
155 170 161
155 169 161
148 164 155
151 166 157
147 163 150
132 150 133
139 156 143
132 150 132
139 156 144
133 151 133
130 149 127
124 143 123
133 151 133
132 150 131
127 147 121
128 149 129
104 128 95
106 130 96
97 123 79
95 121 76
91 118 71
95 122 73
93 120 72
93 121 73
90 117 70
91 118 71
95 120 77
173 187 189
190 202 210
194 205 211
186 197 204
200 211 219
193 204 211
203 212 219
193 204 211
194 203 210
188 200 205
191 202 210
196 207 215
189 200 206
186 199 206
206 216 225
199 210 219
194 205 212
189 201 209
186 196 202
199 209 217
190 201 208
124 144 121
90 117 69
90 116 69
88 115 69
91 118 70
90 117 70
92 119 72
85 111 66
90 117 69
91 118 70
88 114 67
93 120 72
92 119 71
88 114 68
93 120 72
88 115 69
94 121 72
92 119 71
93 120 72
113 135 103
191 201 206
190 201 208
187 198 204
188 199 205
191 202 209
189 200 206
198 207 216
204 214 225
197 208 215
193 204 213
199 210 219
195 206 214
191 202 209
193 204 213
193 204 212
192 203 209
189 200 204
190 201 209
119 139 116
93 120 72
94 121 72
90 116 69
93 120 72
89 116 69
86 113 68
90 116 70
89 116 69
92 118 70
89 116 69
109 132 98
135 152 136
158 173 165
165 178 174
190 201 206
172 185 185
98 123 79
91 117 70
89 116 69
88 115 68
93 121 72
86 113 67
87 114 68
93 121 73
93 120 72
92 119 71
89 116 69
87 114 67
88 115 68
88 114 68
186 198 206
189 201 207
191 202 210
192 204 213
189 200 205
201 211 218
193 204 213
190 201 208
194 204 211
190 202 208
193 205 214
189 200 207
167 180 176
115 136 108
93 120 72
185 197 200
182 193 199
192 203 209
202 211 220
184 195 201
192 203 209
194 204 209
190 201 207
198 208 216
194 205 212
192 203 213
188 199 206
199 209 218
194 205 214
193 205 213
196 206 213
185 197 201
183 195 200
153 168 164
132 150 134
95 121 77
90 117 70
121 141 116
191 203 210
186 198 204
176 188 192
197 207 217
192 203 211
191 201 207
193 205 214
185 196 199
192 203 211
194 204 210
195 206 214
199 209 217
194 204 213
189 200 205
191 201 208
189 200 207
196 206 213
196 206 215
187 199 205
191 202 210
191 203 211
193 203 209
179 191 195
143 159 150
174 187 188
184 196 203
194 204 212
191 201 206
179 191 196
194 204 211
190 202 209
194 205 212
177 189 192
196 206 214
192 203 212
195 205 212
197 208 215
201 211 219
188 200 206
191 202 207
200 209 217
187 198 205
194 205 213
199 209 216
186 198 203
192 203 210
187 198 206
195 206 214
170 184 185
89 116 69
90 116 69
92 118 71
93 120 72
90 116 68
93 120 72
91 117 69
90 117 71
92 119 70
92 119 74
111 134 103
145 161 147
176 189 189
189 199 205
193 203 209
188 200 207
192 202 210
198 208 216
189 199 205
195 206 213
185 196 202
198 208 218
196 207 216
200 211 220
194 205 212
104 127 92
92 119 71
90 117 70
87 113 67
90 117 70
93 120 72
95 122 74
93 119 71
93 120 72
92 119 71
93 120 72
94 121 72
91 117 70
89 116 70
87 113 67
93 121 72
92 119 71
95 121 73
90 117 70
89 115 69
92 118 71
90 117 70
92 120 72
92 119 71
93 120 72
101 125 84
198 209 218
185 196 203
196 206 212
192 203 211
188 199 205
193 204 212
196 207 216
196 207 217
199 210 218
192 203 209
203 213 223
199 208 216
182 194 197
168 181 178
153 169 159
128 146 126
97 122 80
89 116 69
95 122 73
95 123 74
91 117 70
91 118 70
91 117 70
92 119 71
90 118 70
120 141 117
196 206 212
197 208 216
196 207 215
193 204 213
190 201 209
197 208 216
190 201 206
179 191 196
190 201 208
197 207 215
189 201 208
191 202 208
188 199 205
202 212 223
197 208 214
191 201 207
197 207 216
192 203 211
183 195 201
191 202 209
199 210 219
195 207 213
191 202 209
199 210 219
202 212 220
163 177 173
94 121 73
92 119 71
89 116 69
90 117 70
92 119 71
92 119 71
90 116 69
91 118 71
91 117 70
93 120 72
92 119 71
93 120 72
92 119 72
90 117 70
89 115 68
91 117 69
90 116 70
91 118 71
88 115 68
91 117 70
92 119 72
90 117 70
92 118 71
92 119 71
108 132 97
188 199 204
185 197 204
194 204 209
189 199 204
190 201 209
187 197 201
188 198 204
192 203 209
195 205 211
192 204 212
197 208 216
178 190 194
181 193 199
191 202 208
194 204 212
195 205 215
194 204 210
189 201 209
194 205 212
186 198 205
192 202 208
198 208 216
191 202 209
188 200 205
178 190 192
93 119 74
92 120 72
93 120 72
93 120 71
92 119 71
89 116 69
89 115 68
91 118 71
92 119 71
88 115 69
91 117 70
96 123 74
92 119 72
93 120 72
88 115 68
90 118 71
95 122 73
96 123 74
87 114 68
88 115 69
87 113 67
92 118 70
92 119 71
103 127 90
186 197 202
191 202 210
193 204 210
190 201 209
198 208 216
199 209 216
183 196 203
190 202 209
194 204 211
195 206 214
197 207 214
193 204 210
191 202 208
193 204 212
193 204 212
204 214 225
192 204 211
191 202 210
191 202 208
190 202 209
193 205 213
200 210 218
189 201 209
117 137 112
91 117 70
86 112 66
89 115 68
90 117 70
90 117 70
90 117 70
90 116 69
88 114 68
94 121 73
91 117 70
93 120 72
92 119 71
85 111 66
91 117 70
92 120 72
92 118 71
86 112 66
88 115 68
91 118 71
90 117 70
90 117 70
162 177 172
192 203 210
189 200 207
193 203 209
205 214 223
202 212 221
186 197 204
197 208 218
193 204 212
203 213 223
187 198 204
194 204 212
189 201 210
200 210 219
191 203 209
187 199 207
202 211 218
197 206 215
196 206 214
194 205 212
195 206 216
145 162 152
94 121 74
89 116 70
90 117 70
92 119 72
93 120 72
90 117 70
92 119 72
94 121 72
91 118 71
88 114 67
96 123 74
90 116 70
89 116 69
88 115 68
89 116 69
87 113 67
92 120 72
93 120 72
103 128 92
192 204 210
189 200 206
198 208 216
198 209 219
194 205 212
186 199 206
194 205 213
198 208 216
194 204 210
192 203 212
188 199 206
200 210 219
187 198 203
193 204 213
192 203 211
193 205 214
197 207 214
187 198 205
114 136 108
91 119 71
90 117 70
92 119 71
86 112 67
90 116 70
91 118 70
92 118 73
127 146 123
147 163 149
165 178 175
175 187 192
186 197 202
192 202 209
187 199 206
199 210 220
156 172 169
93 120 74
92 120 72
89 116 69
94 122 73
89 115 68
90 117 71
88 114 67
88 115 68
93 120 72
92 118 70
94 121 72
93 121 73
86 112 66
99 123 83
175 188 189
199 209 217
193 203 209
192 203 210
191 202 207
185 197 203
183 195 203
193 203 210
191 202 207
186 197 203
186 197 204
188 199 205
194 205 211
194 205 211
190 201 208
180 192 195
166 180 177
171 183 184
190 201 207
195 205 212
196 206 214
187 198 204
190 201 209
189 201 207
188 199 205
185 197 203
195 205 212
194 205 213
202 212 220
187 199 205
192 204 213
193 203 209
193 204 213
192 203 210
188 200 205
190 201 210
197 208 216
161 176 173
144 161 148
192 203 211
196 206 214
196 206 213
188 199 207
197 206 213
188 198 203
188 200 206
202 212 221
200 210 218
182 193 195
196 207 215
194 205 213
186 198 205
204 215 226
192 202 209
193 204 212
183 195 201
190 201 210
185 198 205
199 209 217
190 200 205
192 202 208
191 201 208
184 197 202
86 112 66
97 122 81
141 158 145
164 179 174
187 198 203
191 202 210
198 209 220
193 205 215
199 209 216
191 202 208
188 200 205
191 203 211
192 203 209
180 192 196
188 199 208
178 192 200
191 201 210
194 205 214
196 208 217
201 211 220
198 208 217
194 204 211
196 206 214
189 200 206
159 173 167
91 118 70
92 119 71
97 124 74
90 116 69
90 117 70
90 117 69
93 119 71
92 119 71
90 117 70
92 119 71
94 120 72
91 118 70
90 116 70
93 118 75
123 143 122
163 177 172
166 179 173
179 191 195
190 202 208
191 202 210
190 201 206
195 205 212
201 211 220
185 196 203
189 201 208
90 116 69
93 120 72
95 122 74
92 119 71
91 117 69
90 116 70
92 119 71
90 117 70
90 116 69
89 116 69
93 120 71
94 121 72
92 119 71
90 116 69
93 120 72
93 119 71
92 119 70
90 117 70
93 120 71
93 120 72
88 114 67
89 116 70
92 119 71
93 120 71
92 118 70
130 148 130
192 203 211
190 203 213
198 209 217
187 199 205
186 197 202
200 210 219
199 210 219
195 206 214
185 196 200
190 201 207
189 201 208
182 194 199
201 211 220
192 202 209
191 202 210
181 194 198
192 204 212
184 196 201
178 190 191
156 171 164
140 157 141
115 136 111
96 121 80
91 117 69
89 116 69
152 168 160
193 204 211
195 206 214
194 204 213
186 198 205
194 206 215
187 197 203
192 202 210
191 202 209
191 203 212
198 209 218
198 209 216
189 199 207
181 193 200
193 204 211
193 204 211
187 198 204
182 194 198
196 206 215
185 196 202
193 204 212
195 207 216
193 204 212
181 194 202
189 200 208
189 202 212
118 140 110
92 119 70
90 117 70
92 120 72
91 118 71
91 117 70
89 116 69
90 116 69
89 116 68
88 114 67
91 118 70
87 113 66
89 116 69
91 118 70
91 118 71
92 118 70
94 121 73
91 118 70
87 113 66
89 116 69
92 119 72
93 121 73
88 114 68
94 121 72
87 113 67
158 173 170
196 207 215
197 208 217
190 202 208
197 209 219
195 206 215
193 204 212
197 207 214
186 198 205
193 205 212
196 207 216
190 202 210
192 203 211
202 212 221
186 197 203
202 212 220
187 199 204
196 208 218
190 201 208
199 209 219
196 206 214
199 209 218
189 200 205
196 206 214
193 204 212
135 154 137
90 117 69
93 119 71
92 119 71
89 116 69
87 113 67
92 119 71
92 119 71
90 116 69
90 117 70
90 117 70
90 117 69
92 119 71
90 117 69
91 118 71
88 115 68
93 119 71
92 119 71
96 124 75
92 120 72
93 120 71
93 120 72
89 116 70
89 115 68
177 189 190
198 208 217
196 205 212
198 209 216
204 214 224
194 205 213
201 211 220
192 203 211
192 203 211
188 199 207
204 214 223
193 204 211
197 209 217
195 206 213
194 205 213
206 215 223
191 201 208
189 200 207
192 203 208
195 206 214
187 199 206
184 196 201
186 199 206
157 173 165
93 119 71
90 117 70
88 115 69
91 118 70
90 117 70
86 112 66
93 120 72
93 120 72
93 120 71
92 118 71
92 119 71
92 119 71
89 116 69
89 115 68
88 114 68
87 114 68
91 117 69
93 120 73
92 119 71
92 119 71
91 117 69
151 167 156
194 205 214
193 204 210
189 200 210
199 209 217
199 209 216
198 208 216
181 194 200
196 206 213
193 204 211
186 197 202
195 205 212
190 202 210
200 209 216
195 206 213
200 210 220
193 204 213
199 209 217
198 208 218
197 208 218
194 204 210
150 167 156
91 117 70
89 116 69
93 121 73
88 115 68
97 125 75
92 119 71
88 115 69
92 118 71
92 119 71
89 115 68
94 120 72
88 115 69
90 116 70
91 117 70
88 115 68
86 112 66
91 117 70
93 120 72
118 140 109
192 203 209
191 202 209
194 205 213
188 199 206
197 208 217
195 206 214
190 200 208
193 204 211
191 202 208
184 197 205
194 205 211
195 206 215
193 203 208
193 204 211
188 199 207
176 189 193
190 201 207
179 191 194
118 140 112
88 114 67
89 115 69
112 133 103
121 139 119
136 153 137
168 181 175
189 200 205
187 199 205
193 204 213
188 200 206
194 205 212
190 201 208
202 212 219
200 211 222
192 202 207
138 157 144
88 115 68
91 118 71
90 117 70
89 115 68
91 118 70
87 113 67
87 113 67
89 116 69
91 117 69
86 113 68
90 116 69
93 120 72
94 121 72
95 119 78
171 185 186
194 204 211
111 132 104
141 158 145
175 188 190
184 196 203
192 202 208
193 204 210
195 206 215
186 196 202
191 202 208
193 204 212
195 205 213
187 198 203
196 206 214
184 195 202
196 207 216
170 183 183
93 119 70
124 144 119
139 156 141
184 195 199
193 204 213
190 201 208
187 199 207
194 205 213
193 205 213
190 202 210
196 206 212
200 210 219
190 201 208
191 202 209
187 198 204
197 208 216
189 200 207
191 202 209
189 200 206
196 207 216
189 199 205
193 203 209
121 142 114
138 155 140
168 181 177
192 204 213
195 205 211
193 204 213
196 207 216
195 206 213
191 203 211
193 205 212
197 209 217
191 202 211
190 201 207
204 213 222
189 200 206
194 204 209
184 196 202
204 214 224
188 200 208
190 201 208
201 211 217
185 196 202
198 208 217
171 185 187
93 120 72
91 118 71
91 117 70
92 119 72
106 129 95
128 148 127
164 177 174
183 194 197
193 203 210
190 201 207
196 206 215
183 193 197
186 197 204
193 203 210
190 201 211
189 201 208
195 206 216
195 206 212
186 198 204
194 203 210
191 202 209
189 200 207
187 199 206
186 198 205
154 169 159
89 116 69
91 118 71
87 113 67
89 116 70
90 117 70
93 119 71
92 118 71
92 119 71
87 114 68
92 119 71
93 120 72
90 116 69
95 122 73
87 113 67
91 118 70
88 115 68
91 117 70
97 124 77
128 146 127
155 170 165
174 188 187
198 209 218
194 205 212
188 199 205
170 183 182
92 118 70
87 114 67
89 115 68
89 115 67
93 121 73
83 108 63
90 117 70
90 117 69
86 112 67
89 116 69
88 114 68
99 127 77
91 118 70
92 119 71
90 117 69
91 118 71
90 117 70
94 121 72
92 118 70
90 117 70
91 118 70
85 111 65
94 122 73
94 121 73
90 116 70
159 173 170
191 202 210
190 201 208
198 208 215
190 202 211
184 195 200
192 203 211
192 204 212
189 200 206
194 205 214
196 206 212
199 210 220
187 199 207
193 205 211
196 207 215
187 198 206
188 199 204
188 200 207
203 213 222
204 214 223
185 197 204
196 206 215
193 204 212
193 204 210
174 187 187
158 172 171
159 174 168
156 172 166
193 204 209
194 205 212
187 199 207
191 203 211
189 201 206
190 201 209
200 210 218
184 195 202
198 209 216
197 207 214
195 205 212
195 206 215
197 207 214
188 198 202
184 196 205
190 201 208
202 212 222
193 203 212
188 201 208
194 205 212
196 207 216
198 208 216
196 207 215
178 191 191
93 121 72
92 120 72
85 111 66
88 115 68
89 116 69
88 114 68
93 120 72
91 117 70
92 119 72
84 110 65
94 121 72
91 118 70
88 114 68
93 119 71
92 119 71
91 118 70
89 116 68
87 114 67
91 118 71
91 117 70
92 119 71
94 121 72
91 118 71
90 117 70
104 129 89
186 198 203
191 202 209
187 198 205
193 204 211
194 204 211
197 207 214
187 199 206
190 201 208
194 204 210
190 201 207
197 208 218
192 203 211
198 208 216
183 196 204
201 211 220
194 204 212
193 204 213
187 199 206
187 198 204
184 196 202
204 214 223
189 201 208
194 205 212
192 203 209
180 191 192
91 118 71
93 119 71
86 113 66
92 119 71
92 119 71
90 117 70
90 116 69
93 120 71
94 121 72
94 121 72
91 118 71
92 118 71
90 116 70
89 116 70
91 118 70
88 115 69
91 118 71
90 117 69
93 119 71
88 115 68
89 116 69
91 119 71
92 119 71
112 134 103
191 202 210
197 208 215
193 203 211
191 202 211
203 213 222
200 210 220
189 201 209
193 204 213
191 203 212
192 203 209
191 202 210
192 203 212
196 207 216
197 208 216
199 209 218
195 205 212
194 205 214
179 190 194
194 206 216
192 204 211
195 205 213
188 199 207
180 192 195
94 120 77
91 117 69
85 111 66
92 118 70
93 119 71
89 115 68
93 120 72
86 112 66
94 121 72
83 110 64
86 113 67
90 117 69
93 120 72
94 121 73
92 118 71
89 117 70
92 119 71
88 115 69
91 117 70
95 122 73
90 116 69
111 134 107
191 202 209
194 205 213
197 208 216
190 202 210
195 205 212
187 198 205
195 207 216
195 206 214
189 200 207
197 207 215
194 205 212
179 191 196
199 211 220
187 198 203
191 203 210
193 203 209
192 204 211
188 200 207
187 199 205
191 201 208
159 173 170
94 121 75
94 121 72
90 117 70
89 116 69
95 122 73
93 121 73
91 117 70
86 112 66
95 122 73
94 121 72
91 118 71
89 116 69
88 115 68
94 121 73
86 112 67
91 118 70
89 116 69
84 110 66
102 126 87
172 186 187
186 198 206
192 203 210
193 204 211
187 199 208
194 204 211
193 204 211
188 199 206
190 201 210
195 205 212
185 197 202
195 206 214
192 204 211
203 213 223
192 203 211
196 207 215
185 197 202
190 200 205
155 170 164
146 163 153
165 179 175
188 199 205
191 202 209
199 209 217
198 208 216
181 193 199
188 200 208
186 198 204
190 201 208
195 206 213
188 200 207
196 206 216
194 205 215
196 208 216
137 155 140
89 116 69
87 114 68
91 118 70
88 115 69
91 117 70
87 114 67
86 112 66
90 116 69
89 116 69
95 122 73
88 114 68
95 122 73
90 117 71
112 133 105
179 191 194
185 197 204
181 194 198
179 191 195
177 188 189
178 190 192
190 201 206
166 180 179
148 164 156
147 163 150
149 164 156
157 170 167
167 179 178
166 179 176
176 189 190
194 205 213
197 208 217
197 207 215
179 192 194
89 117 70
89 116 69
91 118 70
94 120 77
132 150 135
159 174 168
188 200 207
197 207 214
193 204 210
186 196 203
201 211 220
200 210 219
187 199 207
197 208 218
188 199 204
193 204 210
192 202 210
185 196 202
189 200 208
200 210 218
197 207 216
189 199 207
126 146 124
93 120 72
88 115 68
104 127 93
143 160 146
165 179 179
182 194 199
192 202 209
186 197 202
195 207 216
196 206 214
193 203 209
188 199 206
189 201 208
193 204 212
183 195 202
190 200 206
189 200 206
185 196 202
199 209 217
194 205 213
194 204 212
194 204 212
178 190 193
89 115 68
87 113 67
93 120 72
94 121 73
89 115 69
87 114 67
91 117 69
92 119 71
109 133 100
150 165 155
168 182 185
191 202 210
195 207 214
195 205 211
189 201 207
193 204 210
195 206 214
194 205 212
194 203 208
188 200 207
192 203 211
195 205 212
190 202 211
190 201 206
137 156 136
91 117 70
88 115 69
92 118 71
92 119 71
87 113 67
90 116 69
90 117 70
88 115 69
90 116 69
90 117 69
93 121 72
92 119 71
89 116 69
86 112 65
96 123 74
89 116 69
90 116 69
88 114 68
92 118 70
92 118 70
92 119 71
100 127 81
121 141 115
150 165 157
163 178 174
94 120 76
92 119 71
91 118 70
91 118 71
89 116 70
89 115 68
91 118 70
94 120 72
93 120 72
90 116 68
92 120 71
93 120 72
89 115 69
92 118 71
88 114 69
90 117 70
87 113 67
90 116 69
90 117 70
87 113 67
84 110 66
94 121 73
90 116 69
94 121 72
89 115 68
184 195 199
199 209 218
189 201 208
191 202 209
194 205 212
188 199 205
201 211 218
195 206 214
188 199 206
197 208 218
197 208 217
188 200 208
192 203 210
196 207 215
187 199 207
192 203 210
197 207 214
186 197 201
190 201 208
194 205 212
190 201 208
195 207 215
200 211 219
198 208 218
192 203 212
180 193 195
91 118 71
91 118 70
87 114 67
95 121 75
116 137 106
121 142 119
152 168 159
163 178 174
182 195 199
193 205 214
200 210 218
194 206 215
199 210 221
192 203 210
200 210 218
181 192 196
196 207 217
193 204 212
194 204 210
201 210 218
195 207 215
196 206 212
189 200 207
196 206 213
199 210 218
131 149 134
87 113 67
93 120 71
90 117 70
91 117 70
90 117 69
89 116 69
89 115 68
90 117 70
92 119 71
90 117 69
91 117 70
88 115 68
95 122 73
90 117 70
90 117 70
88 114 67
91 118 70
90 117 70
90 117 70
90 117 70
95 122 73
92 119 71
91 118 70
91 117 69
159 174 168
190 201 211
195 204 212
194 204 212
201 211 222
184 195 200
190 201 208
196 206 212
202 212 220
195 206 214
187 198 205
183 195 200
185 196 203
189 200 205
189 199 204
190 202 210
195 205 210
188 199 205
191 202 208
196 206 213
187 198 203
199 209 218
189 201 207
193 204 212
194 205 214
116 137 111
92 119 71
90 117 70
89 116 69
88 114 68
92 119 71
86 111 66
92 119 71
89 116 69
89 116 70
89 116 69
94 121 72
92 119 71
89 116 69
88 114 68
94 121 73
92 118 70
89 116 69
94 121 73
91 118 70
88 114 68
87 114 67
95 122 74
100 125 87
174 188 189
187 198 204
187 198 203
195 205 212
204 214 225
200 210 217
186 197 202
192 203 210
194 205 212
190 200 204
191 203 209
196 207 216
192 202 211
194 205 211
196 206 212
191 201 208
188 199 204
195 206 214
193 205 213
191 202 207
200 211 221
187 198 205
188 198 202
105 127 93
94 121 73
94 121 72
91 117 70
88 115 68
92 119 72
91 118 70
90 117 70
91 118 70
90 117 70
85 112 66
89 116 69
91 118 70
93 120 72
92 119 72
91 117 70
89 115 68
90 117 70
92 119 71
93 120 72
90 116 69
98 123 83
186 197 200
196 208 218
187 198 205
190 200 208
192 204 212
196 207 216
200 210 219
193 204 212
185 196 202
193 204 212
192 204 214
199 209 216
190 202 210
199 209 220
195 205 213
191 202 209
187 198 203
185 196 200
192 204 211
200 210 219
175 187 187
93 119 74
90 117 70
91 118 71
87 113 67
92 118 70
90 116 69
91 118 71
96 123 74
89 117 70
85 112 66
90 116 70
90 117 71
93 120 72
90 117 70
91 118 71
90 116 70
93 121 73
89 115 69
105 129 89
175 187 186
190 202 210
193 204 213
196 207 215
182 192 197
191 202 206
187 198 205
190 201 207
187 198 205
194 205 212
196 207 214
190 202 209
190 201 204
158 173 169
154 170 163
124 143 120
116 136 109
107 130 95
181 193 195
188 200 207
191 201 208
182 193 197
189 200 206
190 202 211
196 206 214
191 202 209
192 202 209
195 205 213
197 208 216
194 205 214
200 210 218
190 200 207
186 197 203
190 201 207
133 151 133
93 120 72
91 118 70
90 117 70
89 116 69
88 114 68
107 131 96
115 136 107
134 152 139
144 161 147
142 159 146
133 150 136
152 168 158
166 180 175
130 148 130
171 185 185
176 190 192
190 201 208
184 197 203
187 199 207
190 201 209
195 206 213
190 201 206
196 206 215
173 187 190
167 181 180
123 142 121
92 118 73
89 116 69
89 116 69
88 114 69
90 117 69
92 119 72
93 119 74
98 122 84
176 189 190
183 195 200
177 189 190
171 185 185
160 174 166
162 176 171
154 170 162
184 194 196
184 196 201
173 186 184
191 202 207
177 190 192
179 190 195
184 196 201
182 194 198
189 201 207
188 199 204
189 200 206
200 210 218
195 205 213
189 201 208
189 201 208
135 152 134
92 119 71
86 112 66
91 117 69
93 120 72
89 116 69
96 120 82
144 162 145
177 190 188
196 206 214
189 200 208
192 203 210
186 197 202
199 210 220
196 207 215
193 203 211
190 200 208
185 197 202
202 212 222
193 203 211
196 206 212
199 209 217
184 196 200
167 181 181
89 116 68
85 111 66
90 117 70
87 113 68
94 121 72
87 113 67
94 121 72
91 117 69
91 117 71
93 120 72
89 115 69
108 129 101
127 145 127
167 180 178
191 202 209
198 208 214
196 207 216
192 203 209
191 202 207
188 199 204
188 199 205
186 198 203
194 205 212
189 200 207
114 134 109
89 115 68
91 118 71
90 117 70
89 116 70
92 119 71
92 119 71
89 116 69
93 120 71
90 117 70
92 119 72
89 116 69
90 117 70
89 116 69
90 116 69
94 121 72
88 114 67
93 120 72
88 115 68
91 118 71
88 114 68
92 119 71
92 119 72
88 114 67
86 112 66
157 172 166
181 194 201
177 190 194
161 176 171
132 151 134
106 130 92
90 117 70
90 117 70
94 120 72
92 119 71
92 119 71
91 118 71
92 118 71
86 113 67
90 117 70
94 121 72
89 116 69
91 117 70
91 118 70
87 114 67
89 116 70
89 115 68
90 116 69
92 118 70
90 116 69
103 127 92
191 202 208
191 202 209
188 199 206
191 202 211
198 208 216
201 211 221
192 203 209
182 194 199
190 201 207
190 201 208
198 209 218
194 204 211
191 201 206
202 211 221
195 206 215
185 196 201
189 200 207
192 203 211
196 206 214
193 204 211
203 212 220
192 202 209
192 202 208
193 203 211
192 203 210
147 163 151
83 108 63
94 121 72
83 109 64
88 114 67
91 117 70
90 117 70
92 118 70
88 114 68
89 116 69
91 118 70
105 127 99
117 138 116
145 161 149
162 177 173
168 181 179
181 193 196
193 204 211
193 202 208
195 206 215
185 198 205
195 206 214
188 199 205
193 204 211
189 201 207
188 199 203
94 121 75
91 118 71
90 117 70
95 121 72
93 120 72
91 118 71
93 120 72
90 117 70
91 118 70
88 114 68
92 118 71
89 116 69
88 114 68
87 113 67
92 119 71
94 121 72
94 121 72
92 120 72
94 121 72
88 115 68
92 119 71
92 119 71
88 115 68
91 118 70
95 120 79
173 186 188
191 201 208
192 204 211
184 196 201
190 201 208
195 206 215
197 208 217
202 212 221
195 205 213
190 202 208
196 207 215
196 206 214
197 206 214
187 198 205
195 206 213
197 208 216
188 199 203
199 209 216
195 206 214
190 202 210
193 203 210
190 202 210
195 206 213
191 202 210
165 180 176
89 116 69
89 116 69
88 114 68
93 120 72
89 116 69
87 114 67
94 121 72
92 119 71
88 114 68
92 119 71
86 113 67
86 112 67
90 116 70
90 116 69
89 116 69
87 113 67
90 118 71
91 118 70
90 117 70
90 116 69
89 116 69
91 118 70
89 116 69
157 172 167
190 202 210
189 200 205
196 207 215
198 208 216
184 196 203
196 207 215
194 205 212
191 202 210
192 203 210
198 209 217
187 198 205
200 210 218
198 209 219
196 206 214
184 195 199
191 202 209
184 195 200
200 210 218
189 201 206
194 204 211
184 196 202
196 207 215
134 152 137
88 114 68
91 118 70
91 117 70
93 120 72
85 111 65
86 113 67
91 118 71
93 120 72
93 120 71
89 115 69
88 115 68
92 119 71
91 118 70
88 115 69
88 115 69
93 120 72
86 113 67
87 113 67
89 115 69
90 117 70
90 115 71
175 188 189
190 201 208
187 199 207
189 199 204
192 203 210
187 199 205
204 214 224
190 201 209
194 205 214
196 207 216
196 207 215
186 198 206
193 204 213
182 193 197
195 206 215
197 207 215
195 206 214
193 204 211
195 206 214
191 202 208
168 181 181
101 125 86
90 117 70
93 119 71
89 115 68
88 115 68
89 115 69
89 115 69
91 117 70
88 115 69
92 119 72
92 119 71
90 115 68
90 116 69
87 113 67
89 116 69
90 117 69
89 116 69
90 116 69
100 124 86
178 190 191
190 201 207
195 205 211
195 206 212
194 205 212
195 207 217
185 196 199
172 186 188
153 168 159
156 171 164
132 151 135
115 136 110
89 115 69
87 113 67
88 114 68
93 120 71
91 118 71
111 133 107
193 203 210
191 202 210
191 202 209
188 200 206
185 197 206
190 201 208
178 190 193
183 195 201
170 184 186
168 182 179
167 181 179
165 178 175
153 168 160
150 165 155
149 165 158
158 174 166
183 195 199
171 184 183
175 188 188
176 189 192
174 186 190
189 199 205
189 200 207
196 207 216
191 202 209
185 196 201
185 196 203
179 191 193
165 179 176
152 167 160
163 176 174
187 198 204
189 200 208
189 202 209
197 207 213
185 197 206
186 197 204
189 201 207
197 208 216
185 198 205
189 201 210
189 200 207
189 200 208
184 195 199
171 184 185
163 177 174
103 127 92
89 116 69
90 117 70
85 111 66
90 117 70
94 121 72
168 181 181
192 203 210
191 201 207
193 204 211
189 200 207
185 197 202
181 192 198
197 207 215
192 203 209
182 194 199
165 178 175
118 138 112
86 112 67
93 120 72
92 119 71
90 117 70
99 124 84
104 126 92
109 132 100
138 156 139
132 149 132
134 152 136
158 172 167
161 175 173
158 173 169
143 160 150
147 164 153
143 159 148
137 155 140
132 150 133
122 141 122
121 140 119
148 165 155
161 174 171
183 195 202
183 196 203
186 198 204
192 203 212
200 210 220
197 208 218
188 200 208
191 202 210
193 204 212
199 209 219
191 202 210
177 189 192
88 115 68
88 115 68
89 115 69
91 117 70
88 115 69
90 117 70
89 116 69
86 112 66
90 117 69
93 120 72
86 111 66
90 117 69
90 116 69
89 116 68
92 119 71
118 137 113
147 163 154
164 178 172
185 196 201
193 204 214
195 206 214
197 208 215
196 207 215
192 203 212
106 129 96
91 117 70
91 117 70
93 120 71
91 117 70
90 118 70
88 114 68
91 118 71
91 118 70
86 113 66
92 119 71
84 110 64
92 119 72
94 121 72
91 118 71
89 115 69
87 113 67
92 120 72
89 115 69
92 119 71
89 116 69
94 121 72
88 114 68
89 115 68
91 118 71
179 190 191
190 201 209
193 204 212
197 207 215
196 206 213
194 204 212
184 195 201
169 182 179
146 163 149
124 143 121
88 115 69
91 117 70
91 118 70
87 113 67
90 116 69
88 114 68
93 120 72
92 119 72
89 115 68
92 118 70
86 113 67
95 123 73
89 116 69
88 114 67
92 120 72
141 157 146
197 208 216
187 199 205
202 212 222
192 202 208
190 201 208
188 199 204
192 203 208
182 193 199
194 205 212
186 197 202
194 205 215
190 201 208
191 202 210
186 198 204
203 213 223
190 201 209
178 191 195
198 207 214
192 203 212
200 210 220
198 209 219
197 207 214
194 205 213
193 204 211
198 208 217
106 128 97
89 116 69
92 119 72
88 114 68
85 112 66
94 121 72
90 116 69
85 111 66
92 120 72
88 114 68
88 115 68
89 116 69
88 114 67
86 112 66
88 114 68
90 116 69
90 117 69
93 119 73
118 140 110
121 141 116
142 159 149
161 174 169
171 184 184
172 185 185
186 198 204
134 152 136
91 117 70
87 114 68
93 120 72
90 117 69
95 122 73
93 120 72
90 116 69
87 114 68
94 121 72
85 111 66
90 117 70
85 110 65
92 119 71
88 114 68
91 117 69
90 117 70
91 118 70
92 119 72
89 115 69
88 114 68
91 118 71
91 118 71
89 116 69
92 119 71
159 172 165
187 199 205
189 200 207
199 210 218
187 199 206
189 200 206
199 210 219
192 202 208
192 204 212
197 208 217
193 204 210
201 211 219
199 209 218
193 204 212
197 207 215
196 207 216
189 201 206
191 201 207
188 199 207
195 205 214
194 204 211
188 199 205
185 197 202
199 209 219
194 205 210
96 122 81
88 114 68
89 115 69
92 119 71
91 118 69
93 120 72
90 117 70
90 117 70
92 119 71
86 112 66
93 120 72
88 115 68
93 119 71
96 123 74
89 115 68
92 119 71
93 120 71
89 115 69
88 115 69
91 118 70
90 117 69
95 122 73
93 120 72
125 145 121
198 208 216
185 197 203
194 205 212
198 208 215
194 205 210
194 205 212
194 204 212
200 210 220
195 205 212
201 211 219
192 204 212
194 206 215
192 203 210
189 201 210
191 202 210
194 204 209
193 204 211
185 197 201
190 201 207
192 203 210
197 207 216
196 207 216
152 168 160
91 117 70
97 124 74
88 114 67
93 120 71
90 117 69
89 116 69
87 114 67
89 116 69
95 122 73
91 118 71
88 115 69
91 118 71
92 119 72
91 118 71
88 114 67
88 115 69
89 116 69
88 114 68
90 117 69
95 123 74
93 120 71
151 167 158
189 201 208
189 200 208
202 212 223
190 201 208
191 202 209
196 207 216
181 192 198
195 205 213
188 198 203
187 198 205
188 199 205
187 199 207
191 202 209
188 198 203
191 202 209
186 198 205
193 203 210
190 200 207
190 201 208
182 194 200
95 119 80
82 109 64
93 120 72
92 120 72
90 117 69
93 120 72
91 118 71
86 112 66
89 115 69
88 115 69
88 114 68
87 113 67
91 118 70
89 115 68
89 115 68
88 115 69
92 119 71
90 116 69
99 125 82
166 179 177
175 188 189
161 175 172
166 179 179
149 165 153
130 148 133
135 152 137
122 141 117
126 145 125
130 148 131
142 159 148
136 154 138
143 160 147
134 152 133
159 174 166
155 170 162
170 183 184
149 166 155
111 134 105
116 137 111
108 130 101
109 132 99
97 122 81
91 118 71
92 118 70
88 115 68
89 116 69
92 119 72
88 114 68
90 116 69
96 123 73
93 121 73
88 114 68
112 133 107
180 193 197
184 196 203
197 208 215
193 204 213
198 208 214
185 196 202
179 190 193
191 202 210
183 195 197
155 171 166
149 164 152
116 136 110
86 112 67
93 117 82
167 180 181
190 201 208
183 195 201
194 204 210
197 207 216
194 205 212
185 197 205
190 202 208
181 193 199
192 203 210
187 199 207
193 203 209
188 199 206
190 201 209
182 193 199
186 196 201
189 201 206
183 194 199
166 179 178
130 149 134
102 124 90
92 118 71
88 115 69
143 160 148
179 191 197
190 201 208
185 196 201
193 203 209
189 200 207
191 202 208
184 196 202
190 201 208
193 203 211
193 204 213
194 205 215
173 187 188
140 157 147
117 136 109
91 118 69
93 120 72
89 116 69
90 117 70
94 121 72
88 115 68
91 118 70
147 162 152
184 196 201
193 203 210
196 207 215
196 207 215
194 204 213
194 205 213
188 199 206
187 198 206
188 200 206
198 208 216
184 196 202
188 199 206
164 177 176
143 160 145
105 127 96
93 118 78
107 129 97
115 136 110
119 138 116
118 138 114
138 156 138
132 151 135
142 159 145
149 165 158
138 154 142
149 164 158
150 165 158
142 159 146
127 145 127
144 159 148
132 150 132
134 151 137
129 148 128
104 127 95
122 142 119
113 133 112
111 133 103
103 127 92
102 124 93
99 123 87
90 116 72
106 127 96
120 140 117
159 174 170
177 190 194
189 200 206
194 205 214
97 122 83
90 117 70
88 115 68
87 113 68
90 116 69
90 117 70
86 113 67
85 112 66
92 119 72
91 119 71
89 115 68
92 118 70
86 112 67
92 119 71
89 115 69
85 111 67
91 118 71
87 113 67
88 114 68
93 121 73
88 114 68
88 114 68
89 116 69
89 115 68
91 118 71
192 204 211
193 204 212
195 206 214
191 202 208
189 200 210
194 205 213
191 201 207
189 201 208
194 205 214
194 205 213
183 195 202
160 173 171
158 172 165
130 148 131
97 121 84
94 121 73
93 120 72
91 117 70
94 121 72
92 119 72
87 113 68
91 118 70
91 118 71
89 115 68
88 114 67
156 171 170
184 195 200
187 198 204
188 199 205
199 209 217
200 210 219
192 202 208
193 204 211
200 211 219
195 206 217
193 204 211
183 194 198
191 202 207
191 203 212
188 199 205
198 208 217
192 203 209
199 209 218
185 197 203
186 197 203
198 208 217
194 206 215
192 203 212
190 202 209
193 203 210
165 180 179
85 111 66
91 117 70
88 113 67
90 117 70
88 115 69
84 110 65
89 116 70
92 119 71
82 107 62
94 121 72
89 116 68
93 120 72
90 117 69
89 116 69
89 115 69
91 117 70
85 111 65
90 117 70
92 119 70
87 113 67
95 122 73
88 115 68
93 120 72
89 116 69
102 128 87
179 192 196
172 185 186
165 178 174
162 176 170
132 150 128
126 146 124
113 135 103
94 120 74
88 114 68
92 118 70
85 111 65
88 114 68
92 118 70
90 118 71
90 117 69
89 116 69
88 115 68
90 117 70
87 112 66
93 120 72
88 115 68
93 120 72
85 111 67
91 118 70
101 126 85
182 194 197
188 199 205
186 198 204
188 199 206
191 201 208
195 206 216
194 204 213
186 198 207
193 203 211
194 205 212
194 204 211
191 202 210
197 208 217
188 200 206
193 204 212
196 207 215
187 198 204
189 201 209
198 208 216
189 200 205
197 209 218
191 202 210
200 211 220
182 194 201
140 156 144
90 117 70
87 113 67
87 113 67
89 116 69
89 116 69
91 117 71
91 118 70
92 119 70
85 112 66
92 119 72
92 119 71
88 115 68
89 116 69
88 115 69
91 118 71
85 111 65
93 120 72
90 116 69
91 118 70
91 117 70
89 115 69
87 113 66
93 119 74
185 198 204
190 201 209
195 206 213
183 195 200
191 202 209
189 199 205
194 205 214
185 197 206
189 200 209
186 198 202
195 206 213
179 191 197
191 203 210
192 203 212
188 199 204
197 207 215
188 199 205
190 201 208
184 195 203
189 199 204
192 202 209
193 203 209
178 190 192
99 124 84
87 114 68
89 116 70
92 119 71
91 118 70
92 118 70
88 115 68
87 113 67
89 116 69
89 115 69
93 120 72
93 120 72
94 121 73
90 116 69
86 112 66
85 111 66
89 115 68
89 116 69
90 117 71
91 118 70
91 119 71
134 152 134
191 202 208
191 202 209
191 202 210
194 205 215
191 202 210
198 208 216
188 199 204
192 203 209
191 202 209
190 201 208
193 203 209
194 203 207
195 207 216
198 209 217
181 193 198
188 199 205
188 199 206
173 188 192
187 199 205
174 187 190
138 155 141
115 137 108
129 148 131
120 141 117
133 151 133
144 160 147
138 155 140
144 160 151
148 165 157
149 164 156
148 163 155
157 172 164
160 174 170
148 164 152
156 171 165
139 154 142
134 151 135
111 133 103
103 126 94
174 186 188
192 202 209
188 200 208
190 202 207
194 205 213
193 204 212
201 211 218
189 201 210
188 199 205
189 199 206
190 201 209
197 207 214
181 193 197
191 202 210
186 197 204
186 198 205
192 203 208
163 177 176
102 125 89
92 119 71
88 114 68
91 118 70
91 118 70
88 114 68
88 115 69
86 112 66
87 114 67
87 113 67
90 117 71
85 112 67
88 115 69
91 118 71
95 122 73
118 138 116
186 198 203
189 200 205
194 204 210
194 205 214
190 201 208
177 190 193
160 174 169
129 148 134
101 124 92
86 113 67
89 116 69
86 113 67
87 114 68
117 139 115
186 198 202
191 201 208
184 196 201
187 199 204
188 200 206
187 199 204
195 206 213
184 196 203
95 120 81
142 157 147
173 186 188
188 199 205
181 193 199
196 207 216
177 190 194
183 194 199
189 200 206
189 200 208
176 189 193
200 210 218
183 195 202
192 202 207
164 177 174
118 139 113
119 139 115
185 196 201
189 200 207
194 205 213
192 203 210
191 202 209
184 196 204
193 203 210
188 199 205
186 198 205
189 200 207
193 205 212
186 198 206
178 190 196
183 194 200
182 194 197
148 163 153
101 126 90
90 116 68
88 114 69
87 113 67
94 122 73
138 154 142
186 197 204
195 206 214
183 195 203
185 197 204
192 203 210
186 197 202
185 197 202
192 204 214
196 207 216
179 191 196
193 204 212
186 197 204
195 205 213
190 200 206
191 202 210
167 182 184
148 164 154
113 135 104
92 118 71
89 116 69
93 120 71
90 117 69
120 139 114
185 197 203
184 196 200
182 193 199
186 198 205
186 198 204
194 205 212
184 196 202
192 203 210
194 205 212
189 201 209
191 201 209
183 195 201
187 198 206
193 204 211
183 195 200
187 198 205
187 199 206
185 196 201
192 202 208
184 195 199
194 205 213
185 197 199
174 186 188
159 173 168
143 160 148
169 183 180
163 178 178
176 189 192
165 179 176
169 182 181
153 169 164
150 166 159
171 183 180
152 168 162
151 166 156
154 169 160
139 155 146
144 161 151
151 167 156
134 152 135
135 152 138
128 146 126
115 134 113
124 143 123
112 134 105
129 147 125
120 140 118
124 143 120
113 134 108
181 192 195
182 195 199
184 196 199
179 191 193
191 202 208
183 195 201
180 192 194
186 197 204
191 202 211
190 200 206
189 200 209
196 206 213
191 203 210
197 207 215
196 205 212
185 197 204
160 174 169
146 162 151
123 142 120
90 116 72
88 115 68
93 120 72
87 113 67
86 112 67
92 117 76
197 208 215
187 199 205
191 203 213
196 206 212
193 204 209
186 197 202
192 202 210
193 203 211
184 195 203
186 196 202
180 193 197
186 198 204
192 202 209
196 207 217
193 203 212
194 205 212
198 209 219
184 195 198
189 200 206
192 203 209
188 199 207
187 199 204
195 205 214
195 205 211
190 201 209
134 152 137
89 116 69
90 117 70
91 118 70
92 119 72
90 116 69
90 117 69
87 113 67
94 121 73
92 120 72
92 119 71
91 118 71
91 118 70
93 120 72
89 116 69
89 115 68
90 116 69
93 120 71
90 117 70
87 114 68
85 112 66
86 113 66
88 115 68
92 119 71
87 113 67
145 161 148
187 198 205
189 201 206
188 200 209
187 200 207
190 200 207
194 205 215
191 203 212
192 203 210
183 194 199
179 191 193
150 167 158
160 173 166
132 149 135
138 156 138
117 138 113
94 120 77
90 116 72
90 117 69
89 116 69
92 118 71
91 117 69
89 115 69
91 118 71
90 116 69
154 168 162
194 204 211
187 199 204
189 201 208
189 201 210
196 207 214
190 202 209
191 202 209
192 203 211
194 204 211
191 201 208
193 204 210
201 212 222
190 201 208
190 201 210
189 199 205
190 202 210
197 207 216
195 205 213
187 199 204
189 201 208
198 209 219
186 197 203
188 200 208
176 189 189
97 123 78
93 119 71
91 117 70
85 112 67
91 118 71
90 117 70
86 113 66
96 123 74
87 113 67
91 118 70
89 116 69
91 117 69
89 115 68
91 118 71
93 120 71
92 119 71
87 113 68
87 113 67
87 113 67
90 117 70
93 120 71
88 114 68
91 118 71
156 169 162
191 202 209
202 212 221
191 202 210
194 204 214
197 207 216
189 201 208
188 198 204
189 200 208
190 202 210
199 209 217
197 207 215
192 203 213
195 206 213
187 200 209
186 198 204
198 209 219
185 197 206
185 197 202
188 198 203
184 196 202
191 202 209
194 205 210
131 149 132
93 118 75
100 125 87
105 128 95
116 138 111
119 139 113
115 136 110
131 150 131
114 135 109
119 139 119
119 139 119
129 148 130
137 154 138
128 148 131
139 156 143
140 157 143
137 154 140
144 158 147
130 149 130
155 169 160
137 154 140
139 156 138
139 156 142
144 160 148
145 161 148
136 153 140
126 145 128
123 143 125
127 145 125
127 146 124
126 145 123
127 145 125
112 134 109
110 133 101
96 121 79
100 125 89
111 135 104
95 121 78
84 110 65
90 116 70
87 113 67
94 120 76
167 181 184
194 204 210
192 203 211
186 198 204
195 206 213
193 204 211
180 191 196
173 187 188
159 173 168
159 173 167
134 151 138
128 147 128
112 135 102
96 122 78
95 122 73
92 119 72
92 119 72
89 116 70
85 111 68
164 178 175
185 197 203
185 197 206
189 200 205
174 187 191
182 194 199
182 193 198
193 204 214
185 197 204
191 202 209
191 202 208
193 204 213
186 197 203
182 193 198
185 197 202
182 194 199
178 190 196
165 180 178
101 125 87
89 116 69
91 118 71
89 115 69
91 118 70
87 114 68
91 119 71
88 114 68
88 115 69
90 116 69
85 112 66
90 117 70
88 115 69
88 114 68
86 113 66
144 161 148
188 199 208
186 198 203
180 192 194
150 165 158
143 160 148
99 123 88
87 113 67
88 115 69
86 112 66
87 113 67
91 118 70
88 114 68
84 110 65
149 165 155
186 197 202
193 203 211
181 194 200
187 199 206
193 204 210
191 202 211
190 201 208
196 207 214
203 213 223
86 113 67
89 115 68
90 116 71
122 143 121
160 175 171
183 194 197
180 192 197
184 196 201
184 197 205
191 202 210
191 202 210
182 194 200
195 206 214
185 196 203
188 199 206
185 196 202
182 194 201
135 152 137
168 182 184
185 196 201
186 198 203
192 203 211
191 202 211
191 204 212
179 192 198
183 195 200
186 197 202
184 195 201
196 206 213
189 200 206
182 194 199
191 202 211
188 199 204
196 206 214
168 182 182
144 160 151
112 133 102
85 111 66
129 147 130
190 201 209
195 205 212
189 201 208
184 197 203
191 202 209
189 200 206
191 203 212
184 196 201
187 199 205
183 194 198
190 200 207
179 191 198
198 208 217
190 201 207
191 200 207
195 206 213
190 202 211
184 195 200
169 183 185
157 172 167
132 151 133
92 119 72
118 138 111
192 203 212
187 198 204
187 198 204
181 193 201
190 201 209
184 195 200
187 198 203
189 200 205
197 207 215
192 202 209
185 197 203
187 199 205
189 200 208
183 196 202
201 210 218
177 189 193
202 212 221
191 203 211
192 204 212
190 201 207
191 202 209
185 196 202
185 196 201
180 192 196
89 116 69
89 115 69
111 133 104
130 148 134
166 179 176
189 199 206
201 211 220
191 202 209
196 206 213
186 197 204
196 206 213
189 200 206
180 192 195
188 200 208
187 198 205
191 202 209
189 200 205
192 203 211
192 203 211
186 197 205
194 204 210
185 197 203
193 203 211
183 195 201
156 170 166
90 116 69
90 116 69
88 114 68
92 118 70
90 116 69
91 117 69
90 116 69
92 119 72
90 116 69
90 117 69
93 118 77
106 130 96
106 128 92
96 121 82
109 132 100
103 128 89
96 119 86
115 135 111
108 131 98
112 134 105
97 122 83
112 135 106
130 149 128
147 165 153
156 169 165
122 141 122
121 140 118
133 151 134
137 155 137
142 159 147
124 144 123
131 149 130
128 145 128
144 160 149
135 152 135
142 158 144
143 160 149
143 159 148
147 163 153
149 165 153
155 170 163
148 163 155
152 169 159
154 170 160
142 159 147
144 161 155
163 177 171
160 174 169
149 164 154
165 179 175
146 162 153
134 152 135
136 153 138
151 166 157
125 145 124
138 156 138
137 153 138
144 161 149
143 161 148
141 159 145
130 149 130
128 147 129
136 154 140
137 154 137
127 146 128
132 150 136
134 152 138
136 154 140
131 149 129
133 151 133
127 146 130
127 147 126
116 135 114
135 154 140
130 147 131
159 175 170
171 184 184
180 192 196
172 187 188
166 179 179
172 185 186
176 189 191
173 185 185
167 180 179
178 190 190
175 188 191
179 192 193
172 185 187
176 187 187
163 177 174
173 185 187
177 189 192
173 187 186
161 175 172
149 165 157
139 155 143
124 143 123
121 142 118
118 139 111
101 124 92
186 198 204
183 193 196
174 186 187
182 193 195
167 181 181
174 187 187
169 183 181
173 186 184
166 180 180
172 185 187
174 188 188
175 188 190
159 174 172
165 178 175
164 178 175
170 184 183
172 185 187
170 183 180
158 174 169
166 180 180
165 178 174
162 176 170
159 174 168
164 178 177
154 170 163
143 160 147
141 157 146
142 159 144
150 166 154
147 163 156
143 160 148
142 159 148
146 163 152
147 164 154
149 165 156
149 165 158
148 164 154
149 164 154
154 168 159
167 180 178
145 160 152
160 176 172
163 177 174
159 174 167
140 157 147
158 172 170
154 169 163
135 152 138
126 145 125
127 147 122
115 135 114
140 157 145
117 137 113
120 139 114
130 150 133
118 139 111
112 133 107
129 148 129
113 135 108
111 132 106
118 139 113
108 130 106
104 128 92
96 120 84
101 125 87
101 125 86
103 126 90
91 117 73
93 118 78
86 112 67
173 186 184
189 201 208
187 198 206
198 207 215
194 205 214
194 205 214
191 202 210
190 200 205
183 194 200
197 207 214
187 198 204
182 193 200
187 198 204
191 202 209
195 206 215
191 202 207
195 206 212
182 193 201
191 202 211
194 204 211
201 211 218
179 191 192
96 121 80
86 113 68
85 112 65
89 116 69
93 120 72
91 117 70
91 118 71
87 114 68
86 113 67
89 115 68
87 114 68
89 116 69
90 117 70
87 113 67
91 118 70
92 119 71
93 120 73
101 125 86
120 140 117
129 148 128
126 146 127
147 163 156
137 152 141
135 153 136
128 147 124
105 128 99
91 117 72
89 116 69
91 117 70
87 113 67
86 113 67
82 107 63
93 120 72
89 115 69
85 111 65
88 114 68
90 117 71
90 116 69
101 125 87
172 185 186
187 199 206
195 206 214
190 201 211
187 198 203
189 199 203
191 201 208
190 201 208
195 206 214
190 201 207
185 196 203
180 192 198
186 198 204
190 201 207
187 199 206
183 193 199
184 196 203
158 172 169
90 116 74
86 112 67
92 119 71
91 118 70
86 112 66
89 116 68
92 119 71
87 114 68
90 117 70
88 114 68
90 117 70
92 119 72
88 114 69
90 116 69
103 127 92
125 143 126
141 158 145
118 137 113
95 119 83
90 117 70
91 118 70
83 110 65
86 113 68
89 115 68
87 113 68
88 114 68
87 113 67
86 112 66
97 122 81
164 177 174
193 204 211
192 203 209
188 199 206
184 195 200
194 205 212
181 192 198
185 197 205
182 194 200
158 172 170
129 147 132
84 110 64
83 108 63
85 112 66
88 115 68
90 117 70
89 114 71
130 148 131
158 173 172
189 199 204
187 199 204
191 203 211
189 200 208
180 192 198
189 200 206
192 203 209
188 200 209
193 205 214
129 147 131
90 116 69
108 130 101
146 161 154
175 188 189
194 204 211
196 206 212
189 200 205
187 199 204
180 191 195
190 202 211
188 199 206
186 197 204
178 191 196
194 205 212
189 200 206
196 207 214
183 194 201
178 190 194
189 200 206
175 186 188
157 171 168
182 194 199
180 192 199
189 201 209
193 203 211
196 207 216
178 190 194
188 199 206
183 194 197
184 195 201
186 198 204
183 194 200
195 206 214
181 194 199
188 199 206
181 193 197
187 199 205
181 192 196
190 201 208
177 189 191
193 204 212
184 195 199
185 197 203
149 164 156
168 182 180
181 193 197
184 196 202
192 202 210
184 195 201
192 203 211
197 207 215
195 205 214
196 207 215
193 204 214
193 203 208
190 201 208
187 198 205
193 204 213
194 204 212
190 201 207
185 197 203
192 203 210
195 206 214
197 208 217
188 199 204
184 195 201
188 199 204
176 188 190
92 119 71
89 116 69
88 114 68
87 113 67
88 115 68
88 114 68
120 140 116
155 170 160
171 184 185
189 200 207
191 201 208
185 195 200
187 199 207
187 198 202
187 198 204
194 205 212
176 189 194
193 204 212
199 209 218
191 203 209
191 202 209
189 200 207
193 204 211
188 200 210
140 158 144
88 114 68
89 115 69
88 114 68
90 117 69
90 117 70
92 119 71
89 116 70
89 115 68
87 114 68
90 117 70
84 111 65
87 113 67
93 120 72
91 117 70
85 111 65
88 115 68
92 119 71
91 118 71
85 111 66
87 113 67
91 118 70
92 118 70
90 117 70
87 114 68
156 171 164
175 188 189
159 174 170
137 154 141
114 134 109
91 117 72
92 119 71
89 115 69
91 118 70
89 116 69
89 115 68
93 120 72
84 110 64
89 115 68
89 116 69
90 117 70
90 117 70
89 115 68
87 114 68
90 117 71
89 116 69
88 115 68
93 119 71
93 120 72
90 117 70
142 159 147
193 204 211
189 201 209
191 202 209
186 198 204
182 194 201
196 207 216
191 202 208
190 200 204
191 201 206
187 199 206
187 198 204
185 197 205
192 203 211
191 203 212
193 204 211
190 200 207
187 199 207
182 194 200
191 203 210
189 200 206
184 195 201
191 202 209
189 200 206
185 197 204
174 187 189
88 115 69
91 118 70
87 114 67
94 121 72
91 118 71
87 113 67
88 115 68
86 112 66
90 116 69
84 110 65
92 119 71
87 113 66
90 117 70
88 115 69
88 114 68
89 115 68
88 115 68
94 121 73
91 118 71
87 113 66
88 114 68
95 122 73
89 116 69
89 115 68
154 169 162
179 192 198
186 198 203
187 198 205
182 194 199
187 198 204
178 191 196
174 186 188
161 175 170
138 155 144
145 162 150
121 142 120
130 148 128
119 140 112
109 132 102
95 120 80
92 118 76
93 120 72
92 119 71
86 112 67
90 117 69
86 113 66
88 114 67
91 118 71
141 158 146
196 207 218
191 203 213
182 193 197
191 203 211
195 206 217
201 211 220
187 198 206
190 201 207
190 200 208
184 196 199
186 197 203
189 199 205
188 199 207
192 204 212
192 202 208
182 193 196
195 206 215
188 200 209
190 200 209
189 201 209
190 201 210
189 200 208
192 203 211
113 134 105
90 116 69
89 117 70
82 108 64
89 115 69
88 114 67
91 117 70
89 116 69
91 118 71
90 116 69
89 116 69
91 118 70
89 115 69
86 112 67
89 116 69
91 118 71
89 115 68
91 117 70
88 113 67
93 120 72
90 117 70
91 118 71
143 159 145
185 196 200
191 203 211
188 200 206
192 202 206
187 198 205
192 204 213
184 196 202
184 196 202
190 201 208
190 201 208
192 204 213
195 206 213
189 200 207
187 199 207
186 197 202
184 196 204
187 198 202
194 205 214
190 200 205
201 211 220
187 199 203
117 137 112
90 117 70
82 108 63
87 113 67
86 112 66
97 120 81
100 125 87
113 135 107
122 141 119
137 155 138
133 150 137
144 160 150
160 174 171
168 181 178
167 181 178
175 186 190
188 200 205
184 196 201
192 203 211
186 197 202
136 152 138
89 115 68
91 118 71
90 117 70
88 114 68
92 118 71
89 115 69
86 113 67
89 115 69
90 117 70
89 115 69
88 114 68
91 118 70
89 115 67
86 112 66
93 120 72
84 109 64
93 120 72
92 116 79
165 179 180
189 200 208
179 192 197
181 194 202
183 195 202
186 197 203
194 204 210
183 195 201
186 198 205
184 196 204
187 199 205
197 207 216
182 194 199
188 200 207
190 202 210
183 195 201
190 200 206
160 173 168
90 117 70
92 119 71
90 117 69
88 114 68
90 117 70
90 117 70
89 115 68
91 118 70
84 110 65
89 116 69
91 117 73
121 140 117
144 162 149
155 169 169
173 186 187
116 136 116
89 115 68
88 114 68
88 115 68
91 118 72
86 112 66
88 115 69
87 114 69
91 118 70
87 114 69
89 115 69
84 110 65
90 116 69
109 130 98
180 192 196
187 198 204
182 193 198
194 205 213
192 203 212
193 204 215
172 184 183
155 170 163
123 142 119
90 115 74
90 117 69
115 134 109
88 112 75
89 115 68
88 115 68
84 110 65
91 117 70
90 117 69
90 116 69
89 115 69
108 129 99
143 158 146
173 185 187
185 197 203
188 200 207
170 182 183
190 202 210
179 192 197
194 206 215
154 169 162
88 115 68
93 120 72
83 109 64
87 113 67
110 131 102
146 162 153
179 191 194
187 198 205
181 193 199
186 198 205
186 198 208
191 203 210
186 198 206
194 205 213
182 193 198
181 193 197
198 209 219
185 196 200
193 203 209
180 191 195
184 196 202
85 111 65
110 133 103
140 156 143
170 183 184
194 205 213
187 199 205
185 197 206
186 198 205
179 192 196
188 200 207
190 201 207
193 204 210
188 199 205
182 194 199
177 188 194
197 207 216
183 195 201
189 199 206
186 198 206
192 203 211
186 197 204
198 209 217
168 181 180
91 117 71
91 116 72
117 137 113
161 176 171
177 190 196
191 203 211
194 204 212
191 201 206
189 201 210
186 197 202
184 196 202
185 197 205
187 198 205
197 208 217
199 208 217
186 198 205
186 197 201
192 202 209
185 197 203
187 197 203
194 205 213
190 201 209
196 207 216
169 183 181
89 115 69
87 113 67
90 116 69
91 118 71
88 114 68
89 116 70
92 118 70
88 115 69
89 115 68
93 117 78
117 138 112
148 164 152
174 187 189
191 202 209
195 205 212
176 187 189
186 198 203
190 201 207
194 205 213
194 204 211
188 198 205
185 196 203
199 210 219
188 199 205
118 138 113
91 117 70
89 116 69
87 113 67
87 114 68
91 118 70
89 115 69
88 114 68
88 114 68
92 119 71
90 117 70
90 116 69
87 113 67
89 116 69
82 108 64
89 115 68
92 119 71
85 111 65
89 116 69
90 117 69
89 116 69
92 118 70
88 115 69
89 116 69
89 115 68
176 188 190
187 198 204
185 197 205
191 201 208
186 197 203
189 200 208
177 190 192
160 174 170
140 157 142
121 139 119
101 124 88
91 117 70
88 114 67
89 116 69
84 110 65
88 115 69
86 113 67
88 114 68
88 114 68
90 116 69
86 112 66
94 121 72
92 118 71
89 115 69
87 113 67
165 179 175
183 195 202
192 202 207
192 204 210
186 198 205
190 201 209
197 207 214
193 203 208
198 208 218
191 203 211
196 206 214
200 210 218
194 205 212
199 210 219
183 195 203
199 209 218
180 192 197
187 199 205
195 205 212
187 198 204
181 194 200
194 205 212
188 199 204
189 200 208
181 193 197
130 148 132
88 114 67
93 120 71
89 116 69
93 120 72
90 116 69
92 119 71
88 114 68
86 112 66
86 112 66
87 114 68
91 117 70
87 113 67
94 121 72
93 120 71
88 115 69
93 120 71
94 121 72
87 114 68
85 111 65
91 118 71
89 115 68
87 113 67
92 120 72
101 124 88
188 199 207
182 194 200
188 199 204
188 199 204
179 191 194
200 211 221
192 203 210
178 190 194
194 205 213
188 199 205
190 201 208
186 198 203
190 201 209
193 203 210
184 197 203
191 202 211
188 199 207
183 195 202
167 180 179
175 188 190
170 182 182
158 172 169
160 174 168
153 168 160
141 157 145
159 173 170
164 179 178
174 188 185
168 180 181
175 188 190
176 190 191
174 187 188
175 188 192
182 194 197
185 197 203
186 198 205
190 201 208
191 203 211
197 208 216
196 206 215
194 205 213
185 197 205
186 197 203
185 196 200
180 192 198
186 197 203
178 190 196
141 158 144
92 119 71
88 115 69
90 117 70
86 112 66
89 115 69
88 114 67
94 121 73
88 114 67
86 112 67
88 115 69
90 116 69
92 119 71
89 116 69
89 116 69
86 113 67
90 117 70
87 113 67
88 115 68
88 115 69
87 114 68
91 118 70
110 132 101
189 199 206
186 198 206
187 198 205
192 203 210
192 203 211
179 191 195
189 200 205
188 199 205
186 197 203
190 201 208
187 198 202
174 186 188
174 187 191
171 184 185
154 170 162
167 181 180
164 178 173
159 174 171
139 156 143
143 159 144
144 161 150
172 185 185
152 166 163
170 183 181
169 182 180
188 199 204
190 202 209
195 205 212
192 203 208
184 196 203
186 196 200
196 207 215
186 197 205
192 204 213
186 198 204
176 189 194
192 203 213
185 197 202
189 199 205
190 202 209
194 205 212
153 169 162
90 117 70
90 117 70
93 120 72
83 109 65
90 116 69
91 118 71
83 109 65
86 112 66
85 111 65
90 116 69
86 112 66
90 117 70
90 116 69
80 104 61
89 116 70
88 114 68
88 114 67
93 118 76
175 188 188
182 194 201
187 198 206
184 196 201
187 198 203
187 199 206
196 206 214
186 198 205
190 201 207
188 199 206
189 200 206
197 207 213
180 192 198
184 195 200
192 202 210
197 207 216
185 195 201
147 162 154
89 116 69
88 115 68
86 112 67
86 112 66
85 111 65
89 116 69
95 120 77
108 131 100
146 163 154
165 178 176
180 192 195
191 201 208
193 204 212
193 204 212
180 191 194
106 129 95
84 110 64
90 116 70
92 119 71
84 109 64
88 114 68
85 111 65
87 113 68
87 114 68
85 112 66
86 112 67
90 116 69
89 115 69
135 152 142
178 190 195
195 205 213
189 200 207
186 197 202
156 172 164
140 156 144
112 134 107
89 115 68
91 118 70
91 118 71
94 118 81
162 175 172
189 201 209
183 195 200
162 175 172
131 148 133
88 114 68
85 111 66
90 116 69
88 115 68
90 116 70
89 116 69
87 113 68
87 114 67
115 135 109
143 159 149
180 193 200
197 208 215
189 200 207
180 192 196
170 183 183
90 117 71
89 116 69
86 112 66
86 113 67
90 117 70
88 115 69
88 114 70
116 135 112
140 158 148
181 193 196
189 200 206
193 204 211
191 202 209
189 201 208
190 201 209
188 199 206
192 203 211
200 210 217
183 196 202
189 201 206
184 196 202
90 116 72
88 115 68
87 114 67
84 110 65
116 137 112
136 153 138
161 175 174
188 199 207
182 194 200
180 192 196
184 196 201
185 197 201
195 205 211
188 199 204
199 209 218
184 196 202
185 197 203
190 200 207
182 194 201
184 196 203
193 204 212
189 200 206
168 181 182
91 118 70
91 116 69
87 114 67
86 113 67
90 117 70
101 125 91
136 153 141
168 181 178
190 201 208
191 202 210
186 198 204
189 200 208
196 206 215
193 204 212
191 201 208
181 193 198
178 190 195
190 201 207
197 207 215
185 196 200
179 191 198
188 200 208
188 198 204
148 163 155
89 115 68
87 113 67
91 117 70
91 118 70
90 116 68
88 114 67
86 112 67
91 118 70
92 119 71
89 116 69
87 114 67
90 117 70
87 114 67
99 123 87
140 156 143
145 161 150
184 196 200
189 201 208
189 200 207
184 196 201
194 204 209
202 212 220
196 207 216
195 205 212
99 124 86
86 112 67
87 113 67
85 112 66
92 119 71
86 113 67
87 114 68
91 117 71
88 115 68
89 115 69
87 113 67
84 110 65
84 110 65
86 111 66
85 111 66
90 117 69
87 113 68
92 119 71
91 118 70
89 115 67
95 121 73
85 111 66
93 120 72
86 112 66
104 128 91
182 194 200
194 205 214
193 205 215
188 199 206
189 200 206
200 211 220
192 203 210
198 208 217
187 199 208
185 196 201
186 197 203
190 201 206
163 177 174
152 167 160
130 149 132
111 133 103
97 123 79
92 119 71
90 116 70
88 114 68
88 116 70
91 118 71
82 108 63
89 116 70
109 130 102
188 199 206
187 198 203
197 208 217
184 195 201
188 199 206
190 202 209
191 202 206
187 199 206
190 202 211
196 207 215
188 199 206
179 192 196
198 209 219
190 200 206
190 200 203
194 205 213
192 204 213
192 203 211
197 207 214
187 199 205
187 199 205
189 200 208
188 200 206
192 203 212
174 185 186
90 116 70
92 119 71
91 117 70
91 118 71
89 115 69
91 118 71
84 110 66
89 116 69
88 114 68
92 119 71
91 117 70
91 117 70
89 115 68
88 115 69
90 117 70
89 115 69
91 118 70
84 111 66
90 116 69
80 106 62
92 119 71
89 116 69
85 111 65
86 113 68
169 181 181
192 204 212
196 207 214
193 204 212
188 199 205
187 199 205
192 203 210
191 203 210
191 202 209
199 209 217
189 200 207
189 198 205
193 204 213
201 211 219
184 194 200
195 205 213
192 203 209
192 202 209
194 205 214
201 212 223
189 200 205
188 198 205
183 195 199
193 204 210
142 158 144
89 116 69
89 116 69
89 116 69
90 117 70
89 115 69
89 115 68
85 111 65
89 116 69
91 117 70
87 115 69
88 114 68
93 120 72
86 111 66
108 130 98
102 125 89
108 129 102
99 122 87
119 141 114
119 139 117
126 146 125
116 136 111
119 139 115
158 173 168
164 177 175
167 181 181
169 181 180
146 164 153
166 180 177
157 172 167
150 165 160
165 180 180
155 170 164
165 179 177
162 176 172
155 169 163
157 172 167
156 171 166
160 174 172
161 175 171
167 180 179
157 172 167
164 177 173
165 178 177
169 183 185
172 186 184
121 141 119
117 137 114
108 129 102
111 133 103
118 138 112
108 130 98
94 118 78
88 114 68
94 120 77
92 119 71
87 114 68
88 115 68
89 115 68
86 112 67
92 118 71
86 112 66
87 114 68
91 117 70
87 113 67
88 115 69
92 119 71
161 175 169
190 201 210
188 199 205
193 204 211
181 192 196
191 202 210
193 205 215
196 207 216
191 201 207
191 201 208
192 203 212
190 201 206
186 199 205
183 195 202
176 188 192
186 198 203
198 208 215
186 197 203
188 199 206
191 203 212
142 159 149
91 117 69
87 114 68
87 113 67
93 120 72
91 118 70
87 113 68
87 113 67
92 119 71
87 114 67
89 116 69
86 112 67
87 113 66
89 116 69
88 114 68
85 112 66
87 114 69
84 110 65
96 121 82
166 179 174
186 198 206
193 204 212
189 200 208
192 203 209
191 202 210
190 202 210
186 198 205
199 209 216
176 188 191
179 191 197
188 199 205
193 204 213
198 208 215
187 198 206
196 207 216
183 195 199
128 148 134
94 121 73
91 118 71
96 122 81
117 137 112
142 159 147
147 163 154
179 190 192
188 200 208
184 196 201
182 194 199
199 210 220
194 205 214
185 197 204
184 195 201
158 173 172
95 119 79
90 117 70
86 112 66
88 115 68
85 111 66
90 117 70
84 110 65
83 109 64
89 115 69
89 115 68
91 118 71
90 117 70
89 114 71
159 173 168
182 194 202
169 182 181
143 160 150
119 140 115
86 111 69
89 115 68
87 113 67
88 114 68
86 113 67
86 112 67
125 145 121
175 188 191
183 194 200
180 191 195
187 198 203
193 204 213
186 198 204
172 185 187
155 170 164
104 127 93
86 112 67
84 110 65
87 113 66
89 116 69
86 113 67
92 119 71
83 109 65
86 112 70
128 145 129
155 170 165
174 186 191
178 191 195
93 119 77
81 107 64
89 116 69
86 112 67
85 111 66
88 114 68
86 113 67
87 113 67
89 115 68
95 120 77
133 151 137
152 168 161
178 190 193
196 206 215
199 209 217
192 203 210
188 200 208
193 205 213
179 191 197
182 194 200
192 202 210
98 120 86
92 119 71
88 115 68
87 113 68
85 111 66
90 117 70
90 117 70
108 131 100
128 146 132
153 167 162
190 201 207
195 205 212
193 204 213
190 201 209
183 194 198
183 195 201
190 200 207
192 203 211
187 198 204
197 207 214
185 196 202
186 198 204
179 192 191
90 116 69
87 113 67
88 114 68
91 118 70
85 112 66
83 109 65
91 117 70
87 113 67
91 116 75
123 142 121
154 169 163
162 176 174
191 203 210
187 199 204
179 191 196
182 193 197
185 197 203
193 204 211
181 193 199
195 205 212
195 206 213
188 200 207
186 197 204
143 159 148
85 111 66
87 114 68
95 122 73
83 109 65
87 113 66
87 114 68
90 118 71
89 116 69
84 110 64
89 116 69
88 114 68
91 118 71
85 111 66
89 116 69
90 117 69
91 118 71
87 113 67
89 114 73
124 142 124
148 164 156
149 163 157
187 198 202
196 208 219
175 188 190
90 116 70
93 119 71
90 117 70
90 117 70
89 115 68
90 117 69
88 115 68
88 114 68
91 117 69
86 113 67
86 112 66
90 116 69
90 117 69
86 112 66
91 118 70
89 116 70
87 114 68
92 118 71
88 115 69
84 110 64
88 114 68
86 112 66
82 108 64
91 118 71
126 145 125
188 199 205
190 201 206
187 198 203
190 201 210
187 199 206
188 200 207
184 195 200
189 201 208
190 202 210
188 199 205
189 201 208
180 192 199
188 199 206
186 198 206
188 199 205
197 207 214
186 198 205
184 195 199
160 175 169
148 164 154
134 151 137
110 130 101
86 112 66
90 116 69
150 164 154
178 189 193
190 201 208
188 199 206
192 204 211
185 196 202
191 203 212
186 198 203
182 195 201
189 200 207
192 202 209
192 203 211
189 201 207
188 198 203
191 202 210
190 201 207
192 203 211
190 201 208
190 201 208
190 202 210
183 195 201
185 197 200
190 200 207
179 192 197
189 200 210
134 153 136
79 105 61
87 113 67
91 118 70
84 110 65
86 113 67
88 114 68
86 113 67
89 115 68
89 116 69
82 107 63
87 113 68
89 116 69
87 114 68
87 114 68
87 114 68
89 116 69
88 114 68
93 120 72
87 113 68
87 112 67
90 117 69
87 114 68
91 118 70
109 131 102
193 204 213
190 201 207
192 203 209
191 203 209
183 193 199
187 198 204
196 206 213
190 201 209
190 201 209
181 193 198
187 198 205
194 205 212
195 205 212
187 198 204
185 197 206
193 204 212
189 201 207
203 213 223
189 200 206
199 209 218
184 195 202
192 203 211
198 208 215
179 192 196
93 120 71
87 114 68
86 112 66
92 118 71
85 110 65
87 113 68
90 117 70
90 118 71
92 118 71
88 113 68
85 111 66
90 117 69
90 117 69
88 114 68
87 113 67
90 117 70
86 112 66
90 116 69
92 119 71
93 120 73
87 113 67
91 118 70
107 129 95
182 194 199
188 199 207
189 200 207
183 195 202
202 212 221
195 206 214
195 206 213
186 198 205
191 201 208
187 198 202
191 202 210
196 207 216
188 200 206
182 195 204
185 196 203
179 191 196
178 191 195
191 202 208
190 200 208
182 194 200
191 202 208
186 198 204
117 138 114
89 115 68
88 114 68
88 115 69
84 110 65
88 115 68
90 117 70
91 117 70
88 115 68
89 116 69
85 111 66
85 111 66
84 110 65
83 110 64
91 118 71
90 117 70
87 113 67
91 118 70
89 116 69
89 116 69
85 112 66
143 159 149
194 205 215
189 199 205
185 196 201
183 195 201
181 193 199
190 201 210
183 195 203
181 194 200
184 195 200
195 205 212
193 204 212
183 195 203
185 196 200
183 195 201
196 207 216
180 192 196
186 197 202
187 197 203
193 204 212
157 173 166
96 122 76
83 108 63
87 114 68
90 117 70
92 119 71
89 115 69
86 113 67
90 117 70
88 114 68
91 118 71
88 114 67
90 117 71
89 115 69
87 114 68
88 115 68
83 109 65
90 117 70
88 115 68
173 185 187
178 190 196
181 193 197
183 194 198
188 199 206
185 197 205
192 202 208
187 199 207
179 192 197
172 185 188
190 201 209
180 193 199
188 200 207
190 201 208
192 203 210
188 198 205
179 191 193
154 170 166
151 165 160
167 180 178
181 192 194
192 203 212
183 194 200
193 205 214
186 198 205
188 198 205
182 194 199
180 193 197
192 204 212
187 198 206
188 199 207
185 197 206
153 167 159
87 114 68
89 116 69
87 113 67
87 113 67
88 114 68
88 115 68
83 109 65
90 116 69
87 113 67
92 118 71
85 111 67
91 116 77
97 121 87
130 148 134
119 140 117
98 123 84
90 116 69
89 115 68
89 116 70
87 114 67
90 117 70
84 110 65
85 111 66
93 119 77
151 166 161
198 208 216
191 202 212
170 184 186
126 145 131
170 184 186
182 193 199
181 193 198
185 197 203
187 199 206
182 194 200
167 179 180
133 149 137
99 122 88
86 112 67
86 113 67
90 117 70
84 110 64
83 109 64
87 113 67
91 117 69
99 122 87
123 142 127
123 142 122
93 119 74
91 118 71
90 117 69
84 110 65
90 116 69
91 118 71
88 114 68
86 112 67
83 108 64
87 113 68
88 115 69
92 117 75
128 147 128
162 176 171
174 186 186
183 195 201
181 192 198
192 204 211
188 199 206
181 193 199
122 141 120
92 119 71
87 113 68
88 115 68
91 117 70
84 110 65
89 116 69
85 112 67
88 114 68
89 116 68
102 125 87
132 151 134
152 166 161
189 200 206
191 202 211
182 195 202
184 195 201
189 201 210
194 205 215
184 195 202
181 194 200
194 205 214
160 174 173
92 119 71
92 118 71
88 115 69
83 108 63
91 117 70
86 112 66
93 120 71
90 117 70
89 115 69
91 117 70
90 117 69
80 106 62
110 132 100
134 152 138
157 171 167
181 193 200
190 202 209
181 192 198
186 198 205
184 196 203
186 198 203
198 208 216
176 189 194
128 146 133
90 116 69
90 116 69
88 114 68
87 114 68
88 114 68
88 115 68
86 112 66
92 119 71
92 119 71
89 116 69
92 119 72
84 111 66
85 111 66
92 118 71
88 114 68
86 112 67
87 113 66
89 115 68
89 115 68
88 115 68
83 109 64
89 115 71
108 130 102
142 158 146
131 149 134
101 125 91
90 117 70
84 111 65
85 111 66
90 117 69
91 118 70
88 114 68
87 113 67
87 113 66
89 115 68
93 120 71
92 119 71
89 116 69
83 108 63
89 115 68
88 114 67
89 115 68
86 113 67
90 116 69
87 114 68
91 117 70
86 112 67
86 113 67
164 177 175
187 198 203
186 197 203
188 199 206
193 203 213
196 207 213
188 199 204
190 201 209
189 200 207
185 195 203
194 205 214
190 201 209
180 193 199
187 199 205
192 202 210
195 206 216
188 199 206
188 199 205
188 199 206
196 206 212
188 199 205
197 207 216
170 183 186
184 195 200
174 187 188
127 145 128
154 170 160
165 179 174
172 185 185
187 199 205
185 197 204
191 203 212
189 200 203
193 205 212
182 192 196
178 190 194
189 200 208
187 198 206
191 203 210
185 197 204
183 194 198
185 197 204
193 205 216
200 210 222
194 205 211
181 193 199
190 202 208
191 202 209
180 192 197
183 195 197
91 117 72
89 115 69
89 115 69
90 117 70
93 120 72
89 115 68
90 117 70
84 109 64
87 113 67
87 114 67
88 115 69
86 112 66
90 117 70
88 115 68
91 118 70
91 118 71
93 120 72
88 114 68
90 116 69
86 112 66
91 117 69
87 113 67
90 116 69
92 120 72
167 180 178
187 199 203
190 202 211
195 206 214
188 199 207
178 190 193
187 199 205
183 194 201
190 201 209
192 204 212
192 204 211
184 195 201
192 203 211
179 190 195
182 194 199
186 197 204
198 209 218
187 199 206
187 199 205
190 200 208
188 199 207
187 198 205
194 204 212
175 187 190
118 139 113
86 112 67
90 117 69
92 119 71
87 113 68
90 117 70
89 116 69
89 115 69
88 114 68
87 113 67
83 108 64
89 115 69
85 112 67
91 117 70
86 112 67
87 113 66
87 113 67
89 115 68
89 116 69
89 116 69
88 115 68
87 113 67
86 111 66
161 175 172
192 202 208
189 201 209
191 203 212
186 197 203
188 199 206
189 200 206
188 200 208
194 204 210
188 198 204
186 197 204
180 192 197
190 200 206
187 198 204
189 201 208
183 194 200
190 201 210
190 202 209
197 207 215
187 199 206
192 203 210
185 196 202
153 167 160
85 111 65
86 112 66
88 115 67
90 116 69
94 121 72
85 111 66
91 118 70
88 115 68
87 114 68
92 119 71
87 113 66
91 118 70
90 117 70
88 114 68
85 111 66
86 113 67
88 115 68
87 113 67
89 116 69
90 116 69
118 140 114
188 199 205
188 200 207
199 208 217
186 197 203
186 198 205
187 199 205
187 198 205
186 197 204
187 198 205
195 205 213
181 193 198
185 196 203
189 200 207
195 205 212
189 200 208
184 196 200
183 194 199
193 204 212
189 200 205
153 168 161
92 119 74
89 115 68
91 117 70
88 114 68
86 111 66
93 120 73
87 113 67
87 114 68
87 114 68
88 114 68
88 115 68
88 114 68
86 112 66
91 118 70
87 113 67
92 119 72
90 116 69
102 125 87
169 182 183
186 197 203
198 209 218
186 198 204
192 204 212
185 197 204
175 189 195
184 196 204
183 194 200
192 203 210
183 195 202
178 190 194
171 183 183
136 153 139
135 153 137
107 130 98
100 124 91
183 195 198
192 204 213
186 197 202
187 197 203
190 201 208
193 204 211
191 201 207
189 200 209
185 196 202
193 204 214
189 201 208
187 198 205
191 202 209
184 195 200
187 198 203
118 138 114
86 112 66
87 113 67
88 114 68
88 115 68
87 114 68
88 113 67
82 108 63
86 112 66
91 116 77
127 146 131
144 160 151
159 173 173
156 171 166
89 115 72
89 116 69
84 110 65
88 115 68
88 115 69
86 112 67
85 112 66
88 114 67
85 112 66
91 118 71
126 145 128
174 186 190
166 179 181
135 152 138
93 117 79
85 110 65
83 108 64
129 147 131
118 137 118
169 181 184
178 190 196
178 190 197
183 193 199
180 193 201
182 194 200
177 189 193
149 164 156
119 137 119
86 111 68
87 113 67
90 116 69
89 116 69
86 112 67
88 115 69
86 111 65
140 156 146
167 181 182
157 172 168
113 133 108
86 113 67
88 115 68
91 118 71
90 116 69
89 116 70
87 114 68
90 116 70
84 110 65
87 113 67
86 112 66
86 112 67
95 120 82
117 137 113
154 169 164
167 180 180
185 197 201
183 196 203
126 145 126
86 113 66
86 112 66
81 106 62
90 117 71
87 114 68
84 110 65
90 116 70
87 113 67
88 115 68
86 113 67
88 114 68
88 114 67
87 114 67
119 139 118
166 179 177
181 192 198
183 194 199
176 188 192
189 200 207
181 192 198
191 201 208
167 179 177
86 112 66
86 112 67
83 108 63
87 113 68
89 116 69
85 111 65
85 111 65
89 116 70
89 116 69
87 113 67
86 113 67
84 110 66
90 116 69
86 112 66
89 115 68
89 115 68
101 124 93
152 167 160
161 175 174
183 194 198
185 197 201
185 196 205
181 192 196
121 140 123
87 114 68
90 117 70
87 114 68
91 117 70
89 116 70
90 116 70
87 113 67
88 115 69
89 116 69
92 119 71
81 106 62
90 116 69
88 115 69
87 114 67
87 113 66
88 115 68
90 117 71
88 115 68
86 112 67
88 115 69
84 109 65
86 112 66
89 115 69
152 167 160
181 194 200
196 207 216
187 199 205
171 184 182
150 165 155
105 128 94
100 125 85
90 116 69
89 114 68
87 114 68
87 114 67
88 114 68
88 114 68
89 115 68
84 110 65
87 114 68
85 110 64
93 120 71
88 115 68
88 114 68
88 114 68
84 110 64
93 120 72
89 116 69
184 195 202
183 195 202
187 198 206
183 195 199
185 197 202
190 201 209
187 199 206
174 186 191
192 203 211
191 202 209
188 199 206
192 203 211
197 207 217
197 208 216
189 200 208
171 184 188
193 204 211
186 197 204
186 197 203
187 198 205
184 197 204
195 206 216
194 205 212
185 196 200
174 186 186
82 108 63
90 117 70
87 114 68
88 115 68
88 113 70
106 128 98
128 145 127
144 160 148
157 172 169
165 178 176
184 195 198
193 204 212
192 203 212
181 194 201
193 204 213
193 204 212
192 202 209
180 192 196
188 199 205
185 196 202
188 200 206
187 197 203
187 199 206
192 202 209
141 157 146
89 116 70
85 111 65
92 119 71
89 115 68
90 116 69
90 116 69
84 110 65
88 115 69
92 119 71
86 112 66
88 115 68
92 118 71
90 116 70
87 113 67
90 117 70
88 115 68
83 110 66
85 110 65
90 116 70
90 116 69
87 113 66
86 113 66
90 117 69
126 144 126
187 198 204
189 200 206
183 195 200
184 196 204
197 207 213
189 199 207
199 209 218
182 194 199
185 196 202
197 208 217
188 199 204
186 198 208
185 197 201
177 189 193
190 202 210
184 197 205
188 199 205
187 199 205
188 199 207
192 203 211
195 206 214
186 197 205
184 195 199
159 173 169
89 116 69
89 115 69
84 111 66
87 113 68
92 119 71
89 115 68
92 119 72
91 118 70
89 116 69
88 114 68
87 113 67
94 120 72
92 118 71
88 115 69
91 117 70
92 119 71
86 112 66
88 115 69
89 116 69
92 119 71
92 119 71
87 113 67
138 154 141
191 202 208
181 192 197
180 192 197
191 203 209
196 206 212
195 205 215
195 205 214
190 201 208
185 197 202
181 193 201
191 203 210
201 211 221
191 202 210
188 199 206
196 207 217
197 208 217
184 196 200
190 202 210
185 197 202
195 206 215
183 194 200
165 179 179
89 115 69
92 119 71
92 119 72
85 112 66
91 118 71
88 114 68
90 116 69
88 114 68
85 112 66
85 111 65
91 117 70
88 115 69
86 112 66
88 115 69
89 115 68
86 112 67
87 113 66
87 114 68
94 121 72
88 115 68
112 133 104
187 198 204
184 196 202
191 202 209
176 188 193
192 203 211
188 200 208
192 203 210
175 188 192
194 205 213
184 195 202
179 191 197
188 200 207
182 193 199
186 198 204
183 196 203
185 196 201
187 199 205
186 198 207
187 200 207
166 180 176
86 113 67
91 118 71
88 114 68
88 114 68
87 113 66
89 116 69
89 116 69
87 114 68
83 108 64
89 115 69
91 118 70
87 113 68
85 111 65
91 117 69
86 113 67
89 116 69
93 120 73
100 122 89
166 179 181
194 206 216
183 195 202
183 194 200
190 201 208
187 198 204
170 182 184
165 179 176
138 154 143
123 142 125
115 136 109
100 124 86
86 111 65
85 111 66
88 115 68
90 116 70
115 135 109
181 192 195
184 196 202
182 195 201
180 192 199
195 206 214
186 197 204
186 198 206
192 203 210
183 195 201
193 205 213
192 202 210
194 206 214
196 207 215
192 204 213
177 190 192
117 136 110
87 114 68
87 113 68
86 113 67
86 112 66
89 116 69
100 123 87
110 131 104
142 158 150
158 172 171
180 192 198
190 202 209
174 185 188
124 143 126
85 111 65
88 114 68
87 113 68
92 119 72
85 112 66
84 111 66
87 114 68
83 108 64
84 111 66
104 128 93
121 139 118
123 141 126
91 116 74
83 109 64
85 111 66
87 113 67
82 108 64
87 114 68
174 186 187
101 123 92
91 118 70
99 121 88
130 148 134
171 184 185
180 193 201
184 195 202
175 187 190
180 192 197
181 192 196
180 191 192
149 164 157
111 131 105
87 112 67
86 113 67
86 112 67
85 110 65
108 128 101
190 201 207
186 197 203
173 186 189
171 184 185
152 166 158
107 129 100
84 110 64
84 109 64
91 117 69
87 113 67
85 111 66
89 115 69
91 118 70
86 112 66
87 113 67
86 113 67
87 114 68
90 116 71
120 140 114
137 154 144
141 157 143
93 121 73
86 113 67
81 107 63
87 113 67
88 114 69
89 116 69
90 117 70
88 115 68
87 113 67
86 113 68
87 114 67
91 118 71
88 115 69
82 108 64
88 114 68
86 113 67
114 135 108
152 168 161
164 178 179
181 193 198
185 196 202
165 179 178
94 121 73
86 113 67
86 112 66
90 117 70
80 106 62
86 113 67
85 111 66
89 116 70
88 114 68
84 110 64
88 115 68
85 111 66
89 116 69
84 111 65
92 119 71
87 113 67
89 115 69
88 115 68
91 118 71
94 118 80
123 142 125
149 164 159
174 186 186
107 130 97
87 113 67
89 116 70
90 116 70
89 116 69
88 114 68
89 116 69
89 116 69
87 114 68
88 115 69
84 110 65
86 112 67
90 117 70
90 116 69
92 119 71
88 115 68
90 118 70
87 113 66
93 119 71
90 116 70
84 111 66
87 112 67
89 116 69
87 113 67
171 183 182
181 193 197
184 196 203
189 201 207
189 201 207
192 202 209
186 198 205
183 196 203
177 189 189
164 177 174
148 164 156
117 136 113
91 116 77
87 113 67
89 115 69
89 115 69
87 113 67
92 119 71
91 118 70
88 114 68
93 120 72
87 113 67
83 109 64
87 114 68
130 149 131
188 199 205
187 199 205
176 189 194
191 202 209
189 200 208
190 201 206
192 204 212
191 202 209
189 200 207
182 193 199
190 201 207
187 198 204
181 192 198
184 196 200
182 195 202
197 208 216
190 200 207
183 195 202
188 199 205
184 196 204
182 193 200
194 205 211
195 205 212
185 196 201
129 146 131
88 114 67
91 118 71
86 112 67
90 117 71
89 115 69
85 111 66
86 112 67
91 118 70
89 115 68
93 120 71
93 119 71
89 115 71
105 127 97
126 143 128
134 152 136
154 169 162
152 167 161
177 190 195
185 198 204
177 189 192
187 198 205
183 195 202
188 199 203
196 207 215
95 119 79
87 113 67
88 114 68
90 117 70
87 113 67
85 112 66
88 114 68
89 115 68
91 118 70
91 117 70
88 114 67
88 114 68
87 114 68
87 114 67
88 114 68
87 114 68
91 117 70
88 115 69
86 112 67
84 111 65
90 117 70
91 118 71
89 116 69
90 117 70
170 183 185
184 196 203
176 188 192
191 203 210
184 195 199
192 202 211
183 195 201
175 188 193
186 197 205
193 203 212
193 203 212
192 203 210
187 199 204
192 203 208
193 205 213
180 192 197
193 203 211
191 202 209
189 200 207
196 206 212
189 200 206
184 196 201
188 200 207
177 189 192
96 121 80
88 114 68
86 113 67
87 114 68
86 112 66
90 117 70
90 116 69
88 115 69
89 116 70
88 115 68
89 117 70
87 114 67
89 115 68
86 112 66
89 115 68
87 113 67
86 112 66
87 114 68
85 112 67
88 115 68
85 111 66
87 112 66
114 133 109
191 203 211
180 191 195
187 199 205
190 201 208
188 198 205
187 199 207
191 202 210
184 196 203
188 199 204
182 195 202
191 202 209
189 200 207
185 197 203
191 201 211
191 202 209
191 202 210
188 200 208
182 193 197
183 193 198
194 205 214
182 193 197
182 194 197
100 123 88
89 115 69
84 109 64
90 116 70
84 110 65
89 116 69
83 109 65
91 118 70
89 116 70
85 111 65
89 115 69
84 109 65
92 118 71
90 117 70
90 117 70
87 113 68
87 113 67
84 111 66
86 112 67
88 114 68
105 128 95
181 194 200
188 199 204
190 201 208
182 193 198
181 193 197
189 200 207
179 191 195
190 202 209
184 196 203
190 200 208
193 204 212
193 204 212
178 191 195
185 196 203
177 190 195
191 202 208
186 198 207
184 196 202
184 195 200
163 176 176
91 118 70
85 112 66
90 117 70
89 115 69
90 117 70
92 118 70
91 118 70
91 118 70
85 111 66
83 110 66
86 112 67
90 116 70
86 113 67
89 116 69
92 118 70
89 115 68
88 114 68
103 126 93
170 183 184
171 184 185
150 164 157
136 151 139
109 130 103
106 129 93
90 116 72
88 114 68
88 115 69
89 116 69
86 112 66
86 112 66
89 116 69
87 114 68
82 108 65
90 116 70
124 143 123
180 192 198
193 204 211
178 191 197
190 200 207
185 197 203
187 198 205
179 191 198
183 195 202
188 198 205
186 197 204
175 188 193
189 201 208
188 200 209
183 195 203
161 175 172
95 118 83
87 113 67
90 117 69
104 127 96
118 138 115
157 171 169
170 183 184
186 198 205
184 195 201
183 194 199
184 196 203
188 199 207
156 171 169
89 113 75
85 111 66
84 110 65
83 109 65
85 111 66
90 117 70
90 116 69
85 111 66
110 131 104
139 155 144
144 160 152
91 114 78
90 116 70
81 106 63
83 109 65
90 117 70
86 112 67
98 123 86
106 129 98
93 118 78
153 168 165
150 165 158
92 116 81
91 118 71
86 113 67
86 112 67
94 118 85
138 155 143
175 186 191
174 186 191
180 192 199
178 190 194
173 185 187
182 194 200
176 188 194
144 158 151
98 121 86
88 114 68
87 114 68
168 181 181
186 197 201
182 193 197
178 190 194
193 203 212
191 201 209
179 191 194
140 157 146
102 124 93
88 115 69
86 112 67
84 110 66
85 111 66
86 113 67
80 106 62
85 112 66
86 113 68
88 115 68
90 117 70
86 112 66
139 155 141
163 177 176
128 146 131
100 122 89
88 115 68
88 115 68
83 109 64
85 110 64
92 119 71
89 116 69
88 115 68
89 115 69
88 114 67
88 115 68
90 116 69
87 113 67
84 110 65
85 111 66
90 116 70
87 114 68
106 130 95
131 149 133
146 163 155
89 113 75
89 115 69
87 113 67
84 110 65
92 119 71
88 115 69
85 111 65
86 112 66
88 115 68
84 110 65
88 114 67
81 107 63
88 113 67
92 119 71
88 114 67
87 113 67
84 110 65
86 112 66
84 110 65
89 116 68
86 112 67
90 118 71
87 113 68
182 193 199
156 171 164
140 156 144
101 122 94
88 114 69
86 112 66
89 115 69
86 112 66
90 116 69
82 108 64
88 114 68
84 110 64
88 114 68
82 107 63
87 113 66
86 112 66
86 112 67
87 112 66
88 114 68
88 114 68
90 116 69
85 111 66
87 113 68
92 119 72
180 191 195
178 190 194
178 191 195
188 199 206
183 195 200
185 196 202
185 196 200
183 195 201
183 195 199
193 205 213
183 196 204
192 204 214
175 187 190
163 177 175
141 157 150
117 137 117
106 127 94
89 115 68
86 112 66
86 113 67
90 116 69
85 111 66
87 113 67
84 110 65
140 157 144
181 193 198
179 192 198
191 202 209
181 193 199
186 198 203
183 195 201
180 192 200
189 201 208
182 194 198
192 202 209
178 190 197
183 195 201
187 198 203
188 199 205
182 194 201
180 191 195
185 198 205
186 197 205
188 199 207
182 193 198
193 203 209
191 201 208
192 203 210
177 189 194
90 113 75
87 113 67
91 118 70
87 114 68
86 112 66
89 115 68
90 116 69
88 114 68
88 114 68
92 119 71
88 115 67
89 116 69
84 110 64
89 116 69
84 111 65
85 111 65
84 111 65
87 113 68
87 113 67
89 115 71
109 131 101
119 138 117
135 151 137
158 172 165
148 163 156
127 145 127
99 124 86
87 114 68
87 114 67
88 115 69
88 114 68
88 114 68
86 112 66
91 117 70
89 116 69
89 116 69
87 114 67
89 116 68
84 109 64
93 120 71
87 114 68
88 114 68
86 112 66
89 116 69
84 111 65
85 111 66
88 114 68
90 116 69
131 149 131
190 201 210
175 187 191
187 198 205
189 201 209
187 198 205
189 200 207
191 201 208
193 204 212
188 198 203
189 200 205
189 200 208
188 199 207
183 195 200
184 195 200
190 202 212
188 200 206
189 201 210
181 192 196
185 196 204
182 195 200
188 199 206
190 200 207
185 196 201
121 139 119
89 115 69
89 115 69
88 114 68
90 116 68
87 113 67
84 110 65
87 113 67
92 119 72
91 119 71
87 113 66
87 113 67
88 114 67
90 116 69
89 114 68
90 117 70
88 115 68
89 115 69
88 114 67
88 115 68
88 114 69
86 112 66
90 116 71
173 186 184
195 206 214
195 205 213
192 204 215
179 191 196
191 201 206
174 186 188
191 202 210
185 197 202
184 195 201
194 204 210
192 203 211
182 194 198
190 202 208
193 204 213
182 194 200
190 201 209
195 204 212
191 202 208
191 202 210
188 200 205
184 195 200
116 137 111
89 116 68
87 114 68
90 117 70
90 116 69
91 118 72
91 118 70
81 107 62
90 116 69
87 113 68
81 106 61
91 117 71
85 111 65
88 114 68
84 109 65
87 113 67
90 116 69
87 113 67
85 111 65
89 115 69
105 128 92
185 196 203
188 200 206
191 202 209
185 196 202
193 204 212
189 199 207
180 193 199
194 205 214
189 201 208
183 194 199
183 194 199
193 203 211
186 197 201
187 199 207
186 197 205
193 204 212
192 202 210
189 200 206
182 194 199
155 170 164
94 120 79
83 108 64
91 117 70
82 107 63
89 116 69
86 111 65
86 113 68
87 113 67
87 114 68
83 108 64
83 109 64
89 114 73
103 124 92
124 143 120
136 153 143
142 159 152
176 188 189
152 167 165
102 125 90
84 110 65
91 118 71
85 111 66
88 114 68
87 114 68
85 111 65
89 115 69
85 111 66
81 107 64
92 118 70
83 108 63
84 110 65
89 116 70
90 116 69
88 114 68
140 158 145
183 195 201
184 196 202
183 194 198
184 196 202
185 196 203
194 205 212
185 197 202
184 195 200
184 195 203
199 208 216
189 201 208
187 199 208
191 202 209
179 190 196
141 157 148
112 132 104
123 142 125
148 163 156
170 184 185
183 195 200
171 184 185
180 192 198
175 187 191
191 203 210
178 191 199
177 190 195
180 192 195
140 158 149
86 112 67
87 114 67
90 116 70
87 113 67
87 113 67
102 124 96
127 146 127
152 167 161
188 199 204
175 187 190
117 137 112
91 118 71
91 117 70
89 115 69
89 115 69
98 122 88
136 154 140
149 164 162
138 153 145
134 151 139
161 176 172
153 169 163
147 161 153
133 149 136
98 121 89
123 141 121
139 155 146
141 158 146
128 147 132
98 123 82
123 141 125
153 167 163
188 199 206
191 202 209
188 199 204
186 197 205
184 195 202
171 184 187
175 187 188
128 146 130
154 168 163
190 201 208
188 199 207
172 184 189
179 191 198
189 200 208
183 194 201
179 192 198
180 192 198
168 181 178
142 157 150
97 121 84
85 112 66
82 108 63
87 113 67
84 109 63
86 113 67
88 114 68
80 105 62
83 109 65
119 138 118
191 201 208
182 194 200
194 205 213
171 184 186
141 158 144
108 129 102
81 107 64
89 116 69
84 111 66
86 112 66
87 113 67
85 111 66
91 118 71
83 109 64
82 108 64
85 111 65
84 110 65
86 112 67
88 114 67
92 118 71
86 112 66
132 149 132
188 199 206
148 163 157
136 153 142
106 126 99
85 111 66
88 114 67
86 112 67
85 111 66
85 110 65
86 112 66
86 112 66
87 113 66
87 113 67
81 107 62
89 115 68
86 112 67
87 113 67
89 116 69
88 115 68
88 115 68
87 114 67
83 109 65
110 131 104
181 193 198
190 201 208
190 202 207
193 203 209
181 192 195
155 170 163
151 166 156
112 132 109
89 115 69
89 116 70
90 118 72
89 115 69
91 118 71
89 115 68
85 112 67
86 112 67
88 114 67
89 116 69
89 116 70
90 117 70
88 115 68
85 110 65
90 117 70
116 136 113
176 189 194
182 194 199
189 201 210
194 205 212
188 199 205
188 199 207
195 206 214
178 190 195
198 209 218
184 195 200
186 197 203
199 209 218
178 189 191
181 193 199
177 190 197
184 196 203
193 204 214
181 193 197
172 185 188
150 166 158
131 149 133
110 130 101
91 117 72
89 116 69
173 186 187
188 200 208
172 185 187
183 196 203
190 201 209
180 192 196
187 199 205
186 198 205
188 199 206
190 202 212
180 192 199
191 202 211
182 194 201
182 194 201
187 199 207
189 200 207
186 199 207
185 196 200
178 191 196
182 193 199
190 202 209
181 194 201
190 200 206
184 196 202
166 179 176
90 117 70
88 114 67
91 118 71
90 117 70
87 114 68
88 114 67
88 115 68
86 113 67
89 116 69
91 118 70
87 113 68
91 117 70
87 113 67
90 117 69
87 114 69
85 112 66
88 115 68
83 109 65
85 111 65
87 113 68
90 116 69
86 112 67
87 114 68
99 123 86
183 194 200
181 192 196
187 198 205
189 200 207
189 199 205
174 187 189
152 167 159
159 173 170
133 151 136
127 147 127
108 130 100
107 128 96
95 121 77
85 111 66
88 115 68
90 117 69
86 112 67
91 117 71
85 111 67
85 112 67
86 112 67
84 110 65
86 112 66
96 121 80
173 186 189
181 194 200
189 200 206
184 197 205
181 193 198
182 193 198
191 203 210
194 205 212
178 191 197
181 193 200
184 195 200
192 203 210
185 196 201
186 197 201
182 194 200
184 197 204
182 193 198
196 208 218
184 197 205
182 194 198
185 198 205
186 197 203
181 193 199
160 173 173
90 117 70
86 113 67
89 115 67
92 119 72
85 111 65
90 117 70
89 115 69
90 116 70
88 114 68
86 112 67
84 111 66
83 109 64
88 115 69
89 114 68
86 113 67
87 113 67
83 109 64
88 115 68
83 108 64
91 117 70
90 117 70
87 114 68
151 166 159
190 201 208
188 199 206
183 195 200
173 184 188
190 201 207
175 188 191
180 192 198
182 194 200
173 186 191
182 194 199
194 205 214
180 193 199
187 199 206
185 197 204
192 203 211
184 195 200
183 195 202
188 200 206
194 205 214
187 198 205
184 196 204
133 150 135
87 114 68
84 109 64
88 114 68
88 115 68
93 120 73
85 112 65
86 112 66
86 111 65
86 112 66
89 116 69
87 113 68
90 117 70
84 110 66
86 112 66
88 114 68
85 111 66
89 115 68
89 116 69
85 112 66
90 115 71
185 197 202
189 199 206
193 204 212
187 198 205
184 195 201
191 202 208
187 199 208
186 198 206
184 196 202
194 204 211
178 190 194
188 200 205
182 194 199
181 194 200
168 180 184
191 202 209
194 205 211
189 200 207
186 197 204
157 170 164
91 118 71
85 111 65
88 114 68
91 118 71
103 125 94
120 139 120
124 142 124
134 151 138
160 175 172
164 177 179
159 173 171
183 194 202
186 198 206
184 195 201
189 200 209
178 190 197
191 202 210
166 180 180
95 119 83
88 115 68
87 113 67
89 116 70
85 111 65
87 113 67
85 111 66
89 116 69
90 117 70
85 111 66
88 114 68
85 110 65
87 113 67
88 115 69
87 113 68
89 114 70
163 177 174
186 197 203
184 195 200
185 196 201
187 198 203
189 201 208
190 200 205
184 196 203
180 192 199
180 192 197
178 189 194
186 198 204
180 193 196
157 171 167
150 165 155
164 177 177
175 187 190
188 199 205
177 189 194
174 187 192
172 184 189
181 193 199
175 188 193
189 199 206
176 187 191
190 200 207
185 197 202
155 169 167
113 132 110
88 115 68
82 108 64
93 119 79
123 142 122
151 166 161
167 180 179
180 191 196
187 199 207
168 182 183
128 147 128
87 112 68
83 108 63
87 111 74
92 116 80
97 121 82
119 139 118
127 144 133
163 177 176
174 186 189
155 168 167
135 152 139
130 148 138
225 238 255
205 218 232
171 186 188
132 150 137
116 135 116
84 110 65
106 127 101
138 154 145
175 187 193
188 200 207
162 177 180
164 177 175
177 188 193
168 182 184
177 189 191
171 185 186
190 201 208
173 185 189
183 196 204
170 183 188
108 128 104
152 166 160
184 195 201
183 194 202
183 195 203
181 193 200
188 199 205
193 204 211
184 196 202
170 183 188
187 198 206
174 186 189
139 156 142
103 124 97
87 113 67
90 117 71
84 110 65
86 111 66
82 108 64
108 130 101
184 195 200
173 186 191
184 196 202
189 201 209
183 195 202
181 193 198
173 186 190
137 155 140
120 141 119
88 113 70
85 111 66
89 116 69
82 108 64
90 116 70
83 110 65
88 114 68
87 113 67
86 113 67
87 112 66
89 116 69
86 112 67
122 141 120
184 195 201
185 198 205
185 196 202
184 197 204
181 192 195
159 172 168
120 140 116
96 119 84
91 118 70
83 109 64
89 115 69
86 112 66
85 111 65
89 116 70
83 109 65
88 114 67
86 112 66
84 110 65
85 110 65
86 112 67
85 112 66
91 118 70
117 138 116
189 200 207
186 198 208
183 195 199
184 195 201
179 191 197
190 201 208
186 197 205
169 181 184
181 192 195
152 167 163
140 156 145
109 130 103
87 113 67
90 116 69
87 114 68
87 113 67
87 114 68
88 115 69
86 112 65
85 111 66
90 116 69
88 114 68
82 109 64
142 159 148
191 201 209
179 191 197
191 202 210
191 201 208
188 199 207
183 195 201
174 187 190
179 192 198
182 193 201
188 199 206
170 184 187
179 190 195
190 201 208
176 189 194
184 196 205
176 188 192
182 194 201
192 203 209
188 200 207
182 194 200
188 199 205
192 203 209
193 203 210
147 163 153
146 161 156
161 176 175
162 176 175
180 192 199
181 193 201
176 187 189
192 204 214
180 192 199
197 207 217
181 193 199
181 194 199
185 198 205
193 204 213
186 198 204
192 204 214
181 193 200
184 195 204
178 190 195
176 189 194
189 200 208
181 193 198
190 201 208
174 186 191
184 196 202
122 141 120
87 113 67
88 114 68
85 111 66
85 111 65
84 110 65
89 116 70
87 113 66
87 113 66
87 113 68
88 115 68
89 115 68
90 116 69
88 114 68
89 115 69
91 117 70
90 117 70
89 116 69
83 108 64
91 118 71
84 110 65
92 118 70
87 114 68
91 117 70
142 157 146
186 197 204
190 201 210
188 199 206
189 200 208
190 202 210
173 185 189
184 196 201
184 196 203
188 199 206
192 203 210
183 196 201
185 197 205
181 193 198
179 191 196
170 183 181
162 176 175
158 171 169
151 168 160
125 143 126
121 141 118
105 127 96
94 119 79
91 116 75
145 161 147
192 204 213
187 198 203
197 207 216
182 193 197
187 198 205
177 189 194
185 197 202
191 202 208
172 185 189
185 195 201
187 199 209
183 194 200
184 195 199
184 195 201
194 204 210
196 206 217
182 194 198
191 201 207
183 194 199
186 197 205
192 204 213
185 197 204
184 197 204
95 119 84
85 111 65
85 111 65
90 117 70
89 116 69
86 112 66
91 118 71
90 117 70
87 113 66
89 115 69
89 115 69
90 116 69
91 118 70
86 112 66
87 113 67
87 113 67
85 111 66
82 108 64
89 115 69
88 115 68
82 108 63
85 111 66
123 142 124
184 195 202
180 193 198
172 185 188
187 198 205
184 195 202
185 197 205
181 192 193
186 197 205
177 190 195
185 196 202
185 197 202
177 189 193
188 199 207
181 193 198
174 186 189
188 199 205
194 205 215
192 203 212
189 201 210
183 195 199
186 197 205
136 153 141
86 112 66
91 118 71
88 114 68
92 119 71
89 115 69
90 117 70
88 115 69
83 109 64
88 114 68
90 116 69
90 116 70
91 118 70
84 110 65
85 111 65
86 112 66
90 117 70
85 111 65
86 112 67
87 114 68
92 117 76
168 180 181
181 193 199
179 191 197
187 198 207
183 195 200
182 194 201
182 193 200
178 189 192
177 189 193
180 191 193
175 188 193
194 205 215
181 194 201
175 188 192
175 188 194
175 188 190
173 185 185
163 176 176
146 161 157
170 183 184
157 172 165
164 177 174
178 190 194
170 183 186
180 192 197
189 200 207
181 193 199
185 196 199
179 191 196
189 201 208
188 199 207
195 206 215
186 198 204
195 206 215
172 185 189
175 188 194
184 196 204
159 173 172
93 119 76
84 110 65
87 114 69
83 109 64
84 109 64
89 115 69
87 112 66
83 109 64
87 113 67
85 111 66
89 115 69
82 108 64
88 115 68
90 117 70
88 114 69
103 126 97
162 176 175
179 191 198
184 196 202
186 197 203
184 196 202
189 201 209
190 201 209
186 197 204
176 188 190
167 181 182
143 158 152
112 132 113
98 122 85
88 115 69
128 145 129
183 195 200
184 195 200
181 193 200
181 192 197
183 195 201
191 202 210
186 198 203
178 191 196
176 189 193
172 183 186
182 194 200
171 185 186
134 151 137
86 112 67
109 130 105
142 159 148
169 182 186
176 188 193
185 196 203
185 196 201
182 194 201
172 185 188
167 179 180
125 142 133
144 159 150
151 165 158
125 143 127
107 127 100
86 112 66
105 125 99
136 152 140
154 168 164
131 148 133
109 129 105
177 192 195
211 224 238
225 237 255
225 238 255
225 238 255
225 238 255
224 236 254
212 225 242
178 192 197
147 162 155
103 126 96
91 116 78
116 136 113
162 174 173
165 177 179
186 196 203
185 196 202
163 177 178
139 156 146
121 138 122
92 116 84
110 130 105
121 140 122
131 148 132
129 146 132
120 140 120
137 154 142
165 178 177
185 197 203
173 186 192
180 192 198
186 197 203
188 199 206
176 187 193
183 195 201
173 186 191
186 198 206
173 185 189
139 155 151
107 128 104
87 114 68
83 108 64
86 111 71
175 186 191
182 193 198
184 195 202
183 194 199
178 190 196
180 192 198
188 200 208
180 191 197
186 197 203
179 190 192
152 168 162
132 150 136
93 116 79
83 108 64
86 113 68
90 116 69
87 113 67
85 111 66
86 112 67
80 105 61
84 110 65
120 140 118
182 194 198
180 192 196
178 190 192
178 190 196
187 199 207
180 193 200
185 196 204
186 198 207
160 174 171
138 155 140
121 141 120
86 111 69
84 109 64
89 115 69
85 111 65
89 115 69
86 112 67
82 108 64
85 110 65
92 120 72
82 108 63
88 114 68
135 152 138
190 202 211
168 181 183
185 196 201
188 199 206
180 192 198
176 188 192
183 196 201
193 203 210
188 199 207
182 194 201
172 184 186
182 195 202
178 190 195
141 156 148
134 150 139
115 136 112
81 106 62
88 114 68
89 115 68
89 116 69
88 115 68
88 114 67
85 111 65
154 168 163
187 198 205
186 197 204
190 201 206
182 195 200
190 201 206
180 191 197
183 195 202
192 203 212
184 196 203
183 194 198
190 201 209
186 198 207
193 204 211
183 195 199
185 197 205
186 197 201
192 202 207
184 195 200
184 196 202
188 199 205
183 195 201
176 188 194
188 200 205
132 150 136
90 116 69
86 112 67
85 111 66
95 120 81
117 135 114
131 149 133
153 167 161
163 176 174
180 191 196
190 201 207
194 204 212
182 193 198
188 200 207
184 194 197
185 198 204
188 199 205
188 199 206
187 198 204
175 189 194
187 198 206
180 192 199
186 198 205
186 197 202
168 181 181
87 113 67
85 111 65
86 112 66
85 111 66
84 110 66
86 112 66
87 113 67
90 117 70
87 113 67
89 115 68
86 112 66
83 110 65
92 118 71
86 112 66
90 116 69
89 116 69
90 117 70
89 115 69
82 108 64
87 113 67
87 114 68
90 117 70
87 114 67
103 126 89
177 189 193
189 200 206
177 189 194
193 203 212
193 204 210
179 191 196
188 199 204
186 197 201
182 195 200
187 198 205
189 200 206
185 196 204
179 192 198
188 199 206
187 199 206
194 204 212
188 199 205
186 198 203
183 195 202
184 196 203
182 196 203
184 196 203
178 190 194
181 193 198
103 126 92
110 132 104
120 140 117
123 143 123
132 151 136
141 158 149
143 159 151
159 172 168
168 181 182
166 179 180
167 181 182
179 191 194
185 195 201
192 202 209
188 200 207
185 197 203
189 199 207
186 197 204
185 196 203
191 202 210
192 203 211
188 198 206
186 198 204
133 150 139
84 110 65
87 113 67
88 114 67
83 109 64
85 111 65
87 114 68
90 116 70
87 113 67
85 112 66
89 115 69
89 116 70
88 114 67
87 113 67
82 108 63
87 113 67
86 112 66
90 117 70
93 120 71
85 111 65
87 113 67
87 113 67
107 129 98
180 192 199
183 195 201
168 181 184
192 203 210
180 192 197
188 200 208
181 194 201
185 197 205
190 201 210
174 187 191
187 199 206
188 200 208
190 200 207
180 192 200
183 196 203
178 191 197
187 197 204
194 205 213
188 199 205
182 194 201
187 198 204
161 174 173
88 114 69
88 115 68
87 114 68
91 118 70
84 111 66
91 117 70
82 108 64
89 115 69
85 111 66
90 117 69
84 110 65
83 109 65
86 113 67
89 115 69
87 113 67
83 109 65
89 115 69
87 113 67
89 115 69
87 114 68
161 173 172
183 194 200
186 198 204
181 194 202
173 186 190
183 194 198
164 178 178
165 178 177
164 176 172
145 160 154
141 157 145
134 152 139
121 141 118
109 131 100
108 131 98
89 115 69
88 115 69
89 116 70
86 112 67
127 146 127
183 195 201
185 197 203
184 195 203
170 182 185
193 203 210
186 198 204
181 193 200
185 196 202
184 196 202
186 198 205
187 198 204
180 192 197
174 186 189
182 194 200
183 195 202
176 188 193
190 201 210
145 161 152
91 118 70
82 108 63
91 119 71
84 110 65
88 115 69
88 115 68
86 113 68
84 110 65
88 114 67
85 112 66
89 115 69
87 113 68
82 108 63
82 108 64
89 116 70
117 136 114
183 195 201
186 197 202
177 189 192
173 186 189
173 186 187
163 176 174
150 164 157
125 144 123
101 124 88
85 111 65
89 115 69
86 112 67
83 109 65
91 115 74
156 171 168
177 190 196
184 196 203
182 194 200
189 200 206
178 190 197
176 188 194
183 194 201
186 198 202
177 188 193
184 196 203
186 197 204
165 179 180
148 162 155
169 181 181
169 182 183
155 168 167
157 170 166
132 148 134
129 147 127
106 126 99
95 119 85
116 134 116
165 178 178
161 174 175
144 161 157
90 115 76
86 112 66
79 105 62
104 126 95
121 139 123
121 139 123
111 133 106
150 166 160
185 199 207
220 233 250
225 238 255
225 238 255
225 238 255
225 238 255
225 238 255
225 238 255
225 238 255
225 238 255
225 238 255
222 234 252
204 217 230
174 187 189
139 154 146
88 112 77
95 120 83
129 146 133
150 166 161
175 186 190
181 193 199
173 185 189
172 185 186
142 159 150
108 129 107
148 163 158
181 193 200
179 190 195
197 207 216
182 194 203
178 189 194
175 187 191
150 165 161
151 166 160
140 157 148
151 165 161
172 186 189
168 180 183
180 192 198
183 195 203
184 197 205
181 192 196
168 181 181
140 156 144
112 133 106
180 191 194
177 189 194
175 187 192
186 199 207
186 198 204
171 183 185
171 183 188
179 191 197
176 188 194
194 205 212
192 202 210
183 195 201
176 188 192
158 172 171
134 151 135
113 134 107
83 108 63
82 107 62
89 116 70
88 114 68
80 105 62
125 143 125
175 187 189
183 194 199
186 198 206
186 196 201
180 191 196
186 197 204
183 195 201
179 192 198
196 207 216
187 198 205
189 200 206
181 193 198
165 179 176
138 155 143
108 130 101
82 108 63
88 114 68
86 112 67
82 108 64
85 112 66
88 115 68
85 111 66
144 160 153
189 201 210
179 191 197
181 192 198
191 202 210
181 193 200
174 186 189
193 203 211
192 203 209
190 202 211
184 195 202
193 205 212
190 201 209
175 187 191
188 199 203
180 191 195
176 188 193
165 177 178
153 168 165
154 168 164
126 145 128
90 115 73
88 114 67
89 116 69
180 192 195
188 199 206
176 188 191
192 203 210
188 199 206
186 197 205
185 195 199
190 201 210
186 196 202
188 199 206
188 200 208
173 185 188
185 196 202
186 198 206
186 197 205
180 191 196
186 198 205
188 200 209
183 195 201
176 189 195
191 202 209
186 198 203
175 186 190
183 195 201
102 125 97
90 116 69
88 114 67
87 113 67
89 116 69
84 111 66
87 113 67
86 112 66
80 106 63
84 110 64
100 122 89
109 128 107
139 155 145
166 179 178
162 176 177
178 190 196
183 194 201
183 196 204
187 198 203
186 197 203
183 195 203
185 196 202
189 200 206
188 200 205
138 154 144
86 112 66
91 118 71
86 113 67
86 112 67
86 112 66
85 111 65
93 120 72
89 116 69
88 115 69
91 118 70
87 113 67
88 114 68
86 112 66
85 112 66
85 111 66
81 107 63
89 115 69
88 114 68
88 115 68
88 115 68
90 117 70
88 114 68
86 113 67
125 144 126
180 192 198
185 196 202
186 197 204
180 192 197
191 202 209
185 197 203
187 199 206
187 199 206
183 195 202
178 190 195
197 207 216
187 199 208
169 182 185
183 195 200
185 196 201
187 198 205
183 195 202
186 197 204
189 200 208
185 197 202
189 199 205
188 198 205
187 199 207
125 143 123
87 113 68
89 115 69
88 114 68
87 113 67
83 109 64
88 113 67
90 117 70
89 115 69
87 114 68
86 113 67
89 115 69
87 113 68
90 116 70
95 119 81
99 122 89
113 132 106
119 139 116
115 136 111
127 143 130
150 164 155
140 156 145
142 159 149
158 173 169
147 164 154
128 146 129
126 145 129
118 138 111
109 131 99
104 125 98
101 125 90
91 115 76
94 118 80
89 116 70
89 115 68
84 110 65
88 114 68
87 113 68
87 114 68
90 117 69
85 111 66
89 115 68
83 110 65
89 115 69
86 112 66
86 112 67
177 189 189
187 199 207
189 201 210
177 188 192
187 198 205
180 192 199
181 193 199
192 203 211
192 203 211
188 201 209
192 204 212
181 193 198
193 204 213
182 194 200
181 193 198
178 191 196
182 193 198
183 195 201
184 197 204
180 192 197
180 191 197
165 179 178
93 118 75
85 111 65
84 110 66
85 111 65
87 114 69
96 121 82
100 123 90
105 127 98
114 135 112
113 132 108
110 131 105
128 146 130
125 142 130
144 160 151
141 158 146
133 150 136
157 172 165
156 171 166
155 169 166
153 165 163
116 135 113
113 133 105
95 118 83
87 112 70
87 114 68
82 109 65
88 115 68
84 109 65
83 108 64
86 112 66
89 115 68
90 117 70
89 116 70
89 115 69
82 108 64
88 114 68
85 111 66
80 106 62
90 116 70
144 160 150
185 195 199
188 199 208
182 193 198
185 196 203
185 196 202
180 192 200
194 204 211
175 187 191
183 195 199
185 197 204
189 201 209
181 193 200
197 208 218
183 194 199
183 194 199
189 200 207
178 189 195
127 145 130
86 112 67
88 114 68
81 107 63
83 110 66
86 113 67
90 116 69
86 112 66
80 106 61
83 109 64
88 115 68
88 115 69
83 109 65
91 118 70
85 111 65
87 113 67
145 161 151
161 175 172
148 162 157
131 149 133
120 139 120
98 121 86
84 110 66
88 115 68
86 113 68
85 111 66
87 113 66
90 117 69
85 112 67
85 111 66
105 125 100
178 190 192
182 193 199
179 190 194
179 191 196
179 191 196
177 190 198
185 197 202
171 184 186
159 172 172
175 187 190
175 186 189
168 180 182
116 135 111
127 144 126
101 123 90
91 118 71
81 106 63
84 110 65
81 107 64
85 111 66
82 108 63
96 119 86
119 138 118
134 151 142
98 120 87
86 111 66
89 116 69
84 110 69
97 121 85
89 114 70
93 117 82
120 138 121
189 203 210
221 234 251
225 238 255
225 238 255
225 238 255
225 238 255
225 238 255
225 238 255
225 238 255
225 238 255
225 238 255
225 238 255
225 238 255
225 238 255
225 238 255
225 238 255
225 238 255
218 231 247
192 205 214
152 167 163
122 140 123
91 116 77
99 122 87
146 160 154
160 173 172
167 179 182
178 190 196
178 190 196
180 193 201
143 158 149
184 194 200
182 194 200
178 190 195
181 193 200
189 200 207
181 193 198
172 185 188
166 180 179
132 149 138
84 109 65
80 106 63
87 114 68
94 117 80
114 134 112
110 131 106
132 149 136
132 150 136
153 169 162
149 164 156
155 170 167
165 178 178
176 187 188
177 188 190
180 192 199
168 182 187
175 187 192
176 188 193
180 192 197
178 190 194
178 191 196
186 198 207
182 194 199
193 204 210
170 183 187
167 180 181
157 170 165
110 131 109
87 112 70
84 110 65
129 147 132
182 194 202
177 190 196
182 195 203
184 196 202
191 202 211
190 201 210
188 199 205
185 196 203
187 199 205
180 191 195
171 184 186
192 202 210
190 201 209
177 189 192
181 193 199
179 191 195
154 168 164
121 140 123
109 129 101
85 111 66
86 112 67
88 114 68
152 168 162
188 199 204
182 194 200
182 194 197
182 194 202
185 197 205
178 190 195
183 194 199
194 204 213
183 194 200
188 199 206
182 194 201
182 193 200
171 183 187
179 190 195
180 191 195
170 183 186
177 190 195
175 186 191
189 199 206
191 201 208
182 194 200
172 184 187
154 168 166
164 177 175
168 181 181
185 197 204
192 203 212
175 188 193
187 199 207
186 198 202
190 200 207
183 195 200
180 192 198
183 196 203
187 199 205
181 192 197
184 196 202
185 196 205
180 192 198
177 189 195
190 200 207
185 198 205
181 193 198
179 190 194
185 196 203
182 194 200
188 200 207
80 105 62
87 114 68
89 116 69
88 114 67
86 112 67
87 114 68
86 112 67
89 115 69
90 117 70
88 114 68
83 108 63
85 111 66
88 115 69
87 113 67
87 113 66
85 111 65
106 127 96
137 154 136
142 158 149
155 170 170
158 173 172
184 195 199
189 201 207
186 198 204
99 124 82
88 114 68
86 112 67
87 114 68
85 111 66
85 111 66
79 105 62
83 109 64
86 112 67
85 112 67
85 111 66
89 115 69
84 110 65
89 116 69
88 115 69
86 112 66
87 113 68
86 112 67
85 111 66
88 114 68
86 112 66
87 113 67
87 113 67
99 123 85
166 179 182
183 194 198
187 197 204
192 203 210
184 195 201
180 193 199
186 198 204
177 189 196
191 203 210
185 196 204
189 201 209
187 199 206
183 194 200
184 196 202
187 198 203
183 195 201
177 190 193
176 188 193
171 184 189
176 189 193
191 201 207
191 202 210
187 198 204
172 184 184
86 113 67
87 113 67
88 115 68
89 116 69
89 116 69
87 113 67
86 112 66
87 113 67
87 113 68
90 116 69
88 114 67
86 113 67
85 111 67
87 113 67
85 111 66
88 114 68
83 109 65
84 111 66
88 115 68
85 111 66
86 112 67
87 113 67
92 116 77
178 192 197
189 200 206
190 201 208
185 197 205
190 200 207
188 199 203
177 189 194
186 198 204
178 192 198
183 194 199
185 197 205
184 196 201
182 194 199
187 198 205
178 191 196
172 184 187
181 194 196
176 188 190
174 188 189
172 185 187
170 183 184
164 178 176
137 154 140
123 141 120
133 151 135
121 140 120
126 145 125
122 142 121
128 146 126
134 151 139
123 140 121
126 144 125
123 142 122
124 142 122
119 139 117
124 144 123
129 145 132
112 132 109
120 138 121
112 133 109
121 142 120
113 133 109
121 141 121
127 146 127
171 184 186
182 195 198
183 195 201
185 196 201
188 199 208
184 195 200
191 202 211
183 195 200
191 202 209
179 190 194
186 198 206
187 199 205
184 196 203
181 194 200
173 185 190
187 199 207
184 196 199
188 199 206
183 194 199
189 201 210
135 152 140
87 114 68
83 109 64
88 115 69
89 116 70
84 110 64
90 116 69
82 108 63
89 116 69
91 117 70
86 112 66
86 112 66
92 119 71
84 110 65
84 110 65
85 111 66
86 112 66
88 115 68
85 111 66
148 163 157
189 200 208
181 192 197
187 197 203
183 195 201
180 192 198
190 201 210
179 192 197
182 192 196
182 193 197
173 185 189
185 196 201
190 202 209
185 197 204
175 189 193
187 200 209
187 199 206
177 188 192
126 145 128
87 113 68
85 111 66
85 111 66
82 108 63
89 116 69
87 113 68
85 111 66
84 110 65
82 107 63
86 112 67
85 111 66
102 124 94
119 138 116
130 146 134
144 159 151
124 143 121
90 115 74
85 111 66
87 114 68
86 113 68
82 108 64
86 112 66
84 111 66
90 117 70
86 112 67
84 110 65
92 118 73
99 123 84
113 135 106
119 138 116
152 167 163
136 151 143
133 152 140
113 133 108
110 130 105
112 133 106
109 129 104
127 144 130
144 159 152
179 191 194
185 196 203
149 162 156
99 122 87
88 114 69
83 109 64
82 107 64
88 114 68
83 109 65
81 106 63
108 130 103
135 152 139
105 125 97
85 111 67
88 114 69
85 110 66
85 110 68
116 136 112
130 147 135
118 137 121
128 146 131
177 192 196
212 225 239
225 238 255
225 238 255
225 238 255
225 238 255
225 238 255
225 238 255
225 238 255
225 238 255
225 238 255
225 238 255
225 238 255
225 238 255
225 238 255
225 238 255
225 238 255
225 238 255
225 238 255
225 238 255
225 238 255
225 238 255
225 238 255
214 227 242
197 210 221
151 166 163
123 141 124
86 111 69
91 113 80
146 161 154
166 179 178
168 181 183
121 139 121
80 106 63
115 134 113
136 154 142
166 180 180
183 195 203
178 190 195
179 191 197
178 191 197
182 194 201
167 180 180
161 175 172
122 140 123
91 115 79
84 111 67
84 110 65
84 110 64
86 112 67
82 106 62
160 175 173
181 192 197
185 196 201
179 191 195
155 169 164
126 143 126
112 132 108
103 125 96
125 143 128
141 157 146
126 144 127
142 158 149
148 163 157
168 180 179
169 182 184
165 177 177
173 185 189
177 188 191
182 194 199
179 190 195
149 164 159
130 148 136
174 187 190
177 190 195
192 203 211
177 190 195
183 195 199
180 191 196
180 191 197
182 193 199
185 197 202
183 195 201
191 203 213
196 207 216
181 193 200
178 190 197
176 188 193
178 190 195
188 200 207
184 196 205
186 198 206
166 179 179
151 166 157
119 138 117
156 170 168
181 193 200
182 194 199
180 193 198
184 196 204
182 194 200
180 192 198
165 177 178
183 194 201
190 201 209
181 193 199
178 189 192
180 193 200
184 195 201
190 202 208
192 203 212
192 203 209
178 190 196
180 192 198
176 188 192
186 198 205
185 197 203
189 200 207
157 172 166
88 114 68
86 112 66
87 110 74
116 136 112
131 149 133
160 173 169
172 183 186
191 201 207
185 197 204
188 198 206
181 192 196
191 201 211
180 192 197
191 202 212
190 201 209
174 187 193
169 182 188
184 196 203
184 196 203
183 195 201
178 190 194
178 190 197
181 192 196
152 167 157
89 116 70
88 114 68
85 111 67
87 114 68
84 110 66
87 114 68
89 115 68
88 114 67
84 110 65
83 109 65
88 114 68
81 107 63
86 112 66
83 109 64
85 111 66
84 110 65
88 114 69
86 112 66
82 108 63
88 115 68
88 114 68
83 109 65
102 125 89
142 157 150
138 155 142
129 147 133
109 129 107
98 119 88
88 114 71
83 109 64
81 107 63
83 109 65
87 114 68
83 108 64
83 109 64
86 111 66
89 116 69
83 108 64
87 114 68
87 113 67
86 112 66
84 110 65
83 109 64
89 116 69
80 106 63
86 112 66
86 113 67
137 153 144
187 199 206
188 199 206
187 198 206
189 200 209
184 195 201
184 195 202
190 201 207
176 188 191
183 195 200
190 200 205
180 191 196
186 198 206
185 197 206
181 193 200
183 194 203
181 192 197
176 190 195
182 193 198
186 197 203
191 202 209
187 198 205
183 195 201
189 200 208
119 139 116
84 110 65
85 111 66
88 115 68
88 115 68
87 114 67
85 111 66
88 115 69
86 113 67
86 112 66
85 112 67
87 113 67
85 111 66
83 108 64
87 113 67
86 112 67
90 116 69
88 114 69
85 111 66
85 111 66
87 113 67
84 110 65
86 113 66
155 169 164
182 194 199
176 188 192
182 194 198
178 191 197
182 193 198
174 186 190
185 196 202
182 195 202
179 191 197
188 199 208
180 192 200
176 188 193
179 191 197
175 187 192
182 195 200
181 193 197
189 201 208
187 198 204
184 196 202
170 183 186
187 198 205
153 167 163
86 112 67
86 112 66
90 117 70
89 115 68
85 111 66
80 105 61
88 114 68
86 113 68
86 112 66
88 115 69
85 110 64
86 112 66
79 104 61
86 111 66
89 116 70
86 112 66
90 116 69
88 115 68
84 110 66
84 110 65
87 113 70
166 178 179
183 194 199
190 201 208
182 193 199
168 181 184
173 186 192
188 200 208
179 191 196
197 207 215
186 197 201
178 191 198
175 187 190
170 182 186
179 191 197
190 201 208
176 188 194
185 197 205
177 191 196
186 198 204
190 201 207
130 149 136
86 112 67
90 117 70
86 112 66
82 108 64
91 118 70
85 111 66
87 114 68
80 106 63
88 115 68
85 111 66
86 112 66
84 109 65
82 107 63
87 113 68
85 112 66
86 112 67
88 114 68
85 111 67
144 159 149
174 186 191
185 197 204
177 188 192
180 192 198
176 189 194
187 198 206
184 196 203
180 191 197
174 186 191
172 184 186
179 191 195
192 203 211
179 190 195
178 189 194
182 194 200
183 194 201
173 185 190
108 128 100
84 110 65
87 113 67
79 105 62
87 113 68
86 112 67
84 110 66
100 122 91
121 139 120
138 154 142
165 178 179
171 184 186
179 191 196
177 189 195
189 201 211
179 190 193
115 136 112
99 122 89
110 130 110
115 135 114
131 148 131
136 154 144
147 163 157
141 156 146
149 165 158
162 177 176
157 171 173
176 188 196
178 191 198
161 175 175
102 124 96
87 114 69
86 112 67
90 115 71
115 135 111
130 148 134
175 187 190
172 185 190
175 187 192
180 192 197
178 189 194
155 169 167
119 138 116
81 106 63
84 110 66
87 113 67
84 110 65
102 125 93
138 154 143
159 173 174
169 182 183
142 158 149
94 119 78
79 104 62
86 112 69
127 145 127
143 157 149
150 164 160
133 151 140
160 176 174
203 216 230
224 236 254
225 238 255
225 238 255
225 238 255
225 238 255
225 238 255
225 238 255
225 238 255
225 238 255
225 238 255
225 238 255
225 238 255
225 238 255
225 238 255
225 238 255
225 238 255
225 238 255
225 238 255
225 238 255
225 238 255
225 238 255
225 238 255
225 238 255
225 238 255
225 238 255
225 238 255
225 237 255
200 213 224
192 204 216
153 167 162
103 123 99
84 109 67
109 129 108
117 135 116
97 119 88
79 104 62
82 108 64
83 109 64
99 120 89
142 157 151
167 180 180
181 192 200
161 175 177
176 187 192
175 187 192
181 192 196
171 183 188
150 165 159
119 138 116
90 112 80
86 112 67
85 111 66
137 154 147
180 192 196
177 189 196
173 187 193
184 196 202
183 194 199
165 178 180
160 174 171
141 157 144
104 125 99
80 106 62
84 110 65
84 110 65
84 110 66
83 108 64
85 112 66
82 108 65
92 117 77
100 124 89
108 128 104
100 121 91
132 150 136
154 168 164
159 173 174
175 187 191
179 191 192
153 167 164
164 178 176
159 174 172
175 187 192
183 194 199
178 190 195
180 191 197
197 208 216
181 193 198
180 192 198
185 196 202
186 197 204
186 198 205
177 188 192
174 185 189
182 194 200
174 187 192
183 196 202
105 127 97
120 139 117
127 145 130
158 172 169
177 189 193
179 192 197
178 191 197
187 199 207
189 200 205
178 190 196
187 198 206
183 194 200
182 194 200
182 195 202
179 192 199
191 202 209
180 193 201
177 188 190
184 195 205
178 190 195
187 199 206
188 199 207
179 192 195
130 147 133
86 112 66
83 108 63
86 113 68
82 108 64
91 117 70
92 119 72
86 112 67
108 130 98
125 143 128
138 155 145
160 173 174
181 192 197
183 195 201
182 194 198
183 194 198
183 195 201
180 192 197
183 195 199
187 198 206
186 198 206
174 187 192
178 190 195
190 201 211
104 126 97
85 111 66
87 113 67
86 113 67
82 106 62
80 106 63
83 109 64
83 110 65
88 115 70
83 109 65
84 110 64
82 108 64
86 111 65
86 112 66
83 109 64
87 113 67
86 112 67
84 109 64
86 112 65
87 113 67
87 113 67
87 113 68
88 115 69
84 110 65
173 186 191
181 193 200
188 200 211
180 192 197
188 199 208
189 200 207
167 180 178
163 177 177
144 160 153
144 160 149
118 137 114
98 120 90
85 111 66
86 112 67
88 115 68
87 112 67
89 116 69
86 112 66
84 110 65
85 111 66
86 112 66
84 110 66
82 108 64
99 124 84
182 194 200
185 197 203
178 190 197
186 198 204
188 200 208
182 194 199
181 193 199
192 202 210
183 194 201
172 184 185
182 193 200
179 192 198
180 191 196
166 179 181
180 191 194
177 189 196
178 190 195
190 201 207
188 199 206
178 191 197
176 189 196
186 198 204
186 197 204
160 174 171
86 113 67
83 109 64
86 112 67
88 115 69
83 109 65
85 111 66
89 116 69
85 111 66
81 106 62
88 114 68
83 109 64
84 110 66
87 114 68
85 111 66
88 114 68
92 118 71
88 115 69
82 108 63
85 112 66
83 109 64
91 118 72
87 114 67
135 152 138
178 189 191
179 191 196
174 186 188
180 192 197
188 200 207
179 191 198
178 190 195
183 195 201
178 190 194
181 192 196
188 198 203
178 190 195
178 190 194
180 192 200
189 201 208
182 193 197
181 193 199
180 192 200
177 189 192
180 192 196
184 196 203
160 174 173
98 123 83
84 110 66
89 116 70
81 107 63
85 111 65
85 111 66
87 114 68
84 110 66
85 111 65
87 113 68
82 107 62
86 113 67
80 106 62
84 110 65
89 116 70
86 112 66
80 106 61
86 113 68
90 116 69
90 116 70
91 117 75
155 170 168
175 188 193
187 199 206
181 193 200
187 198 206
187 197 203
175 189 196
179 191 197
191 202 209
179 191 197
182 194 200
186 198 204
179 191 195
196 207 216
183 196 203
177 190 195
180 192 197
185 197 205
183 195 201
179 190 196
130 145 134
85 111 66
84 109 65
83 109 64
82 108 63
85 111 66
81 107 63
88 114 68
87 114 69
84 110 65
84 111 66
89 116 69
85 112 66
86 112 66
86 113 67
85 111 66
84 110 66
89 115 70
84 110 65
145 160 153
188 200 206
182 194 200
180 191 197
171 183 191
177 188 192
182 194 200
176 189 194
188 199 205
180 193 199
160 173 173
185 196 202
181 192 196
170 183 185
187 198 203
183 195 201
180 193 202
165 178 179
97 121 89
92 116 77
110 131 103
117 138 114
135 153 138
136 152 142
148 162 158
143 159 151
149 164 159
137 155 143
115 134 115
126 144 129
130 147 134
106 126 98
109 132 100
118 137 116
180 192 199
174 187 193
183 195 202
195 205 212
187 199 207
184 195 201
178 191 197
176 188 193
185 197 204
188 198 206
171 183 188
172 184 189
179 191 198
155 170 165
106 127 100
120 139 124
152 167 161
171 183 185
179 190 196
171 184 189
182 193 199
183 195 202
183 195 203
174 186 191
179 191 197
135 153 142
87 112 69
84 110 66
90 114 75
122 141 125
143 158 150
153 167 163
173 185 188
180 191 198
147 162 155
96 120 86
93 116 81
123 141 127
154 167 163
174 186 189
165 179 183
154 168 166
208 221 235
224 236 254
225 238 255
225 238 255
225 238 255
225 238 255
225 238 255
225 238 255
225 238 255
225 238 255
225 238 255
225 238 255
225 238 255
225 238 255
225 238 255
225 238 255
225 238 255
225 238 255
225 238 255
225 238 255
225 238 255
225 238 255
225 238 255
225 238 255
225 238 255
225 238 255
225 238 255
225 238 255
225 238 255
225 238 255
225 238 255
225 238 255
225 238 255
222 235 253
209 222 236
187 201 208
138 154 143
104 125 97
156 169 168
160 173 175
128 145 131
105 126 99
81 106 63
85 111 67
79 105 61
102 123 96
147 161 155
174 187 193
181 193 198
167 179 181
190 201 210
171 185 190
176 188 193
182 194 201
159 174 172
140 157 146
138 155 143
180 192 197
176 188 193
183 194 199
174 186 190
190 201 209
184 195 200
178 190 194
180 192 197
184 196 203
169 182 184
152 166 161
110 130 108
84 109 66
82 108 64
83 109 64
84 110 65
85 111 66
80 106 62
83 108 64
85 111 66
126 143 127
177 190 197
186 198 206
175 186 188
186 197 205
182 194 202
165 177 178
132 149 133
99 120 92
81 107 62
88 114 68
89 115 68
103 126 93
101 122 92
112 133 109
103 125 97
119 139 117
131 148 133
140 157 142
128 147 131
146 160 155
153 167 161
150 165 158
131 148 134
118 137 117
115 134 113
110 131 107
94 118 80
108 128 101
138 156 145
164 177 178
174 186 191
181 193 198
181 193 198
179 191 196
184 196 202
183 195 203
181 192 197
184 196 203
185 197 205
180 192 198
179 192 201
173 186 190
179 190 195
182 194 200
184 195 200
109 130 106
85 111 66
78 103 60
84 110 65
84 110 65
85 111 66
89 115 69
87 113 68
83 109 64
87 114 68
87 114 68
83 109 64
89 115 71
106 129 99
120 138 118
133 150 139
163 177 173
188 200 205
189 200 207
191 202 208
185 196 201
181 193 199
185 196 202
162 176 174
88 115 69
86 112 67
87 114 68
84 110 65
87 113 67
88 115 68
89 116 69
83 109 65
88 114 68
87 113 67
86 112 67
83 108 64
90 116 70
81 107 63
83 109 64
81 107 63
87 113 67
83 110 66
85 112 66
83 109 64
84 110 65
84 110 66
88 114 68
129 146 130
188 199 206
188 199 206
181 193 200
182 195 202
181 193 198
186 198 204
186 196 199
190 201 209
186 198 204
183 194 201
179 192 198
178 189 193
176 189 194
172 185 187
155 169 165
156 171 165
142 157 147
127 144 130
113 133 107
97 121 82
87 113 67
86 112 67
86 112 66
141 158 149
186 197 205
184 196 203
184 195 201
173 186 191
187 198 205
187 198 207
182 194 200
174 187 193
187 198 206
169 182 186
189 200 207
181 193 201
183 195 200
180 191 197
178 190 195
179 191 195
184 195 202
181 193 199
186 197 202
182 193 198
184 195 201
185 197 204
168 181 183
97 120 86
83 109 64
90 117 70
89 116 70
83 108 64
82 109 65
85 112 67
86 111 66
88 114 67
86 111 66
83 109 64
86 112 67
88 115 69
86 112 67
87 113 68
85 111 66
86 112 67
91 118 71
83 109 64
88 115 69
85 112 67
81 106 62
103 125 95
182 193 200
185 197 205
180 193 200
179 191 196
189 200 207
182 194 200
181 194 200
174 186 189
175 188 194
181 193 197
178 190 195
176 189 194
174 185 190
179 191 197
186 197 204
188 199 206
183 195 202
179 191 196
171 183 187
178 190 197
186 198 205
177 189 194
120 139 120
97 125 76
85 111 66
85 111 66
87 113 67
83 109 64
85 112 66
89 116 69
89 115 69
85 111 66
87 113 67
84 110 66
87 113 68
83 110 65
85 110 65
88 114 68
86 112 67
93 120 72
85 111 65
90 116 70
86 113 67
154 169 167
185 198 207
178 190 195
182 193 199
184 196 203
172 185 191
175 188 192
187 199 207
174 187 191
186 198 205
187 198 205
182 195 202
176 187 192
185 198 206
182 194 201
178 191 196
184 197 205
175 187 193
187 198 207
190 201 209
129 146 133
89 116 69
86 113 67
82 108 64
86 113 67
86 112 66
85 111 66
86 112 66
87 113 68
87 113 67
83 108 64
82 108 63
89 115 69
87 114 67
80 105 61
84 110 64
81 106 62
89 115 69
82 107 66
162 176 174
183 195 202
174 187 193
167 181 183
160 173 174
173 185 188
158 172 171
155 169 167
149 165 159
141 157 150
140 156 147
135 151 139
151 166 163
127 145 129
153 168 165
155 168 168
172 185 188
143 160 152
98 121 87
93 118 78
85 111 67
85 110 66
86 112 66
89 115 69
85 111 66
91 118 71
84 110 65
88 115 68
83 108 63
85 111 66
81 107 64
83 109 64
86 111 69
156 170 166
178 191 197
175 187 192
186 196 204
176 188 195
179 192 198
185 198 206
171 183 186
186 197 203
170 184 191
174 187 192
164 177 178
164 177 177
148 163 156
178 190 195
169 182 185
174 187 191
188 200 208
172 184 189
176 188 194
183 194 200
179 191 196
187 199 207
183 194 202
174 186 192
151 165 162
100 122 91
106 129 98
147 163 154
165 179 177
172 184 188
181 192 196
175 187 191
186 197 201
140 155 147
105 125 102
141 158 150
161 174 173
175 186 191
180 192 198
168 182 186
203 215 228
222 234 251
225 238 255
225 238 255
225 238 255
225 238 255
225 238 255
225 238 255
225 238 255
225 238 255
225 238 255
225 238 255
225 238 255
225 238 255
225 238 255
225 238 255
225 238 255
225 238 255
225 238 255
225 238 255
225 238 255
225 238 255
225 238 255
225 238 255
225 238 255
225 238 255
225 238 255
225 238 255
225 238 255
225 238 255
225 238 255
225 238 255
225 238 255
225 238 255
225 238 255
225 238 255
225 238 255
225 238 255
225 238 255
221 234 250
210 223 237
182 195 202
142 159 153
160 174 174
163 176 176
147 162 160
113 132 115
94 118 83
78 104 60
82 109 65
76 101 59
108 125 104
133 149 139
173 185 188
169 182 187
181 192 196
182 194 201
176 188 191
169 182 188
168 181 180
103 125 94
136 153 142
165 178 178
178 190 196
173 186 190
172 184 187
183 194 200
176 187 193
182 194 200
184 195 201
189 200 207
181 192 197
176 189 193
151 166 161
122 139 123
96 119 86
84 109 64
86 112 67
80 106 62
81 106 63
131 149 135
173 186 191
178 190 196
185 196 203
183 195 203
186 197 203
175 188 191
173 184 188
181 192 197
172 185 185
158 173 167
138 154 143
105 126 98
88 114 67
87 113 67
84 109 65
87 113 67
86 112 66
83 108 63
82 108 63
84 110 66
80 106 62
107 128 101
179 192 200
174 186 192
186 197 204
175 187 193
177 188 194
187 198 205
177 189 195
179 191 196
168 181 184
171 183 186
178 190 194
155 169 165
127 145 128
108 130 102
118 137 119
125 145 127
129 146 128
143 159 151
123 140 123
152 167 164
145 160 156
164 178 176
160 174 171
121 140 119
105 125 99
111 131 107
109 129 106
105 128 96
99 120 90
88 113 69
94 119 77
82 108 65
84 109 64
87 113 67
86 112 66
82 107 63
85 111 66
83 109 65
81 106 62
86 113 67
86 112 66
102 124 96
117 137 116
138 154 145
166 179 180
161 175 174
132 150 135
84 110 65
86 112 66
83 108 64
84 109 65
87 113 67
86 112 67
90 116 69
84 111 66
90 117 70
88 114 68
91 118 70
83 109 64
86 112 66
86 112 66
83 109 64
82 107 63
79 105 62
91 117 70
87 113 67
84 110 65
86 112 67
85 111 65
88 114 68
159 173 172
178 189 195
184 196 205
177 189 193
185 197 204
169 182 185
175 188 191
173 185 189
183 194 197
185 196 203
186 198 204
183 196 204
185 197 201
181 192 196
173 185 188
187 198 205
179 192 197
178 190 195
174 187 192
179 191 198
183 194 201
179 191 194
164 178 181
157 171 168
137 154 140
146 162 156
159 173 169
163 176 176
177 189 192
187 197 204
175 186 191
178 190 196
176 188 195
183 194 201
182 194 199
180 192 200
184 196 206
184 195 202
180 191 196
184 196 203
182 194 199
175 187 190
171 184 188
193 204 215
183 195 202
182 193 200
177 189 192
129 146 131
88 114 69
88 115 69
87 113 67
81 106 62
84 111 66
87 113 68
86 113 67
88 115 68
88 114 68
86 112 67
86 112 66
83 109 64
84 110 66
87 113 68
87 114 67
83 108 64
84 111 65
82 108 63
91 118 70
87 113 67
85 111 66
89 114 71
167 180 180
183 194 200
182 194 199
170 183 186
178 189 196
183 194 199
182 193 200
173 186 189
171 184 187
179 190 195
183 195 202
187 198 205
179 192 198
189 200 208
176 188 192
176 189 195
181 194 198
180 192 198
175 188 193
176 189 193
186 197 202
180 192 199
123 140 121
84 109 64
88 114 68
84 110 66
85 111 65
80 106 62
88 114 68
84 111 65
87 113 67
86 112 67
86 111 66
85 110 65
83 109 64
83 109 64
80 106 63
87 113 67
88 114 68
83 109 65
89 115 68
87 112 66
83 109 65
137 153 139
171 183 185
183 195 202
191 202 209
186 198 205
175 187 192
187 199 207
187 198 205
189 201 210
179 191 197
179 191 197
181 193 197
184 195 203
177 189 194
175 189 196
185 197 205
180 193 200
180 191 198
171 183 185
188 199 203
149 164 155
111 131 106
95 119 83
118 138 119
126 144 127
124 141 125
142 157 146
126 146 129
131 149 136
134 149 137
150 164 160
139 155 146
154 169 163
152 166 161
148 162 155
161 175 172
163 177 176
163 177 178
155 170 165
105 128 100
91 115 74
86 111 68
83 109 64
82 109 65
86 112 67
103 124 95
116 135 111
135 152 138
137 154 141
139 155 144
164 177 176
174 186 189
173 185 188
184 196 204
179 190 195
181 193 198
136 152 141
86 111 70
83 108 63
84 110 65
87 113 68
81 106 63
83 109 64
83 109 65
80 106 63
89 115 69
80 106 62
77 102 60
87 113 67
81 106 63
88 114 68
97 119 90
161 175 177
175 188 195
190 201 209
172 185 190
182 194 201
169 181 185
167 180 182
178 189 193
152 166 162
144 159 153
123 140 122
103 126 96
88 113 70
137 153 143
169 181 186
178 190 195
181 192 198
180 191 197
174 187 194
180 192 198
180 192 196
171 183 186
180 192 197
181 193 199
176 187 193
158 172 169
155 170 170
175 188 191
168 181 186
172 184 188
171 184 189
177 189 194
186 198 207
162 176 175
160 174 174
165 178 179
173 185 187
159 173 176
183 196 203
203 216 230
222 234 252
225 238 255
225 238 255
225 238 255
225 238 255
225 238 255
225 238 255
225 238 255
225 238 255
225 238 255
225 238 255
225 238 255
225 238 255
225 238 255
225 238 255
225 238 255
225 238 255
225 238 255
225 238 255
225 238 255
225 238 255
225 238 255
225 238 255
225 238 255
225 238 255
225 238 255
225 238 255
225 238 255
225 238 255
225 238 255
225 238 255
225 238 255
225 238 255
225 238 255
225 238 255
225 238 255
225 238 255
225 238 255
225 238 255
225 238 255
225 238 255
225 238 255
225 238 255
225 238 255
220 233 249
186 200 209
156 172 170
128 146 134
159 174 174
166 178 180
151 165 162
126 144 133
88 110 78
84 110 66
83 110 65
82 108 64
114 133 110
126 142 127
168 181 181
168 181 185
183 196 203
180 192 199
85 110 66
83 109 64
80 106 63
95 117 89
128 146 131
160 174 173
174 187 191
174 186 188
173 186 190
172 186 191
170 182 183
180 191 198
176 187 191
186 198 204
177 188 194
168 182 184
161 174 176
138 154 144
110 131 109
87 113 70
133 149 137
176 187 193
175 187 189
169 183 190
176 188 193
179 191 197
176 188 193
171 184 188
178 190 196
171 184 187
189 201 207
183 194 197
177 189 194
177 189 191
153 167 162
113 131 113
95 118 83
83 109 64
84 111 66
83 109 64
86 112 67
86 112 67
124 141 124
177 190 195
180 192 199
168 181 184
176 187 189
181 193 198
187 198 204
174 186 192
179 192 197
170 183 185
179 192 198
171 183 188
182 193 197
179 190 196
176 187 193
165 179 179
148 163 154
113 132 109
96 120 82
85 111 66
84 110 65
81 106 63
84 110 65
131 149 137
181 193 198
162 177 179
190 201 210
194 204 211
186 198 206
178 190 194
164 177 178
175 188 194
181 192 196
178 191 195
176 189 193
163 176 177
175 188 189
172 184 187
175 188 189
163 177 176
160 174 173
163 176 177
154 168 163
144 158 153
161 174 173
157 171 170
143 158 150
120 139 115
126 145 126
107 129 101
92 117 79
105 126 101
118 137 120
125 143 125
124 145 123
116 136 115
124 143 120
116 135 116
120 140 120
104 125 95
109 131 102
100 123 91
107 128 99
110 130 105
92 115 81
101 123 90
93 118 75
96 119 83
88 115 69
88 114 71
116 136 115
176 188 195
178 190 195
177 190 195
177 190 194
178 189 196
190 201 209
186 198 205
178 190 196
179 191 196
181 194 200
176 187 191
184 196 202
183 196 203
187 199 204
187 198 206
181 193 199
183 193 197
179 192 196
174 186 191
180 191 195
181 192 198
179 189 194
184 196 202
128 145 132
87 113 68
91 117 70
86 113 67
88 114 68
84 110 64
79 103 63
92 115 81
125 144 125
139 156 144
132 150 138
134 151 138
160 175 172
156 171 167
186 198 201
186 198 204
181 192 199
186 196 200
177 188 194
178 190 194
183 194 200
176 189 195
184 196 203
147 162 157
88 114 67
88 115 68
85 110 66
87 113 67
89 115 69
84 110 66
82 108 65
88 114 68
83 109 65
83 109 65
87 113 68
85 111 66
87 113 67
86 113 68
87 113 67
88 114 69
90 117 70
87 113 67
86 112 67
88 114 69
83 108 64
83 108 64
144 159 153
182 194 201
175 186 189
188 198 205
180 190 196
180 192 199
177 190 197
181 193 200
183 195 201
188 199 206
177 189 194
178 191 196
178 191 197
180 192 196
181 193 200
185 196 202
184 196 204
183 194 202
173 185 187
183 195 202
183 195 202
176 187 192
144 159 150
88 115 68
88 113 70
88 113 73
94 120 79
91 115 78
95 119 81
96 119 86
103 125 94
109 130 104
106 128 98
114 135 108
112 131 109
109 131 104
128 146 130
112 133 107
121 140 121
124 143 128
128 146 131
134 152 136
134 151 142
118 138 116
137 151 146
131 148 137
135 152 138
143 159 152
133 150 137
134 152 137
121 139 120
114 134 107
114 132 111
114 134 114
117 136 114
104 125 98
110 130 109
108 130 101
96 118 85
94 118 77
91 115 76
83 109 65
86 112 67
144 160 149
174 187 190
181 192 198
180 191 197
182 194 200
181 193 201
180 192 198
188 200 207
182 194 199
177 189 195
175 188 190
174 187 192
181 193 201
187 198 206
189 200 207
188 199 207
167 180 181
175 187 191
162 176 175
156 169 165
138 154 143
140 156 148
151 164 159
159 173 169
171 184 186
182 194 201
174 188 195
185 196 202
185 195 201
178 190 196
177 189 193
176 187 191
169 181 187
174 186 191
185 196 203
181 193 200
113 134 108
86 112 67
85 111 66
86 112 67
83 109 65
86 112 67
86 112 67
88 115 69
83 109 64
84 111 66
89 116 70
80 106 63
84 109 64
85 112 67
87 112 70
133 150 138
174 186 191
185 196 203
174 186 191
169 182 185
161 175 170
145 160 153
121 139 119
104 127 94
87 113 68
78 104 61
77 101 59
82 108 64
85 109 70
164 178 178
170 183 186
172 185 188
172 184 190
179 190 199
171 184 186
174 186 192
171 183 187
154 168 166
148 162 157
133 150 138
169 183 186
173 186 192
185 196 203
170 183 187
180 192 198
178 190 199
172 185 188
156 169 169
148 161 157
170 183 186
171 183 186
155 170 169
177 191 196
194 207 217
222 234 251
225 238 255
225 238 255
225 238 255
225 238 255
225 238 255
225 238 255
225 238 255
225 238 255
225 238 255
225 238 255
225 238 255
225 238 255
225 238 255
225 238 255
225 238 255
225 238 255
225 238 255
225 238 255
225 238 255
225 238 255
225 238 255
225 238 255
225 238 255
225 238 255
225 238 255
225 238 255
225 238 255
225 238 255
225 238 255
225 238 255
225 238 255
225 238 255
225 238 255
225 238 255
225 238 255
225 238 255
225 238 255
225 238 255
225 238 255
225 238 255
225 238 255
225 238 255
225 238 255
225 238 255
225 238 255
225 238 255
225 238 255
225 238 255
225 238 255
218 231 247
181 194 201
157 173 170
124 140 130
151 165 162
169 182 185
168 180 184
140 155 149
108 128 106
79 104 62
84 110 65
85 112 67
87 109 75
120 137 121
149 162 159
103 124 94
81 107 63
77 101 59
80 106 62
80 105 62
83 109 64
89 114 76
110 130 108
142 158 150
169 181 184
168 181 183
184 196 202
178 191 197
173 184 189
168 181 184
179 191 198
179 191 199
180 192 196
176 189 192
169 182 183
147 162 154
148 164 161
182 193 198
181 193 199
171 183 188
175 188 193
179 190 194
170 181 186
175 188 195
172 184 188
171 183 187
182 193 198
178 190 195
180 192 198
172 184 187
172 185 188
182 194 203
169 182 186
150 164 159
111 130 106
100 123 90
86 112 67
144 159 152
172 185 190
167 180 181
179 191 197
178 189 193
178 190 197
188 198 205
182 193 200
172 185 190
185 197 205
171 184 188
176 189 194
179 191 197
174 187 191
164 177 181
184 196 203
178 189 193
176 188 194
175 187 189
170 182 184
146 161 154
124 142 127
106 127 102
146 160 157
174 186 191
175 187 190
180 191 195
177 190 198
183 194 199
176 187 190
176 188 197
179 191 196
175 188 193
172 184 188
184 195 199
185 197 204
174 187 192
174 186 190
171 183 188
181 193 200
179 192 197
187 197 205
177 189 195
189 201 209
187 198 205
186 199 207
161 175 176
82 107 63
84 110 66
88 114 67
84 110 66
82 107 63
87 112 70
116 135 112
125 144 127
144 160 151
161 175 171
176 188 191
177 188 193
175 187 191
181 193 198
186 198 203
186 197 204
175 187 192
178 190 195
182 194 201
193 203 209
185 197 204
167 181 184
180 193 200
132 149 132
89 114 71
86 111 71
98 123 84
98 122 87
95 119 83
104 126 94
107 129 97
104 127 96
97 120 88
113 133 107
105 126 104
125 143 126
126 145 122
121 141 121
109 131 108
121 140 120
117 136 116
119 138 119
124 143 123
120 140 122
117 138 118
128 146 126
147 162 154
154 169 165
152 166 161
158 172 168
162 176 177
140 156 150
153 167 163
137 153 144
157 172 167
146 161 155
154 168 166
140 155 147
150 164 158
142 158 149
146 159 152
159 173 169
154 170 165
151 166 160
163 177 176
165 178 179
169 182 184
170 182 184
163 177 180
179 190 195
114 134 114
121 140 121
122 139 121
135 152 141
129 145 136
156 171 167
152 166 163
146 161 155
146 162 154
161 175 175
156 170 168
153 168 162
154 170 166
159 173 171
148 162 159
155 168 165
141 157 148
154 169 166
148 163 159
157 171 168
150 164 164
155 169 164
139 155 146
123 141 124
122 140 123
122 140 120
118 137 116
122 142 122
112 132 106
115 134 111
115 134 112
112 134 105
113 134 109
113 133 110
101 123 94
110 132 102
110 131 106
99 120 90
105 127 94
98 122 89
97 121 84
105 127 96
98 122 87
93 119 75
130 148 131
179 191 197
178 190 195
166 179 182
184 196 203
177 189 195
167 180 184
178 191 196
185 197 205
181 192 197
180 191 197
189 199 206
175 187 195
181 193 200
179 191 197
188 199 204
179 191 198
178 190 198
185 196 202
186 198 205
170 182 186
134 150 141
85 111 66
84 109 65
86 113 68
81 106 63
87 114 68
84 109 65
87 114 68
83 109 63
83 108 64
81 107 63
82 108 64
84 110 66
84 110 66
85 111 66
84 109 65
83 108 63
84 110 65
84 110 65
89 115 71
139 155 147
178 189 195
174 187 192
175 187 192
169 181 181
180 192 197
172 184 190
170 183 184
152 168 163
154 168 165
136 154 141
129 145 135
124 142 125
123 142 128
113 134 110
90 113 80
87 113 70
80 106 62
100 122 96
170 183 184
181 193 199
178 189 195
193 204 212
161 174 177
186 198 203
167 179 183
168 181 184
187 199 206
175 187 194
185 196 203
171 183 187
179 192 198
167 180 185
186 197 206
180 191 196
166 180 183
93 114 85
83 108 63
79 105 62
86 112 68
83 108 65
83 109 65
80 105 62
82 107 63
85 111 66
84 110 65
81 107 64
82 108 64
88 115 68
78 103 60
97 120 85
144 160 152
148 162 157
131 147 137
121 140 122
89 112 77
85 111 66
80 105 61
76 102 59
85 111 67
77 102 59
85 110 66
84 110 66
88 112 72
141 157 152
161 174 176
167 180 186
179 190 196
172 184 186
177 190 196
152 166 167
134 152 140
126 143 126
88 113 77
102 123 96
133 149 139
174 186 193
175 187 192
176 189 194
177 188 194
147 161 156
123 140 126
117 136 117
144 159 156
160 173 175
142 157 153
166 182 180
192 206 214
220 233 249
225 238 255
225 238 255
225 238 255
225 238 255
225 238 255
225 238 255
225 238 255
225 238 255
225 238 255
225 238 255
225 238 255
225 238 255
225 238 255
225 238 255
225 238 255
225 238 255
225 238 255
225 238 255
225 238 255
225 238 255
225 238 255
225 238 255
225 238 255
225 238 255
225 238 255
225 238 255
225 238 255
225 238 255
225 238 255
225 238 255
225 238 255
225 238 255
225 238 255
225 238 255
225 238 255
225 238 255
225 238 255
225 238 255
225 238 255
225 238 255
225 238 255
225 238 255
225 238 255
225 238 255
225 238 255
225 238 255
225 238 255
225 238 255
225 238 255
225 238 255
225 238 255
225 238 255
225 238 255
225 238 255
225 238 255
219 231 248
196 210 220
165 180 181
135 151 145
147 162 159
169 181 186
160 174 173
143 158 153
108 127 104
81 106 63
84 109 65
83 108 64
137 152 147
149 163 159
128 145 131
96 118 88
83 109 64
81 106 63
78 103 60
84 110 66
79 104 61
78 104 60
97 119 88
137 153 142
163 176 175
164 177 179
176 188 194
171 184 189
177 190 196
177 190 195
180 192 198
168 180 183
139 156 145
80 106 62
79 104 61
92 113 84
131 148 137
153 167 164
162 175 175
181 192 198
174 186 192
169 181 186
182 193 199
178 190 195
174 186 191
184 195 200
169 181 186
178 191 195
173 185 189
177 190 196
169 181 184
171 183 189
177 189 196
170 184 188
141 157 148
146 161 157
170 182 186
186 197 204
174 186 191
180 192 197
175 186 190
166 179 183
175 187 190
169 182 184
181 193 200
186 197 203
169 182 184
176 188 192
182 195 202
176 189 194
167 180 180
177 189 193
180 192 199
180 191 199
180 192 198
182 193 198
178 190 194
110 130 106
120 137 122
131 147 136
158 172 168
177 189 194
184 196 203
181 193 200
174 186 190
174 186 192
180 192 198
184 196 202
177 190 194
183 193 201
176 189 194
177 189 192
175 188 195
176 189 195
179 190 197
162 177 180
180 192 198
185 196 202
169 181 182
173 186 191
147 163 152
80 106 63
85 111 66
85 111 67
83 109 64
79 104 61
84 110 65
85 111 67
83 108 64
82 107 63
83 108 64
83 109 64
78 103 60
105 128 97
133 149 139
136 152 140
153 167 163
161 174 173
181 193 198
175 188 194
180 191 196
182 194 201
177 188 194
177 188 193
86 112 66
90 117 70
84 110 65
87 113 68
80 105 62
87 113 68
85 111 66
84 111 66
87 113 67
88 114 69
82 108 64
88 113 68
79 104 61
86 112 66
82 108 63
87 113 67
82 108 64
87 113 68
86 112 66
87 113 69
84 109 65
81 107 63
83 108 64
161 175 175
186 196 203
183 194 202
177 189 192
172 185 190
182 195 201
186 197 205
184 196 203
172 185 188
181 193 201
184 197 203
178 190 195
179 191 197
180 192 200
178 189 194
179 190 196
181 192 197
178 190 196
182 192 198
180 191 197
176 188 194
175 187 192
174 186 190
122 142 121
87 113 68
84 109 65
87 113 67
80 105 61
85 111 65
87 114 68
93 117 80
100 123 93
111 132 108
122 140 121
124 142 125
134 151 140
138 155 145
145 161 154
148 163 157
151 166 159
158 172 172
159 173 170
159 172 174
172 185 188
165 178 182
176 189 193
91 114 81
88 114 67
88 114 67
83 108 63
85 112 67
84 111 66
79 104 61
84 110 66
83 109 65
88 114 68
87 113 67
82 107 63
88 114 68
84 110 65
85 110 66
78 103 60
81 107 63
86 112 67
83 108 64
86 112 66
82 108 64
111 131 107
178 191 198
178 190 197
186 197 205
179 191 196
183 194 200
191 202 209
189 200 209
181 193 198
182 194 197
168 182 187
179 191 195
182 195 201
185 197 204
173 185 190
183 196 202
179 191 197
181 193 201
171 183 186
178 190 196
176 188 194
152 167 163
84 110 65
88 115 69
82 108 64
85 111 66
89 116 70
85 111 66
85 110 66
87 113 67
87 112 69
88 113 73
102 123 94
116 136 113
107 128 103
107 128 101
119 138 118
139 156 140
125 144 126
140 156 146
147 162 157
119 139 116
124 143 124
118 137 119
107 129 99
93 117 78
86 110 68
81 107 63
85 111 66
87 113 67
82 108 63
85 112 66
78 102 59
85 111 66
82 108 64
83 109 64
82 107 64
82 107 63
86 113 67
109 127 105
167 179 182
170 183 188
187 199 207
181 193 200
170 182 187
172 184 189
172 184 187
181 194 202
182 194 199
184 195 201
170 182 186
185 196 202
182 193 199
165 178 180
176 189 195
186 197 203
138 154 144
90 115 73
79 104 61
82 108 64
85 112 67
87 113 68
86 112 67
82 107 63
85 110 65
81 106 62
81 106 62
97 119 88
117 136 116
123 142 127
135 152 145
138 156 142
80 105 65
83 109 65
84 110 65
79 105 62
80 106 63
80 106 62
82 108 64
81 106 63
84 110 65
86 113 67
84 110 65
79 104 62
120 139 122
168 182 187
167 180 183
166 179 181
148 164 158
134 150 139
123 140 124
84 110 66
86 113 68
82 108 64
87 110 77
131 147 137
167 181 183
171 183 188
164 176 179
133 149 137
115 133 116
86 110 68
115 133 115
143 159 150
152 165 162
152 168 164
188 202 210
220 233 249
225 238 255
225 238 255
225 238 255
225 238 255
225 238 255
225 238 255
225 238 255
225 238 255
225 238 255
225 238 255
225 238 255
225 238 255
225 238 255
225 238 255
225 238 255
225 238 255
225 238 255
225 238 255
225 238 255
225 238 255
225 238 255
225 238 255
225 238 255
225 238 255
225 238 255
225 238 255
225 238 255
225 238 255
225 238 255
225 238 255
225 238 255
225 238 255
225 238 255
225 238 255
225 238 255
225 238 255
225 238 255
225 238 255
225 238 255
225 238 255
225 238 255
225 238 255
225 238 255
225 238 255
225 238 255
225 238 255
225 238 255
225 238 255
225 238 255
225 238 255
225 238 255
225 238 255
225 238 255
225 238 255
225 238 255
225 238 255
225 238 255
225 238 255
225 238 255
225 238 255
225 238 255
224 237 254
191 204 213
151 166 164
141 156 152
132 149 141
159 172 173
166 179 184
143 157 152
116 133 114
151 165 163
167 179 184
172 184 188
162 175 177
160 173 171
128 145 130
116 134 115
83 108 67
85 111 66
81 107 64
83 109 65
81 106 62
80 106 62
88 114 70
125 142 125
161 174 174
171 183 186
179 192 199
170 183 186
172 185 189
133 148 139
83 108 65
81 106 62
74 98 58
85 112 67
79 104 61
91 114 78
110 130 109
136 153 145
159 172 170
173 186 191
171 184 191
178 190 195
187 198 205
177 187 194
157 172 172
178 191 198
171 184 190
173 185 189
172 185 187
178 190 195
189 199 208
91 113 84
83 108 64
92 118 70
101 122 93
129 145 134
146 161 158
173 185 189
173 186 192
180 192 199
167 180 184
172 184 186
180 192 199
182 193 201
188 199 207
188 199 206
181 192 200
182 193 199
183 194 200
169 182 187
166 178 182
168 181 186
172 184 188
154 170 168
82 107 62
84 110 65
85 110 65
83 109 65
82 107 64
118 138 115
129 145 133
135 151 143
166 178 177
172 185 191
166 179 182
172 185 189
175 187 193
179 191 197
182 193 198
179 190 195
166 179 183
178 190 196
181 194 199
175 186 189
173 185 190
190 201 209
171 184 188
89 113 74
80 106 62
84 110 65
82 107 63
88 115 69
86 113 68
85 111 66
85 111 66
88 114 69
88 114 68
81 106 62
82 107 63
78 103 61
80 105 61
83 108 64
86 113 68
87 113 67
87 113 68
84 109 68
100 121 94
103 123 99
139 156 147
158 171 168
139 155 144
102 125 96
88 114 68
82 108 64
84 110 66
81 107 63
83 109 64
85 111 66
81 107 64
81 106 63
84 110 65
87 114 67
85 111 66
86 112 67
82 108 64
84 110 65
88 115 69
83 109 65
81 107 63
85 111 66
79 105 63
80 105 62
82 107 63
131 148 138
176 188 191
183 195 203
172 185 191
185 196 202
187 198 205
186 197 203
174 186 192
178 191 195
180 192 200
174 186 192
178 190 196
182 194 200
177 189 193
171 183 188
184 196 204
185 198 205
184 195 202
180 191 198
179 191 195
180 191 197
184 196 202
186 197 202
160 174 172
82 108 64
87 113 67
86 112 67
85 111 66
81 107 64
86 112 67
82 107 63
87 113 67
84 110 66
86 112 67
78 103 60
82 108 64
87 113 67
81 106 63
82 106 63
83 109 64
86 112 66
91 117 70
79 104 61
75 99 58
83 109 64
89 114 73
172 184 186
186 197 202
168 180 182
183 195 199
171 184 185
171 184 185
169 182 183
160 172 173
164 177 178
164 178 177
149 163 158
151 166 161
140 156 149
144 158 154
153 167 159
156 169 166
143 158 151
140 155 145
138 154 143
141 157 147
141 158 145
124 142 126
133 151 137
142 157 148
140 157 143
154 167 165
153 168 161
147 161 156
150 164 160
137 154 147
136 153 140
137 153 143
138 154 145
143 159 151
141 158 149
148 163 157
142 158 151
131 148 134
119 139 119
137 154 142
124 141 125
121 138 122
149 162 157
155 170 165
164 177 176
167 180 179
161 175 173
158 172 170
167 181 181
165 179 184
167 180 181
168 181 184
182 193 199
174 185 188
178 190 195
183 195 201
183 194 202
183 194 201
172 184 190
178 190 196
176 188 192
174 187 193
129 146 130
82 108 64
88 114 68
87 113 67
86 113 67
84 110 66
82 107 63
80 106 62
82 108 63
84 110 66
86 113 66
86 112 66
87 114 68
78 103 61
87 113 68
82 108 64
82 107 64
84 111 66
142 158 150
181 193 200
179 191 198
183 195 200
166 179 183
178 190 197
161 173 176
185 197 205
178 190 196
180 192 197
175 187 191
171 184 188
174 186 190
177 190 196
187 199 207
164 177 180
179 190 197
126 144 123
81 107 63
81 106 62
81 106 62
80 104 61
82 107 63
93 114 87
113 132 109
135 150 142
146 161 157
149 163 159
175 187 191
181 192 199
183 195 200
173 185 187
117 135 118
78 104 61
85 111 66
81 107 63
87 113 67
84 109 65
88 114 69
78 103 60
81 107 63
86 112 67
83 109 65
78 103 60
102 123 96
134 151 140
133 148 143
130 147 134
93 115 88
84 109 65
90 117 71
76 101 60
81 107 64
80 105 62
85 109 70
128 145 132
157 170 170
141 155 148
110 128 110
90 114 76
77 102 59
80 105 62
97 120 87
125 143 131
159 173 175
194 207 218
222 235 252
225 238 255
225 238 255
225 238 255
225 238 255
225 238 255
225 238 255
225 238 255
225 238 255
225 238 255
225 238 255
225 238 255
225 238 255
225 238 255
225 238 255
225 238 255
225 238 255
225 238 255
225 238 255
225 238 255
225 238 255
225 238 255
225 238 255
225 238 255
225 238 255
225 238 255
225 238 255
225 238 255
225 238 255
225 238 255
225 238 255
225 238 255
225 238 255
225 238 255
225 238 255
225 238 255
225 238 255
225 238 255
225 238 255
225 238 255
225 238 255
225 238 255
225 238 255
225 238 255
225 238 255
225 238 255
225 238 255
225 238 255
225 238 255
225 238 255
225 238 255
225 238 255
225 238 255
225 238 255
225 238 255
225 238 255
225 238 255
225 238 255
225 238 255
225 238 255
225 238 255
225 238 255
225 238 255
225 238 255
225 238 255
225 238 255
225 238 255
225 238 255
225 238 255
201 214 226
161 175 177
134 151 139
133 148 143
161 174 179
151 166 163
106 125 103
138 153 146
150 163 161
178 190 194
173 185 188
169 182 185
169 181 186
140 157 152
117 135 121
82 106 69
76 102 59
78 103 60
81 107 64
81 105 62
76 101 59
81 106 62
117 137 115
124 142 128
153 167 165
120 136 121
83 108 64
84 110 65
82 107 63
82 107 64
79 104 61
78 103 60
79 104 61
82 107 63
80 105 62
91 112 81
119 137 121
136 153 146
167 179 181
173 187 190
173 186 193
184 196 204
173 185 191
177 189 196
182 193 200
175 187 193
169 181 183
85 111 67
87 113 67
84 110 65
80 105 62
81 107 63
79 104 61
83 109 65
92 114 84
128 145 131
141 155 149
163 176 179
170 184 187
171 184 189
173 185 191
180 192 197
170 182 185
177 189 197
174 187 191
179 190 196
173 185 191
162 175 180
180 191 196
149 164 157
85 111 66
80 106 62
87 113 66
85 111 67
81 107 63
80 105 62
86 112 67
87 113 67
84 109 64
84 110 65
102 123 92
121 139 120
143 159 151
154 168 166
176 188 192
171 184 187
180 192 197
170 181 184
173 186 189
176 189 195
182 193 200
173 185 187
144 160 153
77 102 59
80 106 62
81 106 63
84 109 64
82 108 64
82 107 64
85 111 66
81 106 62
78 103 61
85 112 66
85 111 67
85 111 66
84 110 65
86 112 66
80 105 62
82 108 63
85 111 66
81 107 63
84 109 65
85 111 66
84 110 65
81 106 62
101 123 92
171 184 188
169 182 185
178 190 194
168 180 181
150 164 162
132 150 137
140 156 144
104 126 97
109 131 104
84 110 65
83 109 65
78 103 60
84 110 65
84 110 65
84 110 65
85 112 66
77 102 59
88 115 68
86 113 68
85 111 66
80 105 61
81 106 63
80 104 67
176 189 193
179 191 197
176 187 192
185 196 203
176 188 193
184 195 205
181 192 198
178 189 194
182 193 200
180 192 198
165 178 183
180 192 197
178 190 197
176 187 192
177 189 194
182 193 198
168 181 186
177 189 194
176 188 193
178 190 195
177 190 195
181 193 199
169 181 183
90 113 78
84 110 65
88 114 68
85 111 66
81 106 63
82 108 64
84 110 65
87 113 68
83 109 64
82 107 63
81 107 63
87 114 68
83 108 63
82 108 64
87 114 68
92 118 71
86 112 66
88 114 68
82 107 64
86 112 67
85 111 66
83 109 65
161 175 174
180 192 196
181 192 198
174 187 190
176 187 192
179 191 196
191 202 211
181 192 199
185 197 203
181 193 199
165 179 184
171 184 188
182 195 202
169 181 185
176 188 194
176 188 192
183 194 200
178 189 194
165 178 180
171 183 185
174 186 190
169 184 186
105 127 96
80 105 62
86 113 68
79 105 62
84 109 65
86 112 66
81 106 62
87 113 67
84 110 66
82 108 64
88 115 69
88 114 68
83 109 65
84 110 65
86 112 67
85 111 66
86 112 66
85 110 66
80 105 62
84 110 65
121 140 123
169 180 184
169 182 185
179 192 200
188 199 205
180 192 198
177 189 194
171 183 190
182 194 202
182 194 200
180 192 198
172 185 190
176 188 195
181 193 198
184 195 201
184 196 203
171 183 187
173 186 191
175 187 193
173 186 189
122 140 123
83 109 65
81 106 63
84 110 65
83 109 64
84 111 66
84 110 65
80 106 62
85 111 66
83 109 65
82 108 64
84 110 65
82 107 63
81 106 63
84 109 65
82 107 63
86 111 66
88 113 73
144 159 152
168 180 182
182 193 199
174 186 191
174 186 192
175 187 192
170 182 185
177 189 196
180 191 196
175 187 188
171 183 186
169 182 185
166 179 181
169 184 188
187 198 205
184 196 203
174 186 188
117 137 116
110 131 107
121 140 121
144 160 152
139 154 146
162 176 180
179 191 196
170 183 188
173 186 191
167 180 182
158 171 171
177 189 194
176 188 192
179 192 198
143 157 151
99 120 90
84 110 66
81 107 64
86 112 67
82 107 63
82 107 63
81 107 63
83 109 65
84 110 65
94 116 84
116 133 119
127 144 132
115 133 115
82 107 66
79 104 61
80 106 63
77 102 60
80 105 62
84 110 65
85 111 66
83 109 65
95 116 85
98 119 92
113 131 111
85 108 72
81 106 63
83 108 64
104 124 101
103 122 102
117 135 120
162 177 176
200 214 224
222 234 252
225 238 255
225 238 255
225 238 255
225 238 255
225 238 255
225 238 255
225 238 255
225 238 255
225 238 255
225 238 255
225 238 255
225 238 255
225 238 255
225 238 255
225 238 255
225 238 255
225 238 255
225 238 255
225 238 255
225 238 255
225 238 255
225 238 255
225 238 255
225 238 255
225 238 255
225 238 255
225 238 255
225 238 255
225 238 255
225 238 255
225 238 255
225 238 255
225 238 255
225 238 255
225 238 255
225 238 255
225 238 255
225 238 255
225 238 255
225 238 255
225 238 255
225 238 255
225 238 255
225 238 255
225 238 255
225 238 255
225 238 255
225 238 255
225 238 255
225 238 255
225 238 255
225 238 255
225 238 255
225 238 255
225 238 255
225 238 255
225 238 255
225 238 255
225 238 255
225 238 255
225 238 255
225 238 255
225 238 255
225 238 255
225 238 255
225 238 255
225 238 255
225 238 255
225 238 255
225 238 255
225 238 255
225 238 255
225 238 255
225 238 255
212 225 239
191 205 214
144 160 156
121 140 123
94 116 87
83 109 65
101 122 93
118 137 122
152 165 163
170 183 188
166 179 179
151 165 165
173 184 189
147 161 157
120 136 125
89 111 81
79 104 61
81 106 62
82 108 64
79 104 62
84 109 65
84 110 64
139 154 147
140 154 147
131 149 135
103 125 99
84 110 65
80 105 62
83 109 65
80 106 62
74 98 57
82 108 65
78 104 61
81 106 63
81 107 63
76 101 59
81 107 64
127 144 128
131 147 137
155 169 167
165 178 181
182 195 202
164 177 178
166 180 183
85 111 67
85 110 64
78 103 60
82 108 64
80 106 63
79 105 61
81 107 63
82 108 64
85 111 66
83 108 64
84 110 65
93 116 82
115 135 116
136 152 140
160 174 175
162 175 176
171 185 190
173 186 192
170 183 186
168 181 184
179 191 198
167 180 180
115 134 115
82 107 63
82 107 63
83 109 64
86 112 66
86 112 67
80 105 62
77 101 59
82 108 64
85 111 66
85 110 66
86 111 66
77 102 59
81 106 63
82 108 63
79 104 60
100 121 92
111 131 106
132 149 136
170 182 182
181 193 198
176 187 192
175 187 191
105 125 99
82 108 64
84 109 64
86 112 67
88 114 68
82 107 64
86 112 67
81 107 63
87 113 68
86 112 67
80 105 62
83 109 64
84 110 65
86 112 67
81 106 63
85 111 66
78 104 61
87 112 67
80 105 62
81 107 63
85 111 66
83 109 64
79 104 61
138 155 142
182 194 201
177 188 193
177 189 195
179 191 198
172 186 190
170 182 186
179 191 196
184 195 203
182 193 199
155 168 168
174 186 193
146 163 156
148 163 156
121 140 123
106 123 106
107 128 97
89 112 78
85 111 67
86 112 68
83 109 64
83 109 64
88 114 69
136 152 143
175 188 191
183 194 199
182 192 197
185 195 203
175 189 195
182 195 200
173 186 192
174 186 191
182 194 202
173 185 190
167 180 182
175 187 193
190 199 205
177 188 194
172 183 186
178 190 194
179 190 197
185 197 203
182 192 199
186 198 207
175 187 193
172 184 187
127 145 132
79 104 61
87 114 68
85 111 65
85 111 66
82 108 63
82 108 63
79 103 61
84 110 65
84 110 65
82 108 64
82 108 63
80 105 61
83 109 64
86 112 67
81 106 62
82 108 64
81 106 62
83 109 64
81 107 64
82 108 64
84 110 65
137 153 142
175 187 193
173 184 189
174 186 191
164 177 182
177 189 197
171 183 187
174 187 190
168 181 186
189 200 209
171 184 191
169 183 187
182 195 201
172 185 189
171 183 189
173 185 191
184 196 204
170 183 189
172 184 189
184 194 199
184 195 202
169 182 185
102 123 94
79 104 61
88 115 69
82 108 64
85 110 65
86 113 67
82 108 64
85 111 65
82 109 66
79 105 61
83 109 64
83 108 65
81 106 63
85 111 65
82 107 64
85 111 65
82 108 65
82 107 63
85 111 65
84 110 65
126 144 130
168 180 184
175 188 192
176 188 192
178 189 194
163 176 179
175 188 192
182 193 199
167 180 185
174 186 191
178 190 195
166 178 182
178 191 195
174 186 190
178 191 197
183 195 202
170 183 186
178 190 194
178 191 198
181 193 198
112 133 109
78 103 60
84 110 65
83 109 64
80 106 62
88 115 69
82 108 64
80 106 62
79 104 61
84 110 66
83 109 65
81 107 63
81 107 63
77 102 61
84 110 66
83 108 64
82 107 63
90 112 79
148 162 158
187 199 208
174 186 191
178 190 197
170 184 188
177 190 197
170 182 186
169 182 187
174 185 190
177 190 194
166 179 181
175 187 193
152 166 163
147 162 156
123 142 128
113 133 114
151 165 162
175 188 192
183 195 202
169 182 187
180 191 198
172 185 190
184 197 206
169 181 185
170 182 186
167 180 185
170 183 188
168 181 185
165 179 183
173 185 188
156 170 171
118 136 119
80 105 62
80 104 61
80 105 62
76 100 58
79 105 61
95 118 83
112 130 110
133 149 140
142 158 152
164 177 177
172 185 188
131 148 139
85 109 73
81 107 63
81 106 63
80 105 62
78 103 61
82 106 65
94 115 88
111 129 111
133 149 141
111 130 111
89 113 75
76 101 59
95 117 86
110 129 111
134 149 140
177 190 195
186 200 208
209 222 236
225 238 255
225 238 255
225 238 255
225 238 255
225 238 255
225 238 255
225 238 255
225 238 255
225 238 255
225 238 255
225 238 255
225 238 255
225 238 255
225 238 255
225 238 255
225 238 255
225 238 255
225 238 255
225 238 255
225 238 255
225 238 255
225 238 255
225 238 255
225 238 255
225 238 255
225 238 255
225 238 255
225 238 255
225 238 255
225 238 255
225 238 255
225 238 255
225 238 255
225 238 255
225 238 255
225 238 255
225 238 255
225 238 255
225 238 255
225 238 255
225 238 255
225 238 255
225 238 255
225 238 255
225 238 255
225 238 255
225 238 255
225 238 255
225 238 255
225 238 255
225 238 255
225 238 255
225 238 255
225 238 255
225 238 255
225 238 255
225 238 255
225 238 255
225 238 255
225 238 255
225 238 255
225 238 255
225 238 255
226 238 255
226 238 255
226 238 255
226 238 255
226 238 255
226 238 255
226 238 255
226 238 255
226 238 255
226 238 255
226 238 255
226 238 255
226 238 255
226 238 255
226 238 255
226 238 255
226 238 255
226 238 255
222 235 252
189 202 212
161 177 175
109 127 107
82 105 70
91 112 82
85 108 72
109 129 109
139 154 147
159 171 173
164 178 185
158 172 176
169 180 184
162 176 176
156 170 171
121 140 121
83 107 66
78 103 60
78 103 61
143 158 153
174 187 192
172 184 189
171 184 189
178 190 196
144 159 152
135 152 140
84 107 71
77 102 60
77 103 60
84 109 65
77 101 59
82 108 64
75 100 58
87 113 67
79 104 61
81 107 63
82 108 64
92 115 79
113 131 116
144 159 154
152 167 161
82 107 67
85 111 66
79 104 61
78 103 60
79 104 62
84 109 65
84 110 65
82 107 63
84 111 66
85 111 66
74 99 57
78 103 61
79 104 61
81 106 63
83 109 65
77 102 58
100 123 96
121 138 122
139 155 147
154 168 167
174 187 194
150 164 163
80 106 63
85 112 68
86 111 66
85 111 65
83 108 64
83 109 64
77 102 59
80 106 62
82 108 64
85 111 66
85 111 66
82 109 65
80 106 63
77 102 59
84 110 66
84 111 65
80 105 61
82 108 64
84 110 66
78 104 61
84 110 65
86 109 73
126 143 132
144 159 152
128 145 132
108 128 105
84 109 67
82 108 64
82 107 63
85 111 66
81 106 63
79 104 62
81 106 62
78 103 61
76 102 59
82 107 64
81 106 63
79 105 62
85 111 66
82 107 63
85 111 66
82 108 64
86 112 66
85 111 66
82 108 63
95 118 83
154 168 168
184 196 204
184 195 201
174 186 189
169 182 186
181 193 200
175 187 195
182 194 199
180 191 196
185 197 207
163 176 182
170 183 186
177 188 195
172 185 192
180 192 201
179 190 194
176 188 191
172 185 191
166 180 181
159 172 173
156 170 169
157 171 165
127 144 128
143 158 151
148 161 158
164 177 178
174 186 190
164 177 179
175 187 192
177 188 192
169 181 187
167 179 183
180 191 196
181 192 198
179 191 195
175 187 192
181 193 198
175 188 194
175 188 193
178 190 197
176 187 190
165 178 180
176 188 195
173 186 192
176 188 193
147 161 158
82 108 63
84 110 65
83 109 64
83 109 64
82 108 63
84 110 66
86 112 67
80 104 61
86 112 67
83 109 65
81 106 63
80 105 62
83 109 65
88 115 69
83 109 64
82 108 64
84 109 64
83 108 65
85 110 65
82 108 64
82 107 62
99 119 94
175 186 191
173 186 192
174 186 191
181 193 199
177 190 195
186 197 205
166 179 184
182 195 202
171 184 189
180 192 197
171 182 184
181 193 199
174 187 194
179 191 197
181 192 198
182 193 199
170 183 185
175 187 193
178 190 197
171 184 190
174 186 193
116 135 118
82 107 63
84 110 66
81 106 62
83 108 64
79 104 61
83 109 64
83 109 65
84 110 65
83 109 65
83 109 66
80 106 62
82 108 63
86 112 67
81 107 63
84 110 66
83 109 65
85 111 66
79 105 62
81 106 63
126 144 127
163 176 176
187 199 208
165 178 180
184 195 203
181 193 199
185 196 204
177 188 193
176 188 192
173 186 190
181 193 201
180 190 195
158 172 173
178 189 193
190 201 209
177 189 196
181 192 196
168 180 183
172 185 188
160 174 174
105 126 98
84 109 64
84 109 65
86 113 67
80 106 63
87 113 67
85 112 67
83 108 64
82 107 63
81 106 62
84 110 66
83 109 65
84 110 65
81 106 63
81 107 63
79 105 62
80 105 63
97 119 89
156 168 171
184 195 201
173 186 192
170 183 186
166 179 180
155 169 164
144 160 154
138 154 144
127 143 129
102 125 95
100 121 94
80 104 61
83 108 64
79 104 61
86 112 68
108 128 104
154 168 170
165 177 181
167 179 180
170 181 188
182 193 198
159 172 175
189 200 209
171 183 189
162 176 178
179 191 197
164 176 180
182 193 199
185 197 207
166 178 181
138 153 145
88 112 75
81 107 63
106 127 99
113 133 115
132 146 140
154 168 167
158 172 175
171 184 189
161 174 178
172 184 187
173 185 190
153 167 163
96 116 91
79 103 60
85 110 65
79 103 64
101 120 100
125 142 129
145 159 153
161 174 178
138 152 147
124 141 125
90 116 75
94 115 87
93 115 84
121 138 124
164 178 179
199 213 224
220 232 248
226 238 255
226 238 255
226 238 255
226 238 255
226 238 255
226 238 255
226 238 255
226 238 255
226 238 255
226 238 255
226 238 255
226 238 255
226 238 255
226 238 255
226 238 255
226 238 255
226 238 255
226 238 255
225 238 255
225 238 255
225 238 255
225 238 255
225 238 255
225 238 255
225 238 255
225 238 255
225 238 255
225 238 255
225 238 255
225 238 255
225 238 255
225 238 255
225 238 255
225 238 255
225 238 255
225 238 255
225 238 255
225 238 255
225 238 255
225 238 255
225 238 255
225 238 255
226 238 255
226 238 255
226 238 255
226 238 255
226 238 255
226 238 255
226 238 255
226 238 255
226 238 255
226 238 255
226 238 255
226 238 255
226 238 255
226 238 255
226 238 255
226 238 255
226 238 255
226 238 255
226 238 255
226 238 255
226 238 255
226 238 255
226 238 255
226 238 255
226 238 255
226 238 255
226 238 255
226 238 255
226 238 255
226 238 255
226 238 255
226 238 255
226 238 255
226 238 255
226 238 255
226 238 255
226 238 255
226 238 255
226 238 255
226 238 255
226 238 255
226 238 255
226 238 255
226 238 255
226 238 255
224 236 253
205 217 231
170 184 189
144 160 156
119 135 122
138 153 149
122 138 125
126 143 131
143 157 152
145 159 156
166 178 183
163 176 177
151 166 167
154 167 167
150 164 164
133 149 141
136 152 145
154 167 168
175 187 193
174 187 194
171 183 185
171 182 186
169 181 185
169 181 186
163 175 176
144 158 154
94 115 89
99 121 89
80 105 62
78 103 60
80 106 62
80 105 61
86 113 67
78 104 61
84 110 65
83 109 64
74 98 56
140 156 146
169 181 185
175 188 189
140 156 144
101 122 97
86 110 68
76 101 59
76 101 58
81 107 63
80 105 62
85 111 66
81 106 62
82 107 64
81 106 62
80 105 61
80 105 62
79 105 62
78 103 61
77 102 59
76 101 59
83 109 65
80 103 66
157 171 168
139 155 145
113 131 110
94 117 83
81 106 63
79 105 62
78 104 62
83 108 64
83 108 64
82 107 64
83 109 65
74 98 57
89 116 69
80 105 62
79 104 60
79 103 60
80 106 63
79 104 61
81 107 64
82 108 63
79 105 62
87 113 67
81 106 62
144 160 155
174 187 192
173 185 191
168 180 186
174 186 193
165 178 181
158 172 173
143 158 149
125 142 126
96 118 89
95 118 83
80 105 62
84 109 65
81 106 63
81 106 63
81 106 63
82 108 64
79 103 60
81 106 62
84 109 64
79 104 61
84 111 66
82 107 64
147 162 158
171 183 187
169 182 185
185 196 202
178 190 196
170 183 186
179 191 197
189 199 207
165 178 182
179 192 199
172 184 190
185 197 204
177 190 195
174 186 192
181 194 201
170 182 186
182 193 202
180 192 198
169 181 185
177 189 195
170 184 189
177 189 195
173 185 190
111 131 110
82 108 63
81 106 62
80 105 62
82 108 64
102 124 92
106 127 102
116 136 118
120 139 118
146 160 154
151 165 158
153 167 162
173 185 185
172 183 186
171 184 189
172 184 188
175 187 191
187 197 204
159 172 172
182 193 199
164 178 180
168 181 186
167 179 181
87 112 70
87 113 68
78 103 61
79 104 61
81 106 63
85 111 66
81 106 62
89 116 69
80 106 62
85 111 66
76 101 59
85 111 67
85 111 66
80 105 62
82 107 64
83 109 64
84 110 65
83 109 64
84 110 65
78 103 61
85 111 66
89 114 73
155 168 169
173 185 190
177 189 193
173 185 190
174 186 189
180 191 196
174 186 192
174 186 189
177 190 196
176 189 194
185 197 207
173 186 192
179 190 194
170 182 187
178 190 193
169 182 186
185 197 202
170 183 187
169 183 188
172 185 189
165 178 181
119 138 120
81 107 63
86 112 67
79 105 61
82 108 63
83 108 64
83 108 64
79 104 61
81 107 64
85 111 67
81 106 63
76 100 58
81 106 62
84 110 65
82 107 63
83 109 65
82 108 64
83 109 65
78 104 61
82 106 63
128 145 131
174 186 190
173 185 189
171 184 187
171 184 188
174 186 191
170 182 185
181 193 199
180 192 198
183 194 202
184 196 203
177 189 196
171 183 189
185 198 205
184 195 202
172 186 192
181 192 200
177 190 197
179 191 195
160 173 175
78 103 63
78 103 60
80 105 62
86 112 66
82 108 64
76 100 59
85 111 66
79 105 62
84 109 64
77 102 60
74 98 57
83 109 65
86 110 70
100 121 91
115 133 115
126 143 130
130 146 133
105 127 100
112 132 108
112 130 112
103 124 97
76 101 59
80 105 62
78 104 62
80 106 63
87 113 68
80 106 62
80 106 62
80 105 63
79 103 61
87 113 67
81 106 62
86 112 67
120 137 125
172 184 188
166 178 180
169 181 184
168 181 185
159 172 175
171 184 191
172 184 189
174 186 191
172 185 190
160 173 174
166 178 185
174 186 191
168 181 185
155 169 171
139 154 146
152 167 166
162 175 173
172 185 190
173 184 189
181 193 198
176 189 194
170 183 189
160 173 177
175 186 192
174 186 190
140 155 150
95 115 90
80 102 69
120 137 123
134 151 140
149 163 163
162 175 179
164 177 181
158 171 173
156 169 168
139 155 147
97 117 94
79 103 66
128 145 133
180 193 200
204 217 229
224 236 253
226 238 255
226 238 255
226 238 255
226 238 255
226 238 255
226 238 255
226 238 255
226 238 255
226 238 255
226 238 255
226 238 255
226 238 255
226 238 255
226 238 255
226 238 255
226 238 255
226 238 255
226 238 255
226 238 255
226 238 255
226 238 255
226 238 255
226 238 255
226 238 255
226 238 255
226 238 255
226 238 255
226 238 255
226 238 255
226 238 255
226 238 255
226 238 255
226 238 255
226 238 255
226 238 255
226 238 255
226 238 255
226 238 255
226 238 255
226 238 255
226 238 255
226 238 255
226 238 255
226 238 255
226 238 255
226 238 255
226 238 255
226 238 255
226 238 255
226 238 255
226 238 255
226 238 255
226 238 255
226 238 255
226 238 255
226 238 255
226 238 255
226 238 255
226 238 255
226 238 255
226 238 255
226 238 255
226 238 255
226 238 255
226 238 255
226 238 255
226 238 255
226 238 255
226 238 255
226 238 255
226 238 255
226 238 255
226 238 255
226 238 255
226 238 255
226 238 255
226 238 255
226 238 255
226 238 255
226 238 255
226 238 255
226 238 255
226 238 255
226 238 255
226 238 255
226 238 255
226 238 255
226 238 255
226 238 255
226 238 255
226 238 255
226 238 255
226 238 255
226 238 255
208 221 235
188 202 210
162 177 176
125 142 134
138 153 146
157 170 169
165 179 179
166 178 181
164 177 181
153 166 166
150 165 161
175 186 191
104 122 103
78 102 63
107 126 103
129 145 133
159 172 172
174 185 192
169 181 186
154 166 166
158 171 172
165 177 179
166 178 183
181 194 200
158 172 173
128 144 134
107 127 105
86 108 79
83 108 63
79 104 60
84 109 65
78 103 61
80 105 62
164 177 178
175 187 192
164 177 181
165 178 181
169 182 187
172 184 187
146 160 156
145 160 154
110 128 108
94 116 84
73 97 56
80 105 62
84 110 66
76 100 59
83 109 65
75 100 59
81 107 63
85 110 65
75 100 58
84 110 66
78 103 61
81 106 63
160 174 173
171 183 185
176 188 194
168 181 186
170 183 187
150 164 162
127 144 132
104 123 98
99 119 90
81 106 63
79 105 61
85 111 65
79 105 62
80 105 62
83 109 64
77 103 60
80 105 62
85 111 66
81 106 63
81 106 62
81 106 63
83 109 65
91 115 79
167 180 183
168 181 184
168 180 184
171 184 188
179 191 199
166 179 183
178 191 197
172 185 190
182 193 200
180 191 197
170 184 190
171 183 187
150 164 160
150 165 161
137 153 141
106 125 103
82 104 71
78 104 62
83 108 64
80 105 62
83 109 65
79 105 62
104 125 101
177 190 195
174 186 189
178 190 196
177 190 196
173 184 190
166 179 183
173 185 191
179 192 197
178 190 195
177 189 194
176 189 195
162 175 176
172 186 188
175 187 191
170 183 185
168 181 185
167 179 182
172 184 191
175 188 192
159 172 173
181 193 198
173 184 187
151 165 159
78 104 61
80 105 62
81 106 63
77 101 59
82 107 64
84 109 64
86 112 67
78 103 60
78 103 60
79 104 61
82 107 63
83 109 64
87 113 68
85 111 66
79 104 62
88 112 74
103 125 99
109 129 106
111 130 111
120 138 120
136 152 141
135 150 140
141 157 151
114 133 114
113 133 110
97 121 88
96 119 85
81 106 65
84 110 65
85 111 65
80 106 62
82 107 63
87 114 69
80 106 62
80 105 62
81 106 62
80 106 63
83 109 64
82 108 64
82 107 63
82 108 64
81 106 64
84 110 65
92 116 80
165 177 176
176 187 191
172 184 189
179 192 199
173 185 190
168 180 185
173 186 190
180 193 201
170 183 189
168 180 183
177 189 195
181 193 198
170 183 190
172 184 186
168 180 185
174 187 191
184 196 203
177 188 194
164 176 177
166 178 180
173 185 191
135 153 143
80 106 62
80 106 62
79 105 61
86 112 67
81 107 64
82 107 63
82 108 64
76 101 59
78 104 61
79 104 60
82 107 62
87 114 67
82 108 64
81 106 62
87 113 69
80 106 61
87 113 68
82 108 63
78 103 61
115 135 116
164 177 180
167 181 185
167 180 185
170 183 187
172 184 187
182 194 202
179 190 196
173 184 188
164 177 180
173 185 189
169 181 185
165 177 182
177 190 193
188 200 206
169 181 185
163 177 178
174 186 190
167 180 182
136 153 148
85 110 71
87 112 71
104 124 98
117 135 116
131 148 134
130 144 135
136 151 144
142 157 146
134 149 139
155 170 166
159 173 171
148 161 161
169 182 185
167 180 184
172 184 188
165 177 181
171 184 190
122 140 122
82 109 64
82 108 63
79 104 61
77 101 58
84 111 66
85 111 66
86 113 68
84 110 65
78 104 62
80 104 62
80 105 61
83 109 65
84 110 66
76 101 59
96 116 89
139 156 150
172 184 188
159 173 175
171 183 188
173 186 192
170 184 190
159 171 176
163 176 181
161 174 175
145 160 161
140 155 147
116 134 118
101 120 98
114 132 112
141 156 151
178 190 196
167 180 184
163 176 179
169 182 186
162 174 177
166 179 182
175 187 193
172 184 189
164 176 180
157 170 172
163 178 182
137 152 147
138 153 147
151 163 163
151 164 162
140 156 151
154 168 166
118 135 121
110 130 108
84 106 73
90 110 85
99 120 94
141 157 151
181 195 200
209 222 235
226 238 255
226 238 255
226 238 255
226 238 255
226 238 255
226 238 255
226 238 255
226 238 255
226 238 255
226 238 255
226 238 255
226 238 255
226 238 255
226 238 255
226 238 255
226 238 255
226 238 255
226 238 255
226 238 255
226 238 255
226 238 255
226 238 255
226 238 255
226 238 255
226 238 255
226 238 255
226 238 255
226 238 255
226 238 255
226 238 255
226 238 255
226 238 255
226 238 255
226 238 255
226 238 255
226 238 255
226 238 255
226 238 255
226 238 255
226 238 255
226 238 255
226 238 255
226 238 255
226 238 255
226 238 255
226 238 255
226 238 255
226 238 255
226 238 255
226 238 255
226 238 255
226 238 255
226 238 255
226 238 255
226 238 255
226 238 255
226 238 255
226 238 255
226 238 255
226 238 255
226 238 255
226 238 255
226 238 255
226 238 255
226 238 255
226 238 255
226 238 255
226 238 255
226 238 255
226 238 255
226 238 255
226 238 255
226 238 255
226 238 255
226 238 255
226 238 255
226 238 255
226 238 255
226 238 255
226 238 255
226 238 255
226 238 255
226 238 255
226 238 255
226 238 255
226 238 255
226 238 255
226 238 255
226 238 255
226 238 255
226 238 255
226 238 255
226 238 255
226 238 255
226 238 255
226 238 255
226 238 255
226 238 255
226 238 255
226 238 255
226 238 255
224 236 253
202 215 228
177 190 196
147 162 158
138 154 150
149 164 160
171 183 191
134 150 145
130 145 138
132 147 139
141 157 154
141 156 151
137 153 145
125 142 127
112 130 112
124 141 127
146 161 152
151 166 164
157 170 174
164 177 182
164 176 179
162 176 179
160 172 175
168 181 186
176 188 193
149 163 161
134 149 140
113 131 114
81 104 70
92 113 82
165 178 181
158 171 173
178 188 194
170 182 186
167 179 184
152 164 166
173 186 192
177 189 195
174 186 193
165 179 181
164 176 177
147 162 157
128 145 131
114 134 110
80 104 61
79 104 62
80 104 61
84 109 64
81 106 63
79 104 62
79 104 62
91 114 78
161 173 176
169 181 185
169 182 185
171 183 188
169 181 185
172 184 189
170 182 186
165 178 181
182 193 200
175 187 191
154 168 169
123 139 129
113 132 113
99 120 94
82 108 65
81 106 62
81 106 63
76 101 59
77 101 60
79 104 62
82 108 64
83 109 65
142 157 151
162 176 177
166 179 182
170 183 188
168 181 184
174 186 192
175 187 193
170 182 185
170 182 186
166 178 182
174 186 189
181 193 200
177 189 193
175 187 192
167 180 182
160 174 177
164 178 178
183 195 202
170 183 187
147 162 159
155 169 168
116 136 116
125 141 129
145 159 152
163 176 178
177 188 193
178 189 194
166 179 184
175 187 194
172 185 190
183 195 204
177 189 194
177 188 193
165 179 184
172 184 188
171 184 187
165 177 179
173 186 193
182 193 198
171 184 189
181 192 199
164 178 184
177 190 196
173 185 191
183 194 201
173 185 190
91 115 79
81 106 63
87 113 68
77 102 60
77 102 60
81 106 63
85 112 66
86 112 67
85 111 66
80 105 62
80 105 62
82 108 64
80 106 62
88 114 68
84 110 65
82 108 64
79 104 61
83 108 64
80 106 63
86 112 67
79 104 61
85 111 66
117 136 121
172 184 188
171 183 185
171 183 189
171 184 189
171 183 189
171 183 188
159 173 174
152 166 166
155 168 166
154 168 166
155 168 165
155 169 164
134 150 141
134 150 141
130 146 138
121 138 124
117 137 118
120 139 124
110 128 108
106 128 102
117 137 114
133 151 135
179 191 195
167 180 186
163 175 177
170 183 187
170 183 187
180 193 201
177 189 193
171 184 189
165 177 181
173 185 190
174 186 192
166 178 183
164 177 182
178 190 197
167 181 186
160 173 175
180 192 199
177 189 196
177 188 191
180 193 200
129 146 133
84 110 66
84 110 66
83 108 64
83 108 65
83 108 64
79 104 61
79 105 62
85 111 65
80 105 62
83 109 65
81 106 63
78 104 61
82 108 64
78 103 61
85 111 67
81 107 64
88 114 68
75 100 58
85 112 67
126 142 129
164 177 184
176 188 192
166 179 186
163 176 180
165 178 181
166 179 180
164 176 175
163 176 177
139 154 148
146 160 156
148 163 159
134 149 141
133 149 142
135 150 140
122 141 124
135 150 140
104 124 98
112 132 112
139 153 146
171 183 188
179 190 196
169 181 184
181 192 200
171 183 190
169 182 186
167 179 184
170 182 188
179 191 197
161 175 179
165 179 186
168 181 184
172 185 188
164 177 179
170 183 188
165 177 181
153 166 165
99 120 92
82 108 64
81 107 64
85 111 66
76 101 59
83 108 64
73 98 57
80 105 62
82 107 64
81 106 63
81 107 64
83 108 64
79 104 62
75 99 57
80 106 63
127 144 132
163 176 178
171 184 189
174 186 191
163 175 181
156 170 168
143 159 153
129 146 133
106 125 105
83 106 69
80 105 62
82 108 64
74 98 57
84 108 70
131 147 137
160 173 175
170 183 188
161 174 178
172 185 189
176 188 194
163 175 178
176 188 193
163 175 176
152 166 166
134 150 141
117 135 116
111 130 113
123 139 126
111 129 113
91 113 80
84 108 74
104 123 103
125 142 131
128 143 136
111 128 114
127 143 134
178 192 198
208 220 233
224 237 254
226 238 255
226 238 255
226 238 255
226 238 255
226 238 255
226 238 255
226 238 255
226 238 255
226 238 255
226 238 255
226 238 255
226 238 255
226 238 255
226 238 255
226 238 255
226 238 255
226 238 255
226 238 255
226 238 255
226 238 255
226 238 255
226 238 255
226 238 255
226 238 255
226 238 255
226 238 255
226 238 255
226 238 255
226 238 255
226 238 255
226 238 255
226 238 255
226 238 255
226 238 255
226 238 255
226 238 255
226 238 255
226 238 255
226 238 255
226 238 255
226 238 255
226 238 255
226 238 255
226 238 255
226 238 255
226 238 255
226 238 255
226 238 255
226 238 255
226 238 255
226 238 255
226 238 255
226 238 255
226 238 255
226 238 255
226 238 255
226 238 255
226 238 255
226 238 255
226 238 255
226 238 255
226 238 255
226 238 255
226 238 255
226 238 255
226 238 255
226 238 255
226 238 255
226 238 255
226 238 255
226 238 255
226 238 255
226 238 255
226 238 255
226 238 255
226 238 255
226 238 255
226 238 255
226 238 255
226 238 255
226 238 255
226 238 255
226 238 255
226 238 255
226 238 255
226 238 255
226 238 255
226 238 255
226 238 255
226 238 255
226 238 255
226 238 255
226 238 255
226 238 255
226 238 255
226 238 255
226 238 255
226 238 255
226 238 255
226 238 255
226 238 255
226 238 255
226 238 255
226 238 255
226 238 255
226 238 255
226 238 255
226 238 255
220 233 249
190 203 212
167 181 184
139 154 150
141 156 150
94 114 87
70 94 54
95 114 93
115 132 117
152 166 166
159 172 171
177 189 197
164 176 179
133 148 145
150 164 163
168 180 185
158 172 173
142 157 155
164 177 178
158 170 175
156 170 172
173 184 190
166 179 183
171 184 188
159 172 173
135 150 142
125 143 130
133 150 141
163 175 177
161 175 177
162 175 179
171 183 188
178 190 196
168 181 186
175 187 193
167 179 185
164 176 181
161 173 175
177 188 193
175 187 192
168 181 186
148 163 161
131 146 138
111 130 109
92 115 84
81 106 63
79 104 62
130 146 136
176 188 193
168 181 186
177 188 192
169 181 185
174 186 191
174 187 193
168 181 184
162 175 180
179 190 194
167 179 185
166 178 181
177 189 195
167 179 184
167 179 183
163 175 180
163 176 178
142 157 150
109 128 109
104 124 98
92 115 79
77 102 60
96 119 83
171 185 190
167 179 182
173 185 190
169 181 186
167 181 184
170 182 184
169 181 186
169 182 186
175 187 192
183 194 200
163 176 178
172 185 190
173 185 189
163 175 178
167 178 182
176 187 193
179 191 198
163 176 179
166 179 183
176 189 196
179 190 197
163 176 180
149 163 160
85 112 67
85 109 67
97 119 92
111 130 109
119 138 121
137 153 142
149 163 160
157 171 171
160 174 175
165 178 179
181 194 202
176 188 196
174 186 190
166 180 185
155 167 168
172 185 190
172 185 191
164 178 182
173 185 191
174 186 194
179 191 196
171 182 184
120 139 124
81 107 62
86 112 67
72 96 56
84 110 65
81 106 63
83 109 65
80 105 62
83 108 64
80 106 63
82 107 63
84 110 66
78 103 60
83 109 65
76 101 59
83 109 65
82 108 64
81 107 63
81 107 63
77 103 61
80 105 62
79 104 61
115 134 115
173 186 190
162 175 178
175 187 194
170 182 185
170 183 190
167 180 186
177 189 194
171 184 189
180 192 198
170 183 187
174 185 192
169 182 185
180 191 197
165 178 180
185 197 205
174 187 193
175 187 193
170 184 191
172 185 191
174 187 192
172 184 187
133 149 137
79 104 62
82 107 63
81 107 64
78 103 61
82 108 64
84 105 74
86 108 75
90 113 80
100 121 93
114 133 113
106 127 102
97 118 95
108 129 108
111 131 109
104 124 100
116 133 115
117 134 119
120 137 123
111 130 108
116 135 119
161 175 175
149 162 157
153 167 164
150 164 160
137 153 145
147 162 155
149 165 162
140 156 152
147 162 157
150 164 159
137 152 145
145 160 155
152 166 167
141 157 150
156 170 170
155 168 168
156 169 169
159 172 171
165 177 178
164 176 177
116 136 120
89 111 79
81 105 65
83 108 64
83 108 64
82 108 64
82 107 63
77 102 60
81 106 61
83 108 64
79 105 62
81 107 64
80 106 62
80 106 62
83 109 65
78 104 61
78 103 60
79 104 61
80 105 64
152 165 165
176 187 194
173 187 193
164 177 179
157 170 172
168 180 182
165 178 180
165 178 180
171 184 187
172 185 192
165 178 180
159 172 176
162 174 177
170 183 190
176 189 195
174 186 190
173 185 190
141 156 150
80 105 62
83 108 64
83 108 64
82 108 64
76 100 58
79 104 62
77 102 59
83 108 64
80 105 62
78 103 61
81 106 62
76 101 59
77 100 62
96 116 89
106 125 105
118 136 120
130 147 132
106 124 104
96 118 89
83 106 69
76 100 60
75 100 58
81 106 62
78 102 61
76 101 60
81 106 63
77 102 60
81 106 66
119 136 122
154 168 166
167 180 184
153 166 165
159 173 173
157 170 170
153 166 167
160 173 176
168 180 183
152 165 166
173 185 190
147 160 157
87 109 76
79 104 61
87 111 76
106 126 101
126 142 132
143 156 153
146 159 157
156 171 173
167 181 185
194 207 217
222 235 251
226 238 255
226 238 255
226 238 255
226 238 255
226 238 255
226 238 255
226 238 255
226 238 255
226 238 255
226 238 255
226 238 255
226 238 255
226 238 255
226 238 255
226 238 255
226 238 255
226 238 255
226 238 255
226 238 255
226 238 255
226 238 255
226 238 255
226 238 255
226 238 255
226 238 255
226 238 255
226 238 255
226 238 255
226 238 255
226 238 255
226 238 255
226 238 255
226 238 255
226 238 255
226 238 255
226 238 255
226 238 255
226 238 255
226 238 255
226 238 255
226 238 255
226 238 255
226 238 255
226 238 255
226 238 255
226 238 255
226 238 255
226 238 255
226 238 255
226 238 255
226 238 255
226 238 255
226 238 255
226 238 255
226 238 255
226 238 255
226 238 255
226 238 255
226 238 255
226 238 255
226 238 255
226 238 255
226 238 255
226 238 255
226 238 255
226 238 255
226 238 255
226 238 255
226 238 255
226 238 255
226 238 255
226 238 255
226 238 255
226 238 255
226 238 255
226 238 255
226 238 255
226 238 255
226 238 255
226 238 255
226 238 255
226 238 255
226 238 255
226 238 255
226 238 255
226 238 255
226 238 255
226 238 255
226 238 255
226 238 255
226 238 255
226 238 255
226 238 255
226 238 255
226 238 255
226 238 255
226 238 255
226 238 255
226 238 255
226 238 255
226 238 255
226 238 255
226 238 255
226 238 255
226 238 255
226 238 255
226 238 255
226 238 255
226 238 255
226 238 255
226 238 255
226 238 255
226 238 255
226 238 255
226 238 255
226 238 255
215 228 242
198 211 223
189 201 209
132 149 140
123 139 130
78 99 70
71 95 54
107 126 103
124 141 127
155 167 169
151 165 165
164 176 182
159 173 177
161 175 179
164 178 184
135 151 142
108 126 108
95 116 88
98 119 90
113 130 116
108 128 106
127 143 138
128 144 135
111 129 113
101 121 99
106 125 105
115 132 119
129 145 136
158 171 173
153 166 164
165 178 181
161 174 177
160 173 176
169 181 187
171 184 188
161 174 177
161 172 174
164 177 179
163 176 179
169 182 184
162 175 178
156 170 171
153 166 164
121 138 125
142 156 151
155 169 168
174 186 193
175 188 195
162 175 176
173 185 189
168 180 183
162 174 177
170 183 188
184 196 203
161 174 176
169 181 185
171 185 191
169 180 183
163 176 181
171 182 186
171 184 189
167 180 184
156 169 170
166 179 184
151 166 167
123 140 126
122 140 125
144 159 156
155 168 166
166 179 183
182 193 199
169 181 184
165 178 182
169 182 187
170 182 189
169 181 186
172 184 189
167 179 183
160 174 177
175 188 194
173 186 192
176 188 193
163 176 180
169 183 188
168 181 184
183 193 201
164 177 180
165 178 184
95 115 88
81 106 63
83 109 65
78 103 60
81 107 64
82 107 64
81 106 63
81 107 64
83 108 64
79 104 61
88 111 76
100 122 91
111 131 111
111 131 108
141 155 151
136 151 144
155 169 164
170 183 186
174 186 191
167 180 184
179 191 198
164 178 180
147 163 161
81 107 64
80 106 63
79 105 62
84 110 66
83 108 64
83 108 64
81 107 63
74 98 56
77 102 59
85 111 66
78 103 60
82 107 63
81 107 64
81 107 63
77 103 60
81 107 64
86 112 66
83 108 63
84 110 65
77 102 60
81 106 63
108 129 104
159 172 173
174 187 191
170 183 187
172 184 187
172 184 189
168 179 185
163 176 179
173 185 190
179 191 199
172 185 190
164 177 180
170 182 186
167 180 183
174 187 190
175 186 189
166 180 183
172 184 188
169 182 188
178 189 195
168 180 183
169 183 188
138 154 147
80 106 62
80 105 62
79 104 61
81 106 62
80 105 62
81 106 63
82 108 64
80 106 63
75 99 58
78 103 59
85 111 66
81 106 62
81 106 62
76 101 59
81 107 64
78 104 61
84 109 64
82 107 63
76 102 60
80 106 63
139 155 146
180 191 197
176 188 196
176 187 194
166 178 182
180 191 197
176 189 194
177 189 195
163 177 181
176 188 193
180 191 198
175 187 193
175 188 194
169 182 187
170 184 190
173 186 193
168 180 184
171 184 188
170 182 184
171 183 188
119 136 119
82 108 64
78 102 59
81 106 62
80 105 63
82 107 63
82 107 64
80 105 62
78 103 61
76 102 59
73 97 56
85 111 65
76 100 59
76 100 59
82 107 64
79 104 62
82 107 63
80 105 62
103 125 94
152 165 163
164 178 180
167 180 186
169 182 186
167 180 185
185 197 205
167 179 183
175 187 193
167 180 187
169 181 183
164 177 181
171 183 189
167 179 184
160 174 177
169 181 187
168 180 183
163 176 179
109 129 108
80 106 63
82 108 64
73 97 56
79 104 62
82 107 64
85 110 68
88 110 79
100 122 92
108 127 110
115 134 119
143 159 153
144 157 153
166 179 182
157 171 174
146 161 155
83 106 73
76 101 59
79 104 60
72 95 56
76 100 58
87 113 70
87 110 76
109 129 107
103 124 101
125 142 128
122 138 127
127 142 132
125 142 128
112 131 109
116 135 124
134 149 141
136 153 148
152 166 166
160 174 177
161 173 176
167 179 183
160 173 178
164 177 180
132 148 139
107 127 105
127 143 134
138 153 146
147 161 163
148 161 162
158 171 172
184 196 207
202 215 227
222 234 251
226 238 255
226 238 255
226 238 255
226 238 255
226 238 255
226 238 255
226 238 255
226 238 255
226 238 255
226 238 255
226 238 255
226 238 255
226 238 255
226 238 255
226 238 255
226 238 255
226 238 255
226 238 255
226 238 255
226 238 255
226 238 255
226 238 255
226 238 255
226 238 255
226 238 255
226 238 255
226 238 255
226 238 255
226 238 255
226 238 255
226 238 255
226 238 255
226 238 255
226 238 255
226 238 255
226 238 255
226 238 255
226 238 255
226 238 255
226 238 255
226 238 255
226 238 255
226 238 255
226 238 255
226 238 255
226 238 255
226 238 255
226 238 255
226 238 255
226 238 255
226 238 255
226 238 255
226 238 255
226 238 255
226 238 255
226 238 255
226 238 255
226 238 255
226 238 255
226 238 255
226 238 255
226 238 255
226 238 255
226 238 255
226 238 255
226 238 255
226 238 255
226 238 255
226 238 255
226 238 255
226 238 255
226 238 255
226 238 255
226 238 255
226 238 255
226 238 255
226 238 255
226 238 255
226 238 255
226 238 255
226 238 255
226 238 255
226 238 255
226 238 255
226 238 255
226 238 255
226 238 255
226 238 255
226 238 255
226 238 255
226 238 255
226 238 255
226 238 255
226 238 255
226 238 255
226 238 255
226 238 255
226 238 255
226 238 255
226 238 255
226 238 255
226 238 255
226 238 255
226 238 255
226 238 255
226 238 255
226 238 255
226 238 255
226 238 255
226 238 255
226 238 255
226 238 255
226 238 255
226 238 255
226 238 255
226 238 255
226 238 255
226 238 255
226 238 255
226 238 255
226 238 255
226 238 255
226 238 255
226 238 255
215 227 242
206 219 232
166 180 184
148 162 161
110 127 113
82 106 68
81 106 66
102 120 99
116 133 119
131 146 140
148 162 162
154 167 169
160 172 176
148 162 162
153 167 169
131 145 139
127 143 136
129 144 136
158 171 174
153 166 166
166 178 182
170 181 188
175 187 193
158 171 174
166 179 182
153 166 167
160 173 176
158 172 173
141 155 154
130 145 135
141 157 150
134 150 144
149 163 160
158 172 171
156 170 172
162 175 177
170 182 187
163 176 179
142 157 152
76 100 58
81 106 63
82 108 64
90 111 88
106 124 103
130 145 136
141 155 150
168 180 183
163 176 179
178 190 198
161 174 177
153 167 168
175 186 193
178 190 198
163 175 177
167 180 184
170 182 184
168 180 184
156 169 170
163 175 180
158 172 173
164 177 180
92 115 81
77 101 60
79 104 61
79 105 62
82 107 63
97 117 90
118 135 119
130 148 135
145 158 154
155 168 168
177 189 194
176 188 195
167 179 184
172 184 188
159 172 176
167 180 186
172 184 188
162 175 177
173 185 189
173 185 190
179 191 197
154 167 169
134 150 142
73 96 55
76 101 59
74 98 57
78 103 60
77 102 60
83 108 64
80 106 63
78 103 61
78 103 61
85 110 65
79 104 61
79 105 61
79 105 61
81 107 63
79 103 61
82 108 64
80 106 62
77 103 60
89 113 75
90 114 76
110 131 105
111 129 111
141 157 153
128 145 133
139 155 148
99 121 93
101 123 92
82 107 66
81 106 63
77 101 59
75 99 58
85 111 66
84 109 64
76 101 58
72 96 56
79 104 61
80 106 62
78 104 61
81 106 62
77 102 59
83 109 65
82 108 64
79 105 62
85 110 71
159 173 175
168 181 184
171 183 189
169 181 187
169 181 186
170 182 184
166 179 185
174 185 192
177 190 196
161 175 177
169 181 184
176 189 195
174 185 189
155 169 172
177 188 194
168 181 186
170 183 189
175 187 194
160 174 178
165 179 183
169 182 184
136 152 145
84 110 65
80 105 62
80 106 62
82 108 64
78 104 61
78 104 60
72 96 56
79 103 61
81 106 63
82 108 64
84 110 65
77 102 60
80 105 62
76 101 59
80 105 62
76 100 59
80 105 62
83 108 64
80 105 62
81 106 63
132 148 136
179 191 198
162 175 178
170 183 188
173 185 192
161 175 180
171 183 189
182 193 199
175 187 194
175 186 192
169 181 183
168 179 183
163 176 178
178 190 194
176 189 194
163 176 177
165 178 179
173 186 191
169 181 188
169 181 184
111 132 109
81 107 63
82 107 63
74 99 58
81 107 63
78 103 61
78 102 59
82 107 63
81 107 64
79 104 62
81 107 63
73 98 56
78 103 61
75 100 58
75 100 58
80 105 63
76 101 58
77 103 60
110 129 108
150 164 164
160 172 175
167 181 185
170 184 191
170 182 188
168 182 185
167 180 182
160 173 177
171 183 188
171 183 187
158 172 173
170 182 188
174 186 193
176 189 194
164 177 181
165 178 183
148 163 162
112 132 110
107 127 102
106 124 106
136 153 143
147 162 159
137 152 144
146 160 159
163 175 179
170 183 187
163 175 178
169 181 185
159 173 175
159 173 175
153 167 166
154 166 165
135 149 143
123 139 129
135 151 142
147 161 160
153 166 167
149 162 161
165 177 182
167 179 184
161 172 175
170 183 189
150 165 166
152 167 163
144 161 155
159 173 176
164 177 181
158 171 174
160 172 173
160 174 177
163 176 179
165 178 186
164 176 180
149 162 163
153 166 166
159 172 177
148 162 161
147 161 160
163 175 177
147 163 161
179 192 200
196 208 220
215 227 242
226 238 255
226 238 255
226 238 255
226 238 255
226 238 255
226 238 255
226 238 255
226 238 255
226 238 255
226 238 255
226 238 255
226 238 255
226 238 255
226 238 255
226 238 255
226 238 255
226 238 255
226 238 255
226 238 255
226 238 255
226 238 255
226 238 255
226 238 255
226 238 255
226 238 255
226 238 255
226 238 255
226 238 255
226 238 255
226 238 255
226 238 255
226 238 255
226 238 255
226 238 255
226 238 255
226 238 255
226 238 255
226 238 255
226 238 255
226 238 255
226 238 255
226 238 255
226 238 255
226 238 255
226 238 255
226 238 255
226 238 255
226 238 255
226 238 255
226 238 255
226 238 255
226 238 255
226 238 255
226 238 255
226 238 255
226 238 255
226 238 255
226 238 255
226 238 255
226 238 255
226 238 255
226 238 255
226 238 255
226 238 255
226 238 255
226 238 255
226 238 255
226 238 255
226 238 255
226 238 255
226 238 255
226 238 255
226 238 255
226 238 255
226 238 255
226 238 255
226 238 255
226 238 255
226 238 255
226 238 255
226 238 255
226 238 255
226 238 255
226 238 255
226 238 255
226 238 255
226 238 255
226 238 255
226 238 255
226 238 255
226 238 255
226 238 255
226 238 255
226 238 255
226 238 255
226 238 255
226 238 255
226 238 255
226 238 255
226 238 255
226 238 255
226 238 255
226 238 255
226 238 255
226 238 255
226 238 255
226 238 255
226 238 255
226 238 255
226 238 255
226 238 255
226 238 255
226 238 255
226 238 255
226 238 255
226 238 255
226 238 255
226 238 255
226 238 255
226 238 255
226 238 255
226 238 255
226 238 255
226 238 255
226 238 255
226 238 255
226 238 255
226 238 255
226 238 255
226 238 255
226 238 255
226 238 255
217 229 245
193 206 217
177 190 196
123 141 129
104 122 103
88 110 77
74 98 57
91 112 86
122 139 126
147 160 159
157 170 170
155 167 169
146 161 157
75 99 58
85 109 73
104 122 104
121 138 122
137 151 145
149 162 163
155 169 168
159 172 174
165 178 182
173 185 190
159 172 175
171 183 186
168 180 185
147 160 158
147 161 161
116 133 120
109 128 110
88 111 79
67 92 52
83 105 70
94 117 86
139 153 148
147 160 158
134 150 143
134 150 143
143 157 152
119 135 122
109 125 111
112 130 112
105 124 105
113 133 108
136 150 144
119 136 124
142 157 153
150 164 163
164 176 179
163 177 180
169 181 184
156 168 171
160 174 177
169 181 187
173 185 190
152 165 163
131 147 136
79 104 61
76 100 59
77 102 59
79 105 61
79 104 61
76 100 58
79 104 62
77 101 59
78 103 61
77 102 60
84 107 69
93 114 84
102 122 97
121 139 129
130 146 136
136 152 147
154 167 168
168 181 184
155 168 170
179 190 195
168 180 186
158 172 171
78 102 63
78 102 60
75 99 58
85 110 66
77 102 60
85 111 67
79 104 61
77 102 59
82 107 63
85 111 67
78 103 61
75 99 59
77 102 59
78 103 61
80 105 62
78 103 61
80 104 61
77 102 59
82 108 64
83 108 64
80 105 62
86 111 69
154 169 168
174 187 193
170 182 184
164 177 180
174 186 193
166 180 185
173 185 188
159 171 170
157 170 173
149 163 162
147 162 159
142 157 149
123 139 127
121 139 123
104 125 97
95 117 87
98 119 91
85 110 69
77 102 61
81 106 63
82 108 65
83 108 67
157 172 175
169 182 187
163 176 179
178 190 196
166 179 184
176 188 193
173 185 190
175 188 196
168 180 182
172 183 187
170 182 185
164 177 180
162 175 180
167 180 186
168 181 185
175 187 192
171 184 188
167 180 185
173 186 193
164 178 180
158 171 172
148 163 160
81 107 63
83 109 64
80 106 63
82 107 64
76 101 59
76 101 59
80 105 62
84 109 65
84 110 65
75 99 58
81 106 63
80 105 62
84 110 65
81 105 62
75 100 58
78 102 60
82 108 63
81 107 63
83 108 64
84 110 65
148 163 159
169 182 185
169 181 186
158 171 175
174 186 192
167 180 186
169 181 185
165 176 180
166 178 182
178 189 196
157 171 172
174 184 189
168 180 184
182 194 200
165 178 180
162 176 176
171 183 185
166 178 182
162 175 178
154 166 167
81 104 70
78 103 60
82 108 64
78 103 60
78 102 60
78 103 61
77 102 60
78 103 60
72 96 56
80 105 62
77 102 60
84 109 65
77 101 59
80 105 62
73 96 56
78 103 60
77 102 60
88 112 78
140 156 150
166 178 184
160 172 174
169 182 187
161 173 177
167 180 184
177 189 195
157 171 170
149 164 162
141 155 155
126 141 132
136 150 143
142 158 153
123 140 127
118 136 120
112 130 115
102 123 98
130 146 135
143 158 154
155 169 169
130 146 140
139 155 146
126 142 132
116 134 119
114 131 115
118 135 120
103 123 99
101 121 96
91 112 84
81 106 63
72 96 56
95 117 91
157 171 172
157 171 173
163 176 180
164 176 178
166 178 180
155 170 172
157 169 170
149 162 158
132 148 140
102 121 100
84 106 73
78 103 61
101 120 100
131 146 143
163 175 180
169 181 185
156 168 170
161 173 177
139 153 153
147 161 158
103 121 104
117 135 122
117 133 122
142 155 153
136 150 145
131 146 139
159 173 175
185 199 205
211 223 237
224 236 253
226 238 255
226 238 255
226 238 255
226 238 255
226 238 255
226 238 255
226 238 255
226 238 255
226 238 255
226 238 255
226 238 255
226 238 255
226 238 255
226 238 255
226 238 255
226 238 255
226 238 255
226 238 255
226 238 255
226 238 255
226 238 255
226 238 255
226 238 255
226 238 255
226 238 255
226 238 255
226 238 255
226 238 255
226 238 255
226 238 255
226 238 255
226 238 255
226 238 255
226 238 255
226 238 255
226 238 255
226 238 255
226 238 255
226 238 255
226 238 255
226 238 255
226 238 255
226 238 255
226 238 255
226 238 255
226 238 255
226 238 255
226 238 255
226 238 255
226 238 255
226 238 255
226 238 255
226 238 255
226 238 255
226 238 255
226 238 255
226 238 255
226 238 255
226 238 255
226 238 255
226 238 255
226 238 255
226 238 255
226 238 255
226 238 255
226 238 255
226 238 255
226 238 255
226 238 255
226 238 255
226 238 255
226 238 255
226 238 255
226 238 255
226 238 255
226 238 255
226 238 255
226 238 255
226 238 255
226 238 255
226 238 255
226 238 255
226 238 255
226 238 255
226 238 255
226 238 255
226 238 255
226 238 255
226 238 255
226 238 255
226 238 255
226 238 255
226 238 255
226 238 255
226 238 255
226 238 255
226 238 255
226 238 255
226 238 255
226 238 255
226 238 255
226 238 255
226 238 255
226 238 255
226 238 255
226 238 255
226 238 255
226 238 255
226 238 255
226 238 255
226 238 255
226 238 255
226 238 255
226 238 255
226 238 255
226 238 255
226 238 255
226 238 255
226 238 255
226 238 255
226 238 255
226 238 255
226 238 255
226 238 255
226 238 255
226 238 255
226 238 255
226 238 255
226 238 255
226 238 255
226 238 255
226 238 255
226 238 255
226 238 255
226 238 255
226 238 255
226 238 255
226 238 255
226 238 255
220 232 249
210 223 237
177 190 197
139 153 150
112 129 118
85 106 75
77 100 62
93 112 89
135 150 146
110 128 112
87 106 81
77 101 59
75 99 57
74 99 57
73 98 57
95 116 91
115 131 120
132 148 141
151 165 166
163 175 179
157 171 172
156 169 170
156 170 171
162 175 177
165 179 181
154 168 171
160 173 174
144 157 155
140 156 151
120 137 124
145 159 155
164 176 180
159 173 176
165 178 182
166 180 184
153 166 167
164 177 178
162 176 180
163 175 180
157 169 172
163 175 179
163 175 180
156 170 172
167 179 182
170 182 186
157 170 171
142 156 152
137 153 146
127 143 131
130 146 135
126 144 129
142 155 154
140 155 150
132 148 138
121 139 121
105 125 107
108 126 105
106 125 103
102 121 97
90 112 81
86 109 77
91 113 79
78 102 60
79 104 62
79 104 61
77 102 60
81 106 63
76 101 59
77 102 59
78 104 62
92 115 79
110 129 110
109 128 108
129 144 133
144 159 155
103 123 98
98 120 93
78 102 59
85 111 66
80 105 61
83 109 65
85 110 65
76 100 59
78 103 61
74 99 57
77 102 60
78 102 59
80 106 63
73 97 56
82 106 63
79 104 61
79 105 62
76 101 59
80 106 63
84 109 65
81 106 63
127 142 132
153 168 171
171 184 190
162 176 179
172 185 190
163 176 179
170 183 188
174 187 193
170 182 186
170 182 189
178 190 196
163 175 180
179 190 197
161 173 177
169 182 185
165 178 182
176 188 195
165 178 183
163 176 178
171 184 187
158 172 175
154 168 167
116 134 116
123 140 127
119 135 121
116 134 120
128 144 135
152 166 163
147 162 161
159 173 172
154 169 169
165 178 182
157 170 171
168 181 185
167 178 183
166 177 183
150 164 160
162 175 179
170 183 186
174 187 192
169 183 188
176 188 193
175 186 193
158 172 171
82 107 66
75 100 59
76 101 59
83 108 63
77 102 60
80 106 62
79 104 62
74 98 58
79 104 61
78 103 60
77 101 60
82 108 64
77 102 60
78 103 61
83 108 64
73 96 56
80 106 62
74 98 57
84 110 65
83 108 66
154 167 167
171 184 189
167 180 185
171 183 189
162 174 177
162 175 178
164 178 182
168 181 187
164 177 180
177 189 195
174 186 192
163 176 179
164 177 179
170 184 187
163 175 179
172 184 188
170 183 186
169 182 186
164 177 182
163 176 175
80 103 66
73 97 56
83 108 64
80 105 62
79 104 60
78 104 61
79 104 61
79 104 61
76 100 59
78 103 60
76 100 58
81 105 66
96 118 88
93 114 87
88 109 77
108 127 108
104 123 100
115 134 113
123 143 129
161 175 175
150 164 162
148 161 159
133 148 140
133 148 142
131 147 139
140 155 153
139 155 148
144 159 157
151 165 166
150 165 164
148 162 160
153 166 167
155 169 171
162 174 177
136 151 145
84 107 72
76 101 60
75 99 59
74 98 57
75 100 59
75 100 59
77 101 59
81 106 63
75 100 58
78 103 61
73 98 56
75 99 58
70 94 53
81 105 65
138 152 148
148 162 161
120 136 128
127 143 134
111 130 111
104 122 102
91 113 82
75 100 59
73 97 56
72 95 56
73 97 56
79 102 62
125 142 129
148 163 161
153 166 166
152 165 168
131 146 138
113 129 116
92 112 91
76 98 64
87 109 77
94 115 91
107 124 112
144 159 158
163 176 180
187 200 209
204 217 230
226 238 255
226 238 255
226 238 255
226 238 255
226 238 255
226 238 255
226 238 255
226 238 255
226 238 255
226 238 255
226 238 255
226 238 255
226 238 255
226 238 255
226 238 255
226 238 255
226 238 255
226 238 255
226 238 255
226 238 255
226 238 255
226 238 255
226 238 255
226 238 255
226 238 255
226 238 255
226 238 255
226 238 255
226 238 255
226 238 255
226 238 255
226 238 255
226 238 255
226 238 255
226 238 255
226 238 255
226 238 255
226 238 255
226 238 255
226 238 255
226 238 255
226 238 255
226 238 255
226 238 255
226 238 255
226 238 255
226 238 255
226 238 255
226 238 255
226 238 255
226 238 255
226 238 255
226 238 255
226 238 255
226 238 255
226 238 255
226 238 255
226 238 255
226 238 255
226 238 255
226 238 255
226 238 255
226 238 255
226 238 255
226 238 255
226 238 255
226 238 255
226 238 255
226 238 255
226 238 255
226 238 255
226 238 255
226 238 255
226 238 255
226 238 255
226 238 255
226 238 255
226 238 255
226 238 255
226 238 255
226 238 255
226 238 255
226 238 255
226 238 255
226 238 255
226 238 255
226 238 255
226 238 255
226 238 255
226 238 255
226 238 255
226 238 255
226 238 255
226 238 255
226 238 255
226 238 255
226 238 255
226 238 255
226 238 255
226 238 255
226 238 255
226 238 255
226 238 255
226 238 255
226 238 255
226 238 255
226 238 255
226 238 255
226 238 255
226 238 255
226 238 255
226 238 255
226 238 255
226 238 255
226 238 255
226 238 255
226 238 255
226 238 255
226 238 255
226 238 255
226 238 255
226 238 255
226 238 255
226 238 255
226 238 255
226 238 255
226 238 255
226 238 255
226 238 255
226 238 255
226 238 255
226 238 255
226 238 255
226 238 255
226 238 255
226 238 255
226 238 255
226 238 255
226 238 255
226 238 255
226 238 255
226 238 255
226 238 255
226 238 255
226 238 255
226 238 255
226 238 255
226 238 255
219 232 248
206 219 232
189 202 212
149 164 160
125 139 133
131 146 140
142 156 156
144 156 155
131 146 138
111 127 116
106 125 107
71 94 57
70 93 54
76 101 58
79 104 61
76 99 61
112 132 111
118 134 124
132 146 145
155 168 170
153 167 168
155 169 168
164 176 180
145 160 158
152 164 165
103 123 100
73 97 56
81 106 66
108 128 107
123 139 126
137 152 149
132 149 139
158 170 171
176 187 192
158 172 176
153 165 169
166 178 183
169 180 187
151 164 165
153 167 169
161 174 177
161 174 176
152 166 166
162 174 177
159 172 178
168 181 185
152 165 163
117 134 119
124 140 130
137 153 147
151 163 163
162 175 178
157 170 175
168 180 183
160 173 176
161 173 174
162 174 178
159 172 173
156 169 170
167 180 184
142 157 154
153 168 167
147 160 160
151 165 162
153 166 168
145 160 158
153 167 166
138 153 150
133 149 141
114 132 116
128 145 134
129 146 136
125 141 131
133 151 140
120 136 122
118 137 117
107 128 104
97 119 88
82 108 64
96 118 87
94 116 87
97 118 91
104 126 101
102 122 98
99 121 94
100 121 95
87 110 74
82 104 70
83 108 69
78 104 61
83 108 64
108 127 107
168 180 184
166 178 181
162 175 177
172 184 190
162 175 179
170 181 185
166 179 181
162 174 177
169 180 184
163 176 181
164 176 177
165 176 180
174 187 194
163 176 179
163 176 179
173 185 191
160 173 174
168 181 187
163 175 179
159 171 172
166 179 183
131 147 140
80 106 62
74 98 58
81 106 63
80 105 62
77 102 61
74 99 58
80 106 63
78 103 60
79 105 61
78 102 60
80 105 63
76 101 59
73 98 57
91 112 82
103 122 99
83 105 73
112 129 113
102 122 100
113 131 113
128 144 136
153 167 164
134 150 145
124 140 128
130 146 137
121 139 122
118 137 118
127 145 134
125 143 126
121 138 125
117 134 120
109 128 109
107 126 106
108 125 108
106 126 99
99 119 97
91 112 86
106 126 105
107 126 105
106 125 102
104 123 98
108 127 103
144 159 158
155 170 172
153 166 165
162 176 176
166 180 185
148 161 159
153 167 166
160 173 175
159 172 176
166 179 184
157 170 171
162 174 176
172 185 191
160 171 174
178 190 197
167 179 186
157 170 174
170 182 188
155 168 167
145 158 154
82 107 66
80 106 63
79 103 61
73 97 57
89 113 76
75 99 62
78 103 62
76 100 62
87 111 74
87 108 77
83 107 67
84 107 72
87 109 76
86 110 71
75 100 58
81 106 63
74 99 58
135 152 146
160 174 178
151 164 165
171 184 190
160 173 176
165 178 184
165 178 182
156 169 171
166 179 184
159 172 176
164 177 179
162 174 178
177 188 194
166 179 182
163 177 183
172 184 190
154 168 169
115 134 115
70 94 55
78 102 60
72 96 56
77 100 59
76 101 59
82 107 63
78 103 61
77 101 59
83 104 75
106 123 107
116 132 120
127 143 134
134 151 142
104 120 104
87 111 77
73 96 59
75 99 58
73 97 57
75 99 58
74 98 57
73 98 57
83 109 65
71 95 55
71 95 55
85 107 77
89 109 85
113 130 115
108 126 112
91 112 84
71 93 57
70 94 54
78 101 66
89 108 86
88 108 83
123 140 127
168 182 187
188 201 210
222 234 251
226 238 255
226 238 255
226 238 255
226 238 255
226 238 255
226 238 255
226 238 255
226 238 255
226 238 255
226 238 255
226 238 255
226 238 255
226 238 255
226 238 255
226 238 255
226 238 255
226 238 255
226 238 255
226 238 255
226 238 255
226 238 255
226 238 255
226 238 255
226 238 255
226 238 255
226 238 255
226 238 255
226 238 255
226 238 255
226 238 255
226 238 255
226 238 255
226 238 255
226 238 255
226 238 255
226 238 255
226 238 255
226 238 255
226 238 255
226 238 255
226 238 255
226 238 255
226 238 255
226 238 255
226 238 255
226 238 255
226 238 255
226 238 255
226 238 255
226 238 255
226 238 255
226 238 255
226 238 255
226 238 255
226 238 255
226 238 255
226 238 255
226 238 255
226 238 255
226 238 255
226 238 255
226 238 255
226 238 255
226 238 255
226 238 255
226 238 255
226 238 255
226 238 255
226 238 255
226 238 255
226 238 255
226 238 255
226 238 255
226 238 255
226 238 255
226 238 255
226 238 255
226 238 255
226 238 255
226 238 255
226 238 255
226 238 255
226 238 255
226 238 255
226 238 255
226 238 255
226 238 255
226 238 255
226 238 255
226 238 255
226 238 255
226 238 255
226 238 255
226 238 255
226 238 255
226 238 255
226 238 255
226 238 255
226 238 255
226 238 255
226 238 255
226 238 255
226 238 255
226 238 255
226 238 255
226 238 255
226 238 255
226 238 255
226 238 255
226 238 255
226 238 255
226 238 255
226 238 255
226 238 255
226 238 255
226 238 255
226 238 255
226 238 255
226 238 255
226 238 255
226 238 255
226 238 255
226 238 255
226 238 255
226 238 255
226 238 255
226 238 255
226 238 255
226 238 255
226 238 255
226 238 255
226 238 255
226 238 255
226 238 255
226 238 255
226 238 255
226 238 255
226 238 255
226 238 255
226 238 255
226 238 255
226 238 255
226 238 255
226 238 255
226 238 255
226 238 255
226 238 255
226 238 255
226 238 255
226 238 255
226 238 255
226 238 255
226 238 255
226 238 255
226 238 255
226 238 255
225 237 254
202 214 227
175 187 196
157 171 172
142 156 152
127 141 135
140 153 152
141 155 156
139 153 151
123 139 130
98 115 98
94 113 89
72 95 55
68 91 52
65 88 49
75 100 59
80 100 71
102 121 100
131 145 141
139 151 150
123 140 134
72 96 56
72 97 56
74 98 58
72 96 56
73 97 56
71 94 55
77 102 60
76 101 59
104 123 104
110 129 109
117 133 122
140 155 150
144 158 156
148 163 164
165 177 182
159 172 174
164 177 183
161 173 177
156 169 171
164 176 179
159 171 173
139 153 149
71 95 54
76 101 60
79 104 63
76 100 59
77 100 64
90 112 84
114 131 118
124 142 129
142 157 153
142 155 155
148 161 161
160 173 176
153 168 168
157 171 174
170 184 192
152 165 166
163 176 181
157 170 172
172 183 190
153 166 165
175 187 192
144 157 157
82 106 66
76 101 59
79 104 62
78 103 62
75 99 59
78 102 60
77 101 59
81 106 62
77 102 60
72 96 56
71 95 55
74 99 58
86 108 75
101 120 96
100 119 100
126 143 130
130 145 137
147 162 159
147 160 161
154 166 166
162 174 178
158 171 175
87 111 74
78 101 65
82 104 70
89 111 79
89 111 80
108 126 107
91 112 84
101 120 98
97 117 91
99 120 95
95 115 92
97 119 96
97 119 90
103 122 102
104 123 103
109 130 111
105 125 105
96 115 95
100 119 97
119 136 120
112 130 113
142 156 152
139 153 148
155 168 169
142 156 150
155 169 168
134 150 145
130 145 138
154 168 167
137 151 149
144 159 156
142 158 153
148 162 159
141 156 152
138 153 146
133 149 144
142 156 154
138 153 147
150 163 163
141 156 151
142 157 153
147 163 158
113 131 117
121 140 121
121 138 124
108 128 108
105 124 103
117 133 118
123 139 127
107 125 107
117 135 116
106 125 103
116 135 114
99 120 95
98 118 92
104 123 102
103 124 102
96 117 88
90 111 81
101 120 100
91 113 80
96 117 90
108 127 105
151 164 165
168 180 184
163 175 177
159 172 174
163 175 179
164 177 183
163 175 179
165 177 182
162 174 177
154 168 168
165 178 183
164 177 181
165 177 179
172 185 190
154 167 170
165 176 181
165 176 179
164 176 180
155 169 170
118 135 123
79 104 61
78 103 61
83 108 64
79 104 61
78 103 61
80 106 62
80 106 63
74 99 58
75 100 59
76 100 59
76 101 58
74 99 58
74 99 58
74 97 56
73 97 56
74 98 58
88 111 79
136 150 144
158 171 172
154 168 171
165 178 183
180 192 198
162 176 182
161 175 180
158 171 172
159 171 175
158 171 175
170 182 187
155 166 169
165 177 181
149 162 163
162 175 178
143 157 157
125 143 132
85 108 75
82 105 71
89 111 82
109 126 111
120 137 124
114 132 115
132 149 142
157 171 170
153 167 169
166 179 185
161 175 178
153 167 171
158 171 175
109 127 109
85 108 72
71 95 55
73 97 57
73 97 57
73 97 57
77 102 60
81 104 72
94 115 88
117 135 121
121 136 129
125 139 131
102 119 99
70 93 57
68 90 52
83 104 75
116 133 119
104 121 106
132 147 143
158 173 174
193 205 215
195 207 219
226 238 255
226 238 255
226 238 255
226 238 255
226 238 255
226 238 255
226 238 255
226 238 255
226 238 255
226 238 255
226 238 255
226 238 255
226 238 255
226 238 255
226 238 255
226 238 255
226 238 255
226 238 255
226 238 255
226 238 255
226 238 255
226 238 255
226 238 255
226 238 255
226 238 255
226 238 255
226 238 255
226 238 255
226 238 255
226 238 255
226 238 255
226 238 255
226 238 255
226 238 255
226 238 255
226 238 255
226 238 255
226 238 255
226 238 255
226 238 255
226 238 255
226 238 255
226 238 255
226 238 255
226 238 255
226 238 255
226 238 255
226 238 255
226 238 255
226 238 255
226 238 255
226 238 255
226 238 255
226 238 255
226 238 255
226 238 255
226 238 255
226 238 255
226 238 255
226 238 255
226 238 255
226 238 255
226 238 255
226 238 255
226 238 255
226 238 255
226 238 255
226 238 255
226 238 255
226 238 255
226 238 255
226 238 255
226 238 255
226 238 255
226 238 255
226 238 255
226 238 255
226 238 255
226 238 255
226 238 255
226 238 255
226 238 255
226 238 255
226 238 255
226 238 255
226 238 255
226 238 255
226 238 255
226 238 255
226 238 255
226 238 255
226 238 255
226 238 255
226 238 255
226 238 255
226 238 255
226 238 255
226 238 255
226 238 255
226 238 255
226 238 255
226 238 255
226 238 255
226 238 255
226 238 255
226 238 255
226 238 255
226 238 255
226 238 255
226 238 255
226 238 255
226 238 255
226 238 255
226 238 255
226 238 255
226 238 255
226 238 255
226 238 255
226 238 255
226 238 255
226 238 255
226 238 255
226 238 255
226 238 255
226 238 255
226 238 255
226 238 255
226 238 255
226 238 255
226 238 255
226 238 255
226 238 255
226 238 255
226 238 255
226 238 255
226 238 255
226 238 255
226 238 255
226 238 255
226 238 255
226 238 255
226 238 255
226 238 255
226 238 255
226 238 255
226 238 255
226 238 255
226 238 255
226 238 255
226 238 255
226 238 255
226 238 255
226 238 255
226 238 255
226 238 255
226 238 255
226 238 255
226 238 255
226 238 255
226 238 255
226 238 255
226 238 255
226 238 255
226 238 255
226 238 255
226 238 255
211 224 238
190 202 212
178 191 197
160 174 176
134 148 144
130 143 142
141 154 152
140 154 153
128 143 135
111 126 117
104 122 105
79 100 72
71 95 55
69 92 53
74 99 58
161 174 176
150 162 165
140 155 152
126 141 135
107 125 104
78 98 71
74 99 58
73 98 57
73 97 57
71 95 56
76 101 59
71 95 55
81 106 63
73 97 56
85 107 75
109 125 111
112 131 114
112 129 115
146 159 156
154 168 169
164 177 180
143 157 157
88 111 74
75 99 58
76 101 59
81 106 62
76 101 60
77 102 61
78 103 61
77 101 59
79 104 61
77 102 60
77 102 59
74 98 58
92 113 85
107 128 104
115 132 119
113 131 117
147 161 160
147 163 160
155 167 166
172 184 190
168 180 184
163 176 180
83 105 75
74 99 58
79 104 62
71 95 56
77 101 59
78 103 61
75 100 58
74 98 56
75 99 58
76 100 59
74 98 57
78 103 60
75 100 58
76 101 59
77 102 59
68 92 53
77 102 60
77 101 60
77 102 60
76 101 59
76 101 59
91 112 81
167 179 181
157 170 172
144 157 154
135 150 145
121 137 126
113 129 116
118 135 120
93 113 85
94 114 87
78 102 63
75 99 58
76 101 59
76 101 59
74 99 59
75 99 58
77 102 60
77 101 58
76 100 58
75 100 60
75 99 58
78 103 61
112 129 115
167 179 185
156 170 173
166 179 185
168 180 187
167 181 184
146 160 162
154 168 168
175 187 192
162 174 177
158 171 173
156 170 175
159 173 176
157 170 173
165 178 182
158 170 173
162 175 178
159 173 177
159 172 176
157 170 172
152 165 165
153 167 167
77 102 60
77 102 60
75 99 57
77 101 60
76 101 60
79 104 61
74 99 57
73 97 56
77 102 60
74 98 57
76 101 60
68 92 53
78 102 60
75 100 58
72 96 56
72 96 56
74 98 57
77 102 60
74 99 58
104 122 103
159 172 176
156 169 171
162 175 179
160 173 180
161 173 177
165 178 183
155 168 170
157 171 172
162 174 178
167 180 186
162 175 178
153 166 167
163 175 178
159 172 174
168 181 188
160 174 175
171 184 190
150 162 161
149 163 161
91 111 84
75 100 58
71 95 55
72 96 56
76 100 59
75 99 58
73 98 57
67 90 51
71 94 55
75 100 58
75 100 59
70 94 54
76 101 59
77 102 60
74 98 57
72 96 56
78 102 60
115 132 122
168 181 186
161 173 178
160 173 178
169 181 186
162 175 179
158 172 174
157 171 174
159 173 179
161 173 175
156 170 174
142 156 155
147 161 159
143 158 155
125 141 135
135 151 144
148 162 160
149 161 160
136 150 146
147 160 160
160 173 178
149 164 168
157 170 173
151 165 167
164 178 184
150 165 165
145 158 159
165 177 181
157 170 173
163 175 178
121 139 128
87 109 78
68 91 53
88 108 82
102 120 106
124 139 129
118 135 125
136 150 147
145 160 158
152 166 167
143 156 153
112 128 116
109 126 110
107 125 109
120 136 127
125 139 136
159 171 177
187 200 209
202 215 228
215 227 242
226 238 255
226 238 255
226 238 255
226 238 255
226 238 255
226 238 255
226 238 255
226 238 255
226 238 255
226 238 255
226 238 255
226 238 255
226 238 255
226 238 255
226 238 255
226 238 255
226 238 255
226 238 255
226 238 255
226 238 255
226 238 255
226 238 255
226 238 255
226 238 255
226 238 255
226 238 255
226 238 255
226 238 255
226 238 255
226 238 255
226 238 255
226 238 255
226 238 255
226 238 255
226 238 255
226 238 255
226 238 255
226 238 255
226 238 255
226 238 255
226 238 255
226 238 255
226 238 255
226 238 255
226 238 255
226 238 255
226 238 255
226 238 255
226 238 255
226 238 255
226 238 255
226 238 255
226 238 255
226 238 255
226 238 255
226 238 255
226 238 255
226 238 255
226 238 255
226 238 255
226 238 255
226 238 255
226 238 255
226 238 255
226 238 255
226 238 255
226 238 255
226 238 255
226 238 255
226 238 255
226 238 255
226 238 255
226 238 255
226 238 255
226 238 255
226 238 255
226 238 255
226 238 255
226 238 255
226 238 255
226 238 255
226 238 255
226 238 255
226 238 255
226 238 255
226 238 255
226 238 255
226 238 255
226 238 255
226 238 255
226 238 255
226 238 255
226 238 255
226 238 255
226 238 255
226 238 255
226 238 255
226 238 255
226 238 255
226 238 255
226 238 255
226 238 255
226 238 255
226 238 255
226 238 255
226 238 255
226 238 255
226 238 255
226 238 255
226 238 255
226 238 255
226 238 255
226 238 255
226 238 255
226 238 255
226 238 255
226 238 255
226 238 255
226 238 255
226 238 255
226 238 255
226 238 255
226 238 255
226 238 255
226 238 255
226 238 255
226 238 255
226 238 255
226 238 255
226 238 255
226 238 255
226 238 255
226 238 255
226 238 255
226 238 255
226 238 255
226 238 255
226 238 255
226 238 255
226 238 255
226 238 255
226 238 255
226 238 255
226 238 255
226 238 255
226 238 255
226 238 255
226 238 255
226 238 255
226 238 255
226 238 255
226 238 255
226 238 255
226 238 255
226 238 255
226 238 255
226 238 255
226 238 255
226 238 255
226 238 255
226 238 255
226 238 255
226 238 255
226 238 255
226 238 255
226 238 255
226 238 255
226 238 255
226 238 255
226 238 255
226 238 255
226 238 255
226 238 255
226 238 255
223 235 252
212 224 239
186 199 207
177 189 197
150 163 166
138 152 150
132 147 142
147 160 162
138 152 149
127 141 135
117 136 120
134 149 144
148 161 161
141 155 156
150 165 167
156 169 175
164 176 181
152 165 164
134 148 144
117 134 125
89 109 84
92 111 90
73 95 58
73 97 57
77 101 59
73 96 56
71 94 54
67 91 52
70 93 54
79 104 62
75 99 59
87 108 78
145 160 155
134 149 139
116 133 116
99 119 96
73 97 62
69 92 53
66 89 51
76 101 59
72 96 56
73 97 56
70 93 54
75 99 57
72 95 56
74 98 58
78 102 60
74 98 57
70 94 55
76 100 60
77 101 60
72 95 55
90 112 82
90 110 87
142 155 152
122 138 127
111 128 111
104 125 98
88 109 84
74 99 58
82 107 64
79 104 61
70 93 54
68 92 52
74 98 58
76 100 58
76 101 60
69 93 53
80 105 62
78 103 61
76 100 58
73 97 57
72 95 56
73 97 56
79 104 62
74 99 58
145 159 159
173 185 190
154 167 167
172 185 190
163 176 182
154 167 168
148 162 164
154 168 170
152 166 164
156 170 173
149 163 160
154 168 170
147 161 161
142 156 155
147 161 160
126 143 132
129 144 136
127 143 134
129 145 135
101 121 97
91 110 85
113 132 115
157 170 171
163 177 181
162 175 179
167 180 184
161 174 178
153 165 168
163 177 182
168 181 185
172 184 189
160 172 175
154 168 172
156 169 172
170 182 188
158 170 174
149 163 160
170 183 190
161 174 177
163 175 178
157 170 173
164 177 181
125 141 131
78 101 62
74 99 58
72 97 56
79 104 61
78 103 61
83 109 64
74 99 58
72 96 56
77 101 60
78 103 61
76 101 59
76 101 60
72 96 56
77 102 61
75 99 58
71 95 55
70 94 54
78 103 61
76 100 59
109 126 109
141 155 154
157 171 175
180 191 197
157 169 172
154 168 168
149 162 161
157 170 171
164 177 180
143 157 157
156 169 172
161 174 177
171 184 189
159 172 175
159 171 174
158 172 175
169 182 189
154 168 173
155 170 172
128 144 134
75 100 59
73 98 57
71 96 56
76 101 59
78 103 61
75 99 58
71 94 55
73 98 57
77 102 60
78 103 61
79 103 62
73 97 56
73 97 57
73 98 57
73 97 57
78 103 61
83 106 74
133 148 141
136 150 146
146 160 159
139 153 152
126 142 136
132 147 139
117 134 120
110 127 112
99 117 97
84 106 76
78 102 63
72 96 58
73 97 57
77 102 59
71 93 58
105 123 105
157 170 170
154 168 171
160 172 178
148 162 163
156 170 173
153 167 171
154 167 173
154 166 169
154 166 169
162 174 178
137 150 148
138 152 150
148 163 164
137 151 149
119 135 124
119 134 128
137 152 147
156 168 171
140 153 153
154 166 170
160 173 175
151 165 166
154 166 170
158 170 174
139 153 153
135 149 146
161 174 178
182 194 203
191 203 214
201 213 225
226 238 255
226 238 255
226 238 255
226 238 255
226 238 255
226 238 255
226 238 255
226 238 255
226 238 255
226 238 255
226 238 255
226 238 255
226 238 255
226 238 255
226 238 255
226 238 255
226 238 255
226 238 255
226 238 255
226 238 255
226 238 255
226 238 255
226 238 255
226 238 255
226 238 255
226 238 255
226 238 255
226 238 255
226 238 255
226 238 255
226 238 255
226 238 255
226 238 255
226 238 255
226 238 255
226 238 255
226 238 255
226 238 255
226 238 255
226 238 255
226 238 255
226 238 255
226 238 255
226 238 255
226 238 255
226 238 255
226 238 255
226 238 255
226 238 255
226 238 255
226 238 255
226 238 255
226 238 255
226 238 255
226 238 255
226 238 255
226 238 255
226 238 255
226 238 255
226 238 255
226 238 255
226 238 255
226 238 255
226 238 255
226 238 255
226 238 255
226 238 255
226 238 255
226 238 255
226 238 255
226 238 255
226 238 255
226 238 255
226 238 255
226 238 255
226 238 255
226 238 255
226 238 255
226 238 255
226 238 255
226 238 255
226 238 255
226 238 255
226 238 255
226 238 255
226 238 255
226 238 255
226 238 255
226 238 255
226 238 255
226 238 255
226 238 255
226 238 255
226 238 255
226 238 255
226 238 255
226 238 255
226 238 255
226 238 255
226 238 255
226 238 255
226 238 255
226 238 255
226 238 255
226 238 255
226 238 255
226 238 255
226 238 255
226 238 255
226 238 255
226 238 255
226 238 255
226 238 255
226 238 255
226 238 255
226 238 255
226 238 255
226 238 255
226 238 255
226 238 255
226 238 255
226 238 255
226 238 255
226 238 255
226 238 255
226 238 255
226 238 255
226 238 255
226 238 255
226 238 255
226 238 255
226 238 255
226 238 255
226 238 255
226 238 255
226 238 255
226 238 255
226 238 255
226 238 255
226 238 255
226 238 255
226 238 255
226 238 255
226 238 255
226 238 255
226 238 255
226 238 255
226 238 255
226 238 255
226 238 255
226 238 255
226 238 255
226 238 255
226 238 255
226 238 255
226 238 255
226 238 255
226 238 255
226 238 255
226 238 255
226 238 255
226 238 255
226 238 255
226 238 255
226 238 255
226 238 255
226 238 255
226 238 255
226 238 255
226 238 255
226 238 255
226 238 255
226 238 255
226 238 255
226 238 255
226 238 255
226 238 255
226 238 255
226 238 255
226 238 255
226 238 255
226 238 255
226 238 255
226 238 255
226 238 255
209 222 235
180 193 201
173 186 193
155 169 170
115 131 120
100 118 101
79 102 66
79 100 70
93 112 92
112 129 116
122 136 130
133 145 144
150 164 167
151 165 170
154 168 170
151 163 168
145 158 159
140 155 154
118 135 126
118 135 124
107 125 109
80 101 73
77 101 59
72 95 55
76 99 61
132 148 141
148 161 162
163 176 181
149 161 165
157 169 173
150 165 163
151 165 166
135 149 143
121 137 126
113 130 116
100 118 101
91 111 84
71 95 56
70 94 55
78 103 61
70 93 54
71 95 55
77 102 60
73 98 57
73 98 57
69 93 54
69 93 54
119 135 125
152 165 165
148 162 161
147 161 162
161 174 178
158 170 173
156 169 170
152 164 165
124 140 133
133 148 140
123 140 126
121 137 127
102 119 102
81 103 72
77 102 62
77 101 59
74 99 58
77 101 59
78 102 60
77 101 60
77 102 61
72 94 58
139 154 151
157 170 171
153 166 168
158 171 173
154 166 169
165 177 183
157 170 174
165 177 182
159 173 174
158 171 175
153 167 170
159 171 175
146 160 161
162 176 178
170 183 188
154 168 171
159 172 176
154 167 170
163 176 180
157 170 173
161 174 178
136 151 144
82 106 68
76 101 59
71 95 54
74 99 58
94 114 90
101 121 97
100 119 100
106 124 107
120 137 123
120 138 124
117 135 119
111 128 115
130 146 140
133 148 142
149 163 163
147 160 158
134 149 144
153 166 167
159 173 173
141 156 150
120 134 126
83 105 73
75 98 61
70 94 54
78 102 60
80 105 62
79 104 61
76 100 59
73 97 57
75 99 58
77 101 59
77 103 60
68 92 52
73 97 56
74 98 58
76 100 58
76 101 59
75 100 59
71 96 56
82 106 65
136 152 149
167 179 184
164 176 179
154 167 170
162 175 179
154 167 169
158 171 175
173 184 192
169 182 189
153 166 171
156 169 172
156 168 171
148 161 161
155 169 171
158 170 173
161 174 179
157 170 175
149 162 162
148 163 163
123 140 126
80 102 71
88 110 78
89 110 85
102 122 102
99 119 97
110 126 112
110 128 114
130 145 136
113 131 118
121 137 127
119 135 127
128 144 135
131 147 142
145 159 157
144 157 156
150 163 163
118 136 120
72 96 55
69 93 54
69 92 53
71 95 55
72 96 57
68 92 54
76 100 59
76 100 59
70 93 54
70 93 54
76 101 60
71 95 55
67 89 52
68 91 53
106 123 107
151 164 164
159 172 178
153 166 167
157 169 173
157 169 173
152 165 169
133 148 144
129 145 135
122 137 128
105 120 109
96 115 94
91 111 84
101 119 100
136 151 148
152 164 167
153 166 167
148 160 161
131 144 143
129 143 138
128 141 137
119 133 125
105 121 107
123 138 134
147 162 162
173 185 191
195 207 217
218 230 245
226 238 255
226 238 255
226 238 255
226 238 255
226 238 255
226 238 255
226 238 255
226 238 255
226 238 255
226 238 255
226 238 255
226 238 255
226 238 255
226 238 255
226 238 255
226 238 255
226 238 255
226 238 255
226 238 255
226 238 255
226 238 255
226 238 255
226 238 255
226 238 255
226 238 255
226 238 255
226 238 255
226 238 255
226 238 255
226 238 255
226 238 255
226 238 255
226 238 255
226 238 255
226 238 255
226 238 255
226 238 255
226 238 255
226 238 255
226 238 255
226 238 255
226 238 255
226 238 255
226 238 255
226 238 255
226 238 255
226 238 255
226 238 255
226 238 255
226 238 255
226 238 255
226 238 255
226 238 255
226 238 255
226 238 255
226 238 255
226 238 255
226 238 255
226 238 255
226 238 255
226 238 255
226 238 255
226 238 255
226 238 255
226 238 255
226 238 255
226 238 255
226 238 255
226 238 255
226 238 255
226 238 255
226 238 255
226 238 255
226 238 255
226 238 255
226 238 255
226 238 255
226 238 255
226 238 255
226 238 255
226 238 255
226 238 255
226 238 255
226 238 255
226 238 255
226 238 255
226 238 255
226 238 255
226 238 255
226 238 255
226 238 255
226 238 255
226 238 255
226 238 255
226 238 255
226 238 255
226 238 255
226 238 255
226 238 255
226 238 255
226 238 255
226 238 255
226 238 255
226 238 255
226 238 255
226 238 255
226 238 255
226 238 255
226 238 255
226 238 255
226 238 255
226 238 255
226 238 255
226 238 255
226 238 255
226 238 255
226 238 255
226 238 255
226 238 255
226 238 255
226 238 255
226 238 255
226 238 255
226 238 255
226 238 255
226 238 255
226 238 255
226 238 255
226 238 255
226 238 255
226 238 255
226 238 255
226 238 255
226 238 255
226 238 255
226 238 255
226 238 255
226 238 255
226 238 255
226 238 255
226 238 255
226 238 255
226 238 255
226 238 255
226 238 255
226 238 255
226 238 255
226 238 255
226 238 255
226 238 255
226 238 255
226 238 255
226 238 255
226 238 255
226 238 255
226 238 255
226 238 255
226 238 255
226 238 255
226 238 255
226 238 255
226 238 255
226 238 255
226 238 255
226 238 255
226 238 255
226 238 255
226 238 255
226 238 255
226 238 255
226 238 255
226 238 255
226 238 255
226 238 255
226 238 255
226 238 255
226 238 255
226 238 255
226 238 255
226 238 255
226 238 255
226 238 255
226 238 255
226 238 255
226 238 255
226 238 255
226 238 255
226 238 255
226 238 255
226 238 255
226 238 255
226 238 255
226 238 255
226 238 255
226 238 255
219 232 247
206 218 231
182 194 203
159 173 175
129 144 138
95 113 93
96 114 93
73 94 64
90 110 85
104 121 107
121 135 128
117 132 125
156 169 172
139 153 151
156 167 172
152 164 167
140 153 153
151 164 166
133 147 144
96 113 97
116 132 121
134 146 144
137 150 151
143 155 156
153 165 169
163 176 182
165 177 182
151 164 165
153 166 168
153 166 168
161 173 178
141 155 155
157 170 172
151 165 167
139 153 151
113 128 120
97 116 98
107 125 106
85 106 78
70 93 55
68 92 52
135 149 144
151 164 168
158 171 173
152 166 170
161 174 180
153 167 170
142 156 155
165 178 182
148 160 161
151 164 167
154 167 170
150 162 167
157 168 171
159 171 174
157 170 176
157 170 172
159 171 174
140 154 153
135 149 143
127 142 132
123 138 129
102 120 102
120 138 124
161 174 176
159 172 174
156 168 168
149 162 164
160 174 177
154 167 169
147 161 163
148 162 162
153 166 170
158 170 172
155 169 172
163 175 179
149 163 163
153 166 167
146 159 159
151 163 164
161 174 179
163 176 179
160 172 176
164 177 180
127 144 135
71 94 55
74 98 56
73 96 55
67 90 52
73 97 57
76 101 59
71 95 55
73 97 57
76 99 59
74 98 58
71 95 55
72 96 57
71 95 55
73 97 56
72 96 56
72 96 55
75 100 59
73 98 56
65 88 51
74 97 60
132 146 140
151 165 169
153 166 167
162 175 179
163 176 180
153 166 170
146 159 161
155 167 171
164 176 179
149 162 163
152 165 166
155 167 167
148 161 159
158 171 174
148 161 160
148 162 160
155 168 171
146 160 160
143 156 155
133 147 143
84 104 78
101 122 99
98 118 95
107 124 106
96 115 94
92 110 88
94 113 91
93 113 91
82 103 72
98 118 93
94 112 93
80 102 71
82 104 74
79 100 68
76 99 64
77 100 62
76 100 59
72 95 58
124 139 131
157 169 172
152 165 167
150 164 164
152 166 168
154 167 168
152 164 166
155 168 173
160 173 180
157 170 173
154 167 171
163 175 178
157 170 175
148 162 165
146 160 161
166 179 183
152 166 167
129 143 138
78 100 71
67 90 52
75 99 58
73 96 57
74 98 57
74 98 58
73 97 57
77 102 60
64 87 50
73 96 57
74 98 57
74 98 58
69 92 53
94 117 86
94 114 89
110 127 109
128 143 138
116 131 123
103 121 101
85 106 76
89 107 83
69 91 57
70 93 54
71 95 55
66 89 51
67 90 52
84 103 80
113 131 119
129 144 140
132 146 142
113 129 119
93 112 92
85 101 85
84 104 78
120 135 126
146 160 158
183 196 204
203 216 228
212 224 239
226 238 255
226 238 255
226 238 255
226 238 255
226 238 255
226 238 255
226 238 255
226 238 255
226 238 255
226 238 255
226 238 255
226 238 255
226 238 255
226 238 255
226 238 255
226 238 255
226 238 255
226 238 255
226 238 255
226 238 255
226 238 255
226 238 255
226 238 255
226 238 255
226 238 255
226 238 255
226 238 255
226 238 255
226 238 255
226 238 255
226 238 255
226 238 255
226 238 255
226 238 255
226 238 255
226 238 255
226 238 255
226 238 255
226 238 255
226 238 255
226 238 255
226 238 255
226 238 255
226 238 255
226 238 255
226 238 255
226 238 255
226 238 255
226 238 255
226 238 255
226 238 255
226 238 255
226 238 255
226 238 255
226 238 255
226 238 255
226 238 255
226 238 255
226 238 255
226 238 255
226 238 255
226 238 255
226 238 255
226 238 255
226 238 255
226 238 255
226 238 255
226 238 255
226 238 255
226 238 255
226 238 255
226 238 255
226 238 255
226 238 255
226 238 255
226 238 255
226 238 255
226 238 255
226 238 255
226 238 255
226 238 255
226 238 255
226 238 255
226 238 255
226 238 255
226 238 255
226 238 255
226 238 255
226 238 255
226 238 255
226 238 255
226 238 255
226 238 255
226 238 255
226 238 255
226 238 255
226 238 255
226 238 255
226 238 255
226 238 255
226 238 255
226 238 255
226 238 255
226 238 255
226 238 255
226 238 255
226 238 255
226 238 255
226 238 255
226 238 255
226 238 255
226 238 255
226 238 255
226 238 255
226 238 255
226 238 255
226 238 255
226 238 255
226 238 255
226 238 255
226 238 255
226 238 255
226 238 255
226 238 255
226 238 255
226 238 255
226 238 255
226 238 255
226 238 255
226 238 255
226 238 255
226 238 255
226 238 255
226 238 255
226 238 255
226 238 255
226 238 255
226 238 255
226 238 255
226 238 255
226 238 255
226 238 255
226 238 255
226 238 255
226 238 255
226 238 255
226 238 255
226 238 255
226 238 255
226 238 255
226 238 255
226 238 255
226 238 255
226 238 255
226 238 255
226 238 255
226 238 255
226 238 255
226 238 255
226 238 255
226 238 255
226 238 255
226 238 255
226 238 255
226 238 255
226 238 255
226 238 255
226 238 255
226 238 255
226 238 255
226 238 255
226 238 255
226 238 255
226 238 255
226 238 255
226 238 255
226 238 255
226 238 255
226 238 255
226 238 255
226 238 255
226 238 255
226 238 255
226 238 255
226 238 255
226 238 255
226 238 255
226 238 255
226 238 255
226 238 255
226 238 255
226 238 255
226 238 255
226 238 255
226 238 255
226 238 255
226 238 255
226 238 255
226 238 255
226 238 255
226 238 255
226 238 255
226 238 255
226 238 255
226 238 255
224 236 252
205 217 230
191 204 215
171 184 189
140 154 151
115 131 119
81 101 71
72 93 61
72 93 61
89 107 84
102 118 104
115 132 124
129 143 137
109 126 110
69 93 54
68 91 53
68 91 52
68 91 53
75 97 63
94 113 88
108 126 112
114 130 123
136 150 149
140 154 152
158 171 173
143 156 155
146 159 161
134 147 145
145 158 159
159 171 175
148 161 161
163 175 179
150 164 164
148 161 162
151 164 166
108 123 111
105 120 108
113 129 116
129 143 138
134 149 143
136 151 148
143 156 155
154 167 170
162 175 179
141 155 154
142 155 154
161 174 177
148 162 164
150 163 165
156 169 172
140 154 153
156 170 173
149 163 166
151 165 168
149 162 165
173 186 192
156 169 170
100 119 96
71 94 55
75 99 58
75 100 59
82 104 71
93 114 87
112 129 114
108 126 110
101 119 105
129 145 138
128 144 135
125 140 133
124 139 132
148 162 161
143 156 156
156 169 169
158 171 177
148 161 163
139 152 151
147 161 163
142 154 155
106 125 106
74 99 58
72 95 56
70 94 55
71 94 55
72 96 56
71 95 56
74 98 57
77 102 59
75 99 58
63 85 48
72 97 57
73 97 57
70 93 54
74 98 57
73 97 57
70 94 54
75 99 59
72 96 56
71 95 55
98 118 91
149 162 162
151 164 164
149 163 165
164 176 181
151 165 166
155 168 170
157 169 171
163 175 181
155 168 168
163 175 178
154 167 170
150 164 165
158 171 176
154 168 170
162 175 179
146 159 158
139 152 154
157 170 172
154 168 172
105 122 109
81 103 69
72 96 56
67 90 52
69 92 52
74 98 57
73 97 56
65 88 51
74 98 58
73 97 56
72 95 56
75 100 60
74 98 57
71 94 55
71 95 55
69 92 53
67 90 52
73 97 57
101 121 97
138 153 149
149 162 164
147 160 162
160 173 176
152 164 168
161 174 178
163 176 181
160 172 177
145 160 159
154 168 169
145 159 157
147 161 162
154 167 170
157 171 175
148 160 164
142 156 154
121 137 127
94 114 91
74 98 57
71 95 56
75 100 59
83 105 74
87 106 82
102 120 101
104 121 108
117 134 126
122 137 129
123 140 131
121 136 130
132 147 142
144 158 156
113 130 117
87 108 79
71 95 55
69 92 54
70 93 55
67 89 52
68 92 52
69 92 53
78 98 69
86 106 82
91 108 90
96 114 95
89 107 86
83 104 76
77 96 71
67 87 57
98 116 98
133 147 143
159 173 175
177 190 197
206 219 232
221 233 249
226 238 255
226 238 255
226 238 255
226 238 255
226 238 255
226 238 255
226 238 255
226 238 255
226 238 255
226 238 255
226 238 255
226 238 255
226 238 255
226 238 255
226 238 255
226 238 255
226 238 255
226 238 255
226 238 255
226 238 255
226 238 255
226 238 255
226 238 255
226 238 255
226 238 255
226 238 255
226 238 255
226 238 255
226 238 255
226 238 255
226 238 255
226 238 255
226 238 255
226 238 255
226 238 255
226 238 255
226 238 255
226 238 255
226 238 255
226 238 255
226 238 255
226 238 255
226 238 255
226 238 255
226 238 255
226 238 255
226 238 255
226 238 255
226 238 255
226 238 255
226 238 255
226 238 255
226 238 255
226 238 255
226 238 255
226 238 255
226 238 255
226 238 255
226 238 255
226 238 255
226 238 255
226 238 255
226 238 255
226 238 255
226 238 255
226 238 255
226 238 255
226 238 255
226 238 255
226 238 255
226 238 255
226 238 255
226 238 255
226 238 255
226 238 255
226 238 255
226 238 255
226 238 255
226 238 255
226 238 255
226 238 255
226 238 255
226 238 255
226 238 255
226 238 255
226 238 255
226 238 255
226 238 255
226 238 255
226 238 255
226 238 255
226 238 255
226 238 255
226 238 255
226 238 255
226 238 255
226 238 255
226 238 255
226 238 255
226 238 255
226 238 255
226 238 255
226 238 255
226 238 255
226 238 255
226 238 255
226 238 255
226 238 255
226 238 255
226 238 255
226 238 255
226 238 255
226 238 255
226 238 255
226 238 255
226 238 255
226 238 255
226 238 255
226 238 255
226 238 255
226 238 255
226 238 255
226 238 255
226 238 255
226 238 255
226 238 255
226 238 255
226 238 255
226 238 255
226 238 255
226 238 255
226 238 255
226 238 255
226 238 255
226 238 255
226 238 255
226 238 255
226 238 255
226 238 255
226 238 255
226 238 255
226 238 255
226 238 255
226 238 255
226 238 255
226 238 255
226 238 255
226 238 255
226 238 255
226 238 255
226 238 255
226 238 255
226 238 255
226 238 255
226 238 255
226 238 255
226 238 255
226 238 255
226 238 255
226 238 255
226 238 255
226 238 255
226 238 255
226 238 255
226 238 255
226 238 255
226 238 255
226 238 255
226 238 255
226 238 255
226 238 255
226 238 255
226 238 255
226 238 255
226 238 255
226 238 255
226 238 255
226 238 255
226 238 255
226 238 255
226 239 255
226 238 255
226 239 255
226 239 255
226 239 255
226 239 255
226 239 255
226 239 255
226 239 255
226 239 255
226 239 255
226 239 255
226 239 255
226 239 255
226 239 255
226 239 255
226 239 255
226 239 255
226 239 255
226 239 255
226 239 255
226 239 255
226 239 255
226 239 255
226 239 255
226 239 255
226 239 255
226 239 255
226 239 255
226 239 255
226 239 255
227 239 255
227 239 255
227 239 255
227 239 255
227 239 255
221 233 249
203 215 228
179 192 199
165 179 182
157 170 174
132 145 143
115 128 125
136 149 151
138 151 151
122 136 129
124 139 132
98 115 101
101 118 103
69 89 57
68 91 53
67 90 53
70 93 55
71 95 56
71 95 55
80 101 71
88 108 82
106 122 107
108 123 114
127 141 137
135 147 145
135 150 149
142 157 157
138 154 151
99 117 104
68 91 53
64 87 49
69 92 54
63 85 48
74 98 58
64 87 49
77 101 60
74 97 61
90 107 87
98 116 96
109 127 110
119 136 124
131 145 141
122 137 132
144 157 158
146 159 160
158 170 172
148 160 163
142 154 153
153 166 169
141 154 151
86 107 79
68 90 53
72 96 56
74 98 57
71 95 55
65 87 49
73 97 56
73 96 56
69 93 54
70 93 54
74 98 58
72 96 57
70 93 54
74 98 58
65 88 50
69 92 53
78 101 63
77 100 65
83 104 80
106 123 106
102 120 102
155 169 172
139 154 152
125 140 132
128 143 137
115 130 122
104 122 105
110 127 113
97 117 96
92 113 89
80 102 71
73 97 60
70 94 55
71 95 55
70 93 54
76 100 59
69 92 54
73 97 57
75 100 59
66 90 52
71 95 55
101 119 98
160 172 175
156 170 173
160 173 176
152 165 167
152 166 169
146 161 160
158 171 174
163 176 179
165 177 182
153 166 168
150 163 166
157 169 173
138 153 151
146 161 161
140 154 153
154 167 168
147 161 161
157 169 173
141 154 150
94 115 88
71 95 55
74 99 58
74 98 58
70 93 54
67 90 52
63 85 48
73 98 58
67 90 52
66 88 50
68 91 53
71 94 55
71 94 55
70 93 54
70 93 54
68 92 53
70 93 55
91 112 87
125 140 132
156 168 171
151 164 170
150 163 164
157 169 174
156 168 174
151 165 167
140 153 152
137 152 150
128 142 140
145 158 159
123 138 132
125 139 133
109 125 114
124 140 129
110 126 114
130 145 138
136 150 150
126 141 136
131 146 142
141 155 155
141 153 155
146 159 161
150 163 166
146 160 162
134 148 147
154 167 171
140 153 155
139 153 151
142 155 155
141 153 154
106 124 106
86 107 77
80 99 73
93 110 90
104 120 111
109 126 114
114 129 120
123 138 132
133 147 145
139 152 151
131 145 144
101 116 105
118 133 127
144 158 156
168 182 185
180 192 201
205 217 231
220 232 248
227 239 255
227 239 255
227 239 255
227 239 255
227 239 255
226 239 255
226 239 255
227 239 255
226 239 255
226 239 255
226 239 255
226 239 255
226 239 255
226 239 255
226 239 255
226 239 255
226 239 255
226 239 255
226 239 255
226 239 255
226 239 255
226 239 255
226 239 255
226 239 255
226 239 255
226 239 255
226 239 255
226 239 255
226 239 255
226 239 255
226 239 255
226 239 255
226 239 255
226 239 255
226 239 255
226 238 255
226 238 255
226 238 255
226 238 255
226 238 255
226 238 255
226 238 255
226 238 255
226 238 255
226 238 255
226 238 255
226 238 255
226 238 255
226 238 255
226 238 255
226 238 255
226 238 255
226 238 255
226 238 255
226 238 255
226 238 255
226 238 255
226 238 255
226 238 255
226 238 255
226 238 255
226 238 255
226 238 255
226 238 255
226 238 255
226 238 255
226 238 255
226 238 255
226 238 255
226 238 255
226 238 255
226 238 255
226 238 255
226 238 255
226 238 255
226 238 255
226 238 255
226 238 255
226 238 255
226 238 255
226 238 255
226 238 255
226 238 255
226 238 255
226 238 255
226 238 255
226 238 255
226 238 255
226 238 255
226 238 255
226 238 255
226 238 255
226 238 255
226 238 255
226 238 255
226 238 255
226 238 255
226 238 255
226 238 255
226 238 255
226 238 255
226 238 255
226 238 255
226 238 255
226 238 255
226 238 255
226 238 255
226 238 255
226 238 255
226 238 255
226 238 255
226 238 255
226 238 255
226 238 255
226 238 255
226 238 255
226 238 255
226 238 255
226 238 255
226 238 255
226 238 255
226 238 255
226 238 255
226 238 255
226 238 255
226 238 255
226 238 255
226 238 255
226 238 255
226 238 255
226 238 255
226 238 255
226 238 255
226 238 255
226 238 255
226 238 255
226 238 255
226 238 255
226 238 255
226 238 255
226 238 255
226 238 255
226 238 255
226 238 255
226 238 255
226 238 255
226 238 255
226 238 255
226 238 255
226 238 255
226 238 255
226 238 255
226 238 255
226 238 255
226 238 255
226 238 255
226 239 255
226 239 255
226 239 255
226 239 255
226 239 255
226 239 255
226 239 255
226 239 255
226 239 255
226 239 255
226 239 255
226 239 255
226 239 255
226 239 255
226 239 255
226 239 255
226 239 255
226 239 255
226 239 255
226 239 255
226 239 255
227 239 255
226 239 255
227 239 255
227 239 255
227 239 255
227 239 255
227 239 255
227 239 255
227 239 255
227 239 255
227 239 255
227 239 255
227 239 255
227 239 255
227 239 255
227 239 255
227 239 255
227 239 255
227 239 255
227 239 255
227 239 255
227 239 255
227 239 255
227 239 255
227 239 255
227 239 255
227 239 255
227 239 255
227 239 255
227 239 255
227 239 255
227 239 255
227 239 255
227 239 255
227 239 255
227 239 255
227 239 255
227 239 255
227 239 255
227 239 255
227 239 255
227 239 255
227 239 255
227 239 255
227 239 255
227 239 255
227 239 255
227 239 255
227 239 255
227 239 255
227 239 255
224 236 253
206 217 232
206 218 232
188 200 211
168 181 186
134 146 148
137 151 150
117 131 127
99 114 101
112 126 118
84 101 79
114 130 117
82 100 78
87 106 83
78 98 67
66 88 51
71 95 55
64 87 50
65 87 50
70 93 55
104 119 103
130 144 139
126 140 136
95 113 96
102 118 104
97 114 96
71 93 60
67 90 52
70 93 54
71 95 56
67 90 52
72 96 56
59 80 44
63 86 49
70 93 55
71 95 56
68 92 53
68 91 53
67 90 52
86 106 79
95 114 92
99 117 99
134 148 146
115 131 123
99 116 102
109 125 114
91 110 86
89 109 84
72 93 61
65 87 50
65 88 51
72 95 56
68 92 53
69 93 54
68 91 52
76 100 60
66 88 50
74 98 58
71 94 54
68 91 53
69 93 54
67 90 51
67 89 52
88 106 89
146 160 160
154 167 168
145 159 161
154 166 169
149 162 164
152 165 165
157 170 172
155 168 172
146 159 161
148 162 163
147 159 162
146 160 161
156 168 169
147 161 160
139 153 150
142 156 158
139 152 151
136 150 148
128 141 141
119 134 127
83 104 77
113 129 116
118 134 122
106 122 106
107 124 108
122 139 129
117 133 119
126 141 137
117 135 123
101 117 100
118 134 126
118 133 126
128 143 140
119 135 127
134 148 144
135 150 146
133 148 141
120 134 126
133 146 143
140 154 152
111 129 114
108 125 111
97 115 95
99 116 100
103 121 103
104 120 107
104 120 106
113 130 117
109 124 112
115 130 120
111 126 116
123 136 132
113 127 120
117 133 123
116 131 124
127 143 137
125 141 135
82 102 77
101 119 100
85 104 80
86 106 81
89 107 86
74 95 64
77 98 66
71 92 61
68 91 53
63 85 48
69 92 54
75 98 58
65 88 51
66 89 51
64 87 50
68 91 53
103 120 104
139 152 151
150 162 169
149 161 165
134 147 146
144 157 157
155 167 169
145 158 160
156 168 170
140 153 152
130 145 139
132 145 143
108 124 114
124 137 134
139 153 152
128 141 140
113 127 120
127 141 137
127 140 137
116 130 121
101 116 104
113 128 119
131 144 140
143 156 158
138 152 150
170 183 189
182 195 203
207 220 233
224 236 253
227 239 255
227 239 255
227 239 255
227 239 255
227 239 255
227 239 255
227 239 255
227 239 255
227 239 255
227 239 255
227 239 255
227 239 255
227 239 255
227 239 255
227 239 255
227 239 255
227 239 255
227 239 255
227 239 255
227 239 255
227 239 255
227 239 255
227 239 255
227 239 255
227 239 255
227 239 255
227 239 255
227 239 255
227 239 255
227 239 255
227 239 255
227 239 255
227 239 255
227 239 255
227 239 255
227 239 255
227 239 255
227 239 255
227 239 255
227 239 255
227 239 255
227 239 255
227 239 255
227 239 255
227 239 255
227 239 255
227 239 255
227 239 255
227 239 255
227 239 255
227 239 255
226 239 255
226 239 255
226 239 255
226 239 255
226 239 255
226 239 255
226 239 255
226 239 255
226 239 255
226 239 255
226 239 255
226 239 255
226 239 255
226 239 255
226 239 255
226 239 255
226 239 255
226 239 255
226 239 255
226 239 255
226 239 255
226 238 255
226 239 255
226 238 255
226 238 255
226 238 255
226 238 255
226 238 255
226 238 255
226 238 255
226 238 255
226 238 255
226 238 255
226 238 255
226 238 255
226 238 255
226 238 255
226 238 255
226 238 255
226 238 255
226 238 255
226 238 255
226 238 255
226 238 255
226 238 255
226 238 255
226 238 255
226 238 255
226 238 255
226 238 255
226 238 255
226 238 255
226 238 255
226 238 255
226 238 255
226 238 255
226 238 255
226 238 255
226 238 255
226 238 255
226 238 255
226 238 255
226 238 255
226 238 255
226 238 255
226 238 255
226 238 255
226 238 255
226 238 255
226 238 255
226 238 255
226 238 255
226 238 255
226 238 255
226 238 255
226 238 255
226 238 255
226 238 255
226 238 255
226 238 255
226 238 255
226 238 255
226 238 255
226 239 255
226 239 255
226 239 255
226 239 255
226 239 255
226 239 255
226 239 255
226 239 255
226 239 255
226 239 255
226 239 255
226 239 255
226 239 255
226 239 255
226 239 255
226 239 255
226 239 255
226 239 255
226 239 255
227 239 255
227 239 255
227 239 255
227 239 255
227 239 255
227 239 255
227 239 255
227 239 255
227 239 255
227 239 255
227 239 255
227 239 255
227 239 255
227 239 255
227 239 255
227 239 255
227 239 255
227 239 255
227 239 255
227 239 255
227 239 255
227 239 255
227 239 255
227 239 255
227 239 255
227 239 255
227 239 255
227 239 255
227 239 255
227 239 255
227 239 255
227 239 255
227 239 255
227 239 255
227 239 255
227 239 255
227 239 255
227 239 255
227 239 255
227 239 255
227 239 255
227 239 255
227 239 255
227 239 255
227 239 255
227 239 255
227 239 255
227 239 255
227 239 255
227 239 255
227 239 255
227 239 255
227 239 255
227 239 255
227 239 255
227 239 255
227 239 255
227 239 255
227 239 255
227 239 255
227 239 255
227 239 255
227 239 255
227 239 255
227 239 255
227 239 255
227 239 255
227 239 255
227 239 255
227 239 255
227 239 255
227 239 255
227 239 255
227 239 255
227 239 255
227 239 255
227 239 255
227 239 255
227 239 255
227 239 255
227 239 255
227 239 255
227 239 255
227 239 255
227 239 255
227 239 255
227 239 255
227 239 255
218 229 245
213 225 240
188 199 210
176 188 197
122 137 131
81 96 83
85 100 88
86 104 84
80 97 77
68 89 55
79 98 72
89 106 88
117 132 124
124 137 136
119 134 129
120 135 132
121 135 131
125 139 135
125 138 135
132 146 145
127 141 139
131 145 143
129 144 139
130 144 139
107 122 112
99 115 103
92 109 90
80 98 75
83 103 78
71 94 59
57 78 44
70 93 54
64 86 50
83 106 71
122 136 130
139 152 153
131 145 144
141 153 154
134 150 148
151 163 167
151 162 166
146 158 162
145 157 159
120 135 130
126 141 137
136 149 147
125 140 133
123 137 131
119 135 123
112 126 116
86 103 86
86 105 80
86 106 80
81 102 74
72 93 59
112 127 117
143 156 158
152 165 167
139 154 154
151 163 166
149 162 165
147 159 159
142 156 157
143 156 157
146 159 160
142 155 156
145 157 157
162 175 180
151 163 165
156 169 174
148 161 163
135 149 149
152 164 167
155 168 169
145 158 159
114 129 121
70 93 58
69 92 53
72 96 57
67 90 52
73 97 57
66 89 50
66 88 51
70 93 54
67 90 52
63 85 48
72 97 57
67 90 52
61 84 48
72 96 56
72 95 56
64 87 50
73 97 57
67 90 52
112 129 118
138 150 151
148 162 162
147 160 161
145 159 160
140 154 155
152 166 169
162 175 180
152 164 168
143 156 156
137 151 152
154 166 170
135 148 147
137 150 151
124 136 134
138 152 153
127 141 139
145 159 160
95 111 98
93 113 89
69 92 53
69 92 53
70 93 55
63 86 49
70 93 55
63 85 49
61 83 47
70 93 54
62 84 47
66 88 52
63 85 48
66 88 51
75 95 68
80 98 75
111 127 116
118 132 127
124 137 133
122 136 133
114 129 122
93 109 96
117 130 123
97 113 99
105 120 112
106 122 110
86 102 86
101 115 109
85 101 82
81 97 78
87 105 86
96 111 99
108 122 115
98 112 103
107 121 113
135 148 149
186 197 207
199 211 224
207 219 233
223 235 251
227 239 255
227 239 255
227 239 255
227 239 255
227 239 255
227 239 255
227 239 255
227 239 255
227 239 255
227 239 255
227 239 255
227 239 255
227 239 255
227 239 255
227 239 255
227 239 255
227 239 255
227 239 255
227 239 255
227 239 255
227 239 255
227 239 255
227 239 255
227 239 255
227 239 255
227 239 255
227 239 255
227 239 255
227 239 255
227 239 255
227 239 255
227 239 255
227 239 255
227 239 255
227 239 255
227 239 255
227 239 255
227 239 255
227 239 255
227 239 255
227 239 255
227 239 255
227 239 255
227 239 255
227 239 255
227 239 255
227 239 255
227 239 255
227 239 255
227 239 255
227 239 255
227 239 255
227 239 255
227 239 255
227 239 255
227 239 255
227 239 255
227 239 255
227 239 255
227 239 255
227 239 255
227 239 255
227 239 255
227 239 255
227 239 255
227 239 255
227 239 255
227 239 255
227 239 255
227 239 255
227 239 255
227 239 255
227 239 255
227 239 255
227 239 255
227 239 255
227 239 255
227 239 255
227 239 255
227 239 255
227 239 255
227 239 255
227 239 255
227 239 255
227 239 255
227 239 255
227 239 255
227 239 255
226 239 255
226 239 255
226 239 255
226 239 255
226 239 255
226 239 255
226 239 255
226 239 255
226 239 255
226 239 255
226 239 255
226 239 255
226 239 255
226 239 255
226 239 255
226 239 255
226 239 255
226 239 255
226 239 255
226 239 255
226 238 255
226 238 255
226 238 255
226 238 255
226 238 255
226 238 255
226 238 255
226 238 255
226 238 255
226 238 255
226 238 255
226 238 255
226 238 255
226 238 255
226 238 255
226 238 255
226 239 255
226 239 255
226 239 255
226 239 255
226 239 255
226 239 255
226 239 255
226 239 255
226 239 255
226 239 255
227 239 255
227 239 255
227 239 255
227 239 255
227 239 255
227 239 255
227 239 255
227 239 255
227 239 255
227 239 255
227 239 255
227 239 255
227 239 255
227 239 255
227 239 255
227 239 255
227 239 255
227 239 255
227 239 255
227 239 255
227 239 255
227 239 255
227 239 255
227 239 255
227 239 255
227 239 255
227 239 255
227 239 255
227 239 255
227 239 255
227 239 255
227 239 255
227 239 255
227 239 255
227 239 255
227 239 255
227 239 255
227 239 255
227 239 255
227 239 255
227 239 255
227 239 255
227 239 255
227 239 255
227 239 255
227 239 255
227 239 255
227 239 255
227 239 255
227 239 255
227 239 255
227 239 255
227 239 255
227 239 255
227 239 255
227 239 255
227 239 255
227 239 255
227 239 255
227 239 255
227 239 255
227 239 255
227 239 255
227 239 255
227 239 255
227 239 255
227 239 255
227 239 255
227 239 255
227 239 255
227 239 255
227 239 255
227 239 255
227 239 255
227 239 255
227 239 255
227 239 255
227 239 255
227 239 255
227 239 255
227 239 255
227 239 255
227 239 255
227 239 255
227 239 255
227 239 255
227 239 255
227 239 255
227 239 255
227 239 255
227 239 255
227 239 255
227 239 255
227 239 255
227 239 255
227 239 255
227 239 255
227 239 255
227 239 255
227 239 255
227 239 255
227 239 255
227 239 255
227 239 255
227 239 255
227 239 255
227 239 255
227 239 255
227 239 255
227 239 255
227 239 255
226 237 254
206 217 232
185 197 207
168 179 188
129 142 143
106 119 115
88 101 97
83 95 88
83 96 90
85 97 95
62 78 61
53 71 45
56 71 53
64 78 63
77 92 76
80 94 82
95 108 101
91 104 98
105 118 114
112 126 121
116 130 124
121 136 133
116 130 124
87 103 86
100 115 103
105 121 110
103 117 107
83 101 80
103 119 108
97 114 97
98 113 102
100 115 104
103 118 107
88 105 90
114 129 121
105 120 110
108 124 116
128 141 141
129 143 140
128 142 142
136 149 147
146 159 161
123 137 133
143 155 158
138 151 153
146 159 163
130 143 140
129 143 143
145 157 158
134 148 144
138 151 153
131 144 145
129 142 141
154 166 170
135 149 151
132 147 144
124 138 135
78 99 69
65 86 56
80 101 69
82 102 76
84 103 80
90 108 88
100 118 100
119 134 126
99 112 103
98 116 100
114 130 121
113 127 117
129 142 139
123 138 132
131 146 144
140 153 154
128 142 136
131 144 141
138 151 153
139 152 150
89 109 86
75 96 63
73 94 62
72 96 56
65 87 50
61 83 47
69 92 54
63 85 49
67 89 51
63 85 48
62 84 47
64 87 50
63 84 48
63 85 49
65 87 51
68 90 53
60 81 47
69 90 55
111 128 118
117 133 127
134 148 148
154 167 171
152 164 167
147 158 161
144 156 158
138 153 152
125 141 139
145 158 161
140 153 153
118 131 127
128 142 141
141 154 153
146 158 162
131 145 143
122 136 131
118 132 127
121 135 130
93 110 91
89 105 88
98 115 97
94 109 95
92 112 89
95 112 93
87 104 88
98 115 101
96 116 94
88 105 87
99 116 100
93 107 96
104 121 112
105 121 111
127 139 140
109 124 115
107 122 116
122 136 132
121 135 129
122 136 132
125 138 132
109 124 119
116 128 125
126 139 137
104 118 110
114 128 121
108 121 116
108 121 119
107 120 114
104 116 112
119 130 134
88 100 95
83 97 89
87 99 94
86 98 93
80 93 85
79 92 84
97 110 106
141 154 156
158 169 176
169 181 190
202 214 228
210 222 236
226 238 254
227 239 255
227 239 255
227 239 255
227 239 255
227 239 255
227 239 255
227 239 255
227 239 255
227 239 255
227 239 255
227 239 255
227 239 255
227 239 255
227 239 255
227 239 255
227 239 255
227 239 255
227 239 255
227 239 255
227 239 255
227 239 255
227 239 255
227 239 255
227 239 255
227 239 255
227 239 255
227 239 255
227 239 255
227 239 255
227 239 255
227 239 255
227 239 255
227 239 255
227 239 255
227 239 255
227 239 255
227 239 255
227 239 255
227 239 255
227 239 255
227 239 255
227 239 255
227 239 255
227 239 255
227 239 255
227 239 255
227 239 255
227 239 255
227 239 255
227 239 255
227 239 255
227 239 255
227 239 255
227 239 255
227 239 255
227 239 255
227 239 255
227 239 255
227 239 255
227 239 255
227 239 255
227 239 255
227 239 255
227 239 255
227 239 255
227 239 255
227 239 255
227 239 255
227 239 255
227 239 255
227 239 255
227 239 255
227 239 255
227 239 255
227 239 255
227 239 255
227 239 255
227 239 255
227 239 255
227 239 255
227 239 255
227 239 255
227 239 255
227 239 255
227 239 255
227 239 255
227 239 255
227 239 255
227 239 255
227 239 255
227 239 255
227 239 255
227 239 255
227 239 255
227 239 255
227 239 255
227 239 255
227 239 255
227 239 255
227 239 255
227 239 255
227 239 255
227 239 255
227 239 255
227 239 255
227 239 255
227 239 255
227 239 255
227 239 255
227 239 255
226 239 255
226 239 255
226 239 255
226 239 255
226 239 255
226 239 255
226 239 255
226 239 255
226 239 255
226 239 255
226 239 255
227 239 255
227 239 255
227 239 255
227 239 255
227 239 255
227 239 255
227 239 255
227 239 255
227 239 255
227 239 255
227 239 255
227 239 255
227 239 255
227 239 255
227 239 255
227 239 255
227 239 255
227 239 255
227 239 255
227 239 255
227 239 255
227 239 255
227 239 255
227 239 255
227 239 255
227 239 255
227 239 255
227 239 255
227 239 255
227 239 255
227 239 255
227 239 255
227 239 255
227 239 255
227 239 255
227 239 255
227 239 255
227 239 255
227 239 255
227 239 255
227 239 255
227 239 255
227 239 255
227 239 255
227 239 255
227 239 255
227 239 255
227 239 255
227 239 255
227 239 255
227 239 255
227 239 255
227 239 255
227 239 255
227 239 255
227 239 255
227 239 255
227 239 255
227 239 255
227 239 255
227 239 255
227 239 255
227 239 255
227 239 255
227 239 255
227 239 255
227 239 255
227 239 255
227 239 255
227 239 255
227 239 255
227 239 255
227 239 255
227 239 255
227 239 255
227 239 255
227 239 255
227 239 255
227 239 255
227 239 255
227 239 255
227 239 255
227 239 255
227 239 255
227 239 255
227 239 255
227 239 255
227 239 255
227 239 255
227 239 255
227 239 255
227 239 255
227 239 255
227 239 255
227 239 255
227 239 255
227 239 255
227 239 255
227 239 255
227 239 255
227 239 255
227 239 255
227 239 255
227 239 255
227 239 255
227 239 255
227 239 255
227 239 255
227 239 255
227 239 255
227 239 255
227 239 255
227 239 255
227 239 255
227 239 255
227 239 255
224 236 253
208 220 233
163 174 181
148 161 163
142 154 157
99 112 109
99 113 112
98 112 108
79 93 86
58 76 52
69 85 72
53 71 45
43 60 33
35 51 27
58 72 58
45 57 41
71 83 76
77 88 85
98 109 109
75 87 84
68 80 71
44 58 39
41 57 33
42 58 33
37 51 29
42 54 37
71 85 74
78 90 82
82 93 85
91 104 96
98 112 107
108 120 117
107 120 113
113 127 122
119 131 129
109 123 118
104 119 109
80 98 76
82 99 80
111 125 118
116 131 125
130 144 142
130 143 144
126 139 137
128 142 139
126 140 138
133 146 145
118 132 128
132 145 146
134 148 147
126 139 138
138 150 152
137 150 150
128 142 141
130 144 142
125 140 133
120 133 126
106 122 110
114 128 122
112 125 117
109 124 114
93 109 96
104 119 111
103 118 106
98 115 102
108 122 115
104 120 106
99 116 100
101 115 103
86 106 80
106 121 110
94 110 96
87 104 88
96 112 98
91 108 90
99 114 101
99 116 99
92 108 94
80 100 78
79 99 72
98 114 98
119 135 127
110 125 117
108 122 114
130 143 141
118 132 127
132 146 143
121 134 130
108 123 117
116 130 125
111 125 120
111 125 120
113 128 120
102 115 105
109 125 113
102 119 106
107 123 111
91 107 93
121 136 131
104 121 107
115 129 120
118 134 122
115 130 122
119 133 129
99 114 104
109 124 117
129 143 140
116 131 124
106 122 112
136 149 147
119 133 130
113 126 121
112 127 118
118 132 126
106 120 108
83 99 85
66 86 56
72 93 64
76 95 71
62 83 48
63 86 49
61 83 47
61 82 47
56 76 42
56 77 43
61 81 50
70 87 64
67 85 59
79 98 72
72 89 67
85 102 84
100 117 106
98 112 101
88 104 88
95 111 98
79 96 79
69 84 68
83 98 84
61 76 55
70 86 68
58 71 56
62 75 62
73 86 79
76 88 80
57 72 56
36 51 27
42 57 32
42 58 33
40 55 31
48 62 45
58 72 56
68 81 70
77 91 81
86 97 96
76 90 80
52 69 44
40 57 30
52 71 41
48 65 40
66 82 68
79 94 81
81 95 84
89 103 96
135 148 150
145 157 160
186 198 208
204 215 229
223 235 252
227 239 255
227 239 255
227 239 255
227 239 255
227 239 255
227 239 255
227 239 255
227 239 255
227 239 255
227 239 255
227 239 255
227 239 255
227 239 255
227 239 255
227 239 255
227 239 255
227 239 255
227 239 255
227 239 255
227 239 255
227 239 255
227 239 255
227 239 255
227 239 255
227 239 255
227 239 255
227 239 255
227 239 255
227 239 255
227 239 255
227 239 255
227 239 255
227 239 255
227 239 255
227 239 255
227 239 255
227 239 255
227 239 255
227 239 255
227 239 255
227 239 255
227 239 255
227 239 255
227 239 255
227 239 255
227 239 255
227 239 255
227 239 255
227 239 255
227 239 255
227 239 255
227 239 255
227 239 255
227 239 255
227 239 255
227 239 255
227 239 255
227 239 255
227 239 255
227 239 255
227 239 255
227 239 255
227 239 255
227 239 255
227 239 255
227 239 255
227 239 255
227 239 255
227 239 255
227 239 255
227 239 255
227 239 255
227 239 255
227 239 255
227 239 255
227 239 255
227 239 255
227 239 255
227 239 255
227 239 255
227 239 255
227 239 255
227 239 255
227 239 255
227 239 255
227 239 255
227 239 255
227 239 255
227 239 255
227 239 255
227 239 255
227 239 255
227 239 255
227 239 255
227 239 255
227 239 255
227 239 255
227 239 255
227 239 255
227 239 255
227 239 255
227 239 255
227 239 255
227 239 255
227 239 255
227 239 255
227 239 255
227 239 255
227 239 255
227 239 255
227 239 255
227 239 255
227 239 255
227 239 255
227 239 255
227 239 255
227 239 255
227 239 255
227 239 255
227 239 255
227 239 255
227 239 255
227 239 255
227 239 255
227 239 255
227 239 255
227 239 255
227 239 255
227 239 255
227 239 255
227 239 255
227 239 255
227 239 255
227 239 255
227 239 255
227 239 255
227 239 255
227 239 255
227 239 255
227 239 255
227 239 255
227 239 255
227 239 255
227 239 255
227 239 255
227 239 255
227 239 255
227 239 255
227 239 255
227 239 255
227 239 255
227 239 255
227 239 255
227 239 255
227 239 255
227 239 255
227 239 255
227 239 255
227 239 255
227 239 255
227 239 255
227 239 255
227 239 255
227 239 255
227 239 255
227 239 255
227 239 255
227 239 255
227 239 255
227 239 255
227 239 255
227 239 255
227 239 255
227 239 255
227 239 255
227 239 255
227 239 255
227 239 255
227 239 255
227 239 255
227 239 255
227 239 255
227 239 255
227 239 255
227 239 255
227 239 255
227 239 255
227 239 255
227 239 255
227 239 255
227 239 255
227 239 255
227 239 255
227 239 255
227 239 255
227 239 255
227 239 255
227 239 255
227 239 255
227 239 255
227 239 255
227 239 255
227 239 255
227 239 255
227 239 255
227 239 255
227 239 255
227 239 255
227 239 255
227 239 255
227 239 255
227 239 255
227 239 255
227 239 255
227 239 255
227 239 255
227 239 255
227 239 255
227 239 255
227 239 255
227 239 255
227 239 255
227 239 255
227 239 255
227 239 255
227 239 255
227 239 255
226 237 254
209 220 235
195 207 220
154 166 172
119 132 130
86 101 90
64 82 61
70 86 71
96 110 107
83 98 87
65 81 62
49 67 38
49 67 38
65 79 65
63 78 64
65 82 61
73 88 76
95 108 105
91 101 103
91 102 101
87 98 97
76 88 82
84 95 92
93 104 105
72 84 77
66 78 71
48 60 48
77 86 86
82 92 91
76 86 83
75 86 83
78 88 86
64 74 70
53 66 51
70 81 75
73 83 78
81 92 90
74 83 81
74 85 81
76 86 83
70 82 73
66 77 68
64 77 63
60 73 61
70 83 73
75 90 76
57 72 52
71 85 71
74 93 70
80 95 81
86 102 85
88 104 90
87 102 88
88 104 93
97 111 104
109 122 117
110 122 118
114 127 120
116 130 127
113 125 124
120 131 131
119 134 127
100 114 104
67 85 62
60 81 47
59 80 46
60 82 47
62 83 51
76 93 72
75 95 65
70 88 64
78 98 72
94 110 96
74 92 71
101 117 105
117 133 126
105 119 112
107 123 112
111 126 118
107 122 112
109 125 113
118 132 130
124 137 133
101 118 103
91 109 90
87 104 86
75 93 73
78 95 73
81 98 79
78 99 70
71 89 65
64 85 50
78 96 72
70 90 62
75 95 67
64 82 57
74 94 64
64 83 58
83 102 77
78 98 73
73 92 66
105 119 109
117 130 126
134 147 146
128 142 140
133 147 145
130 144 145
118 131 128
134 145 148
114 127 124
127 142 137
113 126 121
122 135 133
106 119 115
97 111 103
101 116 108
121 133 131
120 133 132
102 115 108
98 116 99
96 110 103
98 113 105
115 128 121
106 119 114
93 107 99
108 122 116
104 116 111
97 109 104
95 108 100
114 127 124
103 115 112
99 109 106
77 89 78
65 79 66
62 75 63
64 76 69
67 77 71
65 75 70
61 72 62
37 48 33
32 44 25
27 38 21
33 45 26
34 47 26
37 49 34
45 59 39
60 73 60
57 68 59
60 73 61
58 69 59
46 59 43
43 57 38
46 62 40
42 56 36
45 62 35
49 67 39
34 49 26
42 58 32
34 49 26
44 60 34
51 70 40
63 80 60
77 90 83
82 94 89
65 79 66
62 78 60
63 78 66
54 69 52
44 62 34
50 68 43
70 86 70
94 110 101
86 101 88
126 139 139
159 172 177
171 184 190
196 208 220
221 233 249
227 239 255
227 239 255
227 239 255
227 239 255
227 239 255
227 239 255
227 239 255
227 239 255
227 239 255
227 239 255
227 239 255
227 239 255
227 239 255
227 239 255
227 239 255
227 239 255
227 239 255
227 239 255
227 239 255
227 239 255
227 239 255
227 239 255
227 239 255
227 239 255
227 239 255
227 239 255
227 239 255
227 239 255
227 239 255
227 239 255
227 239 255
227 239 255
227 239 255
227 239 255
227 239 255
227 239 255
227 239 255
227 239 255
227 239 255
227 239 255
227 239 255
227 239 255
227 239 255
227 239 255
227 239 255
227 239 255
227 239 255
227 239 255
227 239 255
227 239 255
227 239 255
227 239 255
227 239 255
227 239 255
227 239 255
227 239 255
227 239 255
227 239 255
227 239 255
227 239 255
227 239 255
227 239 255
227 239 255
227 239 255
227 239 255
227 239 255
227 239 255
227 239 255
227 239 255
227 239 255
227 239 255
227 239 255
227 239 255
227 239 255
227 239 255
227 239 255
227 239 255
227 239 255
227 239 255
227 239 255
227 239 255
227 239 255
227 239 255
227 239 255
227 239 255
227 239 255
227 239 255
227 239 255
227 239 255
227 239 255
227 239 255
227 239 255
227 239 255
227 239 255
227 239 255
227 239 255
227 239 255
227 239 255
227 239 255
227 239 255
227 239 255
227 239 255
227 239 255
227 239 255
227 239 255
227 239 255
227 239 255
227 239 255
227 239 255
227 239 255
227 239 255
227 239 255
227 239 255
227 239 255
227 239 255
227 239 255
227 239 255
227 239 255
227 239 255
227 239 255
227 239 255
227 239 255
227 239 255
227 239 255
227 239 255
227 239 255
227 239 255
227 239 255
227 239 255
227 239 255
227 239 255
227 239 255
227 239 255
227 239 255
227 239 255
227 239 255
227 239 255
227 239 255
227 239 255
227 239 255
227 239 255
227 239 255
227 239 255
227 239 255
227 239 255
227 239 255
227 239 255
227 239 255
227 239 255
227 239 255
227 239 255
227 239 255
227 239 255
227 239 255
227 239 255
227 239 255
227 239 255
227 239 255
227 239 255
227 239 255
227 239 255
227 239 255
227 239 255
227 239 255
227 239 255
227 239 255
227 239 255
227 239 255
227 239 255
227 239 255
227 239 255
227 239 255
227 239 255
227 239 255
227 239 255
227 239 255
227 239 255
227 239 255
227 239 255
227 239 255
227 239 255
227 239 255
227 239 255
227 239 255
227 239 255
227 239 255
227 239 255
227 239 255
227 239 255
227 239 255
227 239 255
227 239 255
227 239 255
227 239 255
227 239 255
227 239 255
227 239 255
227 239 255
227 239 255
227 239 255
227 239 255
227 239 255
227 239 255
227 239 255
227 239 255
227 239 255
227 239 255
227 239 255
227 239 255
227 239 255
227 239 255
227 239 255
227 239 255
227 239 255
227 239 255
227 239 255
227 239 255
227 239 255
215 227 241
196 207 220
170 183 189
127 141 141
66 84 61
71 87 72
73 89 73
89 102 97
108 122 121
97 111 106
107 119 119
107 119 120
88 102 98
95 108 103
62 76 62
97 109 108
84 97 91
86 97 96
88 100 97
97 108 108
88 100 96
75 86 84
83 94 93
75 85 81
61 74 62
52 67 48
49 63 46
43 58 33
45 62 35
43 59 34
33 48 24
55 67 56
67 78 74
65 75 70
75 85 84
83 93 93
55 65 57
77 88 85
54 65 56
64 75 68
31 43 24
39 53 31
39 54 31
35 48 28
26 36 19
28 39 21
31 44 25
28 39 22
36 46 33
54 63 58
57 65 64
58 67 64
50 56 55
53 60 57
64 71 73
58 65 62
59 65 65
50 61 50
52 61 53
54 64 54
38 49 36
56 70 53
62 75 62
82 94 85
85 96 91
93 103 102
96 109 105
99 110 108
90 101 97
77 91 77
92 104 98
80 95 83
100 114 105
71 87 72
94 108 98
92 106 96
80 96 79
78 93 78
75 93 72
78 94 77
73 91 69
73 91 69
54 72 45
75 91 71
100 114 106
109 121 118
116 129 127
123 135 134
113 127 123
102 117 109
109 123 118
120 133 130
122 135 133
110 123 121
119 132 129
119 130 130
121 132 132
111 125 120
116 128 125
115 128 124
116 126 127
105 120 113
94 109 98
63 81 55
63 83 52
70 88 63
60 79 53
56 76 44
64 82 58
74 91 72
67 86 58
68 84 67
71 86 68
65 83 58
83 98 82
60 77 55
51 67 46
66 81 64
63 78 59
95 106 103
104 115 115
82 94 88
75 86 78
89 100 99
62 71 63
54 64 56
49 60 49
55 65 55
36 46 33
32 42 31
50 59 52
55 65 58
59 65 68
55 64 59
47 56 50
42 50 44
32 42 30
41 48 44
69 77 78
57 66 62
68 78 74
68 77 75
62 70 70
67 77 73
35 49 27
37 51 28
33 45 25
30 41 23
37 51 29
41 56 32
38 52 30
41 56 33
38 52 29
42 58 33
39 55 30
32 46 24
66 79 67
83 94 91
80 92 85
83 95 90
77 90 83
68 82 71
70 80 74
73 87 75
56 71 53
51 67 47
42 59 32
57 73 53
95 108 104
102 114 115
87 101 96
105 118 117
98 112 110
105 117 118
77 90 83
77 91 82
84 99 89
94 108 101
103 118 113
105 120 114
98 111 107
98 113 104
137 150 151
162 174 181
196 208 220
217 229 245
226 238 254
227 239 255
227 239 255
227 239 255
227 239 255
227 239 255
227 239 255
227 239 255
227 239 255
227 239 255
227 239 255
227 239 255
227 239 255
227 239 255
227 239 255
227 239 255
227 239 255
227 239 255
227 239 255
227 239 255
227 239 255
227 239 255
227 239 255
227 239 255
227 239 255
227 239 255
227 239 255
227 239 255
227 239 255
227 239 255
227 239 255
227 239 255
227 239 255
227 239 255
227 239 255
227 239 255
227 239 255
227 239 255
227 239 255
227 239 255
227 239 255
227 239 255
227 239 255
227 239 255
227 239 255
227 239 255
227 239 255
227 239 255
227 239 255
227 239 255
227 239 255
227 239 255
227 239 255
227 239 255
227 239 255
227 239 255
227 239 255
227 239 255
227 239 255
227 239 255
227 239 255
227 239 255
227 239 255
227 239 255
227 239 255
227 239 255
227 239 255
227 239 255
227 239 255
227 239 255
227 239 255
227 239 255
227 239 255
227 239 255
227 239 255
227 239 255
227 239 255
227 239 255
227 239 255
227 239 255
227 239 255
227 239 255
227 239 255
227 239 255
227 239 255
227 239 255
227 239 255
227 239 255
227 239 255
227 239 255
227 239 255
227 239 255
227 239 255
227 239 255
227 239 255
227 239 255
227 239 255
227 239 255
227 239 255
227 239 255
227 239 255
227 239 255
227 239 255
227 239 255
227 239 255
227 239 255
227 239 255
227 239 255
227 239 255
227 239 255
227 239 255
227 239 255
227 239 255
227 239 255
227 239 255
227 239 255
227 239 255
227 239 255
227 239 255
227 239 255
227 239 255
227 239 255
227 239 255
227 239 255
227 239 255
227 239 255
227 239 255
227 239 255
227 239 255
227 239 255
227 239 255
227 239 255
227 239 255
227 239 255
227 239 255
227 239 255
227 239 255
227 239 255
227 239 255
227 239 255
227 239 255
227 239 255
227 239 255
227 239 255
227 239 255
227 239 255
227 239 255
227 239 255
227 239 255
227 239 255
227 239 255
227 239 255
227 239 255
227 239 255
227 239 255
227 239 255
227 239 255
227 239 255
227 239 255
227 239 255
227 239 255
227 239 255
227 239 255
227 239 255
227 239 255
227 239 255
227 239 255
227 239 255
227 239 255
227 239 255
227 239 255
227 239 255
227 239 255
227 239 255
227 239 255
227 239 255
227 239 255
227 239 255
227 239 255
227 239 255
227 239 255
227 239 255
227 239 255
227 239 255
227 239 255
227 239 255
227 239 255
227 239 255
227 239 255
227 239 255
227 239 255
227 239 255
227 239 255
227 239 255
227 239 255
227 239 255
227 239 255
227 239 255
227 239 255
227 239 255
227 239 255
227 239 255
227 239 255
227 239 255
227 239 255
227 239 255
227 239 255
227 239 255
227 239 255
216 227 243
204 216 230
182 194 204
156 169 174
105 120 113
76 93 78
69 89 65
72 89 71
94 109 103
111 125 122
111 124 124
116 130 130
77 91 82
94 107 103
70 85 72
61 77 60
49 66 43
45 62 36
44 62 34
42 58 33
92 103 102
93 106 103
83 96 93
69 84 70
73 88 76
56 68 55
44 61 34
36 50 27
41 58 31
40 56 31
38 53 30
34 48 25
40 55 32
34 48 26
37 52 28
55 67 57
63 73 69
55 66 57
44 56 43
53 66 51
29 40 22
38 52 30
42 57 33
33 46 25
42 58 33
45 61 36
41 56 32
37 51 29
27 38 20
27 38 20
32 45 25
35 48 27
34 46 27
34 47 26
33 45 26
50 59 52
50 59 54
40 49 40
42 52 42
45 57 43
32 41 31
20 28 15
25 35 18
30 42 23
32 45 25
27 38 21
28 39 21
26 36 20
22 31 16
27 37 21
28 38 22
31 43 25
32 38 34
56 63 62
53 59 60
37 45 37
22 31 17
23 32 17
41 51 41
37 47 34
30 37 29
43 51 45
62 73 67
49 57 50
66 76 72
53 64 54
51 61 52
41 51 40
37 51 29
36 49 29
37 48 34
51 65 46
33 43 31
41 55 31
35 48 27
38 49 34
39 50 35
65 76 67
47 60 44
50 62 49
50 63 46
49 61 46
44 56 42
49 58 52
76 85 84
58 69 59
55 63 59
62 70 66
65 74 69
55 64 57
55 64 59
46 54 46
49 56 51
38 44 41
36 45 35
36 43 37
29 38 29
17 25 12
28 37 22
29 39 23
29 40 23
42 49 45
49 55 54
20 28 15
31 39 30
44 53 46
51 59 56
34 40 36
54 63 58
60 68 66
53 59 59
55 63 62
39 49 39
55 64 61
48 56 50
46 54 51
50 58 54
29 41 23
37 47 32
37 50 29
38 47 37
28 39 21
37 50 34
43 54 42
47 57 48
51 64 51
44 55 42
45 57 42
66 74 73
50 61 50
54 66 56
43 55 40
48 60 48
43 58 38
35 50 27
33 45 26
37 52 29
35 49 28
31 44 24
34 46 26
34 48 27
39 53 31
47 63 41
58 69 63
76 89 83
78 89 84
87 98 97
95 104 105
78 89 84
82 95 92
85 97 93
78 89 84
87 98 94
95 107 106
85 98 92
87 101 94
77 91 79
86 100 94
89 105 95
108 122 121
105 117 117
117 131 131
107 121 119
90 106 98
95 109 108
78 94 80
84 99 89
86 101 90
113 127 128
122 137 139
118 132 134
125 140 140
164 177 185
175 188 196
199 211 224
225 237 254
227 239 255
227 239 255
227 239 255
227 239 255
227 239 255
227 239 255
227 239 255
227 239 255
227 239 255
227 239 255
227 239 255
227 239 255
227 239 255
227 239 255
227 239 255
227 239 255
227 239 255
227 239 255
227 239 255
227 239 255
227 239 255
227 239 255
227 239 255
227 239 255
227 239 255
227 239 255
227 239 255
227 239 255
227 239 255
227 239 255
227 239 255
227 239 255
227 239 255
227 239 255
227 239 255
227 239 255
227 239 255
227 239 255
227 239 255
227 239 255
227 239 255
227 239 255
227 239 255
227 239 255
227 239 255
227 239 255
227 239 255
227 239 255
227 239 255
227 239 255
227 239 255
227 239 255
227 239 255
227 239 255
227 239 255
227 239 255
227 239 255
227 239 255
227 239 255
227 239 255
227 239 255
227 239 255
227 239 255
227 239 255
227 239 255
227 239 255
227 239 255
227 239 255
227 239 255
227 239 255
227 239 255
227 239 255
227 239 255
227 239 255
227 239 255
227 239 255
227 239 255
227 239 255
227 239 255
227 239 255
227 239 255
227 239 255
227 239 255
227 239 255
227 239 255
227 239 255
227 239 255
227 239 255
227 239 255
227 239 255
227 239 255
227 239 255
227 239 255
227 239 255
227 239 255
227 239 255
227 239 255
227 239 255
227 239 255
227 239 255
227 239 255
227 239 255
227 239 255
227 239 255
227 239 255
227 239 255
227 239 255
227 239 255
227 239 255
227 239 255
227 239 255
227 239 255
227 239 255
227 239 255
227 239 255
227 239 255
227 239 255
227 239 255
227 239 255
227 239 255
227 239 255
227 239 255
227 239 255
227 239 255
227 239 255
227 239 255
227 239 255
227 239 255
227 239 255
227 239 255
227 239 255
227 239 255
227 239 255
227 239 255
227 239 255
227 239 255
227 239 255
227 239 255
227 239 255
227 239 255
227 239 255
227 239 255
227 239 255
227 239 255
227 239 255
227 239 255
227 239 255
227 239 255
227 239 255
227 239 255
227 239 255
227 239 255
227 239 255
227 239 255
227 239 255
227 239 255
227 239 255
227 239 255
227 239 255
227 239 255
227 239 255
227 239 255
227 239 255
227 239 255
227 239 255
227 239 255
227 239 255
227 239 255
227 239 255
227 239 255
227 239 255
227 239 255
227 239 255
227 239 255
227 239 255
227 239 255
227 239 255
227 239 255
227 239 255
227 239 255
227 239 255
227 239 255
227 239 255
227 239 255
227 239 255
227 239 255
227 239 255
227 239 255
227 239 255
227 239 255
227 239 255
227 239 255
227 239 255
227 239 255
227 239 255
227 239 255
227 239 255
227 239 255
227 239 255
227 239 255
222 234 250
197 209 221
162 175 181
125 139 136
121 136 137
124 139 140
96 113 102
92 107 101
106 121 117
95 108 102
120 135 135
99 112 109
106 119 117
106 120 118
71 87 72
48 66 38
50 68 40
51 71 40
55 74 44
46 64 35
52 71 41
50 66 47
67 81 71
91 104 102
93 107 103
54 69 49
47 66 37
41 57 31
44 62 34
42 58 32
43 59 33
45 62 36
39 54 30
42 57 36
60 74 59
61 75 59
68 79 75
67 80 69
80 92 88
77 88 85
85 95 96
86 98 95
67 79 71
30 43 23
39 54 30
33 46 25
31 45 22
39 53 30
29 43 22
38 52 30
35 49 28
28 40 21
41 54 37
43 52 45
65 75 68
54 66 54
51 59 55
54 64 57
56 65 61
54 64 58
38 50 34
31 43 24
26 36 21
26 38 19
28 40 21
35 47 27
33 44 26
37 50 29
32 44 25
21 31 16
35 48 27
27 37 21
34 46 26
22 32 16
24 34 18
33 45 26
29 39 23
23 33 17
57 64 63
49 56 54
42 50 44
46 54 50
30 36 34
46 53 50
42 50 43
31 39 30
21 30 16
33 40 36
54 62 58
25 36 20
38 47 38
16 23 12
21 30 16
34 43 31
35 42 37
42 49 45
44 50 49
39 45 42
44 49 49
42 48 45
39 47 39
29 36 28
41 47 44
38 43 43
48 53 55
55 63 58
46 55 47
40 47 44
36 42 39
52 59 56
54 61 61
26 36 20
23 32 18
27 37 21
27 37 21
31 41 24
25 35 19
28 40 22
26 37 20
21 29 16
27 37 21
19 27 14
23 33 18
27 38 21
27 38 21
19 27 14
48 57 50
44 50 48
49 56 55
52 59 57
48 56 52
66 74 75
37 47 34
46 53 51
47 58 48
40 49 40
46 54 49
51 61 53
57 65 62
65 73 72
61 71 66
44 53 46
40 53 36
35 48 28
33 45 26
32 45 25
47 64 38
24 35 18
30 41 23
40 54 32
41 56 33
33 47 25
37 51 28
24 35 17
31 44 23
41 52 41
87 98 98
71 82 76
73 85 77
76 87 83
87 98 97
61 73 64
63 73 71
80 90 89
68 80 73
63 78 63
55 67 54
63 76 65
60 69 63
81 92 91
101 112 115
81 92 90
78 90 84
77 90 83
81 94 87
100 113 112
83 96 90
85 96 92
89 101 97
81 95 89
91 105 98
51 65 47
43 60 33
60 77 58
77 91 79
77 91 81
91 104 101
84 96 91
84 99 89
113 126 126
89 104 94
64 81 60
53 72 40
61 81 53
63 79 59
89 106 96
99 115 108
95 111 100
108 124 121
96 112 102
118 133 127
176 189 197
197 209 221
217 228 244
227 239 255
227 239 255
227 239 255
227 239 255
227 239 255
227 239 255
227 239 255
227 239 255
227 239 255
227 239 255
227 239 255
227 239 255
227 239 255
227 239 255
227 239 255
227 239 255
227 239 255
227 239 255
227 239 255
227 239 255
227 239 255
227 239 255
227 239 255
227 239 255
227 239 255
227 239 255
227 239 255
227 239 255
227 239 255
227 239 255
227 239 255
227 239 255
227 239 255
227 239 255
227 239 255
227 239 255
227 239 255
227 239 255
227 239 255
227 239 255
227 239 255
227 239 255
227 239 255
227 239 255
227 239 255
227 239 255
227 239 255
227 239 255
227 239 255
227 239 255
227 239 255
227 239 255
227 239 255
227 239 255
227 239 255
227 239 255
227 239 255
227 239 255
227 239 255
227 239 255
227 239 255
227 239 255
227 239 255
227 239 255
227 239 255
227 239 255
227 239 255
227 239 255
227 239 255
227 239 255
227 239 255
227 239 255
227 239 255
227 239 255
227 239 255
227 239 255
227 239 255
227 239 255
227 239 255
227 239 255
227 239 255
227 239 255
227 239 255
227 239 255
227 239 255
227 239 255
227 239 255
227 239 255
227 239 255
227 239 255
227 239 255
227 239 255
227 239 255
227 239 255
227 239 255
227 239 255
227 239 255
227 239 255
227 239 255
227 239 255
227 239 255
227 239 255
227 239 255
227 239 255
227 239 255
227 239 255
227 239 255
227 239 255
227 239 255
227 239 255
227 239 255
227 239 255
227 239 255
227 239 255
227 239 255
227 239 255
227 239 255
227 239 255
227 239 255
227 239 255
227 239 255
227 239 255
227 239 255
227 239 255
227 239 255
227 239 255
227 239 255
227 239 255
227 239 255
227 239 255
227 239 255
227 239 255
227 239 255
227 239 255
227 239 255
227 239 255
227 239 255
227 239 255
227 239 255
227 239 255
227 239 255
227 239 255
227 239 255
227 239 255
227 239 255
227 239 255
227 239 255
227 239 255
227 239 255
227 239 255
227 239 255
227 239 255
227 239 255
227 239 255
227 239 255
227 239 255
227 239 255
227 239 255
227 239 255
227 239 255
227 239 255
227 239 255
227 239 255
227 239 255
227 239 255
227 239 255
227 239 255
227 239 255
227 239 255
227 239 255
227 239 255
227 239 255
227 239 255
227 239 255
227 239 255
227 239 255
227 239 255
227 239 255
227 239 255
227 239 255
227 239 255
227 239 255
227 239 255
227 239 255
227 239 255
227 239 255
227 239 255
227 239 255
227 239 255
227 239 255
227 239 255
227 239 255
215 227 242
188 200 212
167 180 187
133 147 147
109 124 120
108 124 118
95 111 104
104 120 112
76 95 73
52 72 45
51 71 40
61 80 54
90 106 95
83 99 91
70 87 69
48 66 41
51 71 40
49 67 38
50 69 39
53 74 42
64 81 61
83 98 89
90 104 100
83 97 91
105 119 117
109 121 124
87 99 95
98 111 110
92 102 104
99 112 110
48 64 41
46 63 36
58 73 56
60 73 62
58 72 57
84 98 92
82 95 91
76 87 82
74 87 80
82 93 88
84 96 92
84 94 93
76 86 84
72 85 76
73 85 78
78 89 86
93 103 105
42 53 41
33 48 25
36 47 33
53 65 54
45 59 42
57 67 60
51 60 55
57 69 60
74 85 83
67 75 76
75 86 81
78 88 86
70 80 76
48 57 51
66 77 71
62 72 66
71 79 80
72 82 79
38 49 34
29 41 22
31 43 24
32 44 24
35 48 28
28 39 22
29 41 22
27 38 21
25 35 19
32 43 25
38 52 30
35 45 32
51 60 54
36 44 37
45 52 48
44 52 45
49 58 53
46 55 49
24 34 19
28 39 21
23 32 18
22 31 18
38 51 30
22 31 18
31 42 24
24 35 18
27 39 19
22 31 17
34 48 27
26 36 20
21 31 16
31 42 24
24 33 19
30 42 24
44 51 46
54 62 60
48 56 52
50 58 55
43 51 45
56 64 61
48 56 52
60 68 65
56 64 61
35 45 32
48 56 51
48 56 51
47 55 51
27 39 21
46 53 51
51 58 56
57 64 62
22 32 17
28 39 22
25 35 20
16 25 10
22 31 16
26 37 19
23 33 17
32 44 25
25 35 19
26 36 19
26 35 20
33 44 26
28 39 22
28 39 21
21 30 15
45 53 49
34 43 36
51 59 56
59 66 65
40 48 40
42 50 45
40 47 42
55 64 60
49 59 52
57 65 61
57 66 62
59 69 64
59 69 63
66 76 72
62 71 67
57 66 61
29 40 22
32 45 24
36 48 29
39 52 31
33 45 26
41 56 32
29 41 22
26 38 20
42 57 33
35 49 27
35 49 27
36 50 28
39 54 30
43 53 44
84 95 92
67 76 73
79 89 89
67 79 69
80 91 89
68 79 72
94 106 105
77 86 84
76 89 81
82 94 87
77 89 84
75 88 79
78 90 87
77 88 82
42 58 33
52 66 47
51 64 50
59 73 56
70 84 75
85 99 93
87 100 96
98 110 109
89 101 97
98 111 107
97 109 108
70 82 75
46 63 36
51 70 40
47 65 37
56 76 44
47 65 37
47 66 38
50 70 39
58 75 54
73 89 73
67 84 65
80 97 82
74 91 75
59 79 50
54 75 43
56 78 44
61 81 51
76 94 77
74 93 73
57 80 44
83 100 84
67 87 61
117 131 127
165 178 182
196 208 219
223 235 251
227 239 255
227 239 255
227 239 255
227 239 255
227 239 255
227 239 255
227 239 255
227 239 255
227 239 255
227 239 255
227 239 255
227 239 255
227 239 255
227 239 255
227 239 255
227 239 255
227 239 255
227 239 255
227 239 255
227 239 255
227 239 255
227 239 255
227 239 255
227 239 255
227 239 255
227 239 255
227 239 255
227 239 255
227 239 255
227 239 255
227 239 255
227 239 255
227 239 255
227 239 255
227 239 255
227 239 255
227 239 255
227 239 255
227 239 255
227 239 255
227 239 255
227 239 255
227 239 255
227 239 255
227 239 255
227 239 255
227 239 255
227 239 255
227 239 255
227 239 255
227 239 255
227 239 255
227 239 255
227 239 255
227 239 255
227 239 255
227 239 255
227 239 255
227 239 255
227 239 255
227 239 255
227 239 255
227 239 255
227 239 255
227 239 255
227 239 255
227 239 255
227 239 255
227 239 255
227 239 255
227 239 255
227 239 255
227 239 255
227 239 255
227 239 255
227 239 255
227 239 255
227 239 255
227 239 255
227 239 255
227 239 255
227 239 255
227 239 255
227 239 255
227 239 255
227 239 255
227 239 255
227 239 255
227 239 255
227 239 255
227 239 255
227 239 255
227 239 255
227 239 255
227 239 255
227 239 255
227 239 255
227 239 255
227 239 255
227 239 255
227 239 255
227 239 255
227 239 255
227 239 255
227 239 255
227 239 255
227 239 255
227 239 255
227 239 255
227 239 255
227 239 255
227 239 255
227 239 255
227 239 255
227 239 255
227 239 255
227 239 255
227 239 255
227 239 255
227 239 255
227 239 255
227 239 255
227 239 255
227 239 255
227 239 255
227 239 255
227 239 255
227 239 255
227 239 255
227 239 255
227 239 255
227 239 255
227 239 255
227 239 255
227 239 255
227 239 255
227 239 255
227 239 255
227 239 255
227 239 255
227 239 255
227 239 255
227 239 255
227 239 255
227 239 255
227 239 255
227 239 255
227 239 255
227 239 255
227 239 255
227 239 255
227 239 255
227 239 255
227 239 255
227 239 255
227 239 255
227 239 255
227 239 255
227 239 255
227 239 255
227 239 255
227 239 255
227 239 255
227 239 255
227 239 255
227 239 255
227 239 255
227 239 255
227 239 255
227 239 255
227 239 255
227 239 255
227 239 255
227 239 255
227 239 255
227 239 255
227 239 255
227 239 255
227 239 255
227 239 255
227 239 255
227 239 255
227 239 255
227 239 255
220 232 247
203 215 228
164 177 183
131 146 147
130 145 147
122 136 136
107 122 118
84 100 89
62 81 55
58 79 46
59 80 46
57 76 51
93 109 98
104 119 114
113 127 128
118 133 134
111 125 125
53 71 47
54 74 42
56 76 48
75 90 76
77 92 80
95 108 106
104 118 115
100 111 113
106 118 119
99 112 108
108 119 122
99 112 110
101 112 113
92 105 99
95 106 106
89 102 99
75 87 80
74 88 78
83 95 92
79 91 85
87 98 94
78 89 84
80 92 86
101 111 113
83 95 92
87 99 97
87 97 97
92 104 102
97 109 108
103 113 116
73 85 79
75 86 81
63 76 64
58 70 60
51 65 51
94 106 107
68 78 76
73 84 79
75 86 82
80 90 89
77 88 86
75 86 78
68 78 75
67 77 72
69 78 77
75 86 81
65 76 69
77 87 84
85 95 95
61 70 66
74 83 85
73 84 80
47 57 47
45 61 36
32 44 24
38 50 35
51 64 51
46 56 47
51 60 53
56 67 58
47 58 46
59 67 65
71 80 80
53 63 54
63 72 70
56 63 61
44 53 45
53 61 56
62 72 67
61 69 68
35 46 32
29 40 22
26 38 20
28 39 22
26 37 20
34 46 27
23 33 18
16 26 11
30 42 24
31 43 24
28 39 21
29 40 23
26 37 20
27 38 21
30 42 24
17 26 12
42 52 41
80 88 90
50 58 53
55 63 59
52 60 56
47 57 47
42 50 44
71 80 81
52 63 54
65 73 74
62 72 67
54 62 57
36 45 36
46 54 51
58 68 62
70 78 78
39 48 40
44 52 46
49 59 51
32 42 30
38 49 35
27 37 21
30 39 28
33 41 30
44 54 47
52 60 55
56 66 61
40 51 36
55 65 59
32 42 29
51 60 53
39 49 37
54 61 59
44 53 46
34 45 30
59 69 62
53 64 54
47 55 51
51 61 53
60 70 63
46 56 48
42 52 41
72 81 80
51 62 52
47 56 51
59 69 65
58 67 65
57 67 60
34 44 31
38 48 37
40 55 32
51 64 50
46 58 45
37 51 33
23 34 17
40 50 40
38 53 29
35 49 27
40 55 32
36 51 27
40 56 31
39 54 29
40 56 32
66 78 71
87 98 97
75 85 83
91 103 102
70 83 74
80 92 89
85 96 95
93 105 105
84 95 94
85 96 92
87 100 95
73 85 80
92 103 102
73 84 78
43 59 33
51 69 40
45 61 36
49 66 38
44 62 34
45 62 35
38 54 29
47 65 37
41 58 31
49 63 45
61 76 58
72 85 74
65 82 62
62 78 59
51 68 45
49 67 42
51 70 42
52 71 41
46 64 36
47 65 36
51 72 41
55 73 46
92 106 97
113 126 128
117 130 130
98 112 109
94 108 101
84 100 87
68 87 64
62 84 49
67 86 60
89 104 96
100 115 108
99 114 111
89 104 92
80 97 82
108 125 116
167 180 186
201 213 226
220 232 248
227 239 255
227 239 255
227 239 255
227 239 255
227 239 255
227 239 255
227 239 255
227 239 255
227 239 255
227 239 255
227 239 255
227 239 255
227 239 255
227 239 255
227 239 255
227 239 255
227 239 255
227 239 255
227 239 255
227 239 255
227 239 255
227 239 255
227 239 255
227 239 255
227 239 255
227 239 255
227 239 255
227 239 255
227 239 255
227 239 255
227 239 255
227 239 255
227 239 255
227 239 255
227 239 255
227 239 255
227 239 255
227 239 255
227 239 255
227 239 255
227 239 255
227 239 255
227 239 255
227 239 255
227 239 255
227 239 255
227 239 255
227 239 255
227 239 255
227 239 255
227 239 255
227 239 255
227 239 255
227 239 255
227 239 255
227 239 255
227 239 255
227 239 255
227 239 255
227 239 255
227 239 255
227 239 255
227 239 255
227 239 255
227 239 255
227 239 255
227 239 255
227 239 255
227 239 255
227 239 255
227 239 255
227 239 255
227 239 255
227 239 255
227 239 255
227 239 255
227 239 255
227 239 255
227 239 255
227 239 255
227 239 255
227 239 255
227 239 255
227 239 255
227 239 255
227 239 255
227 239 255
227 239 255
227 239 255
227 239 255
227 239 255
227 239 255
227 239 255
227 239 255
227 239 255
227 239 255
227 239 255
227 239 255
227 239 255
227 239 255
227 239 255
227 239 255
227 239 255
227 239 255
227 239 255
227 239 255
227 239 255
227 239 255
227 239 255
227 239 255
227 239 255
227 239 255
227 239 255
227 239 255
227 239 255
227 239 255
227 239 255
227 239 255
227 239 255
227 239 255
227 239 255
227 239 255
227 239 255
227 239 255
227 239 255
227 239 255
227 239 255
227 239 255
227 239 255
227 239 255
227 239 255
227 239 255
227 239 255
227 239 255
227 239 255
227 239 255
227 239 255
227 239 255
227 239 255
227 239 255
227 239 255
227 239 255
227 239 255
227 239 255
227 239 255
227 239 255
227 239 255
227 239 255
227 239 255
227 239 255
227 239 255
227 239 255
227 239 255
227 239 255
227 239 255
227 239 255
227 239 255
227 239 255
227 239 255
227 239 255
227 239 255
227 239 255
227 239 255
227 239 255
227 239 255
227 239 255
227 239 255
227 239 255
227 239 255
227 239 255
227 239 255
227 239 255
227 239 255
227 239 255
227 239 255
227 239 255
219 231 247
195 207 217
159 173 176
141 156 156
110 125 120
96 113 103
125 141 140
88 106 93
60 79 53
59 81 47
50 71 39
84 103 84
83 100 85
107 122 118
106 121 117
115 130 128
114 129 128
129 143 145
109 123 121
109 123 121
101 116 110
79 93 85
106 119 117
103 117 113
98 112 108
99 112 109
108 123 123
99 112 109
100 112 111
106 118 118
96 109 105
88 102 96
66 82 67
73 88 72
46 63 37
41 56 32
40 56 31
45 63 36
43 60 33
86 100 94
99 112 112
81 95 90
75 89 82
83 94 93
92 103 103
74 86 81
84 97 92
63 76 64
67 80 71
50 64 46
46 59 42
37 51 29
43 60 33
42 57 33
43 59 35
43 59 34
50 62 49
87 97 97
70 80 78
73 83 79
91 102 102
71 82 76
85 94 96
74 85 81
71 81 78
57 68 59
71 83 75
74 84 81
63 74 67
69 82 74
49 61 52
63 73 69
43 54 40
39 49 38
48 59 49
80 90 89
82 92 90
71 79 78
47 57 49
80 89 88
47 57 48
58 69 62
68 77 74
59 70 63
44 53 45
59 70 63
42 52 41
79 89 87
47 58 47
56 64 62
72 81 79
63 73 68
40 55 32
38 52 30
30 42 23
34 47 27
26 38 20
29 39 22
34 46 27
26 38 19
33 45 25
29 39 22
33 46 26
38 51 30
28 38 22
34 48 27
35 46 33
30 38 29
33 42 30
52 60 56
45 55 47
44 52 45
44 55 43
57 68 60
32 45 25
43 53 42
44 56 42
48 59 47
37 46 38
44 57 39
31 42 24
27 38 21
27 38 20
26 37 21
33 47 26
45 55 47
53 63 56
58 68 61
71 82 79
56 66 59
54 63 57
59 68 62
57 66 62
62 70 68
59 67 66
43 51 44
73 83 80
75 85 83
60 69 66
56 68 56
56 65 59
57 66 61
36 47 32
42 57 34
37 50 29
37 51 29
33 46 26
30 43 24
29 41 22
31 43 24
42 57 33
27 38 21
32 45 25
39 53 31
32 45 24
31 44 23
46 60 39
76 86 84
79 88 90
58 69 60
82 93 90
87 99 94
77 86 86
95 106 106
80 91 89
68 80 73
71 82 76
77 88 87
67 79 72
59 70 61
86 97 95
60 71 63
58 70 60
56 67 57
78 90 84
68 82 70
85 97 95
106 117 119
91 104 97
91 103 102
86 99 93
86 100 96
82 91 90
86 98 93
101 113 112
58 73 55
47 65 38
46 65 36
44 62 35
46 62 36
48 66 39
42 59 33
47 65 37
45 63 34
49 67 40
48 66 37
49 68 38
73 87 78
101 113 113
110 123 123
105 119 117
107 120 116
73 87 77
89 103 95
76 90 79
67 84 67
54 74 43
50 68 39
78 95 79
122 136 137
118 132 133
115 129 128
110 124 123
116 131 134
105 118 118
79 95 78
87 104 93
102 118 111
122 137 138
123 138 139
126 141 144
114 130 127
122 137 135
104 120 112
148 162 165
163 176 180
193 205 216
224 236 253
227 239 255
227 239 255
227 239 255
227 239 255
227 239 255
227 239 255
227 239 255
227 239 255
227 239 255
227 239 255
227 239 255
227 239 255
227 239 255
227 239 255
227 239 255
227 239 255
227 239 255
227 239 255
227 239 255
227 239 255
227 239 255
227 239 255
227 239 255
227 239 255
227 239 255
227 239 255
227 239 255
227 239 255
227 239 255
227 239 255
227 239 255
227 239 255
227 239 255
227 239 255
227 239 255
227 239 255
227 239 255
227 239 255
227 239 255
227 239 255
227 239 255
227 239 255
227 239 255
227 239 255
227 239 255
227 239 255
227 239 255
227 239 255
227 239 255
227 239 255
227 239 255
227 239 255
227 239 255
227 239 255
227 239 255
227 239 255
227 239 255
227 239 255
227 239 255
227 239 255
227 239 255
227 239 255
227 239 255
227 239 255
227 239 255
227 239 255
227 239 255
227 239 255
227 239 255
227 239 255
227 239 255
227 239 255
227 239 255
227 239 255
227 239 255
227 239 255
227 239 255
227 239 255
227 239 255
227 239 255
227 239 255
227 239 255
227 239 255
227 239 255
227 239 255
227 239 255
227 239 255
227 239 255
227 239 255
227 239 255
227 239 255
227 239 255
227 239 255
227 239 255
227 239 255
227 239 255
227 239 255
227 239 255
227 239 255
227 239 255
227 239 255
227 239 255
227 239 255
227 239 255
227 239 255
227 239 255
227 239 255
227 239 255
227 239 255
227 239 255
227 239 255
227 239 255
227 239 255
227 239 255
227 239 255
227 239 255
227 239 255
227 239 255
227 239 255
227 239 255
227 239 255
227 239 255
227 239 255
227 239 255
227 239 255
227 239 255
227 239 255
227 239 255
227 239 255
227 239 255
227 239 255
227 239 255
227 239 255
227 239 255
227 239 255
227 239 255
227 239 255
227 239 255
227 239 255
227 239 255
227 239 255
227 239 255
227 239 255
227 239 255
227 239 255
227 239 255
227 239 255
227 239 255
227 239 255
227 239 255
227 239 255
227 239 255
227 239 255
227 239 255
227 239 255
227 239 255
227 239 255
227 239 255
227 239 255
227 239 255
227 239 255
227 239 255
227 239 255
227 239 255
227 239 255
227 239 255
227 239 255
227 239 255
226 238 254
200 212 224
181 195 204
146 161 163
108 124 116
110 126 121
121 137 133
118 133 131
102 118 113
58 80 46
62 84 50
71 90 65
92 109 97
105 120 115
116 131 129
117 132 131
116 131 132
105 120 115
112 126 125
111 124 121
82 99 87
81 98 83
57 75 54
55 75 43
52 71 41
52 72 40
99 113 110
109 123 122
114 126 127
102 116 115
80 94 83
82 96 86
77 91 80
60 77 56
47 65 37
50 68 40
44 62 34
49 67 39
44 62 35
48 65 38
47 65 37
51 69 40
47 65 37
70 86 70
99 111 110
86 99 96
71 84 76
59 74 57
41 57 32
45 61 35
44 61 34
45 62 35
45 62 35
39 54 29
45 63 35
43 59 34
40 56 31
47 64 38
40 56 32
40 55 32
44 60 34
65 78 66
75 86 80
81 92 89
84 97 91
81 94 87
71 84 74
80 90 88
47 57 48
71 82 76
53 67 50
36 51 28
36 50 27
26 38 19
32 45 25
27 40 20
37 51 30
32 44 25
37 50 33
59 68 64
62 72 66
76 86 85
82 92 91
71 81 77
82 91 92
80 90 89
52 62 56
65 75 71
72 81 79
41 53 40
46 55 46
58 67 62
58 70 61
83 93 91
65 75 68
52 60 56
58 67 65
31 43 24
36 50 28
39 52 35
46 58 44
64 71 71
48 59 49
54 65 55
49 58 50
54 62 60
56 66 57
44 55 43
54 63 59
68 75 76
59 68 65
65 74 71
56 66 59
49 58 52
36 50 27
24 34 18
34 47 27
34 47 27
35 49 27
40 54 31
24 35 17
38 52 29
34 46 27
35 47 27
41 55 33
25 35 19
40 55 32
27 39 20
32 45 25
30 42 23
55 64 60
75 84 82
60 70 65
51 61 53
62 72 68
66 77 73
67 77 72
58 70 59
77 87 85
71 82 77
59 69 64
59 66 64
62 72 67
57 68 59
49 59 51
55 63 59
67 77 72
26 37 19
26 37 19
36 51 27
40 54 31
40 55 31
37 51 29
33 45 25
37 52 29
37 51 29
38 52 30
38 52 31
37 52 29
31 44 22
38 53 29
42 56 37
73 83 82
81 91 90
82 93 91
75 84 84
79 89 87
76 89 80
84 94 92
76 87 84
98 110 110
65 76 72
82 95 89
86 97 97
84 96 92
70 81 74
72 83 79
42 58 33
42 58 32
40 55 31
39 54 31
45 62 36
42 58 33
43 59 34
50 66 44
52 66 50
53 69 49
75 87 80
62 76 62
77 90 81
58 72 57
65 79 68
64 81 58
60 75 58
62 79 58
46 64 36
46 63 36
46 64 36
47 66 36
39 55 29
50 68 39
50 69 40
60 77 56
102 114 114
111 122 125
104 119 114
106 120 118
98 113 109
102 117 113
117 130 132
127 140 144
104 118 116
102 115 113
101 116 112
107 122 120
126 141 145
116 131 129
116 130 131
121 136 134
111 126 126
108 122 120
107 122 120
130 144 148
111 125 127
103 119 110
106 121 115
113 130 126
143 158 162
119 136 134
106 122 114
70 91 64
81 101 78
122 138 131
171 184 189
207 219 232
227 239 255
227 239 255
227 239 255
227 239 255
227 239 255
227 239 255
227 239 255
227 239 255
227 239 255
227 239 255
227 239 255
227 239 255
227 239 255
227 239 255
227 239 255
227 239 255
227 239 255
227 239 255
227 239 255
227 239 255
227 239 255
227 239 255
227 239 255
227 239 255
227 239 255
227 239 255
227 239 255
227 239 255
227 239 255
227 239 255
227 239 255
227 239 255
227 239 255
227 239 255
227 239 255
227 239 255
227 239 255
227 239 255
227 239 255
227 239 255
227 239 255
227 239 255
227 239 255
227 239 255
227 239 255
227 239 255
227 239 255
227 239 255
227 239 255
227 239 255
227 239 255
227 239 255
227 239 255
227 239 255
227 239 255
227 239 255
227 239 255
227 239 255
227 239 255
227 239 255
227 239 255
227 239 255
227 239 255
227 239 255
227 239 255
227 239 255
227 239 255
227 239 255
227 239 255
227 239 255
227 239 255
227 239 255
227 239 255
227 239 255
227 239 255
227 239 255
227 239 255
227 239 255
227 239 255
227 239 255
227 239 255
227 239 255
227 239 255
227 239 255
227 239 255
227 239 255
227 239 255
227 239 255
227 239 255
227 239 255
227 239 255
227 239 255
227 239 255
227 239 255
227 239 255
227 239 255
227 239 255
227 239 255
227 239 255
227 239 255
227 239 255
227 239 255
227 239 255
227 239 255
227 239 255
227 239 255
227 239 255
227 239 255
227 239 255
227 239 255
227 239 255
227 239 255
227 239 255
227 239 255
227 239 255
227 239 255
227 239 255
227 239 255
227 239 255
227 239 255
227 239 255
227 239 255
227 239 255
227 239 255
227 239 255
227 239 255
227 239 255
227 239 255
227 239 255
227 239 255
227 239 255
227 239 255
227 239 255
227 239 255
227 239 255
227 239 255
227 239 255
227 239 255
227 239 255
227 239 255
227 239 255
227 239 255
227 239 255
227 239 255
227 239 255
227 239 255
227 239 255
227 239 255
227 239 255
227 239 255
227 239 255
227 239 255
227 239 255
227 239 255
227 239 255
227 239 255
227 239 255
227 239 255
227 239 255
227 239 255
227 239 255
227 239 255
217 229 244
191 204 213
169 182 189
129 146 144
125 140 140
109 126 117
103 119 112
122 137 137
122 137 135
137 152 157
123 140 139
107 124 117
90 107 94
115 129 129
125 140 141
128 143 145
107 121 119
118 132 133
110 123 121
99 114 106
70 89 67
58 79 50
57 79 45
56 76 44
55 76 44
54 75 43
52 71 40
53 73 42
58 76 52
87 102 94
79 91 84
73 90 74
54 73 45
49 68 39
46 64 35
54 73 43
51 70 40
48 67 38
51 70 40
45 63 36
41 57 31
51 70 40
51 67 46
60 75 62
69 85 69
80 92 87
89 102 99
78 92 82
37 52 27
42 59 32
44 60 35
37 52 28
43 61 33
46 65 36
45 61 34
43 59 33
36 51 28
40 56 32
39 54 29
46 64 36
38 54 29
43 60 33
55 69 52
64 79 64
66 81 66
69 83 70
57 70 54
50 64 46
44 58 38
38 54 28
44 61 34
39 55 31
43 58 34
35 49 27
42 57 33
38 52 30
42 56 33
41 57 32
40 54 32
38 53 30
41 56 33
37 52 28
51 63 50
86 97 97
75 87 78
87 95 99
67 76 71
82 93 88
82 92 93
66 76 70
71 82 77
58 70 60
43 53 45
64 73 72
61 71 68
49 63 47
40 51 39
42 52 40
51 59 55
39 50 37
50 61 49
66 77 72
70 80 77
75 87 79
71 81 78
54 65 57
66 75 74
66 75 73
52 62 54
69 79 76
71 81 78
59 69 65
60 72 64
52 63 52
55 66 58
80 90 89
61 68 69
69 78 75
36 50 27
35 48 28
35 49 28
25 36 19
30 43 23
34 47 27
42 57 34
28 40 21
37 51 29
34 47 26
39 53 30
34 48 26
31 44 24
35 49 27
33 47 25
33 45 26
75 84 83
48 56 51
78 89 86
83 93 93
54 64 57
68 79 74
62 71 67
72 82 78
74 85 79
61 71 65
61 72 66
75 85 84
63 75 67
65 75 70
72 84 77
74 85 81
60 70 63
32 44 24
41 56 33
38 53 30
33 47 24
37 51 29
38 53 29
33 45 25
43 59 33
34 47 26
38 53 29
38 53 30
38 53 30
36 51 28
38 53 29
39 53 34
72 83 77
88 99 99
67 78 72
80 90 88
69 80 75
77 89 83
71 84 75
76 88 82
86 98 93
84 95 90
96 107 107
78 90 88
102 114 116
71 83 78
96 107 104
43 60 33
43 59 34
41 57 32
48 66 38
43 60 34
41 57 31
50 68 40
40 56 31
46 64 36
47 65 37
35 49 27
50 69 40
46 63 36
77 92 82
87 99 96
105 118 118
107 119 121
97 112 104
94 106 104
81 97 85
94 108 103
82 97 89
82 96 88
55 72 50
62 81 57
53 70 45
88 102 95
99 112 107
112 124 128
101 115 111
102 115 114
124 137 141
111 124 125
109 123 120
117 131 130
121 136 137
101 115 114
101 114 111
60 79 53
76 94 76
80 97 82
82 97 86
95 110 103
111 125 122
121 137 133
117 131 132
117 131 132
109 126 119
71 92 66
67 88 62
87 106 89
95 114 98
108 122 120
100 117 107
104 120 113
103 120 111
104 121 110
116 132 126
150 164 165
185 197 205
217 229 243
227 239 255
227 239 255
227 239 255
227 239 255
227 239 255
227 239 255
227 239 255
227 239 255
227 239 255
227 239 255
227 239 255
227 239 255
227 239 255
227 239 255
227 239 255
227 239 255
227 239 255
227 239 255
227 239 255
227 239 255
227 239 255
227 239 255
227 239 255
227 239 255
227 239 255
227 239 255
227 239 255
227 239 255
227 239 255
227 239 255
227 239 255
227 239 255
227 239 255
227 239 255
227 239 255
227 239 255
227 239 255
227 239 255
227 239 255
227 239 255
227 239 255
227 239 255
227 239 255
227 239 255
227 239 255
227 239 255
227 239 255
227 239 255
227 239 255
227 239 255
227 239 255
227 239 255
227 239 255
227 239 255
227 239 255
227 239 255
227 239 255
227 239 255
227 239 255
227 239 255
227 239 255
227 239 255
227 239 255
227 239 255
227 239 255
227 239 255
227 239 255
227 239 255
227 239 255
227 239 255
227 239 255
227 239 255
227 239 255
227 239 255
227 239 255
227 239 255
227 239 255
227 239 255
227 239 255
227 239 255
227 239 255
227 239 255
227 239 255
227 239 255
227 239 255
227 239 255
227 239 255
227 239 255
227 239 255
227 239 255
227 239 255
227 239 255
227 239 255
227 239 255
227 239 255
227 239 255
227 239 255
227 239 255
227 239 255
227 239 255
227 239 255
227 239 255
227 239 255
227 239 255
227 239 255
227 239 255
227 239 255
227 239 255
227 239 255
227 239 255
227 239 255
227 239 255
227 239 255
227 239 255
227 239 255
227 239 255
227 239 255
227 239 255
227 239 255
227 239 255
227 239 255
227 239 255
227 239 255
227 239 255
227 239 255
227 239 255
227 239 255
227 239 255
227 239 255
227 239 255
227 239 255
227 239 255
227 239 255
227 239 255
227 239 255
227 239 255
227 239 255
227 239 255
227 239 255
227 239 255
227 239 255
227 239 255
227 239 255
227 239 255
227 239 255
227 239 255
227 239 255
227 239 255
227 239 255
227 239 255
227 239 255
227 239 255
227 239 255
227 239 255
226 238 254
209 221 234
169 182 187
136 151 150
121 138 136
125 141 139
102 119 108
89 106 93
76 98 70
110 126 124
127 142 142
132 147 146
87 103 89
78 96 77
53 73 42
58 79 47
70 89 67
120 135 134
120 135 135
94 109 99
98 116 104
56 77 45
57 78 45
53 74 41
54 74 42
54 74 43
55 75 43
58 80 47
67 83 64
81 98 82
91 105 97
119 132 134
113 126 125
103 116 113
68 83 68
50 69 40
49 69 38
51 70 40
60 81 48
47 65 37
56 76 45
51 69 40
60 76 56
71 86 71
90 104 95
101 115 112
100 114 111
97 110 108
98 111 109
90 103 98
103 117 113
100 113 111
58 75 51
43 61 33
45 62 34
42 59 33
49 67 39
45 62 35
38 54 30
46 63 36
46 63 37
58 72 54
57 71 57
60 72 61
78 90 85
90 102 100
97 110 106
70 82 75
88 99 97
75 88 81
41 56 32
37 52 28
34 49 26
42 58 33
42 58 33
47 65 37
44 61 35
38 53 29
33 46 25
42 58 34
39 54 30
44 61 34
37 51 29
37 53 28
50 68 40
36 50 28
40 56 31
64 76 65
95 105 108
69 80 74
69 80 72
73 86 77
46 58 45
53 65 54
42 57 37
53 66 52
36 51 28
41 56 32
36 51 28
37 52 29
32 46 25
37 52 29
30 41 23
30 43 23
51 68 44
81 91 91
75 85 83
79 89 86
72 83 79
76 87 83
81 91 92
75 85 82
67 79 71
65 78 70
68 79 75
70 79 78
77 88 84
79 88 89
71 81 80
66 76 71
62 73 66
78 87 88
58 71 58
33 47 26
35 49 27
33 46 25
30 42 24
45 62 36
36 49 28
39 54 30
35 48 27
36 50 28
33 45 25
39 54 30
33 47 25
33 46 25
40 55 31
30 44 22
32 45 25
57 69 59
64 75 70
71 81 79
67 77 74
68 77 76
74 85 81
87 100 97
72 81 79
68 78 74
72 85 79
87 98 98
75 86 83
90 100 103
86 97 93
75 85 85
78 88 86
55 65 58
35 50 27
39 54 30
44 58 39
37 51 29
43 59 34
32 46 24
39 54 30
35 49 27
39 55 30
36 50 28
45 62 35
46 63 37
36 51 28
37 52 28
42 58 33
88 99 98
71 81 77
79 91 83
90 103 98
101 113 115
83 94 91
75 89 80
85 96 95
83 95 92
100 112 113
94 106 104
94 105 106
93 106 105
89 99 99
92 103 105
63 78 63
39 54 31
42 57 32
50 68 39
45 63 35
41 58 32
46 63 36
45 63 36
44 61 35
48 65 38
41 57 31
49 67 39
48 66 38
70 84 72
93 106 101
96 108 105
83 95 89
116 129 131
100 114 111
109 122 123
89 101 99
106 119 118
103 117 114
106 120 116
105 119 116
81 95 87
91 104 98
88 103 96
92 106 98
92 105 99
101 114 110
117 131 131
96 110 106
126 140 144
108 122 121
120 134 136
111 125 124
99 113 108
81 98 85
63 84 52
54 73 42
54 74 42
55 75 43
63 81 61
78 96 79
103 118 113
99 115 109
103 117 116
92 109 96
61 84 49
60 83 48
60 82 48
58 80 45
62 82 53
62 84 52
97 116 103
107 123 116
136 151 154
127 142 141
110 126 117
140 154 153
175 188 193
210 222 236
227 239 255
227 239 255
227 239 255
227 239 255
227 239 255
227 239 255
227 239 255
227 239 255
227 239 255
227 239 255
227 239 255
227 239 255
227 239 255
227 239 255
227 239 255
227 239 255
227 239 255
227 239 255
227 239 255
227 239 255
227 239 255
227 239 255
227 239 255
227 239 255
227 239 255
227 239 255
227 239 255
227 239 255
227 239 255
227 239 255
227 239 255
227 239 255
227 239 255
227 239 255
227 239 255
227 239 255
227 239 255
227 239 255
227 239 255
227 239 255
227 239 255
227 239 255
227 239 255
227 239 255
227 239 255
227 239 255
227 239 255
227 239 255
227 239 255
227 239 255
227 239 255
227 239 255
227 239 255
227 239 255
227 239 255
227 239 255
227 239 255
227 239 255
227 239 255
227 239 255
227 239 255
227 239 255
227 239 255
227 239 255
227 239 255
227 239 255
227 239 255
227 239 255
227 239 255
227 239 255
227 239 255
227 239 255
227 239 255
227 239 255
227 239 255
227 239 255
227 239 255
227 239 255
227 239 255
227 239 255
227 239 255
227 239 255
227 239 255
227 239 255
227 239 255
227 239 255
227 239 255
227 239 255
227 239 255
227 239 255
227 239 255
227 239 255
227 239 255
227 239 255
227 239 255
227 239 255
227 239 255
227 239 255
227 239 255
227 239 255
227 239 255
227 239 255
227 239 255
227 239 255
227 239 255
227 239 255
227 239 255
227 239 255
227 239 255
227 239 255
227 239 255
227 239 255
227 239 255
227 239 255
227 239 255
227 239 255
227 239 255
227 239 255
227 239 255
227 239 255
227 239 255
227 239 255
227 239 255
227 239 255
227 239 255
227 239 255
227 239 255
227 239 255
227 239 255
227 239 255
227 239 255
227 239 255
227 239 255
227 239 255
227 239 255
227 239 255
227 239 255
227 239 255
227 239 255
227 239 255
227 239 255
227 239 255
227 239 255
227 239 255
227 239 255
227 239 255
227 239 255
227 239 255
226 238 254
208 220 234
176 189 196
132 146 147
121 137 133
129 145 149
100 116 107
84 102 84
59 82 47
60 81 51
78 98 74
89 108 91
78 99 74
60 83 48
64 87 51
52 72 40
60 83 49
75 93 78
89 104 92
111 127 122
83 102 84
53 74 41
56 77 45
55 76 44
59 81 47
52 73 41
58 79 46
63 82 57
87 102 94
103 117 115
121 134 137
118 131 134
120 135 135
98 111 108
106 120 120
114 127 129
97 112 107
103 118 113
51 70 39
60 81 48
55 72 49
71 87 70
95 108 106
84 98 90
111 125 126
99 113 111
110 122 122
98 110 107
97 109 108
115 128 130
95 108 105
101 112 114
93 106 102
91 105 100
96 108 107
86 98 92
45 62 35
40 57 31
42 59 33
57 71 56
71 86 71
87 99 94
91 104 99
89 101 99
101 114 110
92 104 103
110 124 123
94 107 105
93 104 103
104 117 114
101 114 114
108 120 120
106 119 119
64 75 67
39 54 30
46 62 35
40 57 32
40 56 31
44 60 35
41 57 32
50 69 40
34 48 26
37 51 28
37 51 27
54 68 54
47 63 41
54 67 55
57 69 57
55 66 59
69 80 74
71 82 76
55 70 52
41 57 33
35 49 26
43 59 33
45 61 35
34 47 26
34 49 26
43 58 34
28 41 20
43 60 33
42 58 34
41 55 32
39 54 30
41 57 31
38 53 29
37 53 29
38 52 30
52 63 53
73 85 79
68 79 74
71 82 76
79 89 87
87 98 97
71 82 76
76 85 84
68 78 75
74 82 82
74 86 80
83 94 92
80 90 89
82 91 92
78 88 86
66 76 73
73 83 81
78 88 87
56 67 57
42 58 33
42 57 34
43 59 34
32 46 25
35 47 32
55 70 55
47 61 45
43 56 40
52 66 49
55 67 56
43 54 41
65 75 72
70 82 76
56 67 58
56 65 60
54 64 57
59 69 64
51 63 49
57 69 57
44 56 43
43 57 37
32 45 25
55 69 53
42 57 37
40 55 31
36 50 27
43 57 37
43 59 33
36 51 28
37 51 28
41 58 31
31 45 22
61 74 63
78 88 86
87 99 95
60 74 61
87 98 95
82 93 89
87 99 96
83 94 91
80 91 88
74 85 82
74 86 77
72 84 78
67 81 69
75 85 81
78 90 84
102 115 113
70 81 75
53 66 50
56 71 53
48 62 42
57 69 58
56 69 56
54 68 53
61 74 60
69 83 68
68 81 70
66 81 68
67 82 68
71 85 75
66 81 67
85 96 96
58 72 58
50 67 43
61 78 56
48 65 38
48 66 38
41 57 32
46 63 36
52 71 41
46 63 36
46 63 36
47 65 37
46 64 37
50 68 39
52 68 47
82 95 89
107 120 121
102 115 114
104 116 116
101 115 113
111 124 126
93 107 100
118 132 131
108 123 119
117 130 133
114 127 128
98 112 108
99 113 108
72 91 70
53 73 41
57 78 46
50 69 40
70 89 64
57 77 50
91 107 96
93 108 99
102 116 114
107 121 120
110 124 123
106 120 118
61 81 50
50 69 39
56 77 45
57 79 45
58 78 45
57 79 46
60 82 48
62 85 50
65 86 57
71 90 68
87 103 92
95 112 99
67 88 59
56 77 44
64 87 51
64 86 55
115 131 124
136 150 153
126 141 140
99 116 107
134 150 153
140 155 159
128 145 144
137 154 154
178 191 198
201 214 225
225 237 253
227 239 255
227 239 255
227 239 255
227 239 255
227 239 255
227 239 255
227 239 255
227 239 255
227 239 255
227 239 255
227 239 255
227 239 255
227 239 255
227 239 255
227 239 255
227 239 255
227 239 255
227 239 255
227 239 255
227 239 255
227 239 255
227 239 255
227 239 255
227 239 255
227 239 255
227 239 255
227 239 255
227 239 255
227 239 255
227 239 255
227 239 255
227 239 255
227 239 255
227 239 255
227 239 255
227 239 255
227 239 255
227 239 255
227 239 255
227 239 255
227 239 255
227 239 255
227 239 255
227 239 255
227 239 255
227 239 255
227 239 255
227 239 255
227 239 255
227 239 255
227 239 255
227 239 255
227 239 255
227 239 255
227 239 255
227 239 255
227 239 255
227 239 255
227 239 255
227 239 255
227 239 255
227 239 255
227 239 255
227 239 255
227 239 255
227 239 255
227 239 255
227 239 255
227 239 255
227 239 255
227 239 255
227 239 255
227 239 255
227 239 255
227 239 255
227 239 255
227 239 255
227 239 255
227 239 255
227 239 255
227 239 255
227 239 255
227 239 255
227 239 255
227 239 255
227 239 255
227 239 255
227 239 255
227 239 255
227 239 255
227 239 255
227 239 255
227 239 255
227 239 255
227 239 255
227 239 255
227 239 255
227 239 255
227 239 255
227 239 255
227 239 255
227 239 255
227 239 255
227 239 255
227 239 255
227 239 255
227 239 255
227 239 255
227 239 255
227 239 255
227 239 255
227 239 255
227 239 255
227 239 255
227 239 255
227 239 255
227 239 255
227 239 255
227 239 255
227 239 255
227 239 255
227 239 255
227 239 255
227 239 255
227 239 255
227 239 255
227 239 255
227 239 255
227 239 255
227 239 255
227 239 255
227 239 255
227 239 255
227 239 255
227 239 255
227 239 255
227 239 255
227 239 255
227 239 255
227 239 255
227 239 255
227 238 255
188 202 211
167 182 187
119 137 132
89 110 88
85 105 86
118 136 129
68 91 60
66 90 52
66 89 56
94 112 100
109 125 121
102 119 112
63 85 53
59 81 47
56 77 45
62 84 52
71 89 70
110 124 123
107 122 120
121 136 136
128 142 145
130 144 148
118 133 133
59 81 47
55 76 43
71 88 72
99 114 107
99 112 107
109 122 123
128 141 145
109 123 122
121 135 135
108 122 118
125 138 144
116 131 129
102 114 112
128 141 145
125 138 140
108 121 121
98 112 109
84 100 87
102 116 113
104 117 115
105 119 116
108 122 120
117 131 134
109 123 123
104 117 120
114 127 128
91 105 101
99 111 110
106 121 118
97 109 109
117 130 133
102 115 113
100 112 110
92 106 101
66 79 70
73 85 76
96 110 107
81 93 88
103 115 115
104 116 119
90 103 96
99 110 110
100 114 110
106 118 119
91 103 99
96 108 107
95 108 104
87 99 96
97 109 109
101 113 113
83 95 91
99 112 109
82 93 90
41 57 31
46 63 36
41 57 31
42 58 34
50 65 47
58 73 54
75 87 80
58 71 60
81 94 88
94 106 104
87 98 96
90 101 99
80 91 88
77 89 84
69 80 75
85 96 92
88 100 99
77 89 83
44 61 35
34 48 26
36 51 27
41 58 32
40 56 32
38 54 29
41 57 32
40 57 31
40 56 32
37 52 28
44 60 34
46 63 36
39 55 31
43 59 33
40 55 31
41 57 32
43 59 33
61 73 63
88 98 98
67 78 73
80 90 90
83 95 92
72 82 78
79 90 87
82 93 90
62 74 64
75 84 84
79 90 88
61 70 67
74 84 79
75 87 80
60 73 59
46 58 45
61 74 62
55 67 55
76 87 83
84 95 96
73 86 78
75 86 84
74 84 82
79 89 89
74 85 82
80 91 88
58 69 61
80 93 87
80 89 91
89 100 102
82 92 91
86 97 97
75 88 78
89 100 98
69 80 73
33 48 25
42 58 33
35 51 27
42 58 33
37 51 28
46 63 36
32 46 25
41 56 32
38 53 29
40 56 31
40 56 31
42 57 33
37 52 28
40 56 32
44 60 36
42 58 32
85 95 94
86 97 96
83 94 91
84 94 94
82 96 88
84 95 92
84 95 93
78 89 87
85 96 92
95 107 105
88 100 98
86 96 98
78 90 83
94 104 104
83 95 91
98 109 109
63 77 66
40 55 32
43 59 33
43 59 34
43 60 34
41 58 32
47 64 37
47 64 37
42 59 33
53 72 41
41 58 32
41 57 31
43 59 33
41 57 32
49 67 40
89 102 99
99 111 111
91 103 101
98 111 110
85 99 89
83 95 90
74 87 79
74 88 77
98 111 109
89 104 96
85 100 91
61 77 62
70 86 70
65 81 64
82 95 90
96 109 107
102 114 111
97 110 105
99 113 111
94 108 104
103 118 113
95 107 104
115 129 131
102 117 109
100 113 112
108 122 118
115 128 129
78 94 81
54 75 43
56 76 45
55 75 44
57 78 45
52 71 41
51 70 40
54 74 42
50 69 39
54 74 43
77 98 74
84 100 86
63 82 58
88 105 92
69 87 67
51 71 40
57 77 46
59 81 47
53 73 41
61 83 48
52 72 40
52 73 41
83 102 84
128 144 146
120 135 134
109 125 121
107 124 118
88 108 86
125 139 141
137 151 153
117 133 128
89 109 93
78 99 74
99 117 106
113 128 124
128 143 143
138 154 157
144 160 164
166 181 185
187 200 209
218 230 245
227 239 255
227 239 255
227 239 255
227 239 255
227 239 255
227 239 255
227 239 255
227 239 255
227 239 255
227 239 255
227 239 255
227 239 255
227 239 255
227 239 255
227 239 255
227 239 255
227 239 255
227 239 255
227 239 255
227 239 255
227 239 255
227 239 255
227 239 255
227 239 255
227 239 255
227 239 255
227 239 255
227 239 255
227 239 255
227 239 255
227 239 255
227 239 255
227 239 255
227 239 255
227 239 255
227 239 255
227 239 255
227 239 255
227 239 255
227 239 255
227 239 255
227 239 255
227 239 255
227 239 255
227 239 255
227 239 255
227 239 255
227 239 255
227 239 255
227 239 255
227 239 255
227 239 255
227 239 255
227 239 255
227 239 255
227 239 255
227 239 255
227 239 255
227 239 255
227 239 255
227 239 255
227 239 255
227 239 255
227 239 255
227 239 255
227 239 255
227 239 255
227 239 255
227 239 255
227 239 255
227 239 255
227 239 255
227 239 255
227 239 255
227 239 255
227 239 255
227 239 255
227 239 255
227 239 255
227 239 255
227 239 255
227 239 255
227 239 255
227 239 255
227 239 255
227 239 255
227 239 255
227 239 255
227 239 255
227 239 255
227 239 255
227 239 255
227 239 255
227 239 255
227 239 255
227 239 255
227 239 255
227 239 255
227 239 255
227 239 255
227 239 255
227 239 255
227 239 255
227 239 255
227 239 255
227 239 255
227 239 255
227 239 255
227 239 255
227 239 255
227 239 255
227 239 255
227 239 255
227 239 255
227 239 255
227 239 255
227 239 255
227 239 255
227 239 255
227 239 255
227 239 255
227 239 255
227 239 255
227 239 255
227 239 255
227 239 255
227 239 255
227 239 255
227 239 255
227 239 255
227 239 255
227 239 255
227 239 255
227 239 255
227 239 255
220 231 247
200 213 226
157 171 173
98 118 104
85 107 83
95 115 100
109 125 121
135 150 155
137 153 156
127 143 143
93 110 97
125 139 139
140 155 158
131 148 150
116 131 128
58 80 46
92 109 96
95 111 98
112 127 125
134 149 151
121 135 136
127 141 141
118 133 134
123 138 139
118 133 132
118 133 133
98 112 106
110 126 120
117 130 129
97 111 110
122 136 135
129 143 144
121 135 134
112 126 124
117 130 130
121 134 137
112 125 126
129 144 147
101 115 110
95 109 105
83 101 85
63 82 57
53 74 42
50 70 41
84 100 86
118 131 130
109 122 121
111 125 124
115 129 129
99 113 108
102 116 114
97 109 107
96 109 104
101 113 111
100 114 110
104 118 115
92 106 100
66 81 67
59 74 57
46 64 36
48 66 37
50 69 39
75 89 80
80 93 88
123 137 140
100 112 112
111 123 126
96 109 107
97 110 109
90 102 99
95 107 104
98 111 107
80 92 88
102 115 113
97 109 107
94 106 102
91 105 97
102 114 114
97 109 108
80 94 84
50 62 51
86 99 94
78 91 84
95 106 104
89 101 99
99 113 111
102 113 116
82 95 91
85 97 94
97 110 109
74 86 80
103 115 115
79 91 86
78 92 86
87 99 96
86 97 97
84 95 95
78 91 85
58 70 61
44 61 33
43 58 33
48 66 38
43 59 33
41 56 32
39 55 31
42 58 33
37 52 28
42 58 32
36 51 28
43 60 33
41 57 33
38 54 30
39 55 31
39 54 31
55 71 50
53 68 48
74 85 79
68 79 72
73 86 79
57 72 56
50 64 49
49 61 50
50 65 46
51 67 44
44 61 34
38 54 30
43 59 33
45 62 36
40 55 31
44 60 35
42 57 32
42 57 32
41 56 32
51 64 51
91 103 98
80 91 87
89 100 100
63 75 64
77 88 85
79 91 87
78 91 86
68 80 73
86 96 96
79 91 86
75 85 83
78 88 86
82 93 90
68 80 73
100 111 112
70 82 76
64 73 69
46 61 41
39 54 30
31 44 23
39 54 30
44 60 34
45 61 35
45 61 35
38 53 30
37 51 29
42 59 32
43 61 33
46 63 36
40 56 32
34 49 26
43 59 32
42 59 32
76 90 80
88 99 98
85 96 94
91 102 102
82 95 91
81 93 85
97 109 109
110 121 124
103 114 116
90 102 98
98 110 108
80 92 89
91 104 99
80 94 85
95 106 106
83 95 92
54 67 54
45 63 36
52 71 41
45 63 35
43 59 33
40 56 30
43 61 33
42 60 32
51 69 41
44 61 35
48 67 38
46 63 37
46 64 36
46 64 36
51 70 40
88 101 95
101 114 112
104 117 117
92 105 100
101 115 112
92 106 101
99 110 110
95 107 103
98 112 106
106 119 119
96 109 108
102 115 113
99 112 110
85 99 92
85 100 92
72 87 72
74 89 75
68 82 69
84 98 94
89 102 101
95 110 100
106 119 118
120 134 134
110 125 121
110 124 124
107 122 119
125 139 142
92 107 100
60 80 50
56 76 44
56 78 44
53 73 42
45 63 35
51 72 40
54 75 43
57 79 46
57 79 45
57 77 45
57 78 45
81 100 82
115 131 128
124 138 140
108 124 120
103 118 111
95 110 102
83 101 85
63 82 57
57 78 45
58 80 46
73 91 67
120 135 134
117 131 131
142 157 162
131 146 149
126 141 144
92 109 98
108 124 121
109 126 115
115 131 129
84 103 84
63 86 50
61 84 48
87 107 88
110 127 120
115 133 127
120 136 131
102 119 106
136 152 150
196 210 221
217 228 244
227 239 255
227 239 255
227 239 255
227 239 255
227 239 255
227 239 255
227 239 255
227 239 255
227 239 255
227 239 255
227 239 255
227 239 255
227 239 255
227 239 255
227 239 255
227 239 255
227 239 255
227 239 255
227 239 255
227 239 255
227 239 255
227 239 255
227 239 255
227 239 255
227 239 255
227 239 255
227 239 255
227 239 255
227 239 255
227 239 255
227 239 255
227 239 255
227 239 255
227 239 255
227 239 255
227 239 255
227 239 255
227 239 255
227 239 255
227 239 255
227 239 255
227 239 255
227 239 255
227 239 255
227 239 255
227 239 255
227 239 255
227 239 255
227 239 255
227 239 255
227 239 255
227 239 255
227 239 255
227 239 255
227 239 255
227 239 255
227 239 255
227 239 255
227 239 255
227 239 255
227 239 255
227 239 255
227 239 255
227 239 255
227 239 255
227 239 255
227 239 255
227 239 255
227 239 255
227 239 255
227 239 255
227 239 255
227 239 255
227 239 255
227 239 255
227 239 255
227 239 255
227 239 255
227 239 255
227 239 255
227 239 255
227 239 255
227 239 255
227 239 255
227 239 255
227 239 255
227 239 255
227 239 255
227 239 255
227 239 255
227 239 255
227 239 255
227 239 255
227 239 255
227 239 255
227 239 255
227 239 255
227 239 255
227 239 255
227 239 255
227 239 255
227 239 255
227 239 255
227 239 255
227 239 255
227 239 255
227 239 255
227 239 255
227 239 255
227 239 255
227 239 255
227 239 255
227 239 255
227 239 255
227 239 255
227 239 255
227 239 255
227 239 255
227 239 255
227 239 255
227 239 255
227 239 255
227 239 255
227 239 255
227 239 255
227 239 255
227 239 255
227 239 255
227 239 255
220 232 247
189 202 212
147 162 164
102 121 112
77 99 71
103 118 113
129 145 147
139 155 158
121 137 134
124 140 141
103 122 108
69 91 61
64 88 52
123 141 138
124 140 143
133 147 150
96 112 105
120 136 135
117 133 128
138 153 156
133 148 150
141 156 159
122 138 137
117 133 133
118 133 133
117 132 129
94 110 101
71 91 66
62 83 49
52 73 41
101 117 108
125 139 143
123 135 138
106 121 120
115 130 129
132 146 149
122 136 138
108 123 119
94 107 103
83 98 89
54 73 45
56 76 44
57 78 45
58 79 46
56 77 45
49 68 38
53 72 42
53 72 42
97 113 108
117 129 130
106 119 117
112 126 126
117 131 134
105 119 118
96 110 102
62 77 61
76 92 76
48 66 36
46 64 36
44 62 35
51 71 41
51 71 40
44 61 34
52 70 41
40 56 32
58 76 49
96 110 105
110 123 122
116 128 132
99 112 111
100 112 112
98 111 108
111 124 127
94 107 103
102 116 115
101 115 111
88 101 96
72 86 74
71 86 71
49 64 46
43 60 34
49 67 39
49 68 39
48 67 38
102 115 114
104 116 119
97 109 110
100 112 113
104 117 117
92 106 103
97 110 108
96 107 109
101 113 115
82 94 89
93 105 104
88 100 97
96 107 109
92 104 101
103 114 117
80 92 87
85 96 97
87 99 96
40 56 31
46 64 36
39 54 30
47 65 37
40 55 31
47 64 37
45 61 37
71 84 76
55 66 56
66 81 68
67 80 69
78 91 85
80 95 86
79 89 89
84 97 92
84 96 93
85 98 94
83 93 91
39 55 30
45 61 36
47 65 37
42 60 33
43 59 34
42 59 33
40 55 31
41 57 32
42 58 34
44 61 34
42 57 32
41 57 32
45 61 36
43 60 33
35 48 27
41 57 31
41 57 32
58 69 58
77 88 85
80 93 85
82 94 90
91 101 100
86 97 97
90 101 99
103 115 116
71 84 76
91 102 103
82 95 89
83 94 90
91 104 103
102 115 114
82 93 89
71 83 73
76 87 84
69 83 72
38 54 30
43 59 34
39 55 30
44 61 34
38 53 29
39 55 30
46 64 37
43 60 34
41 58 32
43 60 34
44 61 35
47 63 37
48 65 37
44 61 35
37 53 29
47 65 37
80 92 87
98 111 108
89 103 96
86 96 95
101 113 112
90 103 99
99 111 111
81 94 89
87 100 96
104 116 115
86 98 93
87 99 96
83 95 92
88 101 97
108 121 120
106 118 118
50 67 44
43 60 33
43 60 33
46 63 36
43 61 34
46 63 36
44 61 34
48 65 38
45 62 35
45 62 35
46 64 36
46 64 36
45 62 34
50 69 38
49 68 39
98 111 109
94 107 102
96 109 107
108 122 123
94 107 104
114 127 128
98 110 106
110 124 122
115 127 129
102 114 115
98 110 106
98 113 106
104 119 113
103 116 113
85 98 91
51 68 43
55 75 44
47 65 37
50 69 39
51 70 41
53 73 41
54 74 42
55 75 42
68 86 66
84 100 85
80 95 82
76 92 79
95 108 103
57 76 47
66 85 60
52 73 41
59 80 47
54 76 42
53 73 42
60 81 47
57 78 45
52 72 42
51 72 40
58 79 45
73 94 66
113 127 125
115 129 125
136 151 154
133 147 153
129 145 149
119 133 132
116 131 131
125 140 140
104 120 114
94 112 99
90 108 94
112 129 125
130 144 144
133 148 153
116 131 129
62 85 52
62 84 49
57 79 46
83 105 81
78 99 71
87 108 88
79 98 77
63 87 51
69 94 56
70 95 57
92 111 98
92 114 92
68 93 55
100 120 103
130 146 143
175 188 195
217 229 243
227 239 255
227 239 255
227 239 255
227 239 255
227 239 255
227 239 255
227 239 255
227 239 255
227 239 255
227 239 255
227 239 255
227 239 255
227 239 255
227 239 255
227 239 255
227 239 255
227 239 255
227 239 255
227 239 255
227 239 255
227 239 255
227 239 255
227 239 255
227 239 255
227 239 255
227 239 255
227 239 255
227 239 255
227 239 255
227 239 255
227 239 255
227 239 255
227 239 255
227 239 255
227 239 255
227 239 255
227 239 255
227 239 255
227 239 255
227 239 255
227 239 255
227 239 255
227 239 255
227 239 255
227 239 255
227 239 255
227 239 255
227 239 255
227 239 255
227 239 255
227 239 255
227 239 255
227 239 255
227 239 255
227 239 255
227 239 255
227 239 255
227 239 255
227 239 255
227 239 255
227 239 255
227 239 255
227 239 255
227 239 255
227 239 255
227 239 255
227 239 255
227 239 255
227 239 255
227 239 255
227 239 255
227 239 255
227 239 255
227 239 255
227 239 255
227 239 255
227 239 255
227 239 255
227 239 255
227 239 255
227 239 255
227 239 255
227 239 255
227 239 255
227 239 255
227 239 255
227 239 255
227 239 255
227 239 255
227 239 255
227 239 255
227 239 255
227 239 255
227 239 255
227 239 255
227 239 255
227 239 255
227 239 255
227 239 255
227 239 255
227 239 255
227 239 255
227 239 255
227 239 255
227 239 255
227 239 255
227 239 255
227 239 255
227 239 255
227 239 255
227 239 255
227 239 255
227 239 255
227 239 255
227 239 255
227 239 255
227 239 255
227 239 255
227 239 255
227 239 255
227 239 255
227 239 255
227 239 255
211 223 237
190 204 215
144 160 161
93 113 100
97 117 99
121 140 134
136 153 154
146 161 169
136 153 154
111 127 120
103 121 111
61 84 49
64 88 52
58 80 46
65 88 53
75 96 72
114 130 126
94 113 99
62 85 50
85 103 86
130 146 150
123 139 138
133 148 152
129 143 145
132 145 147
95 112 100
89 107 92
63 86 51
62 85 50
54 74 42
58 80 46
58 78 46
59 81 47
68 88 61
124 137 140
106 121 117
109 124 123
91 107 96
78 96 78
64 81 62
51 71 40
52 72 41
53 73 42
59 80 47
56 77 44
58 80 47
53 73 42
55 76 43
54 75 43
53 74 43
59 81 46
94 110 102
102 116 112
83 99 86
67 85 65
50 66 41
50 70 40
51 70 40
46 66 35
51 70 40
50 70 40
58 79 46
50 69 39
56 76 44
47 65 38
50 68 40
47 65 37
47 66 37
50 69 40
75 89 81
94 108 104
107 120 119
93 106 102
100 113 108
89 101 98
87 102 93
67 81 69
58 75 52
49 67 38
50 68 39
49 68 39
53 72 42
46 63 36
48 65 38
47 64 38
51 70 40
46 64 36
73 87 77
102 114 116
108 119 121
101 115 113
83 96 90
91 102 101
94 106 104
95 106 106
98 111 109
78 89 84
105 119 117
96 108 105
96 108 106
87 100 94
105 117 118
96 109 105
93 106 102
82 95 88
68 81 73
78 89 86
70 83 76
83 96 87
72 84 78
93 105 101
96 108 108
100 112 113
101 113 113
84 95 92
101 113 112
99 110 111
101 112 113
94 106 105
110 121 125
90 102 100
96 108 109
95 105 107
86 97 94
41 57 32
43 60 34
45 63 35
40 56 32
46 63 36
36 51 28
37 53 29
44 61 34
49 67 39
43 60 34
39 55 30
45 60 35
45 61 35
46 63 36
42 58 32
50 67 40
51 68 44
91 103 100
91 104 100
90 102 100
102 113 113
76 86 83
98 111 109
88 99 97
90 102 100
75 88 83
73 86 76
80 93 85
93 106 102
94 105 105
88 99 98
96 108 106
101 113 111
78 91 85
59 73 57
45 62 35
39 56 30
47 64 37
40 57 31
46 64 37
48 65 37
43 60 34
45 62 35
43 59 35
43 60 34
45 62 36
37 53 28
45 63 36
43 60 34
45 62 35
55 70 53
97 109 111
98 111 109
101 112 114
89 99 100
98 111 108
80 92 88
83 95 92
81 94 88
89 102 99
95 108 107
104 116 115
100 113 111
94 107 105
94 107 104
101 113 114
109 121 120
60 76 57
44 62 33
54 73 44
47 66 38
53 71 42
46 64 36
49 67 39
49 67 38
53 73 43
52 72 42
48 67 38
46 64 36
44 61 34
47 65 37
45 62 34
101 113 113
97 110 107
109 122 121
97 110 109
100 112 112
96 109 106
118 130 133
115 128 130
104 117 115
101 114 114
113 127 129
111 123 125
112 126 126
110 123 124
88 102 95
53 72 45
56 77 45
56 78 44
60 81 49
57 78 46
48 67 37
55 75 44
58 78 47
56 77 44
52 72 41
49 68 39
54 74 43
61 75 60
119 135 135
104 118 116
134 147 151
102 117 113
95 112 101
86 102 89
90 107 95
61 79 53
55 77 44
58 79 45
51 70 40
63 84 56
108 125 119
118 133 132
126 138 139
115 131 127
116 132 130
124 140 141
111 125 122
126 141 144
125 140 141
120 134 134
115 131 128
122 139 135
112 129 123
113 129 125
76 95 74
62 86 50
58 81 47
67 91 54
58 80 46
70 90 63
100 119 104
119 136 136
109 125 119
102 120 110
76 96 71
62 86 50
70 95 56
107 124 118
113 131 126
94 113 97
91 112 93
121 137 129
172 187 191
214 226 239
227 239 255
227 239 255
227 239 255
227 239 255
227 239 255
227 239 255
227 239 255
227 239 255
227 239 255
227 239 255
227 239 255
227 239 255
227 239 255
227 239 255
227 239 255
227 239 255
227 239 255
227 239 255
227 239 255
227 239 255
227 239 255
227 239 255
227 239 255
227 239 255
227 239 255
227 239 255
227 239 255
227 239 255
227 239 255
227 239 255
227 239 255
227 239 255
227 239 255
227 239 255
227 239 255
227 239 255
227 239 255
227 239 255
227 239 255
227 239 255
227 239 255
227 239 255
227 239 255
227 239 255
227 239 255
227 239 255
227 239 255
227 239 255
227 239 255
227 239 255
227 239 255
227 239 255
227 239 255
227 239 255
227 239 255
227 239 255
227 239 255
227 239 255
227 239 255
227 239 255
227 239 255
227 239 255
227 239 255
227 239 255
227 239 255
227 239 255
227 239 255
227 239 255
227 239 255
227 239 255
227 239 255
227 239 255
227 239 255
227 239 255
227 239 255
227 239 255
227 239 255
227 239 255
227 239 255
227 239 255
227 239 255
227 239 255
227 239 255
227 239 255
227 239 255
227 239 255
227 239 255
227 239 255
227 239 255
227 239 255
227 239 255
227 239 255
227 239 255
227 239 255
227 239 255
227 239 255
227 239 255
227 239 255
227 239 255
227 239 255
227 239 255
227 239 255
227 239 255
227 239 255
227 239 255
227 239 255
227 239 255
227 239 255
227 239 255
227 239 255
228 239 255
228 239 255
228 239 255
228 239 255
228 239 255
228 239 255
228 239 255
211 223 236
177 191 197
142 158 159
116 135 128
87 107 86
117 136 130
145 160 163
154 170 177
140 157 160
125 141 137
91 111 93
65 89 52
72 97 58
66 90 54
69 92 58
100 118 102
111 128 122
130 144 148
135 150 150
135 150 154
63 86 50
63 85 51
84 102 84
130 145 146
114 129 126
87 106 87
73 93 68
58 80 47
62 85 50
56 77 44
59 81 48
63 86 51
49 69 38
58 80 46
55 77 43
75 93 76
94 110 98
91 106 97
64 84 55
61 83 49
59 80 47
57 78 46
51 71 40
58 80 47
63 85 50
51 72 41
56 77 45
51 71 41
53 74 42
60 81 48
68 87 62
77 93 77
88 103 89
94 110 99
108 122 120
56 78 45
55 75 43
54 74 43
51 71 39
48 66 37
55 75 44
54 73 43
49 68 38
57 77 45
47 66 36
48 67 37
56 77 44
47 65 36
55 75 43
51 70 40
50 70 39
47 66 37
73 89 76
91 104 99
77 93 78
50 69 40
49 67 38
48 67 39
50 70 40
55 75 43
47 65 36
50 69 40
48 67 38
45 63 35
50 68 39
43 61 34
45 63 35
48 66 37
45 63 36
45 63 36
51 66 46
92 106 100
103 116 113
100 112 113
87 100 94
95 109 105
106 117 118
90 103 97
108 119 122
106 117 119
91 104 100
79 93 83
91 105 98
73 87 74
73 88 76
57 73 54
40 56 31
47 64 37
41 58 32
91 103 98
88 100 95
78 92 82
86 97 96
89 102 98
87 99 95
88 101 97
99 111 110
91 104 99
83 94 90
95 106 105
99 112 111
95 108 106
101 113 114
103 116 115
88 100 96
95 108 105
95 108 105
60 77 55
40 57 32
40 56 30
40 56 30
48 66 38
35 50 26
43 59 33
49 67 39
49 67 38
40 55 31
45 62 36
46 63 36
41 57 31
49 66 38
39 54 30
49 68 39
45 63 35
62 78 60
98 111 109
103 114 116
92 105 102
73 87 74
97 108 108
92 104 102
86 97 95
95 107 105
82 95 90
87 101 94
69 82 70
80 92 86
99 113 110
95 107 104
89 102 95
84 97 92
73 88 77
58 73 56
81 96 86
69 82 72
73 86 77
67 82 67
73 87 77
70 83 73
86 99 95
84 96 92
88 100 96
81 94 88
79 92 84
87 102 93
89 103 96
97 110 108
75 90 78
75 89 81
73 87 75
66 83 66
54 70 48
51 64 50
56 72 53
63 80 61
48 63 40
53 69 49
60 73 60
54 68 52
68 82 69
62 77 62
62 79 57
78 93 81
65 80 63
77 92 79
71 86 76
96 108 106
83 96 90
54 68 54
87 101 94
76 89 81
88 101 93
82 97 89
75 91 76
73 90 75
52 70 45
72 87 73
62 77 57
58 77 53
66 84 60
85 99 93
111 123 123
108 123 119
95 109 105
112 125 125
101 114 111
108 122 118
105 118 119
119 132 135
108 122 123
134 146 154
111 126 125
106 121 117
105 118 117
79 93 85
51 70 40
52 71 42
57 78 45
54 74 43
62 83 50
53 72 41
53 73 42
54 74 43
57 77 46
48 67 38
55 76 43
41 59 32
57 76 48
111 126 122
112 126 125
126 139 143
116 130 131
128 144 144
118 130 132
106 121 117
118 132 132
121 135 137
101 116 110
90 105 95
96 112 103
97 113 105
126 140 144
122 137 135
119 133 136
123 137 137
130 145 148
132 146 151
118 134 135
140 155 161
123 136 135
123 138 141
105 121 116
61 81 54
119 134 133
125 139 140
120 137 133
90 109 92
78 97 77
71 93 65
60 82 48
75 97 71
134 150 153
141 157 161
137 151 155
132 147 149
112 129 123
104 123 112
82 105 77
101 120 107
131 147 150
147 164 169
102 120 109
104 126 109
140 156 152
182 195 203
212 225 238
228 239 255
228 239 255
228 239 255
228 239 255
228 239 255
228 239 255
228 239 255
228 239 255
227 239 255
227 239 255
227 239 255
227 239 255
227 239 255
227 239 255
227 239 255
227 239 255
227 239 255
227 239 255
227 239 255
227 239 255
227 239 255
227 239 255
227 239 255
227 239 255
227 239 255
227 239 255
227 239 255
227 239 255
227 239 255
227 239 255
227 239 255
227 239 255
227 239 255
227 239 255
227 239 255
227 239 255
227 239 255
227 239 255
227 239 255
227 239 255
227 239 255
227 239 255
227 239 255
227 239 255
227 239 255
227 239 255
227 239 255
227 239 255
227 239 255
227 239 255
227 239 255
227 239 255
227 239 255
227 239 255
227 239 255
227 239 255
227 239 255
227 239 255
227 239 255
227 239 255
227 239 255
227 239 255
227 239 255
227 239 255
227 239 255
227 239 255
227 239 255
227 239 255
227 239 255
227 239 255
227 239 255
227 239 255
227 239 255
227 239 255
227 239 255
227 239 255
227 239 255
227 239 255
227 239 255
227 239 255
227 239 255
227 239 255
227 239 255
228 239 255
228 239 255
228 239 255
228 239 255
228 239 255
228 239 255
228 239 255
228 239 255
228 239 255
228 239 255
228 239 255
228 239 255
228 239 255
228 239 255
228 239 255
228 239 255
228 239 255
228 239 255
228 239 255
228 239 255
228 239 255
228 239 255
228 239 255
228 239 255
228 239 255
228 239 255
228 239 255
228 239 255
216 229 242
174 188 193
148 164 162
142 158 162
131 149 148
124 141 139
105 123 112
140 156 159
138 152 155
118 135 130
79 98 78
66 89 53
68 93 56
66 89 53
67 89 55
97 115 103
117 133 128
142 158 162
148 163 170
134 151 150
137 151 155
147 163 167
132 147 150
95 114 96
100 117 108
114 131 128
71 93 61
57 79 45
60 82 48
60 82 48
61 84 49
62 85 50
58 80 46
58 80 46
60 81 51
73 92 70
109 125 123
112 126 123
129 143 145
115 129 127
97 110 105
62 84 49
56 77 44
59 80 47
61 83 49
53 73 41
62 83 50
56 76 44
56 77 45
65 87 55
83 102 85
110 125 120
106 120 113
106 118 120
105 119 117
115 129 128
109 124 125
117 132 131
76 93 77
56 77 45
48 67 36
57 79 46
61 82 49
57 78 46
54 73 42
51 70 38
54 74 43
51 71 41
55 75 44
66 81 63
79 95 81
98 113 107
91 105 99
109 123 122
107 120 119
110 124 123
78 90 83
52 71 41
47 66 37
49 69 38
52 71 41
49 68 39
58 79 47
45 63 35
46 64 35
44 60 34
51 69 39
54 74 43
43 61 33
50 69 40
45 62 36
52 71 40
44 62 34
48 67 38
63 79 62
102 115 113
101 113 113
81 94 87
93 106 102
74 88 79
70 84 72
60 74 59
63 80 57
50 69 40
50 68 39
52 70 42
45 62 35
45 63 35
42 59 32
46 64 37
41 58 31
46 64 36
80 95 84
96 109 104
107 120 118
93 105 102
98 112 110
100 112 111
102 115 115
84 96 94
107 119 121
91 103 100
98 111 110
98 111 108
102 114 113
89 99 99
91 104 100
99 111 109
102 114 113
95 108 104
84 96 92
47 62 40
43 60 33
46 64 36
44 60 34
50 68 39
46 63 36
53 72 42
46 64 37
46 64 36
47 65 37
47 66 37
46 64 36
53 72 42
48 64 40
63 78 62
61 76 60
66 79 70
72 85 78
80 93 85
80 93 87
59 73 59
60 73 60
56 72 49
60 74 61
58 73 54
55 72 50
48 66 38
48 67 38
45 63 35
45 63 35
37 53 29
49 66 38
45 63 35
48 66 37
55 72 49
101 113 112
97 109 107
103 115 113
81 93 89
90 103 97
86 99 96
97 110 106
96 109 106
85 97 92
101 114 111
86 102 91
100 114 113
91 102 102
111 124 125
105 117 119
101 113 112
80 94 86
47 65 37
45 63 35
48 67 37
45 62 35
46 64 36
46 63 36
48 67 38
43 59 33
47 66 37
45 63 36
51 70 40
43 60 34
45 63 36
50 69 39
50 68 39
73 88 76
105 116 119
107 120 120
113 127 128
109 122 123
106 120 119
108 120 121
99 112 111
102 115 112
122 135 139
111 124 124
111 123 125
102 115 113
113 126 128
112 126 126
105 118 117
68 84 68
58 76 51
65 81 63
69 86 63
75 92 77
80 94 86
83 99 87
75 92 78
84 98 89
102 114 113
100 113 111
107 121 118
117 131 131
113 127 125
93 107 102
61 82 51
46 65 36
53 74 42
55 76 44
54 74 43
51 70 40
49 69 38
54 74 43
55 74 43
63 86 51
53 74 41
64 85 51
60 81 50
89 106 92
118 133 135
124 138 141
126 141 141
124 139 140
117 131 133
131 146 148
136 151 156
121 136 136
120 134 133
125 140 141
120 135 136
112 127 124
82 100 80
86 104 91
86 103 91
108 124 120
116 132 130
123 139 138
135 149 149
123 137 140
132 147 153
124 138 139
115 131 131
123 139 137
118 134 132
141 155 160
137 153 158
129 143 144
125 142 141
123 140 138
98 116 103
110 128 118
90 109 95
123 139 137
138 154 158
128 144 144
138 153 160
132 148 150
145 160 168
118 134 130
116 133 129
134 149 154
145 162 169
149 165 173
114 133 127
111 129 121
150 166 166
189 202 211
216 228 243
228 239 255
228 239 255
228 239 255
228 239 255
228 239 255
228 239 255
228 239 255
228 239 255
228 239 255
228 239 255
228 239 255
228 239 255
228 239 255
228 239 255
228 239 255
228 239 255
228 239 255
228 239 255
228 239 255
228 239 255
228 239 255
228 239 255
228 239 255
228 239 255
228 239 255
228 239 255
228 239 255
228 239 255
227 239 255
227 239 255
227 239 255
227 239 255
227 239 255
227 239 255
227 239 255
227 239 255
227 239 255
227 239 255
227 239 255
227 239 255
227 239 255
227 239 255
227 239 255
227 239 255
227 239 255
227 239 255
227 239 255
227 239 255
227 239 255
227 239 255
227 239 255
227 239 255
227 239 255
227 239 255
227 239 255
227 239 255
227 239 255
227 239 255
227 239 255
227 239 255
228 239 255
228 239 255
228 239 255
228 239 255
228 239 255
228 239 255
228 239 255
228 239 255
228 239 255
228 239 255
228 239 255
228 239 255
228 239 255
228 239 255
228 239 255
228 239 255
228 239 255
228 239 255
228 239 255
228 239 255
228 239 255
228 239 255
228 239 255
228 239 255
228 239 255
228 239 255
228 239 255
228 239 255
228 239 255
228 239 255
228 239 255
228 239 255
228 239 255
228 239 255
228 239 255
228 239 255
228 239 255
228 239 255
228 239 255
228 239 255
228 239 255
228 239 255
228 239 255
228 239 255
228 239 255
223 235 251
191 205 213
159 174 176
140 158 158
139 156 161
104 124 110
87 108 86
73 99 60
75 96 68
109 127 122
87 106 90
63 86 50
64 87 51
70 95 57
75 96 71
101 120 106
115 132 127
137 151 156
138 153 155
145 161 168
140 156 160
130 145 149
126 142 143
129 144 143
97 113 101
74 95 72
115 132 124
148 164 170
129 144 146
86 104 90
59 80 47
65 89 53
60 83 48
61 81 52
75 95 71
106 122 114
115 131 126
120 136 135
129 143 146
127 141 141
121 134 134
124 139 142
130 146 148
105 122 115
56 77 44
59 81 48
58 80 46
55 76 43
69 88 65
56 75 47
100 116 111
108 122 120
128 142 148
126 140 141
120 134 132
118 132 132
106 121 117
124 139 140
120 134 136
123 137 137
112 125 124
105 119 118
55 75 43
53 72 42
50 69 39
60 82 48
57 78 45
51 70 40
73 90 72
85 101 90
91 105 98
109 124 124
108 121 123
117 130 131
120 134 137
103 116 115
105 119 113
107 120 120
109 123 122
111 125 123
52 70 40
47 66 37
46 64 37
44 61 35
46 64 36
51 69 40
47 65 37
52 71 41
47 65 36
48 66 37
50 69 40
52 71 41
52 70 41
59 78 50
61 78 57
60 75 59
79 93 83
95 110 105
65 81 64
47 65 37
50 69 38
49 69 39
52 71 41
50 69 39
46 62 36
53 73 42
49 67 39
47 66 37
47 65 37
53 73 42
53 72 42
46 64 37
48 67 38
51 69 40
44 61 34
57 78 45
82 96 88
99 110 110
108 120 121
98 111 111
93 107 103
112 125 125
101 116 111
110 122 123
100 112 112
90 104 99
113 125 127
103 115 117
105 118 118
107 119 120
99 110 111
103 116 114
97 109 108
103 114 114
86 101 92
48 67 38
54 71 48
65 77 66
61 76 61
70 84 73
78 92 85
90 103 100
68 82 69
93 105 103
97 109 107
92 105 101
101 114 111
107 119 121
101 114 114
115 127 130
88 101 96
97 108 106
54 68 51
47 64 37
51 70 41
53 72 42
44 61 34
46 64 37
47 64 36
51 70 40
48 66 38
43 59 33
54 74 42
46 64 35
50 69 39
48 66 38
43 61 33
48 66 38
51 69 40
66 81 70
96 108 104
94 107 106
82 95 87
92 104 104
84 98 93
92 107 100
118 131 132
113 126 127
95 107 106
114 127 129
104 118 116
104 117 114
96 110 107
115 127 129
95 107 106
103 115 115
72 87 73
48 65 37
49 68 39
49 68 38
44 61 33
50 68 39
53 72 41
44 61 34
49 67 39
50 69 38
52 72 42
49 68 39
54 73 43
50 69 40
45 63 35
53 72 42
78 93 79
99 112 109
95 108 103
108 122 121
93 105 102
94 108 103
105 117 118
102 114 114
108 121 121
113 125 130
93 110 98
91 103 99
117 130 132
108 122 122
110 123 120
112 126 125
71 88 69
61 82 49
50 70 39
57 78 45
57 79 45
51 71 40
49 69 38
50 69 38
54 73 42
55 76 44
56 77 44
51 70 40
53 73 42
64 83 59
71 86 75
96 110 103
97 113 108
97 114 105
75 90 75
77 92 81
78 94 81
59 78 51
60 82 49
54 74 43
62 84 50
51 70 40
56 77 45
65 88 52
100 116 108
121 136 135
108 123 122
122 136 137
111 127 123
131 145 149
114 128 129
123 138 138
126 140 140
110 126 121
132 146 153
125 141 141
125 140 143
99 115 105
60 81 47
57 79 46
55 76 43
60 82 51
87 107 88
97 116 103
114 132 124
113 128 123
98 115 103
59 81 47
109 126 119
131 146 145
140 155 160
130 146 148
137 152 154
129 143 146
136 151 154
146 161 164
133 149 152
126 141 140
125 140 139
114 131 128
131 146 144
139 155 158
145 162 165
146 162 167
133 149 151
143 160 164
131 149 151
117 134 128
146 162 167
150 165 169
142 157 161
139 155 159
147 163 170
165 178 182
196 208 220
224 236 252
228 239 255
228 239 255
228 239 255
228 239 255
228 239 255
228 239 255
228 239 255
228 239 255
228 239 255
228 239 255
228 239 255
228 239 255
228 239 255
228 239 255
228 239 255
228 239 255
228 239 255
228 239 255
228 239 255
228 239 255
228 239 255
228 239 255
228 239 255
228 239 255
228 239 255
228 239 255
228 239 255
228 239 255
228 239 255
228 239 255
228 239 255
228 239 255
228 239 255
228 239 255
228 239 255
228 239 255
228 239 255
228 239 255
228 239 255
228 239 255
228 239 255
228 239 255
228 239 255
228 239 255
228 239 255
227 239 255
227 239 255
227 239 255
227 239 255
227 239 255
227 239 255
228 239 255
228 239 255
228 239 255
228 239 255
228 239 255
228 239 255
228 239 255
228 239 255
228 239 255
228 239 255
228 239 255
228 239 255
228 239 255
228 239 255
228 239 255
228 239 255
228 239 255
228 239 255
228 239 255
228 239 255
228 239 255
228 239 255
228 239 255
228 239 255
228 239 255
228 239 255
228 239 255
228 239 255
228 239 255
228 239 255
228 239 255
228 239 255
228 239 255
228 239 255
228 239 255
228 239 255
228 239 255
228 239 255
228 239 255
228 239 255
228 239 255
228 239 255
228 239 255
228 239 255
228 239 255
228 239 255
228 239 255
228 239 255
225 236 252
191 205 212
155 171 171
136 153 154
153 169 178
119 137 130
98 118 104
68 94 56
79 102 71
119 137 131
135 153 151
133 150 149
150 165 173
71 94 62
92 114 94
106 124 116
128 144 144
137 154 157
134 149 152
130 145 148
124 138 141
134 150 152
132 148 147
117 134 129
95 113 99
75 95 74
63 87 50
61 84 49
63 86 51
93 112 98
140 155 160
132 148 149
113 129 128
84 104 83
86 105 92
111 128 123
126 142 143
127 141 144
137 151 153
122 137 137
122 137 137
117 132 131
135 148 153
133 147 151
116 131 131
127 143 144
130 145 148
62 83 52
91 106 96
88 104 93
100 116 107
137 151 156
130 144 149
141 156 162
110 125 122
120 134 134
111 126 124
112 126 126
113 128 128
118 133 135
117 131 132
119 133 133
112 127 125
127 140 144
115 130 130
52 72 41
66 84 63
77 95 76
82 98 86
111 126 124
117 131 132
114 129 130
114 128 128
107 120 118
126 139 141
116 129 130
127 140 144
106 120 117
103 115 116
111 125 124
107 120 117
110 124 123
108 123 120
70 88 69
53 73 41
49 68 38
51 69 41
55 76 44
57 78 46
57 78 45
52 72 42
52 70 45
76 92 77
74 91 77
86 100 90
94 108 104
111 124 125
112 126 126
107 119 122
112 125 125
107 121 121
85 99 92
45 64 35
54 74 42
51 71 40
46 63 36
49 68 40
54 73 42
45 63 35
51 70 39
53 72 42
52 71 41
51 70 40
48 66 37
49 67 38
50 69 40
49 67 38
51 70 41
45 64 36
61 78 56
106 120 117
113 125 129
100 112 113
111 125 125
96 108 103
102 115 110
118 131 136
110 122 122
94 107 101
94 107 102
98 111 108
109 122 121
94 109 105
89 102 98
80 95 83
68 85 68
65 81 64
62 79 58
96 108 106
93 105 103
105 119 116
103 117 113
103 115 116
102 115 114
108 120 121
106 118 118
110 123 122
97 111 107
93 105 103
99 111 111
98 111 110
101 114 109
108 121 121
108 121 123
93 106 101
88 101 95
51 68 43
45 62 35
48 66 37
46 65 35
51 70 41
46 64 36
49 68 39
46 63 36
49 68 39
48 66 38
50 69 39
43 61 33
48 67 37
46 64 36
41 58 31
53 73 41
48 66 38
94 108 105
98 110 110
99 112 111
102 114 114
103 115 116
105 117 117
98 110 108
90 103 97
94 108 102
99 111 111
91 106 101
108 121 121
102 115 112
109 123 122
111 125 124
103 115 114
122 136 138
69 85 68
40 58 31
44 61 33
42 59 32
49 68 38
46 65 36
57 78 44
45 63 35
50 69 39
52 72 41
51 71 40
54 74 43
49 67 37
57 78 44
48 66 37
54 73 42
82 99 85
115 127 130
94 108 100
120 134 134
104 117 113
113 126 127
107 120 119
111 125 123
101 115 112
97 113 106
112 125 124
113 125 128
113 126 130
114 129 127
113 128 126
105 121 117
73 89 74
58 78 46
51 71 41
45 63 34
52 72 41
57 78 46
59 81 47
49 68 38
55 76 44
59 81 48
57 77 45
50 69 39
56 77 45
51 71 40
70 86 69
115 130 129
123 138 139
121 136 137
129 141 146
121 135 137
113 127 124
135 150 152
120 135 134
97 114 107
110 125 121
95 110 102
94 109 100
78 96 76
108 124 117
119 133 132
125 140 140
127 142 144
123 138 137
135 149 153
131 146 152
116 131 131
115 129 130
125 140 142
119 134 135
128 143 147
125 140 142
94 110 101
57 78 44
65 87 51
61 84 49
63 86 51
66 89 53
61 83 49
82 102 82
126 141 143
123 139 136
125 140 141
116 133 131
123 139 139
127 143 143
139 154 160
123 140 138
139 154 157
128 145 144
136 151 154
137 151 154
143 158 162
107 123 117
82 101 84
75 98 70
100 118 108
120 138 132
138 154 158
147 163 171
142 158 161
135 151 155
103 122 113
83 104 83
107 126 115
139 155 159
152 167 174
146 163 168
141 158 159
136 154 152
175 190 199
205 217 230
226 238 254
228 239 255
228 239 255
228 239 255
228 239 255
228 239 255
228 239 255
228 239 255
228 239 255
228 239 255
228 239 255
228 239 255
228 239 255
228 239 255
228 239 255
228 239 255
228 239 255
228 239 255
228 239 255
228 239 255
228 239 255
228 239 255
228 239 255
228 239 255
228 239 255
228 239 255
228 239 255
228 239 255
228 239 255
228 239 255
228 239 255
228 239 255
228 239 255
228 239 255
228 239 255
228 239 255
228 239 255
228 239 255
228 239 255
228 239 255
228 239 255
228 239 255
228 239 255
228 239 255
228 239 255
228 239 255
228 239 255
228 239 255
228 239 255
228 239 255
228 239 255
228 239 255
228 239 255
228 239 255
228 239 255
228 239 255
228 239 255
228 239 255
228 239 255
228 239 255
228 239 255
228 239 255
228 239 255
228 239 255
228 239 255
228 239 255
228 239 255
228 239 255
228 239 255
228 239 255
228 239 255
228 239 255
228 239 255
228 239 255
228 239 255
228 239 255
228 239 255
228 239 255
228 239 255
228 239 255
228 239 255
228 239 255
228 239 255
228 239 255
228 239 255
228 239 255
228 239 255
228 239 255
228 239 255
228 239 255
228 239 255
228 239 255
228 239 255
228 239 255
228 239 255
206 218 230
165 179 184
151 167 171
143 159 163
123 142 139
84 105 81
71 96 60
74 96 65
114 132 123
133 151 152
129 146 146
142 157 161
131 148 151
134 149 151
121 139 135
123 138 137
129 147 147
156 170 178
144 160 166
130 146 150
140 154 159
141 156 159
108 126 118
93 112 97
69 92 59
66 89 53
63 86 49
59 81 46
61 84 48
68 91 54
64 87 52
82 102 83
122 138 138
107 123 116
93 111 97
74 93 69
130 145 145
129 145 146
139 154 158
124 139 141
122 137 139
123 138 140
129 145 145
113 127 125
130 146 145
137 151 157
122 137 138
103 118 113
81 99 83
106 122 115
129 143 148
127 141 143
110 125 123
117 132 133
124 138 139
134 148 153
122 137 137
126 140 141
123 137 139
126 139 144
112 125 124
110 124 125
121 135 136
133 148 150
102 115 111
105 120 116
88 105 94
92 106 98
125 140 145
120 134 136
109 124 120
112 125 121
124 137 141
124 138 139
114 129 128
120 134 134
111 125 124
123 137 141
116 130 129
116 130 131
118 133 133
110 125 122
110 123 124
131 144 148
118 131 134
100 114 110
51 71 41
52 71 40
61 79 54
71 90 69
85 101 90
93 106 100
96 110 107
118 132 134
118 132 135
95 109 104
120 134 134
104 116 115
108 122 120
107 121 119
101 115 112
110 125 125
111 125 123
106 119 120
63 81 59
46 64 36
56 77 45
56 77 44
53 73 42
47 65 37
46 63 36
48 65 37
46 65 35
51 71 41
52 72 42
50 68 38
49 68 38
54 73 43
55 74 44
53 72 41
52 71 40
58 78 46
83 98 87
100 112 110
104 117 114
110 126 122
87 101 92
79 96 81
68 82 69
58 74 54
64 82 60
55 73 46
48 67 37
47 64 38
54 74 42
38 54 29
38 54 29
50 69 39
51 70 39
41 59 31
84 99 88
112 124 125
107 119 118
105 117 116
100 113 112
111 123 123
96 108 107
101 115 114
99 113 110
88 102 96
98 111 108
101 114 113
115 128 130
105 118 119
115 129 130
87 100 93
103 116 114
107 121 119
85 98 91
51 70 40
45 63 34
49 67 39
53 71 42
53 72 41
42 59 34
50 68 40
53 72 42
46 64 36
52 71 42
51 71 40
49 68 38
44 61 34
47 65 36
41 58 31
41 59 31
49 65 42
102 115 114
99 114 107
114 127 127
99 112 112
95 108 105
100 112 110
102 115 116
101 113 115
114 127 129
95 109 102
100 114 111
115 130 128
103 116 114
103 117 114
106 119 118
114 129 130
102 115 113
56 75 47
46 65 36
49 68 40
50 69 39
37 54 27
47 65 37
52 72 41
53 73 42
58 79 46
58 79 46
53 72 42
49 68 39
49 67 38
52 71 41
51 71 40
51 70 40
96 111 103
116 130 130
106 119 117
107 121 120
119 133 132
107 121 118
104 118 117
115 130 130
117 131 133
123 137 137
122 136 140
92 108 98
115 128 128
108 123 122
102 115 114
108 123 120
57 75 50
53 74 41
53 73 42
54 75 43
58 80 47
57 78 45
55 77 44
52 72 42
60 82 48
54 75 43
54 75 43
62 85 50
57 78 45
54 74 44
68 88 61
124 139 140
113 127 122
115 129 129
124 138 141
126 139 142
121 134 137
125 140 141
121 135 137
113 126 124
113 128 126
116 130 128
130 145 150
118 133 133
105 120 112
66 85 59
92 110 95
99 115 106
97 112 106
97 112 104
106 121 118
127 143 143
125 140 142
133 147 152
121 135 135
128 142 144
116 132 130
100 118 110
55 76 43
55 76 44
57 79 45
60 82 48
88 106 93
131 146 145
124 139 139
138 153 159
138 154 156
137 152 157
128 143 143
82 102 80
84 103 87
97 114 107
116 134 128
120 136 135
157 173 183
133 149 151
144 158 164
138 154 156
143 159 166
88 108 88
62 85 49
62 85 50
67 92 54
90 109 89
107 124 113
131 148 146
142 159 163
113 130 126
79 102 71
71 97 59
75 98 67
93 113 95
126 145 142
128 146 144
110 128 120
113 132 123
138 154 154
191 204 217
215 228 243
228 239 255
228 239 255
228 239 255
228 239 255
228 239 255
228 239 255
228 239 255
228 239 255
228 239 255
228 239 255
228 239 255
228 239 255
228 239 255
228 239 255
228 239 255
228 239 255
228 239 255
228 239 255
228 239 255
228 239 255
228 239 255
228 239 255
228 239 255
228 239 255
228 239 255
228 239 255
228 239 255
228 239 255
228 239 255
228 239 255
228 239 255
228 239 255
228 239 255
228 239 255
228 239 255
228 239 255
228 239 255
228 239 255
228 239 255
228 239 255
228 239 255
228 239 255
228 239 255
228 239 255
228 239 255
228 239 255
228 239 255
228 239 255
228 239 255
228 239 255
228 239 255
228 239 255
228 239 255
228 239 255
228 239 255
228 239 255
228 239 255
228 239 255
228 239 255
228 239 255
228 239 255
228 239 255
228 239 255
228 239 255
228 239 255
228 239 255
228 239 255
228 239 255
228 239 255
228 239 255
228 239 255
228 239 255
228 239 255
228 239 255
228 239 255
228 239 255
228 239 255
228 239 255
228 239 255
228 239 255
228 239 255
228 239 255
228 239 255
228 239 255
228 239 255
228 239 255
228 239 255
228 239 255
228 239 255
218 230 244
186 200 208
145 160 158
154 169 175
143 159 162
96 116 96
67 92 55
64 88 51
119 137 132
123 141 136
149 165 170
146 162 165
147 162 170
139 156 161
107 124 117
103 123 109
64 88 51
66 90 53
129 145 144
145 161 167
138 154 160
131 146 148
103 121 111
94 113 100
69 91 56
58 80 46
68 93 55
58 80 46
72 96 58
57 79 45
63 87 51
74 93 67
84 102 87
106 124 115
140 155 160
64 87 55
66 89 53
58 80 46
68 92 55
63 85 50
111 128 124
121 136 136
133 148 152
140 154 159
141 155 161
115 130 130
102 119 116
91 109 94
71 93 64
55 75 43
57 78 45
62 85 50
77 96 75
131 143 146
133 149 152
130 143 147
125 138 141
130 143 149
113 128 123
127 141 143
127 141 143
134 149 154
123 137 138
109 124 119
84 100 89
83 99 87
59 78 49
57 78 46
59 81 47
55 76 43
78 96 77
115 131 128
115 129 128
133 147 149
133 146 148
121 135 137
125 140 140
125 139 142
121 135 138
121 134 136
123 137 139
118 133 133
125 139 144
124 138 142
116 129 130
121 136 136
104 118 115
111 126 124
90 106 96
84 100 88
105 119 116
127 139 142
116 131 129
109 123 122
110 122 122
115 129 129
117 130 131
130 143 148
110 123 120
118 131 133
107 120 120
98 113 108
112 126 126
116 129 131
109 124 122
103 116 116
117 130 131
86 100 92
54 73 42
45 63 34
48 66 38
51 70 41
52 71 40
53 74 41
54 75 43
46 65 36
46 64 36
51 70 41
44 63 34
46 64 36
67 87 61
74 92 72
77 92 78
89 104 97
95 109 103
99 112 112
53 72 42
45 63 35
53 73 42
46 64 36
50 69 40
52 72 41
50 70 39
53 73 43
53 73 41
46 65 35
45 63 35
45 63 35
48 66 38
46 64 36
49 68 39
51 71 41
49 69 39
45 64 35
110 124 123
108 122 122
106 119 120
114 127 129
111 124 125
102 115 115
105 119 117
96 110 107
117 130 134
113 127 132
107 121 119
110 124 122
105 116 116
120 134 137
105 118 119
111 124 123
112 122 125
109 123 123
49 65 46
57 77 46
51 71 39
55 75 45
50 68 40
53 72 43
55 75 44
47 65 37
48 66 37
51 71 40
51 70 40
51 70 40
48 66 37
52 72 42
53 72 41
48 68 38
55 76 42
72 87 73
100 113 110
118 131 132
97 111 108
106 120 118
96 110 104
121 133 137
111 124 124
105 118 116
93 105 102
103 115 115
90 103 100
99 112 109
96 111 103
118 132 134
111 125 124
111 124 125
104 119 115
47 66 37
51 71 40
53 73 43
55 76 44
58 78 46
53 73 42
50 69 39
60 81 48
52 71 41
48 67 38
46 64 35
59 80 47
57 78 45
51 70 40
51 71 41
53 73 43
91 105 96
118 131 131
106 120 116
116 131 132
110 124 120
111 124 125
127 141 143
114 129 132
100 114 112
124 138 142
111 125 123
127 139 143
118 131 131
108 121 121
114 128 130
108 120 121
65 83 61
53 74 43
55 74 44
53 73 42
58 80 47
52 73 41
57 78 46
58 79 46
53 74 42
51 72 41
57 78 45
57 78 46
56 77 44
54 75 43
73 92 73
122 136 137
118 132 132
123 137 139
125 138 141
121 136 137
121 135 137
127 142 142
129 144 147
120 134 133
119 134 133
141 156 160
114 128 128
138 152 157
113 128 126
63 83 56
54 75 43
54 76 43
56 77 44
55 76 43
57 79 45
78 95 78
77 96 77
103 120 111
98 113 105
106 121 115
139 153 157
118 133 130
60 80 50
60 83 48
108 125 117
135 150 156
143 157 165
128 143 143
130 146 144
137 152 155
126 142 141
130 144 146
125 140 141
101 118 109
65 88 51
64 87 51
62 85 50
62 86 50
71 92 65
95 113 97
117 132 130
132 149 150
137 152 155
118 135 129
85 107 80
71 96 57
67 91 54
69 95 56
69 95 57
66 90 57
85 106 82
104 124 114
100 119 103
63 87 51
69 94 56
70 95 57
65 90 53
94 115 95
111 130 118
86 109 84
82 106 75
107 127 116
162 178 180
193 205 218
223 235 251
228 239 255
228 239 255
228 239 255
228 239 255
228 239 255
228 239 255
228 239 255
228 239 255
228 239 255
228 239 255
228 239 255
228 239 255
228 239 255
228 239 255
228 239 255
228 239 255
228 239 255
228 239 255
228 239 255
228 239 255
228 239 255
228 239 255
228 239 255
228 239 255
228 239 255
228 239 255
228 239 255
228 239 255
228 239 255
228 239 255
228 239 255
228 239 255
228 239 255
228 239 255
228 239 255
228 239 255
228 239 255
228 239 255
228 239 255
228 239 255
228 239 255
228 239 255
228 239 255
228 239 255
228 239 255
228 239 255
228 239 255
228 239 255
228 239 255
228 239 255
228 239 255
228 239 255
228 239 255
228 239 255
228 239 255
228 239 255
228 239 255
228 239 255
228 239 255
228 239 255
228 239 255
228 239 255
228 239 255
228 239 255
228 239 255
228 239 255
228 239 255
228 239 255
228 239 255
228 239 255
228 239 255
228 239 255
228 239 255
228 239 255
228 239 255
228 239 255
228 239 255
228 239 255
228 239 255
228 239 255
228 239 255
228 239 255
228 239 255
227 238 254
188 200 209
153 168 165
87 110 82
97 117 100
113 132 121
72 96 61
78 103 66
102 124 107
112 131 125
139 155 159
155 171 178
146 163 168
145 161 163
119 136 131
83 103 80
73 98 65
67 90 53
69 93 56
67 92 54
65 89 53
103 120 109
116 135 126
98 115 103
67 91 54
67 92 55
67 91 55
61 83 48
64 87 52
64 87 51
61 84 49
78 100 72
89 109 90
124 140 138
133 147 152
121 136 135
132 148 149
136 151 156
82 102 81
67 90 54
64 87 51
63 86 50
60 83 48
62 84 50
71 93 65
116 131 128
103 121 112
84 104 83
71 95 57
59 81 47
61 84 49
61 84 50
55 76 42
61 83 48
66 90 53
76 97 70
119 134 134
132 147 150
125 139 140
121 137 137
136 153 155
116 130 129
114 128 126
93 108 100
86 105 85
60 81 51
60 82 48
60 82 48
54 75 43
55 75 43
56 78 46
59 80 48
53 74 42
62 82 52
120 134 132
127 141 144
130 145 148
119 133 135
106 119 120
110 125 123
131 145 148
125 140 141
128 140 144
124 138 139
116 132 131
95 111 102
96 110 104
89 104 94
66 85 60
52 71 41
56 76 43
60 81 48
95 111 104
110 124 122
124 138 139
130 144 147
115 129 131
107 123 118
118 131 134
113 128 125
113 127 126
104 119 113
116 130 129
113 127 129
114 127 127
118 133 133
121 135 138
124 137 139
117 131 132
108 120 121
109 123 123
57 78 46
50 68 39
53 73 43
51 70 41
51 70 40
51 71 41
70 87 70
73 90 71
91 106 98
78 93 81
112 126 124
112 126 125
108 121 120
110 123 124
96 111 105
103 117 115
112 126 126
105 117 119
70 86 70
54 73 43
52 73 40
53 73 41
51 70 40
53 72 42
54 75 43
58 79 45
48 67 37
52 72 41
51 70 40
53 72 41
49 67 39
52 71 41
49 69 38
57 77 46
44 62 35
49 68 39
66 80 71
100 113 114
104 117 115
108 121 116
106 119 120
106 119 120
99 112 108
100 114 110
111 126 125
118 131 132
101 116 109
102 116 114
115 129 129
110 124 122
102 115 114
121 135 135
118 132 132
104 118 117
92 105 103
55 73 47
51 71 40
50 69 40
50 69 39
52 71 41
51 70 40
48 66 37
57 78 46
50 70 39
53 74 41
47 66 37
48 66 38
52 72 41
55 73 49
59 79 50
69 87 66
60 75 57
80 94 85
89 105 96
99 115 106
92 106 99
96 111 105
96 109 102
82 97 89
69 85 69
84 99 87
78 95 78
87 103 92
89 104 94
80 97 82
58 74 53
68 85 67
77 92 78
74 89 75
87 102 91
99 114 110
98 112 109
108 123 118
104 117 117
101 114 112
97 112 106
104 119 113
104 117 113
92 108 97
107 122 118
108 124 117
112 126 126
92 106 101
99 113 110
102 116 109
104 120 113
75 90 78
86 102 90
72 91 70
84 100 88
100 115 109
93 108 101
96 111 103
93 108 99
99 113 109
99 114 109
102 117 109
106 121 118
110 124 122
106 121 118
118 133 132
106 121 118
53 72 45
51 71 40
57 78 45
54 75 43
56 76 45
54 74 42
61 83 49
49 70 38
60 82 48
50 70 39
63 86 50
60 83 48
55 76 43
57 79 45
80 96 81
130 143 146
116 131 130
114 128 129
133 148 151
120 135 134
134 149 155
121 135 137
124 140 139
124 140 140
121 135 135
127 142 146
129 144 145
125 139 141
121 137 133
67 88 62
61 83 49
57 78 45
58 80 46
55 77 44
59 82 47
64 87 51
60 82 48
60 82 48
59 81 47
64 86 51
67 90 57
90 108 93
94 113 97
111 128 122
101 117 110
125 139 140
117 133 133
129 145 148
137 151 153
138 153 157
136 151 155
139 154 160
145 159 164
118 133 129
69 92 57
63 86 51
67 91 54
67 91 54
66 90 54
66 91 54
64 87 50
74 96 71
102 122 105
103 122 110
80 101 80
66 89 54
72 96 58
71 96 57
65 88 52
70 95 57
69 94 55
70 95 56
76 98 72
105 124 111
115 133 127
82 104 79
69 94 56
72 97 58
68 92 55
79 103 71
94 116 97
82 104 78
87 113 82
117 135 127
169 184 190
206 218 232
227 239 255
228 239 255
228 239 255
228 239 255
228 239 255
228 239 255
228 239 255
228 239 255
228 239 255
228 239 255
228 239 255
228 239 255
228 239 255
228 239 255
228 239 255
228 239 255
228 239 255
228 239 255
228 239 255
228 239 255
228 239 255
228 239 255
228 239 255
228 239 255
228 239 255
228 239 255
228 239 255
228 239 255
228 239 255
228 239 255
228 239 255
228 239 255
228 239 255
228 239 255
228 239 255
228 239 255
228 239 255
228 239 255
228 239 255
228 239 255
228 239 255
228 239 255
228 239 255
228 239 255
228 239 255
228 239 255
228 239 255
228 239 255
228 239 255
228 239 255
228 239 255
228 239 255
228 239 255
228 239 255
228 239 255
228 239 255
228 239 255
228 239 255
228 239 255
228 239 255
228 239 255
228 239 255
228 239 255
228 239 255
228 239 255
228 239 255
228 239 255
228 239 255
228 239 255
228 239 255
228 239 255
228 239 255
228 239 255
228 239 255
228 239 255
228 239 255
228 239 255
228 239 255
228 239 255
214 226 239
172 186 191
114 134 118
93 114 95
111 131 121
154 170 176
158 175 184
118 137 129
130 147 146
134 150 151
144 161 166
137 154 154
141 156 161
115 132 126
95 115 97
72 96 63
67 91 54
69 93 56
70 96 58
64 89 52
76 97 70
107 124 117
131 149 149
100 118 106
65 89 52
68 93 55
69 94 55
61 85 49
68 92 55
67 90 53
74 96 67
103 123 110
128 146 146
138 153 155
148 163 170
128 143 144
136 151 155
128 143 145
118 135 131
144 159 164
101 119 108
66 89 54
66 89 53
76 98 70
100 117 106
115 131 130
132 147 150
131 145 147
118 134 132
98 116 102
60 83 48
68 92 55
58 80 46
57 79 45
66 89 53
62 84 50
61 83 47
60 82 48
130 144 147
126 140 144
125 141 140
98 113 106
87 104 87
66 87 61
64 87 52
54 75 43
61 83 49
55 75 43
54 74 43
61 83 49
52 72 40
64 86 52
56 76 44
58 80 47
56 77 45
61 83 49
117 132 131
118 132 133
120 135 137
117 131 130
125 140 141
121 135 138
115 130 128
103 120 112
97 110 105
75 91 76
64 84 57
58 79 47
60 82 48
60 81 47
59 81 46
60 81 48
52 72 41
53 73 41
73 95 66
118 133 133
114 128 129
106 119 116
116 131 133
125 139 141
121 135 138
115 130 127
117 132 132
119 132 133
116 129 132
114 129 126
116 130 132
119 132 135
107 121 121
108 121 119
106 119 117
115 128 128
102 116 113
92 107 100
89 106 90
97 112 104
102 115 112
94 108 105
105 119 117
125 139 139
110 125 121
107 120 117
116 129 129
116 130 133
123 136 138
103 116 115
117 132 130
106 119 116
101 113 113
118 132 134
113 126 127
122 135 136
58 77 49
55 76 43
55 74 44
44 63 34
52 73 41
52 72 41
52 70 41
50 70 39
53 73 42
50 70 39
50 69 39
56 77 45
48 67 37
46 64 36
49 67 38
50 69 39
47 66 37
50 69 39
104 117 114
110 123 124
120 134 134
115 128 129
126 140 142
101 116 113
118 131 132
90 104 99
102 116 113
114 127 128
108 122 121
113 127 126
118 131 133
105 119 114
116 129 130
120 135 133
107 121 119
88 102 95
80 96 87
78 95 78
74 90 76
93 108 100
89 103 97
84 100 89
90 106 94
103 116 113
108 121 122
112 125 125
107 121 119
104 117 117
120 134 133
105 119 117
113 126 127
107 120 118
114 127 129
121 135 136
63 82 60
50 70 40
55 75 43
44 62 34
52 72 41
53 74 42
52 72 41
48 68 38
51 70 40
58 79 47
52 71 42
56 76 44
52 72 41
49 67 38
55 75 43
54 74 43
45 63 35
114 128 127
119 132 134
109 122 121
102 116 112
109 123 124
106 121 116
107 122 118
114 128 126
106 120 117
123 137 140
119 133 134
117 130 134
115 128 129
129 142 146
126 140 141
115 130 129
103 118 112
64 81 61
55 77 44
54 75 42
55 77 44
51 71 41
52 72 41
51 71 40
58 80 46
55 76 44
61 83 48
56 77 45
52 72 40
54 75 43
55 76 43
51 71 39
77 95 75
110 125 122
108 123 122
108 121 120
110 125 125
104 119 114
97 113 105
85 102 88
90 107 94
79 97 76
81 97 86
83 101 85
69 88 65
54 75 42
55 75 43
73 93 70
130 145 148
122 137 138
123 139 138
127 141 144
113 128 125
117 131 134
130 145 147
128 144 144
118 133 133
116 131 128
123 138 137
135 150 152
113 127 123
116 132 128
64 84 56
62 85 50
58 80 46
57 78 45
64 87 50
60 82 47
61 84 49
59 81 47
65 87 54
84 102 85
120 136 133
139 154 158
123 138 138
70 91 63
63 86 50
67 90 54
63 85 53
81 101 79
105 123 111
117 133 132
131 147 148
133 148 150
132 147 148
141 156 162
134 149 152
72 92 69
65 89 52
66 91 54
66 90 54
65 89 52
65 90 53
68 92 55
64 88 52
65 89 52
64 87 51
102 121 106
110 126 120
104 123 112
85 107 85
72 97 59
69 95 57
67 91 53
65 89 52
76 101 64
116 134 126
141 156 161
131 148 146
108 127 114
97 118 98
68 92 59
75 101 61
101 123 103
128 146 144
130 148 144
90 113 90
93 116 95
152 169 170
196 209 220
223 235 251
228 239 255
228 239 255
228 239 255
228 239 255
228 239 255
228 239 255
228 239 255
228 239 255
228 239 255
228 239 255
228 239 255
228 239 255
228 239 255
228 239 255
228 239 255
228 239 255
228 239 255
228 239 255
228 239 255
228 239 255
228 239 255
228 239 255
228 239 255
228 239 255
228 239 255
228 239 255
228 239 255
228 239 255
228 239 255
228 239 255
228 239 255
228 239 255
228 239 255
228 239 255
228 239 255
228 239 255
228 239 255
228 239 255
228 239 255
228 239 255
228 239 255
228 239 255
228 239 255
228 239 255
228 239 255
228 239 255
228 239 255
228 239 255
228 239 255
228 239 255
228 239 255
228 239 255
228 239 255
228 239 255
228 239 255
228 239 255
228 239 255
228 239 255
228 239 255
228 239 255
228 239 255
228 239 255
228 239 255
228 239 255
228 239 255
228 239 255
228 239 255
228 239 255
228 239 255
228 239 255
228 239 255
228 239 255
228 239 255
225 236 252
185 199 205
167 181 187
119 139 129
123 142 137
142 160 163
152 169 175
142 160 163
121 139 132
101 122 105
121 140 132
147 162 168
148 162 166
135 154 156
98 116 107
73 98 59
65 89 52
71 97 58
69 94 57
67 91 54
73 97 64
102 120 110
124 141 139
139 156 159
135 151 154
148 164 168
119 137 131
67 91 53
64 87 50
67 90 53
78 101 72
105 124 112
137 152 154
131 146 150
141 156 159
136 151 152
141 156 160
137 153 158
140 156 159
150 165 169
142 158 163
143 157 162
142 157 162
112 128 123
100 117 107
128 142 143
146 161 167
137 152 159
131 146 148
120 136 132
132 147 148
146 159 167
140 156 162
129 145 146
98 116 103
59 81 46
64 86 51
63 86 50
54 75 43
63 85 53
91 106 96
100 117 106
79 100 77
62 85 49
64 87 52
64 87 52
56 78 44
62 84 50
57 78 46
60 82 48
57 79 46
58 80 46
60 82 48
60 81 47
58 80 46
62 85 50
57 78 46
61 84 50
57 78 45
90 107 93
128 144 145
124 139 138
105 121 116
78 95 78
76 94 75
54 75 42
56 77 44
59 80 47
49 68 38
55 75 43
60 82 48
59 80 47
57 79 45
52 71 41
53 73 42
58 80 47
55 76 43
56 77 44
111 126 122
111 125 124
108 122 121
127 138 142
114 126 128
120 133 134
119 134 133
112 126 123
119 132 132
130 145 147
125 138 144
105 120 116
124 138 138
89 105 94
93 108 101
79 96 81
81 97 83
49 68 38
66 85 62
114 129 128
121 135 136
122 135 138
120 134 136
116 130 129
117 132 130
118 132 131
125 139 139
114 128 127
121 135 135
109 122 122
109 123 122
110 125 122
118 133 133
117 131 131
111 125 125
98 111 109
101 116 110
99 112 109
55 76 44
50 69 40
57 78 45
46 65 36
54 74 43
54 74 42
56 77 45
51 70 40
48 66 37
57 79 46
58 78 46
56 77 45
48 66 38
54 74 43
51 70 40
51 70 41
51 71 41
69 87 65
107 122 119
105 119 114
108 123 120
96 110 108
88 103 93
96 110 102
98 113 106
86 101 92
86 101 91
79 92 83
74 89 76
71 86 70
68 88 62
52 70 45
51 70 40
59 81 48
54 73 43
44 62 34
107 122 118
122 135 136
118 131 131
105 119 119
121 134 138
116 132 132
103 117 114
99 113 111
125 138 140
116 128 131
111 124 125
115 128 127
116 129 130
112 127 126
117 131 133
109 123 122
122 135 137
112 127 127
51 70 39
51 70 40
50 70 39
55 75 43
56 77 45
56 76 45
55 76 44
53 72 42
51 71 40
54 75 42
56 77 45
51 72 41
55 75 44
53 73 41
55 76 44
60 82 48
62 81 55
96 112 101
110 124 124
119 133 133
123 137 138
123 138 137
122 137 137
111 126 122
126 141 140
110 125 122
123 139 138
119 134 131
123 137 138
108 122 119
107 121 119
115 129 127
112 125 125
103 118 114
55 76 45
48 66 36
58 80 46
58 79 46
58 79 47
60 81 47
54 75 43
59 80 46
58 80 45
51 71 41
56 77 44
54 75 43
53 73 42
58 80 47
59 81 48
75 92 74
117 133 132
119 134 136
94 108 102
117 132 131
124 138 139
119 134 130
121 135 134
116 132 131
119 134 134
134 149 152
109 125 118
127 142 143
110 126 120
121 135 136
116 131 129
100 117 110
106 122 114
96 112 105
100 116 110
126 141 142
114 130 128
132 146 148
114 130 127
136 150 153
125 140 143
126 141 142
131 145 147
137 151 156
111 127 125
78 97 78
65 89 52
64 87 52
60 83 48
65 88 52
76 96 72
103 121 110
118 133 131
134 149 150
127 142 144
123 138 138
123 138 138
136 152 155
77 97 75
58 81 45
72 96 57
57 79 46
68 93 55
68 92 54
61 84 50
62 86 50
72 92 66
95 113 98
108 125 119
127 143 143
85 107 82
66 89 52
66 90 54
69 94 56
64 87 52
69 92 55
69 93 56
67 91 54
62 85 49
65 89 52
90 111 90
131 147 148
145 161 167
146 162 168
122 138 134
101 122 107
93 113 93
72 98 59
67 92 55
79 101 74
141 159 162
154 171 179
156 173 183
150 166 172
123 141 135
113 132 124
74 98 68
135 153 151
148 163 171
144 162 165
126 146 140
106 128 109
107 128 114
167 182 188
199 212 224
227 238 254
228 239 255
228 239 255
228 239 255
228 239 255
228 239 255
228 239 255
228 239 255
228 239 255
228 239 255
228 239 255
228 239 255
228 239 255
228 239 255
228 239 255
228 239 255
228 239 255
228 239 255
228 239 255
228 239 255
228 239 255
228 239 255
228 239 255
228 239 255
228 239 255
228 239 255
228 239 255
228 239 255
228 239 255
228 239 255
228 239 255
228 239 255
228 239 255
228 239 255
228 239 255
228 239 255
228 239 255
228 239 255
228 239 255
228 239 255
228 239 255
228 239 255
228 239 255
228 239 255
228 239 255
228 239 255
228 239 255
228 239 255
228 239 255
228 239 255
228 239 255
228 239 255
228 239 255
228 239 255
228 239 255
228 239 255
228 239 255
228 239 255
228 239 255
228 239 255
228 239 255
228 239 255
228 239 255
228 239 255
228 239 255
228 239 255
228 239 255
228 239 255
228 239 255
216 228 242
180 194 203
142 159 160
152 170 176
128 147 143
151 168 175
148 165 170
116 133 128
97 118 101
71 97 58
74 100 61
68 92 54
117 135 128
106 124 114
85 109 79
67 92 54
74 100 61
66 91 54
70 96 57
72 96 65
101 122 104
132 150 153
145 161 165
144 160 167
147 163 168
159 174 182
141 157 161
142 158 162
105 123 115
83 105 76
96 114 103
134 150 151
137 153 155
126 141 142
153 169 175
136 152 153
142 157 162
138 153 155
146 160 168
138 154 159
137 152 153
131 146 145
129 144 141
103 121 109
84 103 85
89 109 91
123 139 139
137 150 153
119 134 132
139 154 157
130 145 148
138 153 161
130 146 148
136 150 152
127 142 143
123 137 141
148 162 168
143 157 161
105 121 117
79 99 76
123 140 138
128 143 145
140 154 158
111 126 122
57 78 45
62 85 50
64 87 52
57 78 44
61 84 49
61 83 49
61 83 49
62 84 49
57 79 44
60 81 48
64 87 51
60 81 48
60 82 48
59 80 47
55 75 43
74 96 67
86 101 89
115 129 127
65 84 62
63 85 50
61 83 48
60 82 47
63 85 51
57 78 45
56 77 44
66 89 53
58 79 45
58 78 46
56 77 45
58 79 45
56 77 45
55 77 44
56 77 45
52 72 41
64 87 51
59 80 47
84 99 88
120 134 134
114 128 127
123 137 139
115 130 130
128 143 144
118 133 134
110 124 123
99 114 106
102 118 112
83 99 86
72 91 65
55 75 43
51 71 39
51 71 40
43 61 32
59 80 48
57 78 45
57 79 46
116 132 129
117 131 132
117 131 132
117 131 130
117 131 131
124 137 142
123 137 137
123 137 137
126 139 143
104 118 115
115 130 129
118 132 132
114 129 126
116 130 131
110 125 121
116 130 127
114 129 125
111 126 124
117 130 131
47 65 35
56 76 44
56 76 45
53 73 43
49 69 39
51 70 40
55 76 45
52 71 40
56 77 45
50 69 38
59 80 46
56 77 45
54 74 43
61 77 60
63 81 59
81 98 85
90 106 95
86 101 92
88 104 92
70 87 67
58 75 52
48 67 37
47 65 37
49 69 39
55 76 44
59 80 46
53 72 41
54 75 43
59 81 47
54 75 43
53 73 42
50 69 39
54 74 42
49 69 39
49 68 39
53 74 41
76 95 74
121 134 137
102 115 110
100 114 111
117 131 130
112 125 125
110 124 121
108 123 119
119 132 132
116 130 132
121 136 137
128 141 147
118 132 132
113 129 124
114 128 130
122 135 139
111 126 124
121 135 135
84 100 86
55 76 44
53 73 41
52 70 40
58 79 46
58 78 45
59 80 47
57 78 46
56 77 45
55 76 43
49 68 38
55 76 44
60 81 48
55 75 44
55 76 45
51 71 40
54 74 44
73 92 70
122 135 139
113 127 127
126 139 143
121 135 134
112 127 128
110 124 124
121 136 139
127 142 143
126 138 141
115 130 126
117 130 132
104 119 116
123 137 138
122 136 136
125 140 141
118 133 132
88 104 94
57 78 46
59 81 46
66 89 54
56 76 43
55 75 43
57 78 46
57 79 45
59 79 47
55 75 43
57 78 46
58 79 46
57 78 45
60 83 47
57 78 45
59 81 46
89 106 92
122 137 141
128 143 144
101 117 110
113 130 126
116 130 129
130 144 145
120 134 131
121 134 134
134 148 154
127 142 145
126 140 143
126 141 140
125 139 140
134 149 153
107 123 118
61 84 49
59 81 47
59 82 47
63 86 50
60 82 47
64 88 51
63 84 53
72 92 70
89 107 93
82 101 83
95 112 104
112 128 119
106 122 115
102 119 112
73 95 69
70 91 64
89 108 92
123 140 140
118 134 134
126 140 146
129 145 148
131 147 149
133 149 150
133 149 150
137 150 154
133 148 148
140 155 160
86 106 84
62 84 49
65 89 53
68 91 53
62 84 50
59 82 47
62 85 49
62 85 50
71 96 57
61 85 49
64 88 52
71 95 63
116 132 128
126 142 140
107 126 116
86 105 86
73 97 65
68 93 56
62 85 49
67 91 54
66 91 53
67 91 55
83 106 78
128 144 142
146 162 165
154 169 177
142 158 164
145 161 167
134 150 156
129 146 145
103 122 109
86 109 81
110 129 121
155 170 177
150 167 169
150 166 172
146 162 164
156 173 182
123 141 136
116 137 127
135 153 153
156 172 180
148 164 169
140 157 161
142 160 161
127 145 140
113 132 121
181 194 201
219 231 245
228 239 255
228 239 255
228 239 255
228 239 255
228 239 255
228 239 255
228 239 255
228 239 255
228 239 255
228 239 255
228 239 255
228 239 255
228 239 255
228 239 255
228 239 255
228 239 255
228 239 255
228 239 255
228 239 255
228 239 255
228 239 255
228 239 255
228 239 255
228 239 255
228 239 255
228 239 255
228 239 255
228 239 255
228 239 255
228 239 255
228 239 255
228 239 255
228 239 255
228 239 255
228 239 255
228 239 255
228 239 255
228 239 255
228 239 255
228 239 255
228 239 255
228 239 255
228 239 255
228 239 255
228 239 255
228 239 255
228 239 255
228 239 255
228 239 255
228 239 255
228 239 255
228 239 255
228 239 255
228 239 255
228 239 255
228 239 255
228 239 255
228 239 255
228 239 255
228 239 255
228 239 255
228 239 255
228 239 255
227 238 254
201 214 225
156 173 175
137 155 158
129 146 145
142 160 160
146 162 168
159 175 182
122 140 137
77 101 69
69 95 56
75 100 60
90 113 88
117 136 129
140 157 162
115 135 125
70 95 57
74 100 61
71 96 57
73 98 62
107 126 115
128 145 146
146 160 169
141 158 160
153 170 180
153 169 174
142 158 163
131 147 146
138 154 157
130 145 147
131 147 148
104 122 113
144 161 165
131 147 149
141 157 162
137 152 155
149 165 174
144 159 163
149 164 172
136 152 156
151 167 175
126 143 145
112 127 121
102 119 107
74 96 68
62 85 49
72 97 59
65 88 52
68 89 63
136 151 155
137 152 156
149 165 170
126 141 141
145 160 164
131 146 149
140 155 158
142 156 161
122 137 137
126 142 144
98 114 103
67 89 56
52 73 42
53 74 41
70 90 62
93 111 101
114 130 126
119 134 134
64 86 51
59 80 47
58 80 46
59 82 47
62 85 49
65 89 53
58 79 47
58 80 46
65 88 52
60 80 46
61 82 55
79 96 79
92 110 96
115 130 130
113 128 125
132 148 150
119 132 131
133 148 152
83 103 85
58 80 46
54 74 42
58 79 46
64 87 52
56 77 44
61 83 48
56 76 44
61 83 48
56 77 44
57 78 45
52 72 40
58 79 46
58 80 46
58 80 45
56 78 45
59 81 48
54 76 42
70 89 65
104 120 115
117 130 131
111 126 123
100 117 107
84 103 87
73 92 71
55 75 43
58 80 47
62 84 50
58 79 47
54 74 43
54 74 43
57 78 45
58 79 46
63 86 50
55 75 44
57 78 45
61 83 48
84 101 88
118 132 133
115 130 129
106 122 121
127 141 141
113 128 126
128 141 143
125 140 143
138 151 159
112 126 124
119 133 134
123 138 138
115 129 131
125 139 142
124 138 140
124 138 139
114 128 128
119 133 133
105 120 117
93 108 100
55 76 44
59 79 47
52 72 41
57 78 45
66 85 62
68 86 66
86 101 92
95 110 104
108 124 117
104 118 116
106 121 119
109 125 119
105 119 117
119 133 135
112 126 124
127 140 145
119 132 136
100 113 112
47 67 36
60 82 48
53 72 42
55 75 43
53 73 42
60 82 48
58 78 46
56 76 44
57 78 46
51 71 40
47 66 37
50 70 40
49 68 39
54 75 44
52 72 42
53 73 43
59 80 48
54 73 43
110 124 119
117 130 131
111 125 124
129 143 146
120 133 135
110 123 122
107 121 118
130 143 144
111 124 122
115 128 130
107 121 120
119 134 134
124 138 140
109 124 122
113 128 128
117 130 133
120 134 135
108 122 121
75 94 70
53 74 42
58 80 47
58 79 47
49 68 37
56 76 45
55 75 43
59 81 47
57 78 45
58 79 46
53 73 41
61 83 48
53 73 41
49 68 38
53 73 42
57 79 45
56 76 45
81 98 83
110 125 122
118 132 131
111 125 125
130 143 148
126 140 144
124 139 141
109 121 120
113 126 125
135 149 154
121 134 135
119 134 134
120 134 134
130 146 148
126 141 144
120 134 135
127 141 143
91 109 94
58 79 45
60 81 48
57 78 45
59 81 47
53 72 42
55 76 43
61 84 49
52 72 41
63 86 51
57 78 45
56 77 44
57 78 45
62 84 49
61 83 48
62 85 50
104 122 111
127 140 142
120 135 133
122 137 135
117 131 130
132 148 152
141 156 162
120 135 137
120 135 134
135 149 153
126 141 142
133 148 152
115 129 128
121 137 133
131 145 148
102 117 111
57 79 46
58 81 47
58 79 45
60 83 48
61 83 48
56 78 44
61 84 50
58 79 45
60 82 47
58 79 45
58 80 46
68 90 56
89 108 94
118 134 133
73 90 73
89 109 90
98 116 104
120 137 134
122 138 134
130 146 148
130 146 145
135 149 154
139 154 157
134 150 155
136 152 156
131 148 149
131 145 145
102 118 109
66 90 54
69 93 54
65 88 51
58 80 45
61 84 49
66 89 52
61 85 48
65 90 52
63 87 50
69 93 55
69 94 55
111 129 121
150 165 174
142 159 163
142 158 161
129 145 150
117 135 128
95 114 100
87 109 86
67 90 57
67 91 53
66 88 55
121 137 132
152 169 176
149 163 169
141 157 162
140 157 161
143 160 168
157 173 181
152 168 176
136 154 154
131 147 148
136 152 155
144 159 164
150 167 175
156 172 180
161 176 186
158 175 181
154 169 178
145 162 166
127 145 142
149 167 170
152 169 176
149 165 168
121 139 132
85 110 78
81 105 75
161 176 177
201 214 226
227 238 254
228 239 255
228 239 255
228 239 255
228 239 255
228 239 255
228 239 255
228 239 255
228 239 255
228 239 255
228 239 255
228 239 255
228 239 255
228 239 255
228 239 255
228 239 255
228 239 255
228 239 255
228 239 255
228 239 255
228 239 255
228 239 255
228 239 255
228 239 255
228 239 255
228 239 255
228 239 255
228 239 255
228 239 255
228 239 255
228 239 255
228 239 255
228 239 255
228 239 255
228 239 255
228 239 255
228 239 255
228 239 255
228 239 255
228 239 255
228 239 255
228 239 255
228 239 255
228 239 255
228 239 255
228 239 255
228 239 255
228 239 255
228 239 255
228 239 255
228 239 255
228 239 255
228 239 255
228 239 255
228 239 255
228 239 255
228 239 255
228 239 255
228 239 255
221 233 248
193 206 218
131 150 142
141 159 164
118 137 128
88 112 83
128 148 143
134 152 151
99 119 102
74 100 60
77 103 63
71 96 58
98 119 101
116 135 128
137 155 159
162 178 188
149 165 172
104 123 109
70 95 57
93 114 93
121 139 130
144 161 167
152 167 175
153 169 175
144 161 164
151 167 173
143 160 162
142 158 163
137 153 156
112 129 125
83 105 82
64 87 51
66 90 53
94 115 97
142 158 164
140 156 161
148 163 170
148 164 173
142 157 161
136 152 155
134 150 151
117 133 130
97 116 104
71 93 65
67 92 54
59 82 48
67 91 53
64 87 50
65 89 53
69 94 56
57 79 45
126 141 143
128 144 142
145 160 166
134 150 151
137 152 158
107 124 117
117 135 125
82 101 80
65 88 52
58 80 46
62 85 50
68 92 55
64 88 52
62 85 49
68 92 54
60 83 48
71 95 57
59 82 46
104 120 110
99 116 108
79 97 80
67 91 54
60 82 48
65 88 53
63 86 51
87 106 88
90 107 97
120 135 136
127 141 140
135 150 155
134 149 153
126 141 144
135 150 152
131 146 150
115 129 128
144 158 164
123 138 137
61 82 49
60 82 48
66 89 53
60 83 48
62 84 50
57 78 45
65 88 52
62 84 50
62 84 50
58 79 47
56 78 44
60 82 48
58 79 46
62 84 49
61 80 54
77 95 80
101 118 111
104 119 113
93 109 99
53 74 43
62 85 49
58 80 47
60 81 48
56 76 45
57 79 45
59 80 47
64 87 52
59 82 47
58 79 46
48 67 38
56 77 44
61 83 49
60 82 48
51 71 40
53 72 41
55 75 43
59 80 46
114 129 127
130 145 149
119 133 133
116 130 128
130 143 145
115 130 131
119 134 133
112 127 126
125 138 141
136 150 155
129 143 146
135 149 152
112 127 124
126 140 144
123 137 135
110 124 122
120 134 137
113 125 126
93 110 99
91 107 97
108 121 120
121 135 134
116 130 131
113 126 127
113 128 127
113 127 125
116 129 133
115 128 129
123 137 139
117 131 134
113 129 124
114 127 127
128 142 145
102 117 111
120 135 131
120 133 135
136 149 153
95 111 102
53 73 42
47 65 36
58 79 46
59 80 48
54 75 43
60 81 48
54 75 42
55 76 43
55 74 43
60 82 48
51 70 40
54 75 42
57 78 45
51 70 40
55 75 44
57 78 45
51 71 40
72 89 70
107 121 119
111 125 125
113 126 125
130 144 148
118 132 133
115 129 129
118 132 135
102 118 113
120 135 135
112 126 126
121 135 137
121 136 135
115 129 129
115 129 129
131 145 148
114 128 126
126 140 148
113 128 127
53 74 40
58 79 46
62 83 49
56 77 45
57 78 45
55 76 44
53 73 42
57 78 45
59 80 46
55 76 43
46 65 35
53 73 43
59 81 46
59 81 47
59 81 47
56 76 45
56 76 45
106 120 118
120 134 136
112 126 125
120 134 136
120 133 132
111 125 125
117 132 132
121 135 137
124 138 140
116 130 129
117 132 130
122 136 140
117 131 130
124 138 143
130 146 148
132 147 152
113 128 127
64 83 60
62 83 50
57 78 45
56 77 44
54 73 42
60 81 48
59 81 47
52 72 40
58 79 45
62 85 50
60 82 48
64 86 51
58 79 45
50 70 39
59 80 46
67 89 59
107 122 118
134 148 152
117 134 130
121 136 139
128 142 143
110 125 121
122 139 139
128 143 147
115 131 129
122 138 139
131 146 147
121 137 137
123 137 138
134 149 150
128 144 145
100 117 108
60 82 48
60 82 48
65 89 53
62 86 50
56 77 44
62 85 49
64 86 54
83 102 84
107 123 119
117 131 131
129 145 147
139 154 158
130 144 147
120 136 133
71 93 61
65 88 52
64 88 53
64 88 51
64 88 52
64 88 52
70 93 61
82 103 78
101 118 110
110 126 120
114 131 125
140 156 162
146 160 164
98 116 104
60 82 49
60 83 48
63 86 50
61 83 48
61 85 51
66 90 53
67 92 55
68 92 56
63 85 51
66 90 53
61 83 47
103 122 110
142 157 164
143 160 165
133 149 150
153 169 177
147 163 171
133 149 150
142 158 164
117 136 129
113 132 121
99 119 100
102 120 108
144 160 163
143 160 167
155 171 178
148 162 168
143 159 164
145 161 168
156 173 180
151 168 176
147 164 170
101 120 109
95 115 97
122 140 137
151 168 175
154 170 179
153 170 177
155 170 180
154 171 179
108 129 115
101 121 105
119 137 131
146 163 168
128 146 144
82 105 76
117 137 129
110 131 114
117 137 120
174 188 192
217 229 243
228 239 255
228 239 255
228 239 255
228 239 255
228 239 255
228 239 255
228 239 255
228 239 255
228 239 255
228 239 255
228 239 255
228 239 255
228 239 255
228 239 255
228 239 255
228 239 255
228 239 255
228 239 255
228 239 255
228 239 255
228 239 255
228 239 255
228 239 255
228 239 255
228 239 255
228 239 255
228 239 255
228 239 255
228 239 255
228 239 255
228 239 255
228 239 255
228 239 255
228 239 255
228 239 255
228 239 255
228 239 255
228 239 255
228 239 255
228 239 255
228 239 255
228 239 255
228 239 255
228 239 255
228 239 255
228 239 255
228 239 255
228 239 255
228 239 255
228 239 255
228 239 255
228 239 255
228 239 255
228 239 255
215 227 241
177 192 200
111 132 120
112 133 120
100 120 104
76 103 62
81 107 70
96 118 95
83 108 74
73 100 61
67 92 54
87 111 82
115 134 124
138 155 155
158 174 185
147 165 171
155 171 180
157 173 181
143 159 160
123 140 137
142 159 163
138 154 155
149 165 172
149 166 174
142 158 165
145 160 167
147 163 168
149 165 169
117 136 128
89 109 90
67 91 54
66 91 53
70 94 57
68 92 55
63 86 50
98 117 101
146 161 164
142 157 162
136 151 154
122 138 136
120 138 135
79 99 78
69 93 57
66 90 53
61 85 48
62 85 50
66 90 53
69 94 57
64 87 52
68 92 54
70 94 56
66 89 52
65 88 52
113 131 126
128 145 147
122 139 136
104 122 112
81 103 78
67 91 54
68 92 55
63 86 51
61 84 48
66 90 53
68 92 55
62 84 49
66 90 54
62 85 50
67 91 54
60 82 47
58 80 46
62 84 49
117 134 128
125 142 143
132 146 148
110 127 121
95 113 100
75 94 72
123 139 139
128 142 147
134 149 150
116 131 128
128 143 145
135 148 150
130 145 144
143 158 163
134 149 151
136 151 153
130 144 145
128 141 144
117 132 129
62 84 50
66 89 53
62 84 49
61 83 48
63 86 51
62 84 50
61 84 49
60 83 48
61 84 49
56 77 44
84 101 87
84 99 89
88 105 94
113 128 125
117 131 133
118 131 128
118 134 133
120 135 137
108 123 117
66 90 53
59 80 48
51 71 40
58 81 47
55 77 44
61 84 49
60 82 49
55 75 43
59 81 47
56 77 44
55 76 44
56 77 45
58 80 47
61 83 49
57 78 45
53 74 42
56 77 44
54 74 42
92 107 98
123 137 140
112 126 125
126 140 140
118 131 134
114 128 127
124 138 139
112 127 126
130 145 148
122 135 137
114 129 128
97 112 104
100 115 111
90 107 94
77 93 80
67 89 56
60 83 49
58 80 46
55 75 43
94 110 100
127 142 143
130 144 148
127 141 143
129 145 149
112 126 127
124 138 138
122 137 137
116 129 129
108 123 121
112 127 124
125 140 139
131 145 149
116 131 131
120 134 136
109 123 119
121 135 138
133 148 152
118 132 130
60 76 58
57 79 46
60 82 48
54 74 43
53 74 42
52 72 40
55 76 44
61 84 48
55 76 44
61 83 49
57 78 45
64 87 52
48 67 36
53 74 42
57 78 45
54 75 43
57 78 45
57 78 46
93 108 99
121 135 133
122 135 137
117 131 130
127 141 142
123 136 142
129 143 146
118 134 131
124 139 138
126 139 144
113 127 125
127 141 145
122 137 140
125 139 143
124 138 141
125 140 141
118 131 132
119 134 134
92 108 101
57 79 46
59 80 47
57 78 45
52 72 41
56 76 43
58 80 46
59 81 47
59 81 47
54 74 42
54 75 43
57 77 46
57 78 45
56 77 44
54 75 43
56 78 45
58 79 46
64 82 58
122 136 138
127 140 144
128 143 144
115 130 127
127 143 144
118 132 132
131 144 148
132 146 151
116 131 130
116 130 129
112 126 125
122 136 137
123 136 136
128 142 146
113 127 128
124 139 141
116 132 128
62 82 54
52 73 41
57 78 45
54 75 42
57 78 45
61 84 49
62 85 49
58 79 46
67 91 54
61 83 48
56 77 44
54 75 42
56 77 45
57 78 45
63 85 49
66 86 60
125 141 141
119 134 132
115 131 127
125 140 139
131 146 146
128 144 146
123 138 138
115 130 128
131 146 147
122 137 136
120 136 135
129 144 145
134 150 154
128 142 142
127 143 145
104 122 110
60 82 47
65 87 54
83 103 81
92 110 97
115 133 127
120 135 135
140 155 160
124 140 137
131 146 150
132 147 148
144 159 165
127 143 143
132 147 151
118 135 132
71 94 66
59 82 48
66 89 52
63 86 50
60 83 49
62 85 49
69 93 55
58 80 47
64 87 51
62 85 49
62 84 49
61 82 51
79 100 74
76 97 71
112 129 123
94 113 102
77 99 70
64 88 51
61 84 50
63 87 51
68 92 55
68 93 55
69 93 56
70 95 57
69 94 56
87 110 85
137 153 157
136 153 156
136 152 153
145 159 163
132 148 149
139 154 156
141 156 162
147 161 166
144 160 166
150 166 171
138 155 159
130 147 145
127 144 143
143 160 163
140 156 161
151 167 176
138 154 158
157 174 184
141 156 162
140 156 156
120 136 132
83 109 72
72 96 60
85 107 82
110 129 117
148 166 174
158 175 183
157 173 180
125 143 140
90 114 87
69 94 55
102 124 103
117 137 129
79 104 72
95 117 94
142 159 159
136 154 155
96 117 97
137 154 145
204 217 227
228 239 255
228 239 255
228 239 255
228 239 255
228 239 255
228 239 255
228 239 255
228 239 255
228 239 255
228 239 255
228 239 255
228 239 255
228 239 255
228 239 255
228 239 255
228 239 255
228 239 255
228 239 255
228 239 255
228 239 255
228 239 255
228 239 255
228 239 255
228 239 255
228 239 255
228 239 255
228 239 255
228 239 255
228 239 255
228 239 255
228 239 255
228 239 255
228 239 255
228 239 255
228 239 255
228 239 255
228 239 255
228 239 255
228 239 255
228 239 255
228 239 255
228 239 255
228 239 255
228 239 255
228 239 255
228 239 255
228 239 255
228 239 255
228 239 255
228 239 255
197 210 223
154 170 170
96 119 98
117 138 130
147 165 170
155 172 180
120 140 133
141 160 164
81 104 77
74 101 61
77 102 67
106 126 115
130 147 144
161 177 189
158 174 182
151 168 173
148 164 168
138 156 160
126 142 140
89 111 87
67 91 54
137 154 155
150 166 173
153 169 179
154 170 176
155 171 180
146 162 169
133 149 149
100 119 106
74 98 65
68 92 55
66 91 53
70 95 57
65 89 53
68 93 56
66 89 53
63 87 50
78 101 70
140 156 158
117 137 129
85 105 83
68 91 58
72 97 59
70 95 56
68 93 56
69 93 55
67 91 54
70 95 56
68 92 55
68 92 55
71 96 59
63 86 51
62 85 50
89 110 86
97 116 99
101 120 108
66 89 56
70 95 57
69 95 57
63 86 51
62 85 49
64 87 50
62 84 49
56 77 45
62 85 50
67 90 53
62 84 49
60 82 48
67 91 54
62 84 50
64 87 51
64 87 51
69 90 63
104 122 111
86 104 93
71 92 64
63 86 50
67 90 54
65 88 51
56 77 44
67 90 57
88 108 89
99 116 107
115 131 130
129 143 143
126 141 142
138 152 154
139 154 158
147 161 167
130 145 146
141 155 160
126 141 142
85 101 91
57 79 45
59 82 47
61 83 50
58 81 46
60 81 48
81 100 83
106 122 115
111 126 122
117 133 131
132 147 150
123 137 139
130 145 148
123 137 137
135 149 151
124 139 139
136 151 152
127 141 145
121 136 136
64 84 56
62 83 49
65 87 52
62 84 49
59 81 47
58 79 45
61 83 49
63 85 50
59 81 47
56 77 45
56 76 44
63 85 50
63 85 51
62 83 49
58 80 47
65 88 52
62 84 49
54 75 43
70 90 63
117 130 131
127 141 142
127 141 145
109 125 119
105 120 115
92 111 96
95 113 101
65 84 57
60 81 51
67 91 54
57 79 44
59 80 47
54 75 43
60 82 48
61 83 49
56 77 44
57 78 45
52 72 41
76 96 75
115 129 128
128 142 146
124 137 141
119 135 133
125 139 141
127 141 145
111 124 126
116 132 126
114 128 126
126 141 143
125 139 143
117 133 131
124 139 139
117 131 130
111 124 125
127 140 144
120 135 137
107 121 118
101 117 110
59 80 47
58 79 46
55 76 43
53 74 41
60 81 47
51 70 39
52 71 42
58 80 47
61 84 49
55 75 43
51 71 40
55 76 44
51 71 40
59 81 46
61 83 49
58 79 46
62 84 50
58 79 46
113 126 124
132 146 148
122 136 136
115 129 129
116 129 128
108 122 119
137 152 156
113 128 128
129 142 145
122 137 137
114 127 127
129 143 146
126 142 143
118 133 134
116 131 128
120 135 137
106 121 117
98 114 103
75 94 72
85 102 89
67 84 66
82 100 84
92 109 99
86 103 90
76 92 78
95 111 103
105 120 116
97 113 105
114 129 123
117 132 130
110 124 120
115 130 128
107 122 118
101 116 113
108 124 118
106 120 115
82 100 86
82 99 82
87 105 87
71 89 67
76 93 74
68 88 65
73 91 71
77 95 75
70 87 70
73 92 70
81 100 81
90 107 94
73 92 73
73 91 72
73 92 71
78 95 80
72 91 71
117 133 131
103 120 114
116 131 126
100 116 108
100 115 107
112 129 123
106 122 117
95 114 101
90 108 96
88 104 95
90 108 93
87 105 89
82 98 85
75 94 73
69 88 65
90 109 93
130 145 149
138 153 157
132 146 149
129 144 147
121 135 134
138 153 157
143 158 162
136 152 154
129 144 142
129 143 145
134 149 153
132 147 148
121 137 134
106 123 116
93 110 102
95 113 103
132 147 151
126 141 142
129 144 145
122 137 135
133 149 152
119 135 134
129 144 147
133 147 153
134 150 155
129 144 148
121 136 134
131 147 149
134 149 151
128 144 146
77 98 75
65 88 52
68 92 55
62 85 50
62 85 50
64 86 51
67 91 54
64 87 52
67 90 53
63 86 51
61 84 48
66 90 54
62 85 49
114 132 120
139 154 157
144 160 165
142 158 161
122 138 136
123 138 140
105 123 113
93 113 97
72 93 68
62 85 50
64 88 52
66 91 54
92 111 95
136 151 155
141 156 161
140 156 160
144 161 166
155 169 176
147 161 165
152 168 176
143 158 165
146 163 168
147 163 168
138 154 157
97 116 105
68 92 57
92 112 93
114 133 126
135 152 153
149 165 170
150 166 173
143 158 161
148 164 169
132 149 151
90 112 90
72 97 58
72 98 59
72 98 59
85 109 81
106 125 113
143 159 161
148 165 170
105 125 114
74 101 61
76 102 63
91 112 90
130 149 143
106 127 112
125 144 140
148 166 171
139 156 157
112 132 117
133 152 142
198 211 224
225 236 252
228 239 255
228 239 255
228 239 255
228 239 255
228 239 255
228 239 255
228 239 255
228 239 255
228 239 255
228 239 255
228 239 255
228 239 255
228 239 255
228 239 255
228 239 255
228 239 255
228 239 255
228 239 255
228 239 255
228 239 255
228 239 255
228 239 255
228 239 255
228 239 255
228 239 255
228 239 255
228 239 255
228 239 255
228 239 255
228 239 255
228 239 255
228 239 255
228 239 255
228 239 255
228 239 255
228 239 255
228 239 255
228 239 255
228 239 255
228 239 255
228 239 255
228 239 255
228 239 255
228 239 255
221 232 248
189 203 212
113 132 119
104 126 108
140 159 161
161 177 186
151 168 172
119 138 131
90 113 90
156 173 183
99 121 102
85 108 84
122 141 136
155 172 180
151 168 172
165 182 194
153 169 176
154 170 177
143 160 159
99 119 103
77 102 71
67 92 55
68 92 54
77 103 63
125 143 142
150 166 175
147 163 167
116 135 129
89 109 93
77 100 69
66 91 53
72 98 59
68 93 55
67 92 55
67 91 54
66 90 53
68 92 53
67 91 54
69 91 62
102 121 109
125 142 137
68 92 55
67 92 55
68 93 54
70 96 57
66 91 54
67 91 54
65 89 52
68 92 55
69 93 55
72 98 59
65 89 52
65 89 53
89 108 90
98 114 106
129 145 147
146 159 163
149 164 170
101 120 107
67 91 54
64 87 51
63 86 50
63 85 50
58 80 46
62 85 50
67 91 54
61 84 50
60 82 47
62 85 48
69 93 55
61 83 48
71 93 59
93 114 95
107 124 114
130 146 146
130 145 149
130 146 146
67 91 54
67 90 53
61 84 49
66 89 52
65 88 53
60 82 49
67 91 54
64 87 51
61 84 48
61 83 48
62 86 50
77 99 69
84 102 86
89 107 93
111 127 120
123 137 138
123 140 143
121 137 135
99 116 105
79 99 78
102 118 113
114 129 129
120 136 131
135 150 154
127 142 143
129 144 147
137 153 157
134 149 153
132 147 144
127 142 145
125 139 142
130 146 144
123 136 137
136 150 156
126 140 140
127 142 146
139 154 162
78 98 75
57 77 46
63 84 50
63 86 52
58 80 46
63 85 50
63 85 50
56 78 44
58 80 46
57 78 44
51 71 40
62 84 49
63 86 51
57 79 45
57 79 46
55 76 43
83 101 82
84 102 87
101 116 111
93 109 99
83 102 82
62 82 52
57 78 45
50 70 40
52 73 40
57 79 46
56 77 45
62 85 50
63 86 51
62 84 49
59 81 47
54 74 42
65 88 52
59 79 46
60 82 48
64 86 51
62 85 50
62 83 49
118 133 131
119 134 135
136 149 155
115 129 127
117 132 130
134 149 154
114 128 126
117 132 134
134 149 154
128 143 145
130 144 149
112 127 124
124 138 139
119 132 131
119 135 132
120 135 136
128 142 142
115 129 129
126 140 145
67 84 64
56 77 44
51 71 40
58 79 45
55 76 43
58 79 46
54 74 41
62 84 48
50 70 40
63 86 51
65 87 51
59 81 47
60 83 49
55 75 43
58 80 46
60 82 49
55 77 44
68 88 63
86 102 90
116 132 133
119 134 135
99 115 105
98 112 104
97 114 102
89 105 92
89 106 93
84 101 85
72 90 70
75 93 76
59 80 50
68 89 63
57 78 45
67 90 54
58 79 46
58 79 46
57 78 45
63 82 57
121 135 136
115 128 128
125 140 140
120 136 135
116 130 132
119 135 132
121 136 137
133 148 147
122 136 138
136 151 154
127 142 146
139 152 159
127 141 144
130 145 148
110 124 124
110 125 122
128 143 144
89 107 91
60 83 48
60 82 48
61 84 49
60 81 48
59 81 46
56 77 45
57 79 46
52 72 40
63 85 50
55 76 43
58 81 46
63 86 50
62 84 49
65 88 52
62 84 49
57 79 45
118 132 131
124 138 141
132 148 148
141 155 161
128 141 144
112 125 125
130 146 147
129 144 144
146 159 168
143 157 163
132 146 145
127 142 142
123 138 138
117 132 130
124 140 139
132 147 149
109 126 120
69 88 66
68 88 64
71 89 70
69 90 64
78 97 75
102 119 109
110 128 119
139 156 161
124 140 138
106 125 113
93 111 97
93 110 98
73 94 67
67 90 54
69 93 58
125 139 140
140 154 158
130 147 146
119 135 134
154 169 177
136 152 154
127 141 144
125 140 140
121 138 136
134 149 153
138 154 158
141 156 162
128 144 146
135 149 154
120 137 134
67 90 57
65 89 53
63 86 50
63 87 51
69 94 56
62 84 50
59 82 48
67 91 54
63 86 50
63 86 50
69 94 56
66 90 54
64 87 51
98 117 103
132 148 152
136 151 153
141 156 162
133 149 150
144 160 165
146 161 165
134 151 155
138 153 157
116 132 127
98 118 100
111 127 120
91 112 94
136 153 158
149 164 172
148 163 168
146 161 167
147 161 167
140 156 161
146 162 167
142 159 162
152 169 176
148 163 171
146 162 166
106 124 116
69 93 56
67 92 54
70 95 57
75 100 65
105 125 108
120 138 133
137 153 153
144 160 163
145 161 167
119 139 130
69 95 57
78 105 64
74 100 61
70 96 57
77 103 63
76 99 68
119 139 129
113 133 124
75 100 63
71 97 58
94 117 95
159 176 185
160 175 183
133 151 151
147 165 172
168 184 193
161 178 187
141 160 162
152 169 170
199 213 226
224 236 251
228 239 255
228 239 255
228 239 255
228 239 255
228 239 255
228 239 255
228 239 255
228 239 255
228 239 255
228 239 255
228 239 255
228 239 255
228 239 255
228 239 255
228 239 255
228 239 255
228 239 255
228 239 255
228 239 255
228 239 255
228 239 255
228 239 255
228 239 255
228 239 255
228 239 255
228 239 255
228 239 255
228 239 255
228 239 255
228 239 255
228 239 255
228 239 255
228 239 255
228 239 255
228 239 255
228 240 255
228 240 255
228 240 255
228 240 255
228 240 255
211 223 238
173 189 195
103 126 106
117 138 130
141 159 161
167 183 196
145 162 166
88 110 87
76 103 63
70 96 57
95 118 95
146 163 166
135 152 157
155 170 175
154 171 182
150 166 170
153 169 176
149 165 170
114 133 126
91 114 92
69 94 56
69 94 57
68 93 56
68 94 56
70 95 56
66 90 53
146 164 167
123 140 138
88 110 86
69 94 56
73 98 60
72 98 58
63 87 50
70 94 56
69 94 57
67 92 54
68 93 54
73 96 67
102 122 109
128 144 146
149 164 169
149 165 172
157 172 182
69 93 58
71 95 56
72 97 59
69 93 56
69 95 56
66 90 53
63 86 50
64 88 51
66 90 53
89 110 90
106 123 115
137 152 155
128 145 146
126 142 144
142 157 160
144 160 166
141 157 161
125 141 141
63 86 50
69 93 56
62 85 51
66 90 54
62 86 50
66 90 53
64 87 51
67 91 54
65 88 52
71 94 58
95 112 100
113 130 124
133 148 148
139 154 159
136 152 157
126 140 144
145 159 164
131 146 149
65 87 55
61 83 48
66 89 53
59 81 47
63 86 51
65 88 52
61 84 49
61 83 49
59 81 48
61 84 50
62 84 50
65 88 52
65 88 51
59 81 47
55 76 44
73 93 71
104 122 110
118 134 134
116 133 129
109 125 119
113 129 124
122 137 136
129 144 147
135 151 153
134 148 152
128 142 145
129 144 146
134 150 155
136 151 156
133 149 153
136 151 157
137 152 157
140 155 160
125 140 138
121 136 135
123 138 138
120 136 133
121 137 135
63 85 50
64 88 50
60 83 47
56 78 44
63 85 51
55 77 43
67 90 54
65 87 52
63 87 52
65 87 55
83 101 84
93 111 97
111 126 123
116 130 129
132 145 149
116 130 131
131 145 148
122 137 135
123 137 140
58 80 46
63 86 51
60 83 48
64 87 52
56 77 44
55 75 43
63 84 51
63 87 51
54 75 43
60 82 49
54 74 43
57 78 45
64 87 51
52 73 41
59 80 47
58 78 47
61 83 48
57 78 45
88 107 92
109 124 120
127 143 146
122 137 137
137 152 156
125 140 141
129 144 145
119 133 132
131 146 149
134 149 152
124 138 141
112 127 129
131 146 146
116 130 133
127 143 142
118 132 130
125 138 139
127 141 143
112 127 123
112 127 125
59 81 48
57 78 45
57 78 44
55 75 42
57 78 45
52 72 41
60 80 51
86 104 88
90 107 92
95 111 103
100 119 107
103 119 114
103 119 114
104 119 112
127 142 143
120 134 134
123 137 139
132 146 149
87 106 88
62 84 49
62 84 50
58 80 46
60 82 48
55 77 44
59 81 47
56 76 44
58 79 47
59 82 47
61 84 49
61 84 49
62 84 50
55 76 44
55 76 42
68 91 55
61 83 48
64 87 52
103 120 108
117 132 129
122 137 136
123 139 138
132 147 150
140 154 158
118 133 132
129 143 146
116 131 131
120 135 136
127 142 146
114 130 125
123 138 136
130 146 147
130 145 149
131 145 147
121 136 134
125 140 140
67 88 59
61 83 48
57 78 44
58 80 46
60 82 48
55 76 44
61 84 47
57 78 46
60 81 47
59 80 47
59 81 46
61 84 49
63 85 49
65 88 52
59 80 47
62 84 48
70 92 64
118 135 128
135 150 152
115 130 129
132 149 149
126 140 143
140 155 159
125 140 138
127 142 146
117 131 131
133 148 148
129 144 145
130 145 146
116 131 129
125 139 142
135 150 154
140 156 160
86 104 90
84 105 83
107 123 114
115 130 128
120 136 133
116 133 130
131 146 150
122 137 135
126 142 144
133 148 150
135 149 154
123 139 137
143 157 161
122 136 139
126 141 143
121 137 135
97 114 102
100 119 104
87 106 88
109 127 118
122 137 132
113 130 125
114 129 127
129 145 146
130 144 148
131 146 147
135 150 154
128 142 144
139 154 157
123 139 138
116 133 129
60 83 48
67 91 54
63 87 51
69 93 55
63 86 50
65 89 52
69 94 56
63 87 50
56 78 44
60 84 48
62 85 49
64 87 51
65 89 52
112 131 124
135 151 154
147 163 170
142 157 162
138 154 159
134 151 151
149 164 172
130 146 148
142 158 165
145 161 166
150 165 172
139 156 158
144 160 167
116 135 129
96 115 101
127 143 140
134 150 152
144 160 167
150 164 173
148 165 169
152 167 175
144 161 165
142 157 162
129 146 144
122 138 135
71 96 57
70 95 56
71 96 57
74 99 60
70 95 57
69 95 57
77 101 69
101 120 106
119 136 129
120 139 131
68 94 56
73 98 58
71 96 57
69 94 56
77 103 63
73 99 60
71 96 57
79 105 67
111 131 119
111 130 117
127 146 140
162 178 190
155 170 179
157 174 181
153 171 178
138 157 158
133 152 154
163 180 188
158 175 181
156 173 179
186 202 214
219 231 245
228 240 255
228 240 255
228 240 255
228 239 255
228 240 255
228 239 255
228 239 255
228 239 255
228 239 255
228 239 255
228 239 255
228 239 255
228 239 255
228 239 255
228 239 255
228 239 255
228 239 255
228 239 255
228 239 255
228 240 255
228 240 255
228 240 255
228 240 255
228 240 255
228 240 255
228 240 255
228 240 255
228 240 255
228 240 255
228 240 255
228 240 255
228 240 255
228 240 255
228 240 255
228 240 255
228 240 255
201 214 227
152 169 167
104 126 109
123 142 135
160 178 191
162 181 192
128 147 142
95 118 95
74 102 62
77 104 63
86 110 80
128 148 146
127 146 143
154 171 178
153 171 179
151 168 176
163 178 187
133 152 153
100 120 106
76 102 65
72 97 58
74 101 61
73 98 60
77 104 64
71 97 59
84 110 76
106 125 118
135 152 152
89 111 88
70 95 56
71 98 59
67 91 54
71 97 58
70 96 57
66 90 53
71 96 57
71 96 57
99 119 104
126 144 140
153 170 178
146 162 168
151 166 173
140 156 161
144 160 163
135 152 152
73 95 67
74 100 61
68 93 55
66 90 54
74 100 61
68 93 55
77 97 75
105 122 114
143 159 163
140 156 158
155 170 178
152 167 174
136 151 155
141 157 160
140 156 159
150 166 172
133 148 147
136 152 153
63 86 49
63 86 51
61 84 48
68 93 55
67 91 54
65 87 55
89 108 89
105 123 114
131 147 147
130 146 145
142 158 163
132 147 148
129 145 147
135 151 152
123 139 137
141 156 161
132 148 149
138 153 158
83 102 82
66 90 54
60 83 47
63 87 50
63 86 50
60 83 48
64 87 52
61 83 48
58 79 46
63 85 50
63 86 51
77 97 73
99 117 105
118 134 130
129 145 144
129 144 146
137 150 152
123 138 138
123 138 139
75 94 70
61 84 49
62 84 49
64 87 55
70 91 64
88 106 91
95 112 99
112 126 123
114 130 127
121 135 134
127 142 142
130 145 150
117 131 131
143 158 164
122 137 134
131 146 149
132 147 149
131 146 147
116 131 132
71 91 68
57 78 45
65 89 52
58 79 46
68 90 56
79 96 83
97 114 104
127 142 140
118 133 132
130 144 145
130 145 146
125 139 140
123 138 140
136 151 153
125 142 141
137 150 155
132 144 149
123 138 140
127 141 145
75 96 70
59 82 47
59 82 48
61 84 49
58 80 46
56 78 44
62 84 49
58 80 47
64 87 51
59 81 47
60 82 47
59 80 47
53 74 41
54 75 42
60 82 48
57 79 45
64 88 52
56 78 45
62 84 49
105 119 117
131 145 147
126 140 142
130 145 149
136 151 155
129 144 144
134 148 152
131 146 151
126 141 142
137 151 154
119 133 135
131 146 149
121 134 134
126 141 142
131 145 148
108 122 119
118 133 131
105 120 115
103 117 112
95 113 103
116 131 131
101 117 107
112 127 123
115 130 129
128 141 143
132 145 151
122 138 135
118 132 132
123 137 136
112 126 124
123 137 139
125 140 140
128 143 146
127 141 141
123 137 137
132 146 150
129 144 144
116 132 129
60 82 48
54 74 42
61 84 48
59 80 46
61 83 48
57 78 45
59 81 48
63 85 50
61 84 49
64 88 52
59 80 46
59 80 48
66 89 53
63 86 50
60 82 47
65 88 52
57 79 45
69 88 66
116 130 128
136 151 155
145 159 166
124 139 137
118 132 132
135 149 149
136 152 154
127 142 146
124 140 138
112 126 124
127 143 145
124 138 140
142 155 162
127 142 141
126 140 141
126 143 143
136 150 155
102 118 115
59 81 48
57 78 45
64 87 52
54 76 43
64 87 51
59 81 47
63 85 50
63 85 51
59 82 48
58 80 45
60 82 47
57 79 45
58 79 45
60 82 48
60 83 48
56 78 44
60 80 54
126 141 143
119 134 132
141 155 159
126 141 140
135 150 152
140 154 158
112 128 126
131 147 149
129 145 146
110 127 122
95 111 101
89 108 91
87 105 92
65 85 60
60 82 47
66 89 59
111 126 123
126 142 143
132 149 151
137 153 155
134 148 153
133 148 150
137 151 157
122 138 138
137 153 154
121 137 135
140 154 158
137 152 155
137 151 155
132 148 150
148 164 171
127 142 145
71 93 61
60 83 48
63 86 51
69 93 55
65 89 53
60 82 47
64 87 52
72 94 62
81 102 80
93 111 99
104 121 115
118 134 132
124 142 140
119 135 133
117 134 127
70 94 59
66 90 53
62 85 49
63 87 51
64 88 51
69 93 55
66 91 54
63 87 51
61 85 49
65 89 52
67 92 54
67 92 54
68 92 55
103 120 110
131 147 149
132 148 149
145 161 164
147 163 171
144 159 166
145 161 165
136 152 156
140 155 160
148 165 172
142 157 160
148 164 171
146 162 168
87 110 87
71 96 58
64 88 51
77 99 70
102 122 107
125 142 141
133 151 151
145 161 166
152 167 173
158 173 186
141 156 161
121 140 138
78 101 70
69 94 56
71 96 57
69 94 56
71 95 56
69 95 57
72 98 59
61 85 48
69 94 56
82 106 77
115 134 127
103 125 109
82 106 73
71 97 58
71 96 58
72 97 57
74 100 61
66 91 53
118 135 129
158 174 183
109 130 116
127 146 142
162 178 187
171 187 200
156 172 179
130 149 144
97 119 95
130 149 143
152 169 176
166 183 196
150 168 174
171 187 195
207 220 235
227 238 254
228 240 255
228 240 255
228 240 255
228 240 255
228 240 255
228 240 255
228 240 255
228 240 255
228 240 255
228 240 255
228 240 255
228 240 255
228 240 255
228 240 255
228 240 255
228 240 255
228 240 255
228 240 255
228 240 255
228 240 255
228 240 255
228 240 255
228 240 255
228 240 255
228 240 255
228 240 255
228 240 255
228 240 255
228 240 255
228 240 255
226 238 253
187 201 208
129 149 135
109 130 115
134 152 151
160 177 187
139 156 157
120 140 134
85 110 78
76 103 63
72 98 59
106 128 111
142 158 160
157 174 181
163 179 187
141 158 161
151 169 175
143 160 163
124 142 140
83 107 76
74 101 61
73 99 59
71 96 58
72 98 60
73 99 59
71 97 58
93 114 99
123 139 137
144 162 166
144 162 168
148 164 169
94 115 97
66 91 53
70 96 57
71 97 58
73 99 59
67 90 55
98 116 101
115 134 124
146 163 171
143 159 166
145 161 165
154 169 176
154 168 178
144 160 167
147 164 170
147 163 169
134 150 148
74 96 69
63 88 51
77 101 67
95 115 97
118 134 133
143 158 159
140 156 161
148 164 171
133 149 150
142 160 161
135 151 152
142 157 161
132 148 148
135 150 150
143 160 166
156 171 178
155 170 180
145 161 166
67 91 56
66 90 54
69 91 61
110 129 119
124 139 138
129 144 144
136 151 156
133 149 150
146 162 166
137 152 155
138 154 157
144 159 165
143 158 164
136 151 151
140 155 159
128 144 143
144 158 163
131 147 149
117 135 128
65 89 53
63 85 51
66 90 53
65 89 52
58 80 47
57 80 46
84 104 80
92 110 94
116 133 129
125 140 139
128 144 146
132 147 152
150 164 169
129 144 145
145 161 165
134 150 150
133 148 151
141 155 160
104 120 113
66 90 53
64 87 51
68 91 54
62 84 49
65 88 52
61 84 49
66 89 53
68 91 54
56 76 43
61 84 49
74 96 66
86 104 89
87 106 88
107 123 115
110 128 120
118 134 132
125 140 139
114 130 131
101 119 111
102 117 111
124 141 137
116 131 131
125 139 139
132 146 148
134 148 155
142 156 164
136 152 156
132 147 150
144 159 164
127 141 143
134 148 148
131 146 148
132 146 150
133 148 152
131 147 147
129 144 146
116 131 127
112 128 122
59 80 46
60 82 47
58 80 46
54 74 42
54 75 42
59 81 47
58 80 46
59 82 47
62 85 50
59 82 47
61 83 49
61 84 49
54 76 42
57 79 45
55 74 42
62 83 50
60 82 48
57 79 46
84 102 89
128 143 145
133 148 149
131 145 148
133 148 150
129 144 146
133 148 150
126 141 141
108 124 120
105 122 113
106 122 113
94 111 101
81 99 80
72 93 64
76 96 73
60 82 48
69 94 56
58 79 47
61 83 48
89 108 94
124 139 139
130 145 144
124 138 140
127 142 144
129 144 146
129 145 147
124 139 141
132 148 149
112 127 125
131 146 149
126 142 141
119 134 133
121 135 136
117 131 132
121 136 136
121 136 136
128 143 144
132 146 150
89 107 91
57 79 45
58 79 46
53 73 42
59 82 48
61 84 49
57 79 46
63 85 49
63 86 50
65 88 52
62 84 50
64 87 52
63 85 50
58 80 46
66 89 54
58 80 46
62 85 50
63 86 51
90 106 96
123 138 140
116 130 128
118 134 132
122 136 136
120 135 134
134 149 149
131 145 150
119 134 134
126 140 140
125 141 142
122 137 137
129 143 146
122 137 139
127 142 143
119 133 134
119 135 134
126 140 140
92 109 94
66 89 53
64 87 51
61 83 49
59 82 47
57 78 45
58 79 47
59 81 48
61 83 49
56 78 44
60 82 48
61 83 49
59 81 47
62 85 49
65 88 52
60 82 48
64 85 53
117 134 127
110 125 123
106 124 113
97 112 102
91 109 95
86 107 87
84 103 87
61 84 49
62 85 48
64 86 50
62 85 49
67 91 54
56 77 44
66 89 53
63 86 51
57 79 45
70 91 64
127 143 143
121 136 135
128 143 145
140 154 156
145 160 165
140 156 158
137 152 154
137 153 157
127 142 144
126 141 142
125 141 140
148 163 170
133 148 150
143 159 163
132 148 151
119 135 135
59 80 50
59 81 46
67 90 53
65 88 51
59 81 47
64 86 50
65 89 52
64 87 51
68 92 55
68 92 54
64 87 51
62 85 50
63 86 50
70 94 56
109 127 118
137 153 156
131 145 146
107 126 113
105 122 111
97 115 104
79 99 75
66 88 58
63 87 50
71 96 58
66 91 53
63 87 50
67 92 54
62 86 51
120 138 133
145 160 165
126 143 140
138 154 154
136 152 153
142 159 165
140 155 158
142 159 160
140 155 161
139 155 159
141 157 158
145 161 167
134 151 151
98 118 97
72 98 59
70 95 56
66 91 54
72 98 59
71 96 58
72 95 63
90 113 90
101 120 107
131 148 146
143 160 165
137 153 155
75 98 67
69 94 54
72 97 58
67 92 55
72 98 58
72 97 58
70 95 57
73 99 59
71 97 58
83 107 78
134 152 152
149 165 170
135 152 154
109 128 115
89 111 90
72 98 59
70 95 58
74 100 61
88 111 86
120 140 134
79 106 65
69 95 57
106 128 115
113 133 124
147 164 167
156 172 180
90 113 88
77 104 64
108 130 118
139 157 158
149 168 174
125 145 140
159 174 179
198 212 225
227 239 255
228 240 255
228 240 255
228 240 255
228 240 255
228 240 255
228 240 255
228 240 255
228 240 255
228 240 255
228 240 255
228 240 255
228 240 255
228 240 255
228 240 255
228 240 255
228 240 255
228 240 255
228 240 255
228 240 255
228 240 255
228 240 255
228 240 255
228 240 255
228 240 255
228 240 255
228 240 255
222 233 248
191 205 215
159 176 182
156 174 182
149 168 175
165 183 195
137 155 155
109 129 114
74 101 60
76 102 62
96 119 98
109 130 117
158 175 186
164 180 190
156 172 184
158 173 182
156 173 183
133 151 149
109 130 115
70 96 57
75 101 62
70 95 57
71 97 58
74 100 61
75 102 62
84 108 74
111 130 121
153 170 178
159 175 187
152 169 177
139 154 158
151 168 176
151 167 171
71 95 59
69 95 56
72 98 59
91 113 91
112 130 121
131 149 150
150 166 172
146 163 168
159 174 185
144 160 166
142 159 162
152 167 173
151 167 171
146 161 168
145 161 165
151 167 174
139 155 158
104 124 110
130 147 149
143 160 163
134 149 147
151 166 172
139 154 157
149 163 168
157 172 182
146 162 168
133 149 151
151 165 172
137 153 156
147 162 171
155 170 180
138 155 158
139 155 158
149 165 170
126 142 141
106 124 117
132 148 149
143 158 165
138 153 158
132 148 150
129 145 146
133 148 148
132 147 147
132 147 148
139 155 160
136 151 155
132 147 149
135 151 154
138 154 158
144 159 166
124 139 138
148 162 169
145 159 164
117 134 127
67 91 54
64 87 51
72 95 64
99 120 105
112 129 121
134 151 150
137 152 157
126 140 140
136 151 156
111 128 124
136 151 153
123 138 137
138 152 158
146 160 167
126 141 140
134 149 154
128 143 143
140 154 161
110 127 123
60 82 48
68 92 56
65 89 52
61 84 48
66 90 54
66 90 53
57 80 45
63 86 50
61 84 48
60 81 47
60 82 48
69 93 55
61 84 48
68 87 64
85 105 84
114 130 126
110 125 122
139 155 159
119 135 136
90 108 89
88 106 93
89 107 93
104 122 112
108 124 117
100 117 109
117 133 130
121 136 136
139 154 157
134 149 153
122 137 137
115 130 128
136 149 157
123 139 139
127 142 145
129 143 144
120 134 135
134 149 152
127 142 143
69 92 60
62 83 50
60 82 48
57 79 46
60 82 48
63 86 51
62 85 50
59 82 47
62 86 50
54 74 42
64 87 51
62 85 50
59 81 46
60 83 48
58 80 46
64 87 50
56 78 45
65 88 53
62 84 49
115 130 128
109 124 120
101 119 109
90 107 95
95 110 101
73 92 71
55 76 43
65 88 52
64 86 51
63 85 50
59 81 46
63 86 51
65 88 53
61 84 49
60 81 48
56 78 45
62 84 49
63 86 51
63 86 51
117 133 128
135 150 154
128 144 145
133 148 151
143 158 162
118 133 132
146 160 167
131 146 150
127 141 143
128 143 144
134 149 153
133 147 148
126 142 144
123 137 138
116 133 126
130 144 146
136 150 155
118 132 133
118 134 135
69 91 61
58 81 46
63 86 51
56 77 45
61 84 49
62 84 50
64 87 53
61 83 49
56 77 44
57 78 45
61 83 49
67 91 54
63 86 50
62 86 50
60 81 47
57 78 46
58 80 46
54 75 42
113 129 125
130 146 145
127 142 142
126 141 141
136 151 155
126 140 143
128 143 144
141 156 162
125 139 141
136 150 155
132 148 149
120 135 135
129 145 145
123 137 139
130 146 151
119 133 134
120 135 135
117 131 129
76 97 71
62 85 50
56 77 45
59 81 47
58 81 48
60 82 48
80 100 74
73 91 68
81 98 79
100 117 107
93 111 98
112 128 119
116 132 129
120 135 133
123 137 135
124 139 138
135 150 150
90 109 95
63 87 52
56 78 45
58 80 46
68 93 55
70 94 56
64 87 51
70 95 56
68 91 54
64 87 51
58 79 46
66 90 53
65 88 51
62 85 51
57 79 45
65 88 52
81 100 77
143 159 160
128 143 143
137 152 155
134 149 151
139 154 158
145 159 163
140 156 162
133 148 151
141 155 162
130 145 148
136 151 154
141 156 160
139 154 157
140 156 159
134 149 151
109 127 119
71 96 57
61 84 49
66 89 53
66 90 53
62 84 49
63 85 50
64 87 52
64 87 52
68 92 55
72 97 59
63 87 50
64 86 50
66 90 54
66 90 53
105 124 114
144 160 168
155 170 178
136 152 155
140 157 162
150 165 171
137 151 156
135 151 156
121 138 136
126 143 142
111 129 120
100 120 109
87 107 87
71 94 60
122 140 137
143 158 163
147 163 168
135 151 153
139 155 160
149 164 169
139 155 160
149 165 170
146 162 167
154 170 180
139 154 158
138 154 161
137 153 155
92 112 93
63 87 51
67 92 54
71 97 59
77 104 63
69 94 56
68 93 56
72 98 59
73 98 59
72 98 59
81 102 77
92 112 94
96 117 98
92 112 94
71 96 58
72 98 58
69 94 56
68 93 55
74 99 60
75 101 61
70 96 58
74 101 62
135 153 151
148 164 170
149 165 171
154 172 178
151 167 174
125 146 140
96 118 97
82 107 71
92 116 85
116 137 128
75 101 63
78 106 65
75 102 62
82 107 74
101 121 103
139 158 161
134 153 148
83 108 73
81 109 67
86 112 79
133 153 149
123 143 137
90 115 87
129 147 139
190 203 214
223 235 249
228 240 255
228 240 255
228 240 255
228 240 255
228 240 255
228 240 255
228 240 255
228 240 255
228 240 255
228 240 255
228 240 255
228 240 255
228 240 255
228 240 255
228 240 255
228 240 255
228 240 255
228 240 255
228 240 255
228 240 255
228 240 255
228 240 255
214 227 238
186 201 210
159 177 183
127 146 138
101 124 99
150 168 177
134 153 152
85 110 77
78 105 64
74 100 61
91 112 92
139 157 157
152 169 177
149 167 175
167 183 192
159 175 182
163 180 193
128 146 144
80 104 76
71 97 58
71 97 58
76 102 62
72 98 59
74 100 60
78 102 68
111 130 124
145 164 167
151 168 172
154 170 180
146 162 168
154 170 177
161 177 185
147 164 166
154 170 179
143 160 166
76 99 66
119 137 131
136 152 152
161 176 187
156 173 181
153 170 175
138 154 155
148 164 170
147 163 167
148 164 168
149 165 171
147 163 170
158 174 183
142 159 161
122 139 136
100 120 104
77 99 70
121 138 132
157 173 183
145 161 166
152 168 174
135 152 154
148 164 169
153 168 176
147 162 169
147 162 166
124 139 139
135 150 154
148 164 172
140 156 160
137 152 154
141 156 158
96 114 99
82 103 77
66 90 53
126 143 141
141 157 161
137 153 156
143 158 160
143 158 163
147 163 168
152 167 173
131 147 148
146 162 167
142 158 161
140 155 158
141 156 160
137 152 157
128 143 147
132 148 152
150 165 170
153 168 174
133 148 150
130 146 143
96 115 104
138 155 160
127 142 143
137 151 156
129 144 144
135 149 151
143 157 165
143 158 161
147 162 169
139 154 158
143 158 166
139 153 156
136 151 153
133 149 153
129 145 147
137 153 155
137 152 155
131 146 148
138 154 160
65 89 53
57 79 45
62 84 49
63 86 50
68 92 55
65 88 52
59 81 47
62 86 50
67 89 57
81 101 82
103 119 108
116 132 129
131 145 146
127 142 146
131 143 147
134 149 153
126 141 144
139 154 160
126 140 141
64 86 53
56 77 45
70 94 57
66 90 53
71 96 58
63 86 50
63 86 50
67 91 54
64 87 52
68 91 58
64 86 53
75 96 69
90 109 94
95 112 104
97 115 99
97 114 104
104 121 112
103 121 112
110 124 120
87 106 89
65 87 54
68 90 56
63 85 51
64 87 52
65 88 52
55 77 44
58 79 46
62 85 50
63 86 50
64 87 51
63 87 50
66 87 61
85 103 88
85 102 86
110 124 119
115 130 128
122 138 138
127 142 142
108 124 117
60 82 48
60 83 48
64 87 51
62 84 50
61 84 49
66 89 53
65 89 53
64 87 51
64 88 52
61 83 49
61 83 49
55 77 42
54 74 42
61 84 49
61 83 49
54 74 42
68 92 55
65 90 53
88 106 92
131 145 149
131 147 148
128 145 144
124 139 142
132 147 149
137 152 156
118 133 132
129 143 146
120 134 136
133 148 151
126 141 140
127 141 144
125 138 142
135 149 152
129 145 144
136 150 151
125 141 141
121 135 133
99 116 107
58 80 46
55 76 43
62 84 50
61 84 48
64 87 51
64 86 51
56 76 44
59 81 46
61 83 48
64 86 50
61 83 48
57 79 45
59 80 46
63 86 50
58 80 47
62 85 49
56 78 45
74 93 71
130 145 148
141 156 160
120 133 131
128 143 142
143 158 163
132 147 150
128 143 141
136 151 154
124 140 140
133 149 152
118 134 131
115 129 127
122 138 136
109 126 119
110 126 122
99 117 106
90 106 95
86 104 90
132 148 151
109 125 118
128 144 143
129 144 146
123 140 140
137 152 156
137 153 155
131 148 151
123 139 139
133 149 151
128 143 142
123 137 139
133 148 153
124 139 135
136 151 154
133 148 153
118 135 128
67 87 61
62 85 50
58 80 45
62 84 49
61 82 48
62 85 49
64 87 51
62 85 50
66 90 54
62 86 51
62 85 50
67 91 54
67 90 54
61 83 48
63 86 51
59 81 47
109 127 116
143 158 162
135 149 153
141 155 158
141 156 160
137 153 156
130 145 147
136 150 156
139 153 162
130 145 146
128 142 146
150 164 171
139 155 158
147 161 170
139 155 159
132 147 149
109 126 118
70 94 56
62 85 50
66 89 53
64 88 52
66 90 53
68 93 55
63 87 50
69 94 56
60 83 48
64 87 51
62 85 49
59 82 47
67 91 53
65 89 52
104 121 110
143 158 162
148 165 170
143 160 164
144 159 163
144 158 163
142 158 164
135 151 152
146 162 171
138 153 154
138 154 158
148 164 171
148 164 169
134 151 153
123 140 136
111 129 124
105 124 111
152 167 176
129 146 147
147 163 167
141 157 164
148 163 170
140 156 157
148 164 169
147 164 172
154 171 179
141 157 164
96 116 100
72 97 58
68 92 55
69 93 55
68 94 57
70 96 57
69 94 56
71 96 56
69 95 56
69 94 55
69 93 55
88 109 86
135 152 155
150 166 173
125 143 138
102 123 109
78 103 71
71 96 58
74 99 61
71 97 59
72 98 59
76 102 63
104 124 110
156 172 178
158 175 183
145 162 167
153 171 178
148 165 171
150 167 173
137 156 155
135 152 151
125 144 139
72 98 59
75 101 62
76 103 62
74 101 61
77 104 64
77 104 64
96 118 100
83 108 79
78 105 64
78 105 64
84 111 71
113 134 121
88 113 84
81 109 69
105 127 111
191 205 213
217 229 242
228 240 255
228 240 255
228 240 255
228 240 255
228 240 255
228 240 255
228 240 255
228 240 255
228 240 255
228 240 255
228 240 255
228 240 255
228 240 255
228 240 255
228 240 255
228 240 255
228 240 255
228 240 255
222 234 248
185 199 207
151 168 171
126 146 142
88 113 82
94 117 92
103 125 108
89 114 89
73 100 60
75 102 62
114 135 121
134 153 154
152 169 175
165 182 192
164 180 190
158 174 184
152 168 178
110 130 119
79 105 70
73 99 59
96 119 94
75 100 66
72 98 60
71 97 58
89 111 87
122 143 134
145 161 164
157 173 181
159 177 189
148 164 169
151 166 172
156 173 180
150 167 174
143 159 162
155 172 180
126 144 143
96 117 100
155 171 181
146 163 168
153 170 176
137 155 157
149 165 172
148 165 173
155 170 178
152 169 178
159 175 184
155 170 177
145 160 164
132 150 148
103 122 110
86 107 83
64 89 52
68 94 56
69 94 56
130 148 144
154 169 176
149 166 173
151 167 176
144 160 163
150 166 175
147 163 171
136 152 156
140 154 163
141 157 159
135 151 151
116 133 129
103 121 109
72 94 65
63 86 51
68 92 55
68 92 54
64 87 51
124 141 139
148 163 169
155 171 177
145 161 168
149 164 171
137 152 156
144 160 169
135 151 153
140 155 158
141 156 162
149 165 171
149 165 170
134 150 153
146 161 166
124 140 140
118 133 131
85 104 84
65 89 53
69 93 56
130 145 147
139 155 159
147 162 170
142 158 160
134 150 153
134 150 151
140 155 161
145 160 167
142 157 162
132 148 148
123 138 136
147 162 168
132 147 149
138 153 156
135 151 154
124 141 139
133 148 149
137 153 155
141 156 160
77 96 73
60 83 48
62 85 49
68 93 55
70 92 61
84 103 85
111 127 118
124 140 140
132 147 149
137 152 155
131 146 150
137 152 157
131 146 148
137 152 156
139 154 156
134 150 154
144 161 164
135 150 154
138 154 156
92 111 95
58 80 46
65 89 53
63 86 50
56 76 44
62 84 49
63 87 51
64 87 51
59 81 46
61 83 49
63 86 51
61 84 49
65 89 53
60 82 48
65 89 52
62 84 49
63 85 50
63 86 51
63 85 50
86 105 87
141 156 161
126 141 141
122 136 137
109 124 119
129 145 147
117 133 128
94 112 101
99 116 105
68 91 60
75 95 71
95 113 101
97 115 101
112 126 123
110 126 123
120 136 135
112 129 123
103 120 112
107 124 116
122 138 138
68 90 59
80 98 82
68 87 65
68 90 55
75 95 69
67 90 55
64 88 52
65 88 52
56 78 44
60 82 48
62 85 49
60 81 48
63 86 50
65 88 52
59 81 47
64 87 51
65 89 52
62 84 49
58 79 48
114 129 125
138 153 156
126 141 142
131 147 152
129 143 145
130 145 150
131 147 149
130 145 147
129 145 149
133 147 152
139 153 158
143 158 163
127 142 144
129 144 145
134 149 152
138 153 157
111 125 121
121 137 134
131 145 148
65 87 58
53 75 42
60 82 47
62 85 50
58 81 47
58 78 49
71 92 64
70 91 62
65 84 62
80 101 77
66 83 66
89 108 90
86 105 87
79 97 81
99 114 106
92 109 97
108 124 119
109 126 119
118 133 129
79 98 80
91 110 95
80 96 81
86 105 88
84 104 85
70 91 63
66 88 56
68 91 58
65 88 52
62 85 50
65 89 52
54 75 42
61 84 49
61 83 49
55 76 44
64 87 51
61 83 49
110 126 121
133 147 150
133 147 150
139 154 158
124 140 139
131 146 150
118 133 134
129 144 144
141 155 160
132 147 152
131 146 146
130 146 148
127 142 141
130 145 147
131 147 148
134 150 153
142 157 164
114 130 126
64 87 52
62 85 50
64 87 51
62 85 50
64 88 52
60 82 48
63 87 51
65 89 52
64 86 51
61 84 49
58 79 46
66 91 54
59 82 48
58 81 46
64 87 52
67 90 57
113 129 123
138 155 156
139 155 160
139 154 157
130 147 147
133 151 149
132 147 151
147 162 167
130 146 145
121 137 137
137 154 157
119 134 132
134 151 151
137 153 156
141 156 160
125 140 141
93 112 98
67 91 54
54 76 42
64 88 52
69 94 56
63 86 50
62 85 49
68 92 54
66 90 54
67 91 55
72 97 58
71 96 58
64 88 52
64 88 51
64 86 53
125 143 139
137 152 153
139 154 157
130 146 148
142 157 161
150 167 176
149 164 169
140 156 159
144 160 166
133 148 152
144 159 166
149 164 171
151 166 172
140 156 158
95 113 99
67 91 54
64 88 50
71 96 60
85 105 87
94 114 96
131 147 147
129 146 146
150 166 171
150 166 173
151 167 173
142 158 160
141 157 163
113 133 124
71 96 58
70 95 58
69 93 56
70 96 57
68 93 56
73 98 60
72 99 60
71 97 58
72 98 59
67 91 53
81 105 75
146 163 169
154 170 176
154 170 178
145 162 167
133 152 150
131 149 148
110 129 117
84 108 76
70 96 57
74 101 61
107 127 112
145 162 166
158 174 183
155 172 180
153 170 176
153 169 174
160 177 188
75 101 62
89 113 84
85 110 77
94 116 96
78 103 68
74 101 61
77 105 64
70 95 57
78 104 64
80 107 69
116 136 127
127 146 140
94 116 94
80 108 66
78 105 64
81 109 67
102 124 106
86 111 81
109 131 113
164 179 180
221 233 247
228 240 255
228 240 255
228 240 255
228 240 255
228 240 255
228 240 255
228 240 255
228 240 255
228 240 255
228 240 255
228 240 255
228 240 255
228 240 255
229 240 255
209 222 234
186 201 215
156 174 182
112 134 120
76 102 65
101 122 105
136 155 154
154 172 180
90 114 87
83 108 74
120 139 132
152 170 176
153 170 174
164 180 190
162 180 191
154 170 179
145 161 165
103 126 104
73 99 60
71 97 58
76 102 62
78 104 63
109 130 115
85 108 86
106 128 107
130 147 144
163 179 191
149 166 170
162 178 185
160 175 185
155 172 182
147 163 170
170 186 199
161 176 185
149 166 172
110 130 116
76 102 65
72 97 58
69 93 59
163 178 187
159 174 183
159 175 184
153 169 179
139 155 159
155 170 174
149 165 171
149 166 174
134 150 151
116 135 128
85 107 80
70 95 57
72 98 59
72 98 59
71 96 58
68 92 55
67 92 54
112 132 120
151 167 173
144 159 164
133 147 148
152 168 173
150 166 171
148 164 168
142 156 161
123 141 138
94 114 99
80 102 75
69 94 57
71 96 58
69 93 55
66 91 53
66 90 53
66 90 53
68 92 55
97 116 101
137 152 156
145 160 164
138 154 155
141 156 162
142 158 163
140 156 159
151 167 176
133 149 150
137 152 156
137 153 157
124 142 139
99 117 102
84 106 83
67 91 54
67 91 55
66 89 52
65 89 52
66 89 53
116 133 130
139 154 158
135 151 155
140 156 161
142 158 165
135 151 153
140 156 161
134 148 150
149 164 172
136 150 152
139 154 157
130 145 149
137 153 156
139 156 162
139 153 155
127 142 143
136 151 154
142 157 166
129 145 144
103 122 110
109 126 116
123 140 137
133 150 151
142 156 161
136 150 156
129 145 145
136 150 152
132 148 149
145 160 167
150 165 174
137 153 152
136 151 150
149 165 173
126 141 141
135 151 155
129 144 147
119 134 133
131 146 146
119 136 130
65 88 52
68 93 55
62 85 49
65 89 52
64 88 52
63 86 50
65 89 52
63 85 51
67 90 54
58 81 47
59 82 48
66 90 54
68 92 55
69 93 56
62 85 50
62 85 50
59 80 46
65 89 52
60 81 51
117 134 131
109 127 119
117 133 128
86 106 87
63 84 56
64 86 51
64 87 51
63 86 50
66 89 53
59 80 47
66 89 53
60 83 48
64 87 52
62 84 50
62 84 49
60 83 48
68 92 55
66 90 54
63 86 52
99 118 105
128 144 146
136 150 151
121 135 134
134 150 153
141 156 159
121 136 137
116 130 125
126 141 144
131 148 149
127 141 142
119 134 131
126 141 140
122 139 140
116 132 131
107 124 116
127 142 140
117 135 130
130 145 146
111 126 121
81 101 80
87 106 88
78 98 74
90 109 94
80 98 80
91 109 93
78 97 77
73 92 72
82 102 80
77 96 77
80 99 81
76 95 77
69 90 63
93 113 97
81 101 80
75 94 74
64 83 59
60 82 49
105 122 113
131 146 148
131 146 149
112 127 122
120 135 135
133 148 152
133 148 153
135 151 152
125 141 141
129 145 147
119 135 135
129 145 147
133 148 152
130 143 146
125 140 141
129 143 145
125 140 137
138 153 157
114 130 128
83 102 82
85 104 88
95 114 98
91 111 97
102 119 109
99 115 107
90 109 92
103 119 113
111 126 121
115 132 127
115 130 125
120 137 133
116 131 127
100 119 109
124 140 137
114 130 125
133 148 151
121 137 134
92 109 98
88 109 88
81 101 80
77 97 75
76 95 75
86 105 88
88 108 87
73 95 67
77 97 75
71 91 65
85 104 84
78 98 73
73 94 68
87 107 91
92 110 100
88 108 89
74 95 69
95 113 99
108 124 119
116 133 128
106 122 116
118 133 133
113 129 124
110 127 121
116 134 128
92 109 97
115 131 128
111 129 119
102 121 110
91 108 96
99 116 106
89 109 95
79 97 78
83 100 82
127 144 142
135 150 153
148 163 170
136 152 155
134 150 152
141 156 162
134 151 150
138 154 156
136 151 156
138 155 159
146 162 167
144 158 162
144 160 164
141 156 160
129 146 146
143 160 163
83 104 83
68 92 55
63 86 51
64 87 51
65 89 53
70 96 58
63 87 51
68 93 56
70 94 56
64 88 52
59 82 47
69 94 56
64 88 52
64 88 51
72 96 63
136 152 155
129 145 146
146 162 168
147 161 167
141 158 163
141 157 161
144 161 163
145 160 166
150 164 171
151 166 171
154 170 176
139 156 159
147 164 169
141 159 163
90 110 93
64 88 51
75 101 61
70 94 56
71 96 58
70 95 57
66 90 53
73 99 60
83 107 78
88 109 88
113 130 126
121 139 136
133 150 152
97 117 98
65 90 53
66 91 53
72 97 58
68 92 55
70 95 56
68 93 55
68 93 54
71 96 57
71 97 57
73 99 60
83 106 78
131 149 148
153 170 179
156 172 178
149 165 170
156 172 180
144 160 164
150 167 170
144 162 168
136 154 154
102 122 109
92 113 91
151 169 175
155 172 180
149 167 176
145 161 166
140 157 161
73 99 59
74 100 61
76 103 63
79 104 68
133 151 152
136 155 157
108 129 109
78 105 68
73 100 60
76 104 63
76 103 62
100 123 104
146 163 169
154 171 178
122 143 132
86 110 83
73 99 59
115 136 125
121 140 135
103 124 107
88 113 83
142 159 153
213 226 241
228 240 255
228 240 255
228 240 255
228 240 255
228 240 255
228 240 255
229 240 255
229 240 255
229 240 255
229 240 255
218 230 246
191 206 222
145 164 168
115 136 124
81 108 66
121 140 134
146 165 166
161 179 189
161 179 188
142 160 163
125 144 141
158 175 183
163 180 189
159 176 186
149 166 171
160 179 188
116 136 126
79 104 71
72 99 60
73 100 60
69 94 56
74 100 60
70 95 56
99 121 100
110 130 120
130 148 146
161 177 187
158 174 184
161 178 189
157 175 185
153 170 176
157 174 185
153 171 178
154 170 176
127 144 141
84 108 79
74 100 60
71 96 58
69 95 57
72 98 59
78 103 70
146 163 169
151 166 173
145 161 166
143 160 164
158 172 182
151 167 172
126 145 142
93 113 94
69 95 56
72 98 59
64 88 51
68 92 55
68 93 56
69 94 57
69 94 56
71 97 59
72 97 57
126 144 142
141 157 161
136 153 156
142 158 160
145 161 167
121 137 135
96 116 100
68 90 56
72 97 57
72 97 58
68 92 54
74 100 62
69 93 56
67 91 54
63 86 49
70 94 57
68 93 55
69 93 55
104 123 108
134 150 152
142 158 161
152 167 175
154 168 172
150 167 176
151 166 173
140 155 162
108 126 117
101 119 106
69 93 59
67 91 54
64 87 51
62 86 50
68 92 55
69 94 56
72 98 59
67 91 54
64 87 51
113 130 123
133 149 150
140 155 157
143 158 161
144 160 167
145 160 164
153 168 173
129 145 144
140 155 159
136 151 155
153 168 177
135 152 155
133 149 149
142 157 163
138 153 155
128 142 139
110 128 121
99 119 101
77 99 74
94 112 99
134 150 149
146 161 168
139 154 159
148 164 172
134 148 151
144 160 163
148 164 172
130 145 149
135 150 153
129 143 144
134 150 151
125 141 140
136 152 156
141 156 160
143 159 165
139 153 157
148 162 170
134 149 153
143 157 163
70 90 62
64 87 52
62 86 50
65 88 52
61 83 48
62 85 50
57 79 45
65 89 52
62 85 50
61 84 48
59 81 47
71 96 57
65 88 55
69 89 63
91 110 97
117 134 129
119 133 132
131 146 148
139 155 156
111 128 121
65 88 51
63 86 51
63 86 51
65 88 53
59 81 47
67 90 54
62 85 50
64 87 51
63 86 51
67 91 54
67 90 53
62 86 49
67 91 55
60 81 47
64 87 51
63 86 51
68 92 55
63 86 50
74 95 68
131 146 149
129 144 147
128 144 145
139 155 158
135 149 153
139 153 156
131 146 148
141 158 163
129 144 147
139 153 157
148 163 168
130 144 146
133 150 154
128 143 146
121 137 136
136 151 153
127 140 144
148 162 170
128 143 144
70 90 66
67 90 54
61 83 49
59 82 48
66 89 53
63 86 51
61 84 48
60 82 47
60 82 47
70 94 57
60 83 48
60 83 47
58 80 46
64 86 50
61 83 49
61 84 49
64 87 51
63 86 50
68 92 54
130 145 146
124 139 139
125 139 138
135 150 153
117 133 131
111 129 120
101 119 106
100 118 106
92 108 97
82 101 83
81 102 77
79 100 81
79 99 76
69 88 61
68 91 58
71 96 58
65 89 52
65 89 52
103 120 110
131 146 146
147 163 171
130 145 148
143 158 164
138 153 156
126 141 144
142 156 162
137 152 157
128 144 146
137 154 156
137 151 154
134 149 153
140 155 161
137 153 158
134 150 151
135 149 150
139 154 160
105 123 113
63 86 50
63 86 50
60 82 48
65 88 51
68 91 55
66 91 54
65 88 52
62 85 50
65 88 52
63 86 51
62 84 49
66 90 53
57 79 44
69 93 55
71 96 58
67 92 55
63 85 53
138 154 158
137 153 155
147 162 169
140 156 159
143 157 163
130 147 147
139 155 160
140 155 161
135 151 155
135 149 153
147 162 167
137 152 156
132 148 150
135 150 154
144 160 165
148 164 171
129 145 143
67 90 58
70 93 62
71 95 60
73 96 67
75 96 69
81 101 80
94 114 97
105 123 112
100 118 108
124 142 139
130 147 148
118 135 129
120 138 133
119 136 132
138 153 157
123 140 134
74 98 66
63 85 49
63 86 50
70 94 55
68 92 54
63 87 51
62 85 49
63 86 49
70 95 57
60 82 47
69 93 56
67 92 54
69 94 56
67 92 54
78 98 75
134 151 152
145 161 166
150 166 171
135 151 153
141 157 161
143 160 165
140 156 161
134 151 153
144 162 166
144 159 167
153 169 178
148 164 171
148 164 171
139 155 157
81 101 80
66 91 53
71 98 59
69 94 56
66 91 53
67 92 56
70 96 57
67 92 54
69 94 56
70 96 57
66 91 54
69 93 56
76 100 66
103 123 108
120 138 132
109 128 122
89 111 90
75 102 61
69 94 57
71 96 56
63 86 50
69 94 55
74 100 61
67 91 53
68 93 55
133 149 151
144 162 167
146 162 170
156 173 181
148 165 169
155 172 180
147 163 168
160 176 183
152 169 176
153 169 175
146 163 165
141 158 160
146 165 171
156 173 179
116 135 127
73 99 59
76 103 63
71 97 58
75 101 62
73 100 60
125 144 137
151 168 176
160 178 186
142 160 161
120 139 130
77 102 64
75 101 61
78 104 66
136 155 154
157 174 183
167 185 198
120 140 130
113 135 120
86 114 76
141 159 160
149 166 171
124 144 138
97 122 102
172 188 192
217 229 245
229 240 255
229 240 255
229 240 255
229 240 255
229 240 255
229 240 255
217 229 243
182 198 210
140 159 160
107 130 114
79 107 66
114 136 124
160 176 183
169 186 193
166 182 193
146 164 167
113 134 120
135 154 152
160 178 190
161 178 188
161 178 185
147 166 170
116 137 128
75 101 62
80 107 66
77 104 64
76 103 63
75 102 62
72 98 58
110 132 118
137 154 156
145 162 167
105 125 108
86 110 83
158 175 183
156 171 181
168 185 198
145 162 168
154 170 176
143 160 163
115 134 124
74 100 60
75 101 61
74 99 60
71 97 59
70 95 57
69 95 58
73 98 59
86 110 82
157 173 181
152 168 175
156 172 180
137 154 156
91 112 94
68 92 55
71 97 57
71 97 59
72 97 59
70 95 56
72 98 60
71 96 57
69 94 55
72 97 58
63 87 52
73 98 59
71 97 58
118 137 131
144 160 165
127 143 143
103 123 112
74 99 65
64 88 52
68 93 55
68 93 55
73 98 59
68 92 55
67 92 55
69 94 56
68 93 56
68 93 55
70 95 56
72 97 58
64 88 50
69 94 55
80 103 76
156 171 180
141 157 161
137 153 156
114 131 126
107 125 112
90 110 89
63 87 51
63 86 51
70 95 57
66 90 53
72 97 58
70 94 57
70 95 57
69 94 55
62 84 49
66 90 54
65 88 51
71 96 57
95 115 98
147 161 168
142 157 161
138 154 157
132 147 151
138 153 156
137 155 156
142 157 164
145 160 164
135 150 155
143 159 163
133 149 150
117 133 131
91 111 93
76 97 73
66 90 54
70 95 56
68 93 55
65 88 51
72 95 62
135 150 155
138 154 158
129 144 145
130 145 148
134 150 153
143 158 162
139 154 160
132 146 147
124 139 139
148 163 168
137 153 158
132 149 153
134 149 154
132 148 150
140 156 160
137 152 154
138 153 160
138 153 154
141 156 162
107 125 115
64 88 51
62 85 50
60 83 48
64 87 50
64 87 51
65 88 53
63 85 50
85 105 83
86 106 84
116 132 128
109 125 119
127 143 142
136 151 154
127 142 146
143 157 163
136 151 153
129 144 147
130 145 147
111 127 122
60 82 51
64 88 52
64 87 51
63 86 50
65 89 52
58 81 46
68 92 55
60 84 47
65 89 52
70 94 56
67 91 54
63 87 50
64 87 52
63 86 51
66 89 52
64 87 50
70 94 56
65 89 53
61 83 49
115 132 127
141 156 162
144 158 165
132 147 150
140 156 158
142 158 162
122 139 135
130 145 145
151 166 172
133 149 151
145 161 167
131 146 147
129 143 144
143 157 163
132 147 150
116 131 129
124 140 139
127 143 146
137 153 156
94 112 99
63 86 50
59 81 48
68 93 55
63 85 50
66 90 53
62 84 49
60 82 48
62 84 49
75 98 67
83 101 87
101 119 108
96 114 102
108 125 117
105 121 115
121 136 135
131 147 149
131 147 147
132 146 149
123 139 135
62 85 50
62 84 49
67 90 53
60 83 48
65 88 52
61 84 49
62 86 49
65 88 51
66 89 53
63 86 50
60 82 48
63 86 49
66 90 54
65 89 52
65 89 52
63 85 50
68 92 56
63 84 52
128 144 145
128 144 146
137 152 155
121 137 132
137 152 157
130 146 147
124 140 141
137 152 158
140 156 164
129 146 146
135 150 153
142 157 163
136 151 154
138 153 155
132 149 151
135 150 153
133 147 149
128 142 142
91 108 93
62 85 50
65 89 53
65 89 53
58 81 46
56 77 43
68 91 55
67 91 54
65 89 52
62 85 50
63 86 49
59 81 47
62 85 50
64 87 52
63 86 50
64 88 52
58 81 47
98 117 104
136 152 154
136 151 156
133 148 151
131 146 149
139 154 159
143 158 163
143 158 165
142 156 160
150 165 173
144 160 166
139 155 156
145 160 167
147 161 166
147 162 169
130 146 147
128 144 145
112 130 122
64 88 51
70 94 57
65 89 53
64 88 52
69 93 55
67 91 54
65 89 52
66 90 54
66 90 54
70 95 56
69 93 55
68 93 55
61 85 50
68 92 55
71 95 61
100 121 107
136 152 155
128 145 144
121 137 136
107 126 116
104 121 113
108 127 117
83 105 79
88 108 87
67 91 55
70 96 57
62 86 50
64 88 53
65 90 53
64 88 51
86 108 86
137 154 157
137 153 157
141 157 161
160 176 185
148 163 170
152 167 174
145 161 166
156 171 181
151 167 171
143 159 161
148 164 170
141 158 160
143 160 164
137 153 155
88 108 86
67 91 54
68 93 55
63 87 51
68 92 56
70 95 57
71 97 58
66 91 53
69 93 56
67 92 54
70 95 56
71 97 58
68 92 54
126 144 143
140 157 161
148 165 171
144 160 165
135 152 152
118 138 133
97 117 101
73 96 67
74 99 60
75 101 62
72 97 58
71 96 57
126 144 143
154 170 177
147 164 169
154 172 180
150 167 175
155 171 179
158 175 183
165 180 190
165 180 188
151 167 172
150 167 173
103 124 109
75 100 67
137 155 155
113 133 122
78 103 68
75 101 61
74 100 61
71 98 58
75 103 63
95 117 97
152 170 179
169 185 196
151 168 175
158 175 183
123 143 138
121 141 137
82 107 76
117 138 130
156 174 181
159 177 185
165 183 193
156 174 182
126 146 140
113 134 119
151 169 176
157 175 183
119 140 128
110 131 116
161 178 180
204 217 229
229 240 255
229 240 255
206 219 230
160 176 177
132 152 151
97 120 99
82 109 75
123 144 135
160 177 186
166 184 195
179 195 209
136 154 155
109 132 119
79 106 66
78 106 65
142 158 159
162 179 190
142 161 162
95 120 92
73 99 59
77 104 63
80 107 66
73 99 60
74 100 60
79 105 72
118 139 130
146 164 168
153 170 179
156 171 179
161 177 188
100 121 102
76 102 61
121 138 133
159 174 185
143 160 165
113 133 123
84 108 75
74 100 61
69 95 57
69 94 56
73 98 60
69 94 56
66 90 53
73 99 60
73 100 61
74 99 60
86 110 81
140 157 157
104 123 114
76 102 67
72 97 58
66 91 54
68 93 55
71 97 58
77 103 63
73 99 60
72 97 57
69 93 55
69 94 56
67 91 54
73 99 60
65 89 53
78 104 66
106 124 114
114 132 125
76 101 67
69 94 55
68 91 54
69 93 55
68 93 55
69 94 57
65 90 53
67 91 54
69 94 56
72 98 60
69 93 55
64 87 50
62 87 50
67 90 53
72 97 58
69 94 56
71 96 58
72 96 60
124 142 139
116 134 125
74 97 64
67 92 55
73 99 59
65 88 53
72 98 59
70 95 57
69 94 56
62 86 50
68 92 56
69 93 56
71 95 57
66 91 53
67 90 54
66 90 53
72 97 58
72 98 60
76 96 73
131 148 149
142 159 162
138 154 158
141 156 160
136 153 155
144 159 165
134 150 151
135 152 151
88 106 92
86 107 85
63 87 51
63 87 51
66 90 54
66 89 52
69 94 57
64 88 51
67 91 53
61 84 48
61 83 48
143 158 163
152 167 173
151 167 174
136 152 156
127 142 143
136 151 155
138 154 157
124 140 139
144 160 165
147 162 167
138 152 157
137 152 155
140 155 160
140 155 157
133 148 151
139 154 157
136 151 153
143 159 163
138 153 157
129 147 145
68 92 55
65 89 52
79 101 75
89 109 88
109 127 117
119 136 133
134 149 153
132 147 150
124 139 139
144 159 163
138 154 156
138 154 158
137 151 154
145 160 165
139 154 161
146 161 168
133 148 152
130 144 149
133 149 151
89 108 89
65 89 53
69 93 55
65 88 53
63 85 49
68 92 55
67 91 54
62 85 49
63 86 51
66 89 52
70 93 56
59 81 47
69 93 55
60 83 48
62 84 50
60 82 47
70 94 56
64 87 51
64 87 51
95 114 98
136 153 157
130 144 147
128 144 146
136 152 154
139 155 161
142 158 161
138 153 156
147 162 170
143 158 163
137 152 158
147 161 167
136 151 157
140 155 160
145 159 165
142 157 165
142 158 163
126 142 141
144 159 163
131 146 146
94 112 99
93 111 94
102 117 111
104 122 111
112 129 124
122 137 136
125 140 140
140 153 160
135 150 152
135 149 155
140 154 158
130 146 149
134 149 151
132 147 150
127 143 145
136 152 156
128 143 143
129 144 148
143 159 165
79 100 75
61 83 48
65 88 52
63 87 51
64 86 50
64 87 51
59 82 47
63 85 49
66 90 54
68 92 55
63 87 51
60 83 48
56 77 45
64 87 51
60 83 48
57 79 45
67 91 54
66 90 54
75 95 73
133 149 151
141 156 161
132 148 149
137 151 153
130 145 147
141 156 159
153 168 175
137 152 157
144 158 165
131 146 148
131 147 150
136 151 157
141 156 161
138 153 157
136 151 154
139 155 161
131 147 147
124 140 138
65 88 55
67 91 55
67 92 54
64 87 51
67 90 53
60 83 48
66 90 54
66 90 52
66 89 52
72 96 58
65 88 53
66 90 53
57 79 45
66 90 54
60 83 48
64 87 51
68 92 55
124 141 138
127 142 144
136 151 154
138 153 158
140 155 160
136 151 155
143 158 162
137 152 154
140 155 157
141 155 160
143 159 163
135 151 156
151 166 172
142 158 159
140 155 159
144 158 163
144 159 163
92 113 98
69 94 57
67 92 55
67 90 53
59 82 46
68 92 55
66 90 53
66 90 53
67 91 54
69 94 56
66 90 52
68 92 56
64 87 51
62 85 49
67 91 54
62 86 49
120 135 133
149 166 172
148 163 170
137 154 154
158 173 185
154 170 178
139 155 161
144 158 163
149 164 170
144 160 165
136 151 154
129 146 144
110 128 119
114 132 124
105 124 111
118 135 129
142 158 160
141 157 162
140 154 157
145 161 167
145 161 165
151 167 173
138 154 157
140 156 161
143 159 166
152 169 176
141 158 164
155 172 179
139 156 162
141 157 161
85 106 83
67 92 55
64 88 52
74 101 61
69 95 57
70 96 58
71 97 58
66 91 53
69 95 56
69 94 56
74 100 61
71 97 58
65 90 52
148 165 168
149 166 173
152 169 177
133 149 148
155 172 181
152 169 178
155 170 177
146 163 165
137 155 156
112 131 120
94 116 94
71 96 57
126 144 141
146 162 170
153 170 176
157 174 181
153 170 178
169 185 196
150 166 172
162 178 188
153 171 179
150 168 177
149 166 174
128 146 143
155 172 182
162 178 187
160 178 189
130 148 143
108 128 115
90 113 88
79 107 66
73 99 58
87 111 79
145 163 168
163 179 189
157 173 178
166 182 194
171 187 197
154 172 181
137 156 158
110 132 113
149 167 172
168 185 197
164 181 191
166 183 195
167 183 195
146 164 163
146 164 165
170 187 198
165 182 194
139 159 161
126 147 142
149 167 166
201 214 224
130 149 143
103 126 106
81 109 71
119 140 134
159 177 186
167 184 196
169 187 201
139 158 155
94 118 93
75 102 62
78 106 65
79 107 65
91 115 88
128 148 143
86 112 81
76 102 62
78 105 64
78 104 64
78 105 66
73 100 60
94 117 96
141 159 159
160 177 184
161 178 188
163 179 188
156 174 181
164 181 191
159 176 183
89 111 88
75 100 62
114 135 124
125 144 141
81 106 73
74 100 61
73 99 60
65 90 53
73 99 59
76 103 63
74 99 60
68 92 54
69 95 56
73 99 59
87 110 82
115 134 126
143 160 165
75 101 61
75 101 61
65 88 52
71 97 58
69 94 56
71 97 57
73 98 60
70 95 56
71 96 57
71 97 58
76 102 61
66 91 53
77 102 67
100 119 105
119 136 133
148 163 168
142 158 161
124 141 142
64 89 52
66 90 53
67 92 56
70 95 57
69 94 57
67 92 55
70 96 58
72 97 59
70 95 57
66 90 53
66 91 54
71 97 57
65 88 51
66 90 53
76 99 71
99 118 107
130 147 150
151 166 174
77 97 71
72 98 59
73 99 59
73 98 59
64 87 51
68 93 55
71 96 58
65 89 52
71 96 57
66 90 52
65 89 53
69 94 56
66 90 54
70 95 56
67 92 55
69 94 56
73 98 59
64 87 51
67 91 54
134 150 149
138 154 155
132 148 151
123 141 140
112 129 122
96 116 99
68 91 57
67 91 53
60 84 48
64 87 51
66 90 53
66 90 53
70 95 57
69 94 55
66 90 53
69 93 56
66 90 53
67 90 53
68 92 55
114 132 126
146 162 169
140 156 161
140 156 161
134 149 151
150 165 173
153 167 175
135 152 155
143 159 163
137 153 157
135 151 154
140 155 159
148 164 170
128 145 145
144 158 163
145 160 165
148 163 171
134 150 151
125 141 144
92 113 97
110 126 118
125 141 143
138 152 156
145 161 165
130 146 150
141 156 158
134 149 151
131 145 147
133 148 150
149 165 173
126 142 142
128 143 143
152 166 174
138 154 158
136 153 154
131 146 148
151 166 172
135 150 152
135 151 154
128 144 143
60 82 48
66 89 52
67 91 53
66 89 53
64 87 51
60 82 48
60 83 47
62 85 50
67 90 54
62 85 51
63 86 50
60 82 48
65 88 52
59 81 47
69 94 56
63 87 51
61 84 49
63 86 49
64 87 52
117 134 132
134 150 152
142 159 162
136 151 156
140 155 157
134 149 150
134 149 151
130 145 147
129 145 147
145 159 166
121 136 135
122 137 137
118 133 132
104 121 112
104 124 110
84 104 86
72 93 67
62 85 50
58 79 45
106 124 115
120 135 135
143 158 164
134 149 152
129 144 147
134 149 153
127 143 145
130 145 149
140 154 158
140 155 160
137 151 153
141 156 161
134 148 151
139 154 157
134 148 149
145 159 163
141 155 162
128 144 144
132 146 148
110 125 122
62 85 50
62 85 49
67 92 54
64 87 52
64 88 52
64 88 52
56 78 44
57 79 45
63 86 51
63 86 50
65 89 53
64 87 51
66 90 52
65 90 53
71 95 57
65 88 52
66 90 54
63 87 50
118 135 132
131 144 147
142 158 160
134 150 155
141 156 159
141 156 157
136 152 153
132 147 149
142 157 160
146 161 165
133 148 149
143 159 163
136 152 157
136 151 153
152 167 176
134 150 155
146 161 166
139 155 160
113 130 125
62 85 50
64 87 51
66 90 54
62 85 49
63 87 50
61 84 48
68 93 55
61 84 49
65 88 53
67 91 54
65 88 52
63 87 51
68 92 54
63 87 51
66 90 53
66 90 53
77 98 72
124 141 139
140 155 159
128 143 145
135 149 155
141 156 160
152 168 174
137 152 154
148 164 169
147 162 166
151 166 174
127 142 142
149 164 171
145 160 166
142 157 161
146 161 168
145 160 165
137 153 154
75 96 68
62 85 49
68 93 55
67 91 54
73 98 59
70 95 57
65 88 52
73 98 59
68 94 56
67 91 54
68 92 55
69 93 55
65 88 51
66 90 54
70 95 57
71 94 63
133 152 152
144 158 164
148 164 174
138 155 156
138 155 158
159 175 183
143 160 165
134 151 154
133 148 147
151 166 174
151 166 173
135 152 155
145 161 167
144 161 167
144 161 164
117 135 130
75 99 63
85 105 86
91 111 92
116 135 128
111 130 122
137 153 153
141 156 158
140 156 159
151 167 177
145 160 164
144 160 165
137 153 154
157 173 181
136 153 153
77 99 71
72 98 59
66 90 53
67 92 55
65 89 53
74 100 60
69 94 56
71 96 56
68 93 55
67 92 54
72 97 58
70 96 58
77 101 69
139 156 157
141 158 160
151 167 175
150 166 173
159 174 181
147 162 166
157 173 180
153 171 181
145 162 168
147 165 172
142 159 163
138 155 154
142 159 163
149 165 172
152 170 175
156 173 180
161 177 187
157 174 184
157 174 182
146 163 170
157 175 184
139 157 158
79 104 72
130 149 145
150 168 173
158 174 181
156 173 181
159 175 183
152 169 174
143 160 161
121 141 131
113 134 120
80 105 71
138 156 157
159 176 185
159 176 184
159 175 185
166 184 197
161 179 187
166 182 193
147 165 170
162 180 190
159 178 187
159 177 186
156 174 183
162 177 186
161 179 190
163 182 194
144 161 163
172 188 201
164 182 193
149 166 171
121 142 132
89 114 82
134 154 151
154 173 182
168 185 199
160 177 185
143 162 163
87 113 80
77 105 64
75 102 62
78 106 64
85 109 85
136 154 150
138 156 158
75 102 62
71 96 57
76 102 62
73 99 60
81 107 69
115 137 125
150 168 172
157 174 184
153 170 176
166 182 194
157 173 180
150 168 175
150 167 174
152 169 175
156 172 179
116 135 127
141 158 160
154 170 178
143 162 165
88 111 85
73 100 60
70 95 56
72 98 59
75 102 62
76 103 63
68 94 56
79 105 67
115 136 127
141 159 161
143 161 166
153 168 176
160 176 184
74 101 61
73 100 60
74 100 60
73 99 59
71 97 58
76 103 62
73 99 59
70 96 57
74 99 59
73 98 59
95 116 99
123 141 136
144 161 163
143 159 164
149 166 171
151 168 176
148 164 170
138 156 156
70 95 57
70 95 57
65 88 52
68 93 55
71 97 58
69 93 56
74 100 60
69 94 57
71 96 58
71 96 58
66 90 53
81 103 75
116 134 127
128 145 140
148 164 170
147 162 168
149 164 166
156 172 179
81 103 77
69 94 56
67 91 54
66 90 53
64 88 52
74 99 60
67 91 54
63 87 50
70 95 57
67 91 54
65 90 52
63 87 50
74 98 60
69 94 56
65 89 52
66 89 52
64 87 51
68 92 56
92 113 92
111 130 118
101 120 106
66 88 58
68 93 56
70 95 57
73 97 59
67 91 54
70 94 56
69 94 56
66 91 53
62 85 50
62 86 50
70 95 57
74 99 60
64 87 52
65 88 53
70 94 57
65 88 52
68 93 54
111 129 120
137 154 157
144 160 164
142 158 165
143 158 162
130 146 150
152 168 175
135 150 150
149 165 170
143 158 163
153 169 176
137 153 155
153 168 175
126 143 143
119 135 129
98 116 102
94 114 98
64 87 50
70 95 57
63 87 51
118 134 129
140 155 158
146 161 167
145 160 167
131 147 149
148 164 171
149 162 170
144 159 165
152 168 174
123 140 140
145 161 165
145 160 165
139 155 162
146 160 164
140 155 163
136 152 155
133 149 153
147 161 168
148 164 169
137 152 157
74 97 65
68 92 54
67 91 55
69 93 56
64 86 51
67 92 54
63 87 51
68 92 55
66 90 53
65 89 52
63 86 50
70 94 56
62 85 50
64 87 51
66 90 53
65 88 53
61 84 49
68 92 54
68 93 55
103 122 112
145 161 164
132 146 152
146 164 169
130 145 143
115 133 124
98 115 104
89 109 90
83 102 82
64 87 51
62 85 50
66 90 53
62 85 50
60 82 47
65 90 53
68 92 55
59 81 47
66 90 53
68 91 54
66 89 59
132 148 151
139 155 157
145 160 165
143 158 165
133 147 150
139 155 158
137 153 156
150 166 172
138 153 157
140 155 160
146 162 168
132 147 146
131 147 144
142 158 163
150 165 173
143 157 165
136 152 155
134 148 149
127 142 143
89 110 91
71 96 57
64 88 51
70 93 57
64 88 52
69 93 55
59 82 47
61 84 48
65 88 52
66 90 54
69 92 56
70 94 56
63 86 50
71 95 57
64 87 51
64 86 50
67 91 55
67 91 54
72 95 65
143 158 165
137 152 157
133 148 150
135 151 156
139 156 159
140 155 159
134 149 152
138 152 154
138 153 157
138 153 157
138 153 158
141 157 161
141 156 158
140 155 157
139 154 158
134 150 154
137 152 157
138 153 158
89 109 90
68 92 54
65 89 54
63 85 50
68 93 55
72 98 59
68 93 55
62 86 50
63 86 51
70 95 57
66 89 52
66 90 53
64 88 51
69 94 55
67 91 54
66 89 54
69 94 55
92 111 92
139 154 158
140 155 160
149 165 170
145 162 168
138 155 157
131 146 149
141 155 160
141 157 160
146 162 166
142 157 163
149 165 171
136 151 154
132 147 146
133 148 151
148 164 170
143 159 164
121 138 133
67 91 53
69 94 56
65 88 51
74 99 60
66 90 54
69 94 56
67 91 54
69 94 56
70 95 56
70 95 57
64 88 52
62 84 49
72 97 59
70 95 57
64 87 51
92 113 93
144 161 166
139 155 160
152 167 174
141 157 159
139 155 158
137 152 154
147 161 168
146 162 167
139 155 161
147 162 166
162 177 187
158 174 182
156 172 180
144 161 165
139 155 159
93 114 93
74 100 60
70 95 56
70 95 57
67 91 54
70 94 56
75 101 62
70 96 58
83 107 76
110 130 121
106 126 112
131 148 147
136 154 157
147 163 169
130 146 145
69 94 59
66 91 53
74 100 60
69 94 56
74 100 61
67 91 53
68 93 56
69 94 56
69 93 55
71 96 58
69 94 56
73 99 60
80 104 71
143 159 161
157 173 178
139 156 161
146 164 169
156 172 180
159 176 185
152 168 176
146 162 170
150 167 172
159 175 183
164 181 191
156 173 182
122 140 136
79 101 71
94 115 95
119 137 133
139 157 158
154 169 179
147 165 169
145 163 170
85 108 78
76 103 62
73 100 61
124 142 136
160 177 185
159 176 189
162 178 188
165 182 195
163 179 190
159 175 181
155 173 181
155 173 180
138 157 156
158 174 182
154 172 177
162 179 188
167 184 198
163 180 191
169 186 197
165 182 193
170 186 196
147 166 169
111 132 118
125 145 140
162 180 187
174 192 206
170 187 200
172 189 203
129 150 144
114 135 121
137 156 157
169 187 200
168 187 201
173 190 203
160 178 190
115 137 123
81 108 74
79 107 66
76 103 62
82 110 68
99 123 103
126 146 142
165 182 194
164 181 192
126 145 136
74 101 60
78 105 65
93 116 91
125 144 140
159 175 184
150 168 177
164 180 191
166 183 193
168 184 194
168 185 196
166 182 193
160 177 186
152 168 173
102 124 105
78 104 70
166 183 196
161 177 186
155 171 177
152 169 176
144 161 165
93 117 93
72 98 60
78 105 64
68 94 56
99 122 101
131 149 149
157 173 182
144 160 164
145 161 166
156 172 181
159 174 181
142 159 161
70 95 57
73 99 59
72 98 59
67 92 54
72 98 58
72 99 60
78 105 63
91 115 84
108 127 116
142 159 161
155 172 179
154 170 178
145 162 169
146 162 168
157 173 179
152 168 173
152 167 173
139 156 159
69 94 56
69 93 56
71 96 59
72 97 58
71 96 58
63 87 50
69 94 56
70 95 56
80 102 76
117 136 130
139 156 156
157 173 180
147 163 167
159 175 187
147 162 169
142 159 164
148 165 171
134 151 153
104 124 109
73 98 58
68 93 55
68 92 54
74 99 59
68 92 54
66 89 53
68 92 56
64 87 51
71 96 58
70 95 57
68 94 55
67 90 54
69 93 55
82 106 75
97 115 100
113 131 124
134 150 153
141 157 162
111 131 122
71 96 57
71 96 58
70 94 57
70 94 56
70 95 56
69 93 55
61 85 49
62 85 50
65 89 52
71 96 58
66 91 54
69 94 56
65 89 52
69 94 56
62 86 50
59 83 46
68 92 55
60 83 48
71 95 61
139 155 159
128 143 143
137 154 158
155 170 177
138 154 156
156 171 180
144 160 166
142 158 160
121 138 134
129 146 144
93 113 95
70 93 62
68 92 55
67 92 54
66 90 53
62 86 50
54 75 43
64 87 51
67 91 55
102 120 110
139 154 158
142 157 161
136 151 154
148 162 168
140 155 158
136 151 153
147 161 165
128 144 144
147 163 170
151 167 176
144 159 163
131 146 148
152 168 173
131 147 149
138 153 157
135 150 153
145 160 165
136 151 153
153 168 175
94 113 99
66 91 54
59 81 47
64 88 52
61 84 48
67 91 55
66 90 53
62 85 49
64 87 51
66 90 52
67 91 55
64 87 51
56 78 44
68 92 56
68 92 58
81 102 78
86 108 84
102 121 108
116 133 126
110 127 118
78 100 75
68 92 56
71 96 58
63 86 50
60 83 48
71 96 58
67 91 53
67 91 55
66 90 53
64 88 52
64 87 50
61 84 49
64 87 51
66 89 53
65 89 52
65 89 53
68 92 54
67 91 54
62 85 50
110 127 120
141 157 161
138 153 157
146 162 168
136 151 153
134 149 152
134 149 153
129 144 148
130 147 149
134 149 152
127 144 145
146 162 168
137 152 155
141 156 161
129 145 148
135 150 154
136 154 156
143 159 165
128 143 145
119 135 126
64 87 52
67 91 54
62 85 48
64 88 52
62 85 50
67 92 55
70 96 57
69 93 56
65 88 51
61 83 49
71 96 58
70 95 56
68 92 55
62 84 49
64 88 51
61 84 48
61 84 49
69 93 55
104 121 110
128 144 143
139 154 159
135 151 155
141 157 160
140 157 160
146 161 168
139 156 159
139 156 159
134 149 150
125 140 140
137 153 158
141 155 162
132 147 147
150 164 171
138 153 153
143 158 163
146 161 165
130 147 148
70 94 57
64 88 51
64 88 52
66 89 53
71 96 57
68 91 54
60 82 47
68 92 55
65 89 52
67 92 54
71 95 57
70 94 55
66 89 52
65 88 52
67 91 54
68 92 56
65 89 53
114 132 125
137 152 155
145 160 163
140 156 157
156 171 179
147 163 170
142 157 162
139 154 155
143 159 163
139 153 156
148 164 170
138 152 157
143 158 162
139 155 159
141 157 162
144 160 165
141 157 164
98 117 104
66 89 53
71 97 58
66 90 53
68 92 55
75 101 61
68 93 54
66 90 53
63 87 50
70 95 57
68 94 56
71 96 57
69 94 56
69 95 56
70 95 57
66 91 53
90 111 88
147 162 166
143 157 161
160 175 183
151 165 172
149 164 170
151 167 173
145 161 166
138 153 157
137 153 157
149 164 172
142 159 161
144 161 165
142 158 161
150 167 174
146 161 166
89 109 88
67 91 55
69 95 56
70 95 58
70 96 57
73 99 59
69 94 56
68 94 56
77 103 63
71 97 58
70 96 57
67 91 54
70 97 59
85 108 82
96 117 100
123 141 137
100 121 106
102 124 107
83 106 79
69 94 56
67 91 53
67 92 55
73 99 60
74 100 61
66 90 53
70 96 58
73 100 60
83 107 76
142 159 163
152 167 174
157 173 180
160 175 184
151 167 172
165 182 192
158 174 180
153 169 175
151 168 174
161 179 190
154 170 178
160 177 184
119 137 131
75 101 61
73 100 61
71 97 58
83 108 77
119 139 127
128 147 144
92 115 89
76 103 62
76 103 63
74 100 60
105 125 112
164 180 189
155 173 182
153 170 178
165 182 191
153 169 178
167 184 197
157 174 184
163 179 188
157 174 184
130 148 146
110 132 115
143 162 162
163 180 188
155 173 181
163 180 188
163 179 188
161 178 187
145 163 164
95 118 95
86 113 78
116 136 125
144 163 165
170 188 203
171 188 203
138 156 156
86 111 78
110 133 116
169 186 197
124 144 135
78 104 65
73 100 60
78 107 66
74 100 61
107 129 113
152 169 175
163 181 192
166 184 195
167 184 195
154 171 177
93 115 92
92 115 92
138 157 157
155 171 180
157 173 181
162 179 189
167 183 195
154 172 181
165 181 191
154 171 177
164 180 191
137 155 156
99 122 99
77 104 64
77 103 62
98 120 100
150 165 172
156 172 181
157 173 181
153 169 175
152 169 176
159 177 186
108 128 115
116 137 128
138 156 159
154 170 177
162 178 187
150 166 172
168 184 196
157 172 182
166 182 192
155 170 179
147 164 171
69 95 56
72 99 59
71 97 58
74 100 60
81 106 73
111 130 120
139 156 160
156 172 181
152 169 177
149 165 172
159 174 180
145 162 166
154 170 177
153 169 178
152 168 175
153 169 175
149 164 170
141 157 160
71 97 58
73 98 59
71 96 57
68 93 55
72 98 58
87 109 84
109 127 115
139 155 155
145 162 169
155 171 179
156 172 182
154 168 176
146 162 169
147 163 166
140 156 155
158 173 179
142 158 162
137 152 155
119 138 131
67 92 55
66 90 53
66 90 53
66 90 53
71 96 58
70 94 57
71 96 58
70 95 57
74 100 60
70 95 56
84 105 82
109 125 117
139 154 156
150 166 174
151 166 174
140 156 162
153 168 176
150 165 169
140 156 160
68 93 56
68 92 55
68 94 55
66 90 53
64 88 51
72 97 58
64 88 52
65 89 52
69 94 57
64 88 51
70 95 57
66 90 53
62 84 50
66 91 52
71 96 57
68 92 55
67 91 54
66 90 54
68 93 55
134 149 149
133 149 150
137 152 155
141 157 158
116 133 126
104 120 111
80 100 81
73 97 61
68 92 54
68 92 55
64 87 51
66 90 53
73 98 59
67 92 54
66 91 54
65 89 52
66 90 53
65 88 52
68 93 56
79 102 73
143 158 163
156 171 180
143 158 161
156 170 178
144 160 167
155 170 175
136 152 153
139 155 161
140 155 156
134 151 153
149 165 171
140 156 163
141 157 161
133 149 157
139 156 160
143 158 159
136 152 155
138 153 158
141 157 162
122 138 137
64 87 51
65 89 52
60 83 49
65 88 51
59 81 46
62 85 48
64 87 51
67 90 56
78 99 76
90 110 89
101 118 109
110 128 120
129 145 147
136 151 155
140 154 160
131 146 149
143 155 163
139 155 158
136 152 155
111 128 121
63 87 50
66 90 54
65 88 51
66 91 54
68 92 54
68 92 56
65 89 53
61 84 49
64 87 52
67 91 54
67 91 54
71 95 56
68 92 56
65 89 53
72 97 58
66 90 53
65 89 52
57 79 44
80 102 77
147 161 167
150 165 170
138 154 159
133 148 148
138 155 155
143 159 163
139 155 157
148 162 167
137 153 157
149 165 173
156 170 179
133 150 154
141 156 162
135 151 152
141 157 161
120 135 134
145 160 165
147 162 167
134 149 153
81 102 80
61 84 49
61 85 50
57 80 45
68 92 54
67 91 53
67 92 54
63 86 50
64 88 51
65 88 52
68 93 55
66 89 52
68 93 55
68 92 55
69 94 56
63 87 51
66 90 52
70 95 57
75 98 65
138 152 157
133 149 152
151 167 173
136 153 158
149 164 170
147 162 168
142 157 160
153 167 174
133 147 151
139 154 158
142 158 164
147 163 167
130 146 148
141 156 161
135 150 155
145 161 167
140 156 162
145 161 166
107 126 116
66 90 54
69 94 56
72 96 58
64 87 51
70 95 56
71 96 57
70 95 57
68 92 55
67 91 53
73 98 60
61 84 49
67 91 55
69 94 55
63 87 51
65 88 53
69 94 55
72 96 63
135 151 156
146 163 170
153 168 176
145 161 167
130 146 144
147 162 168
136 152 156
151 165 175
133 149 149
153 169 174
143 159 163
150 167 172
123 140 137
138 154 155
137 153 157
136 152 156
137 151 155
91 110 93
72 97 58
65 89 52
69 93 56
69 94 57
63 87 50
63 87 51
68 92 54
65 90 53
64 88 51
64 88 51
71 96 58
65 89 52
70 95 56
68 93 54
70 95 56
123 141 136
157 174 185
146 163 168
143 159 163
133 149 150
143 158 162
148 163 168
156 173 183
142 158 163
155 170 179
132 149 153
162 178 187
148 164 171
146 162 165
153 168 175
152 168 174
88 111 84
68 93 54
70 95 57
72 97 58
66 90 53
73 98 60
67 92 55
72 97 59
72 98 59
70 95 57
74 100 60
75 101 62
72 97 58
71 97 58
122 141 136
156 172 180
144 160 165
159 177 188
150 167 173
133 150 147
127 145 139
118 137 129
94 116 91
83 106 79
73 99 60
70 95 56
76 102 62
81 105 72
137 154 159
163 179 189
152 169 177
150 165 173
149 165 172
143 159 163
157 173 179
153 170 180
153 169 174
143 159 163
162 179 189
153 169 176
122 141 134
74 101 61
73 99 59
102 123 107
143 159 162
153 170 176
158 174 183
145 163 167
138 157 157
119 139 130
80 104 77
101 124 107
158 174 183
155 171 180
158 174 184
156 174 183
159 175 183
164 180 191
165 183 193
164 181 194
165 180 190
146 164 165
77 103 65
80 106 72
119 138 131
143 161 165
154 172 181
173 191 204
166 184 196
155 172 178
113 133 121
79 106 65
78 106 66
95 119 93
127 147 143
148 164 166
156 174 184
114 138 122
79 106 64
79 106 65
81 109 68
81 108 69
124 144 135
164 183 194
165 181 190
158 177 189
163 179 189
159 176 187
158 175 184
150 168 174
147 165 171
159 176 184
156 174 185
151 168 172
158 175 183
163 180 188
155 172 177
160 177 186
141 158 160
112 132 119
80 105 72
76 102 62
73 99 59
77 105 64
75 102 62
118 139 129
155 171 180
155 172 178
164 179 189
147 164 171
145 162 167
118 138 128
80 105 72
110 129 119
151 168 175
146 164 168
155 172 184
153 169 177
162 178 186
156 172 182
154 171 180
160 178 187
149 166 171
77 104 63
71 96 58
104 125 113
136 153 156
145 162 167
153 171 179
160 175 182
147 165 170
146 162 168
142 158 164
151 166 174
157 172 180
153 168 176
148 164 173
155 173 181
152 169 176
155 171 179
138 154 161
70 95 56
73 99 59
77 102 68
101 120 105
142 160 162
143 160 164
148 164 168
155 170 178
147 162 167
146 162 167
145 161 167
145 161 168
160 174 182
143 159 163
143 160 163
146 162 167
145 161 167
156 171 177
130 148 145
66 90 54
72 98 60
72 97 58
68 93 55
72 98 59
69 93 55
72 96 60
107 126 116
126 143 141
141 157 158
154 170 179
152 167 173
143 158 161
148 166 172
126 141 139
154 169 176
153 170 181
148 165 170
146 162 165
70 95 57
70 95 57
71 96 58
69 94 55
71 97 58
71 96 57
68 92 55
71 96 58
66 90 54
67 92 54
67 91 54
68 92 55
74 100 61
68 93 55
66 89 52
65 89 53
67 91 53
67 91 54
71 92 64
106 125 118
98 117 104
74 97 63
69 94 55
68 92 55
66 91 54
68 92 54
69 94 56
61 84 49
73 98 59
69 93 55
67 92 55
70 95 57
68 92 55
68 93 55
65 89 53
68 92 55
68 92 55
70 94 57
67 91 54
135 152 155
144 160 170
164 179 188
149 164 170
142 158 161
152 167 176
150 166 174
153 168 174
161 177 191
139 155 157
152 168 175
140 155 159
148 162 169
144 161 164
144 159 164
131 147 147
138 154 158
144 160 166
143 159 163
148 163 169
75 96 68
62 85 49
77 98 72
96 116 99
103 120 112
127 144 144
138 154 153
135 150 149
148 164 171
134 149 154
143 159 165
138 155 158
135 151 153
146 161 168
145 161 168
144 160 163
147 162 166
139 154 159
139 155 159
135 152 149
59 82 47
66 90 52
62 85 48
64 89 52
68 91 55
68 93 55
68 92 55
68 92 54
69 93 56
65 89 51
64 88 51
69 94 56
70 94 56
73 99 60
61 85 49
62 84 50
70 95 57
63 87 51
65 88 53
126 142 141
138 156 158
134 150 150
145 160 168
129 145 147
142 157 162
145 160 164
135 150 155
126 141 141
143 158 161
143 158 164
159 174 182
152 168 173
137 153 156
129 143 141
142 158 162
140 157 158
148 163 170
149 165 172
113 130 125
63 87 50
67 91 55
69 93 55
66 89 52
67 91 54
68 93 55
64 88 51
61 85 48
68 92 55
68 93 55
62 86 50
65 89 52
66 89 52
70 95 57
68 92 55
70 95 57
65 89 52
72 96 58
95 113 101
130 145 147
154 171 179
133 150 152
149 165 169
142 157 162
141 157 161
131 147 149
136 153 153
145 160 165
149 166 172
134 150 151
142 157 163
144 161 163
130 145 145
138 154 158
141 156 161
140 155 162
139 156 157
72 94 62
70 95 57
73 98 59
64 88 51
69 94 56
64 88 52
65 89 52
73 98 59
67 92 55
60 82 47
67 91 54
68 92 55
67 91 54
67 92 54
67 92 54
71 96 57
70 94 56
95 115 96
147 161 169
141 156 160
149 165 168
140 155 160
141 156 159
129 144 146
146 162 166
150 166 173
140 156 162
158 173 183
148 163 170
140 156 162
134 150 152
140 156 162
143 159 163
141 156 164
135 152 153
72 95 63
64 88 51
64 88 52
68 93 55
67 91 54
69 95 57
72 98 60
65 89 52
68 93 56
68 93 56
70 94 55
65 88 52
74 99 60
74 100 60
73 98 59
67 92 54
144 159 164
151 165 173
134 150 150
149 164 169
148 164 170
147 163 166
143 162 167
143 158 163
147 164 168
146 163 168
152 169 176
148 164 169
145 162 167
149 168 172
147 163 167
134 151 155
71 96 60
74 99 60
69 94 56
71 96 57
68 92 54
70 96 57
69 94 56
74 99 59
71 97 58
66 91 53
67 92 55
64 89 52
75 102 62
68 93 55
123 141 139
149 165 173
153 169 177
159 174 181
147 163 167
151 168 175
145 162 169
163 179 190
147 164 168
131 149 147
133 151 146
117 137 126
97 119 103
95 116 95
141 159 164
161 177 187
165 182 193
157 172 177
153 168 175
150 167 173
164 180 191
156 172 180
157 172 179
152 169 178
157 173 182
155 172 180
130 147 147
127 146 140
154 170 180
160 176 185
157 173 181
164 180 189
153 167 174
162 178 187
161 178 189
163 180 189
155 171 181
138 157 155
147 165 169
161 177 185
155 172 179
165 182 194
159 176 183
161 178 186
166 182 193
165 182 192
159 175 181
137 156 156
84 108 77
73 99 60
74 101 61
82 108 74
115 136 123
144 162 164
163 180 191
172 189 205
136 156 154
75 102 62
78 105 64
79 106 64
79 105 70
101 123 105
130 150 149
75 102 62
80 106 71
118 137 128
160 177 186
162 180 189
154 171 176
165 182 191
161 178 188
153 171 181
145 163 165
102 125 102
128 149 141
152 168 174
159 176 186
163 180 189
159 176 187
157 175 182
161 177 184
140 157 157
108 129 113
71 98 59
77 104 64
76 103 63
78 105 64
71 97 58
71 97 58
75 102 62
115 135 126
162 178 185
150 166 172
130 148 147
93 116 92
80 107 65
73 99 60
72 99 59
74 100 60
89 113 86
128 145 145
155 172 178
157 173 179
145 163 168
152 169 175
163 180 191
153 170 178
127 145 143
124 141 139
157 175 185
150 166 172
147 164 170
157 172 178
151 166 173
161 176 183
158 174 183
162 177 185
156 172 180
150 167 173
149 165 174
156 170 178
153 170 181
149 165 167
144 161 166
141 157 161
150 166 173
121 139 135
139 156 160
160 176 183
154 170 177
150 166 171
153 170 176
151 167 175
152 168 174
152 167 174
157 174 183
139 154 159
146 161 167
148 164 171
148 164 169
140 156 162
146 163 170
145 161 167
158 175 184
140 157 159
66 91 54
67 91 54
65 89 52
78 101 72
109 130 117
129 146 147
148 162 168
155 171 180
151 168 176
152 167 176
150 167 174
148 165 170
137 153 157
143 159 164
144 162 166
145 160 166
149 166 171
141 157 163
147 162 167
80 103 73
66 90 54
73 98 59
69 94 55
65 89 53
68 92 55
68 92 55
72 97 58
71 95 57
70 95 56
68 93 54
71 96 59
72 97 59
66 90 53
86 107 85
106 124 118
120 137 131
136 151 154
159 174 184
128 144 144
69 94 55
65 89 53
64 88 51
64 87 51
66 90 54
65 89 53
66 90 53
69 93 56
70 94 56
69 93 56
63 87 50
67 91 54
68 92 55
65 88 52
66 90 54
64 88 52
63 87 50
67 92 55
64 88 52
109 126 120
142 157 163
149 163 169
142 157 160
139 155 155
155 170 175
151 167 176
141 157 161
145 160 167
135 151 154
145 160 167
134 150 152
157 172 180
129 145 147
136 151 155
138 152 157
132 147 151
145 160 163
124 141 140
108 126 115
115 132 125
139 155 159
135 151 152
146 161 166
141 155 158
142 156 162
138 153 155
148 164 172
134 150 153
142 158 164
153 168 177
142 157 163
138 155 158
132 147 150
153 168 175
143 159 163
139 156 160
147 163 169
155 169 178
136 152 157
83 102 85
63 87 51
63 86 50
69 94 56
64 88 52
64 87 52
66 90 54
71 95 57
67 92 55
67 92 55
70 95 57
64 87 51
62 85 49
63 87 51
68 92 53
68 92 55
68 92 55
69 93 56
67 91 54
93 115 93
144 160 165
137 153 158
137 152 155
146 162 166
135 151 155
132 147 150
137 153 156
133 148 149
135 150 155
128 143 142
145 162 164
131 146 149
136 150 155
138 154 159
141 156 160
141 157 163
142 158 161
144 160 166
141 157 161
89 110 90
68 92 54
72 97 58
62 85 50
65 89 51
63 87 51
61 85 49
72 97 58
68 92 55
72 97 57
63 87 51
62 85 50
66 90 53
73 99 59
67 91 54
64 88 52
67 90 54
69 94 56
72 95 62
136 153 157
130 146 147
148 164 171
129 145 144
129 147 144
135 150 151
112 129 121
118 136 130
107 124 114
102 120 112
111 130 122
114 130 125
102 121 108
99 118 104
88 108 89
96 115 102
101 118 109
97 117 101
103 122 113
127 144 142
131 148 150
120 136 132
135 152 155
140 156 160
130 146 146
129 145 147
135 149 150
137 155 155
126 142 141
122 138 138
132 148 150
137 155 156
138 153 157
135 150 154
136 153 153
137 152 154
111 130 119
95 115 98
86 105 87
97 117 101
108 127 115
111 129 120
100 120 103
107 126 114
111 128 123
111 127 117
116 134 128
116 133 127
118 136 128
126 142 142
124 140 134
133 151 149
127 144 141
110 126 119
79 100 73
77 100 71
67 92 54
72 98 58
77 103 62
72 97 59
69 94 56
73 98 58
64 88 52
71 95 57
67 92 54
72 97 59
68 93 55
64 88 51
69 94 57
83 106 82
138 154 157
164 180 190
156 172 182
133 150 153
136 154 156
140 156 161
143 159 163
158 174 181
158 174 180
153 169 179
160 176 186
152 168 175
153 168 176
160 177 189
149 164 170
124 142 133
71 96 58
66 91 53
68 93 55
73 100 61
66 90 54
70 94 55
65 90 53
72 97 59
72 98 59
79 106 64
72 97 57
68 93 56
68 93 56
73 98 62
140 157 161
159 175 184
146 163 169
148 164 170
154 171 178
145 160 161
149 165 174
150 167 174
149 164 169
144 160 168
161 177 185
140 156 158
155 172 179
150 168 176
110 131 120
118 138 127
130 148 146
156 174 182
161 178 185
151 168 174
155 172 179
160 176 186
142 159 161
147 163 168
147 163 165
85 110 77
121 139 135
157 173 179
164 181 195
155 171 178
159 176 183
162 180 189
156 172 178
164 180 189
150 167 174
160 177 187
166 182 192
150 167 173
89 114 87
106 127 109
132 151 148
149 165 171
158 174 182
167 186 198
154 171 178
162 179 191
167 185 197
156 173 180
90 114 90
78 105 65
75 102 61
81 109 67
77 105 64
87 113 84
127 148 141
157 175 184
151 169 175
79 106 70
75 102 62
81 109 67
79 106 66
78 106 65
130 149 143
155 174 184
175 190 204
170 187 200
168 184 194
156 172 182
160 178 187
129 148 143
96 120 96
75 102 62
75 102 61
137 155 154
163 180 190
162 179 190
157 174 183
159 176 189
137 154 153
98 120 95
77 104 64
71 97 59
75 102 63
72 98 58
71 96 57
74 101 62
74 101 61
77 103 63
78 105 64
113 132 122
115 135 126
81 104 75
74 101 61
74 101 60
77 104 63
74 100 60
75 101 60
76 103 63
71 97 57
74 100 61
112 132 121
145 162 165
163 179 190
153 171 179
135 153 154
98 120 103
104 126 109
160 176 187
150 166 173
149 166 171
157 173 181
152 167 175
149 165 171
156 172 179
149 165 169
154 170 177
155 173 179
152 169 178
149 166 171
158 175 185
160 176 185
139 156 159
131 150 149
105 127 108
77 102 65
160 176 184
156 171 179
144 160 167
154 170 177
147 162 168
153 169 177
150 166 171
152 169 178
155 171 179
148 166 174
152 166 172
144 161 165
160 176 187
148 164 167
156 171 178
155 172 181
141 156 160
143 160 163
139 156 155
93 114 94
117 138 129
130 147 147
159 176 185
141 158 159
153 169 175
149 164 169
148 164 173
159 174 181
160 176 184
143 159 163
145 161 165
138 154 158
137 153 153
153 168 177
158 173 180
162 177 187
165 180 190
149 165 172
95 114 97
70 95 57
69 94 56
71 97 58
64 88 51
67 92 55
72 98 59
70 94 56
69 93 56
66 91 53
75 96 69
104 124 111
132 149 151
148 164 170
148 162 169
143 159 164
142 157 160
146 161 168
139 157 163
144 160 164
79 103 71
67 91 54
68 92 55
68 92 54
73 99 59
67 91 53
72 97 58
70 94 56
67 91 55
67 91 54
58 80 46
69 93 56
74 99 60
68 92 54
63 86 50
62 86 50
72 97 59
69 94 56
73 98 59
80 100 78
158 175 182
155 171 181
150 167 176
144 160 164
130 147 147
148 164 171
129 144 146
141 156 160
146 161 168
142 157 162
140 156 160
137 153 155
104 124 111
108 125 116
80 101 79
72 96 60
74 99 60
66 90 53
68 92 55
94 113 100
134 151 151
144 160 164
136 153 153
133 149 149
144 159 166
145 161 166
134 149 152
129 145 148
131 148 148
145 161 165
143 159 164
140 156 158
130 145 148
139 155 157
145 162 170
146 162 167
137 154 156
140 156 160
136 151 155
124 140 139
68 93 55
67 92 55
67 91 54
63 86 51
65 89 52
67 91 55
66 91 54
65 89 52
62 85 49
65 88 52
67 91 54
66 90 53
67 91 53
71 95 57
64 87 51
73 98 60
70 95 57
63 87 52
67 91 54
137 151 153
133 148 153
144 159 164
126 143 141
146 161 167
137 154 155
150 167 174
142 158 161
145 159 163
147 161 167
152 168 177
145 162 169
139 155 157
134 150 152
144 160 164
139 155 157
142 157 164
136 153 154
138 154 155
121 139 137
68 93 56
67 91 54
73 96 64
75 97 70
87 107 86
98 117 102
92 110 97
104 122 112
107 125 116
118 136 130
117 135 132
128 144 143
127 144 143
129 146 146
138 155 160
138 154 157
144 159 164
144 160 165
126 142 142
63 87 51
66 91 53
63 87 50
69 93 56
63 86 50
67 91 54
63 87 51
63 86 51
67 91 54
65 89 52
66 90 53
71 95 56
66 90 53
71 97 57
65 89 51
68 92 55
63 87 51
71 94 59
137 155 160
152 167 175
147 162 167
151 167 175
153 168 177
145 160 169
149 164 171
148 164 168
143 159 162
151 167 174
139 154 158
149 165 171
140 155 160
134 150 153
143 158 165
147 162 168
149 164 169
143 159 163
74 98 65
73 98 59
69 94 56
67 91 54
71 96 57
60 83 48
68 93 54
63 86 50
64 88 51
67 92 54
70 94 57
71 96 57
65 89 53
70 95 56
69 93 55
69 94 56
67 91 54
123 140 137
147 163 168
146 163 167
146 162 167
142 160 163
129 145 146
134 150 149
135 153 151
128 145 140
124 142 139
103 122 105
107 125 116
100 119 104
94 117 92
90 111 87
85 106 82
109 129 118
137 153 158
149 165 172
146 163 169
155 172 180
152 168 176
152 168 175
149 166 172
157 173 183
157 174 181
152 168 176
159 175 184
151 167 171
153 171 180
148 162 164
140 157 162
117 136 127
70 95 56
68 93 55
71 96 57
69 94 55
64 88 52
70 96 57
74 100 61
78 106 65
68 93 54
76 103 63
72 98 58
72 98 59
75 101 62
79 102 71
141 158 160
159 175 184
149 165 171
157 174 183
150 167 174
147 165 168
143 160 162
149 166 172
150 167 173
156 172 180
149 167 173
164 179 189
160 176 187
128 145 142
77 102 70
74 100 60
71 96 58
80 105 75
118 137 129
133 151 151
141 159 161
134 151 148
109 129 116
74 100 59
68 93 55
74 100 61
135 153 153
152 169 177
145 162 169
160 177 187
171 187 198
160 177 186
161 177 189
164 181 191
144 161 167
152 169 174
152 168 176
133 151 149
86 109 86
74 100 61
74 101 61
88 112 85
130 148 142
142 159 162
152 170 178
155 172 179
156 172 181
146 164 170
92 114 91
78 106 65
78 106 65
75 103 63
76 103 62
75 103 63
84 113 70
95 118 93
114 135 123
82 108 74
80 108 66
76 103 63
78 106 65
164 182 197
166 183 196
156 172 176
155 171 178
160 179 187
122 141 137
82 106 76
75 102 61
78 106 66
73 99 60
77 104 65
146 163 170
162 178 190
162 180 191
116 136 129
84 110 72
80 108 66
74 100 60
74 100 60
77 104 63
73 98 59
76 102 62
77 104 63
72 97 58
76 103 65
123 142 133
149 168 175
107 127 113
74 100 60
80 108 66
78 104 64
73 100 60
73 99 60
77 104 63
77 103 63
74 101 61
73 99 59
73 99 60
77 103 63
101 121 106
139 156 156
82 104 79
75 101 61
75 102 63
98 119 99
155 171 178
149 166 175
149 164 170
152 169 177
159 175 183
148 164 170
147 164 170
159 175 181
152 168 172
158 175 183
160 176 185
156 171 177
121 139 137
105 124 109
66 91 53
72 98 58
72 98 58
69 95 56
151 168 173
145 162 167
154 171 177
149 165 171
151 168 174
147 164 167
154 171 179
142 159 165
148 164 169
150 166 170
146 162 168
165 181 193
151 168 173
142 158 163
153 170 177
151 166 172
134 151 146
128 145 141
85 107 84
147 165 171
152 168 175
150 167 172
149 164 171
161 177 187
148 164 170
155 171 177
152 169 176
151 165 170
154 169 177
145 161 165
161 178 187
158 174 182
148 164 169
152 168 175
147 164 169
153 169 175
157 173 180
148 164 172
105 123 116
69 93 55
66 90 54
69 94 56
76 101 61
73 99 60
77 101 69
90 110 90
128 147 146
143 161 161
148 164 168
155 170 178
139 155 158
144 160 165
161 176 185
157 173 181
148 164 170
140 156 157
149 163 169
148 165 171
95 115 100
70 95 57
65 89 52
63 86 49
70 96 57
66 90 52
61 84 49
68 92 55
68 92 55
64 89 52
71 97 58
59 82 46
65 89 52
58 80 46
63 86 50
71 96 58
72 98 58
66 90 53
71 96 58
67 91 54
138 154 158
138 153 159
145 160 165
144 160 166
146 162 170
137 154 158
124 140 135
111 128 121
89 108 93
88 108 92
70 94 56
69 94 56
70 95 56
68 91 54
70 95 55
65 89 53
66 90 54
64 87 51
66 89 52
70 94 56
141 159 163
137 153 156
139 155 158
154 170 176
145 162 169
143 158 163
142 158 160
144 160 166
142 157 163
152 167 176
127 143 143
133 149 151
141 157 160
143 159 163
141 157 159
146 163 168
148 164 172
142 157 163
140 156 158
149 165 171
75 97 69
68 92 56
64 88 50
72 98 59
69 94 57
68 92 55
70 94 56
65 89 52
72 98 58
65 89 52
65 89 52
72 97 59
67 92 55
70 95 58
62 86 50
63 87 50
63 86 49
70 94 56
67 91 54
93 114 95
147 163 170
141 157 162
144 159 166
150 166 172
148 165 171
127 143 143
140 157 162
129 146 147
148 164 173
144 160 165
137 153 157
128 145 147
146 162 166
122 140 134
121 138 133
126 142 139
98 116 101
85 105 84
97 115 102
137 153 156
140 156 161
146 163 170
144 161 166
144 160 166
141 157 161
137 152 156
140 156 162
139 155 159
143 158 162
156 171 177
138 154 157
136 153 158
145 161 166
129 146 147
141 157 160
141 157 161
152 166 172
146 162 170
86 108 83
64 88 51
69 94 54
67 91 54
72 97 58
69 94 56
69 93 56
66 89 53
67 91 54
68 93 55
63 87 51
66 90 53
71 97 58
66 91 54
70 96 58
69 95 56
71 96 57
66 90 53
107 124 116
137 152 155
138 153 155
157 171 179
141 156 162
135 152 155
142 159 160
144 160 163
143 159 166
137 153 157
144 160 165
143 160 162
152 167 174
149 165 171
150 166 170
139 155 159
139 155 158
155 170 179
127 144 142
67 92 54
65 88 52
69 95 56
67 91 54
68 93 55
68 93 54
69 94 56
73 99 60
75 101 62
73 99 59
64 88 52
65 89 52
69 94 56
70 96 58
70 95 57
66 91 53
86 108 83
153 168 173
151 168 176
150 167 173
152 168 175
154 170 179
144 159 164
147 162 169
143 159 162
140 156 163
152 169 174
151 167 176
153 169 177
154 171 181
138 155 156
146 161 167
148 164 170
113 132 119
87 109 83
109 130 117
100 120 106
107 126 112
118 136 131
127 144 139
124 141 136
145 163 166
139 154 158
143 158 167
151 165 172
152 169 174
148 164 168
141 159 165
149 165 172
103 123 112
69 93 55
69 94 56
73 98 59
65 89 52
72 98 58
69 95 57
77 104 64
74 100 60
74 101 61
67 92 54
73 99 60
67 91 54
76 103 63
86 109 83
144 160 163
155 171 178
152 168 174
151 167 174
143 161 163
163 180 191
157 173 181
153 168 175
159 175 183
141 157 159
162 178 188
146 163 166
149 166 173
137 155 155
75 102 61
71 97 58
77 104 63
74 101 62
81 105 74
127 145 142
154 171 177
147 164 166
124 143 140
123 141 136
78 103 69
72 98 59
130 149 145
154 171 179
162 178 188
148 165 172
149 166 173
159 175 184
159 176 186
158 176 184
161 176 187
152 169 176
142 158 160
144 162 167
87 111 85
82 111 69
77 105 63
69 95 56
76 102 62
82 107 74
121 142 133
143 161 166
164 181 191
158 177 186
109 131 117
74 101 61
80 107 65
79 106 65
75 102 62
79 106 64
80 108 66
77 104 64
81 106 74
117 137 128
116 138 124
86 112 75
149 167 173
170 187 200
163 180 190
120 141 131
81 108 69
76 104 65
75 102 62
77 104 63
79 106 65
75 103 62
83 109 75
142 160 162
113 134 124
76 102 65
75 102 62
76 103 62
76 103 63
73 99 59
74 100 60
75 103 63
78 105 65
75 102 62
94 116 89
130 148 144
157 175 185
142 160 164
164 181 192
99 119 98
77 104 63
77 104 62
73 100 60
74 101 61
69 95 57
77 103 63
75 102 62
75 102 62
90 115 83
120 140 131
151 168 177
161 177 185
159 175 187
159 175 183
141 159 161
76 99 68
89 111 92
157 175 184
156 173 180
149 166 174
160 176 186
149 166 174
157 172 181
153 169 175
154 170 178
148 165 171
139 156 157
119 139 129
80 105 71
73 99 60
77 103 62
74 100 60
69 95 56
71 96 57
72 98 59
155 172 180
153 169 176
154 170 176
149 166 171
158 173 182
155 171 178
137 155 157
136 153 154
154 171 181
153 169 175
160 175 184
159 175 181
164 180 188
130 148 148
112 132 124
79 104 72
71 97 58
67 92 55
77 103 63
145 162 168
163 180 190
154 170 177
153 167 173
150 165 173
144 161 166
147 163 168
149 165 172
141 155 161
142 158 162
143 159 164
146 163 166
151 168 175
145 163 169
140 157 160
163 178 186
156 172 181
148 164 170
139 155 159
122 139 132
62 85 49
74 99 62
94 115 96
106 126 115
121 138 137
144 161 167
150 165 170
149 166 171
149 164 170
162 177 186
155 170 176
141 157 162
137 154 157
155 170 177
146 162 168
150 165 170
152 168 177
147 163 167
137 154 160
123 141 137
68 93 55
69 94 56
69 93 56
69 93 55
69 94 56
64 88 51
70 95 57
73 98 59
70 95 57
71 96 57
67 92 55
70 95 56
67 91 55
65 89 52
68 92 54
63 85 50
72 98 59
64 87 51
75 102 61
134 152 153
142 157 162
131 147 148
99 120 106
89 111 88
68 92 58
68 92 54
75 101 61
65 88 52
68 92 55
65 90 52
63 86 49
70 94 57
68 93 55
61 85 49
71 96 58
67 92 54
64 87 50
66 89 53
63 86 49
113 131 127
150 165 172
155 170 180
143 157 164
145 161 167
146 162 166
147 163 170
145 160 165
144 159 160
136 151 153
153 168 175
147 163 171
141 158 163
154 170 180
133 149 152
142 158 165
144 160 167
141 157 161
147 163 168
148 164 168
115 134 122
63 87 51
67 91 54
67 92 54
69 93 55
57 79 44
75 101 61
71 96 58
65 89 52
66 90 54
69 94 56
66 90 52
64 87 51
72 97 58
69 93 56
67 92 55
64 88 52
64 88 52
67 92 55
70 95 56
132 148 150
144 160 166
135 152 152
127 144 143
123 140 135
121 139 137
111 129 121
90 111 87
88 110 87
74 96 66
68 92 55
64 89 51
69 94 56
67 91 54
65 89 52
62 86 50
65 88 53
68 92 55
64 87 51
104 122 112
141 156 158
141 155 160
140 155 160
130 146 147
138 155 158
131 147 149
142 156 159
134 151 152
136 152 153
149 165 173
145 161 165
140 157 164
138 154 157
152 168 175
137 153 152
152 167 173
138 155 157
147 164 168
126 142 141
65 88 53
64 88 51
62 86 50
65 89 53
68 92 55
67 92 55
71 96 57
71 96 57
67 91 54
66 90 53
73 98 59
67 92 54
69 94 57
71 96 58
65 89 53
66 90 53
66 90 53
72 97 59
134 150 150
147 163 170
141 157 163
150 166 174
142 159 161
150 166 172
144 159 162
151 168 176
137 154 158
137 153 154
158 174 181
150 165 171
145 161 166
157 173 179
153 169 176
137 153 156
144 161 165
147 162 167
105 123 112
70 94 56
71 96 57
69 93 56
71 97 58
69 94 56
69 93 55
67 93 55
67 91 54
69 93 55
67 91 54
69 93 55
71 97 58
70 95 57
71 96 57
68 93 55
71 97 59
99 120 103
151 166 173
147 163 168
146 162 169
144 160 166
152 169 177
161 177 188
148 164 169
154 170 177
156 174 182
139 155 158
148 164 172
155 171 178
147 164 168
145 162 168
144 160 167
142 158 160
99 121 104
72 97 59
72 97 58
73 99 59
68 93 56
66 90 52
66 91 52
72 97 58
73 99 59
84 109 79
87 107 88
97 117 101
98 118 103
127 144 141
135 152 152
114 133 123
84 108 77
70 95 57
72 97 59
74 101 61
70 95 56
72 98 60
67 92 54
74 100 60
67 91 54
67 91 54
70 95 57
71 97 58
74 100 60
70 95 56
90 111 88
150 167 171
160 177 186
154 170 178
155 171 181
156 173 181
148 165 169
159 175 182
160 176 185
156 173 183
152 169 177
154 170 177
151 169 178
163 180 190
127 146 140
76 103 62
83 106 81
124 143 137
153 169 178
160 177 189
158 175 186
158 176 186
160 177 189
154 170 177
160 177 187
143 161 168
135 153 151
147 163 164
144 161 164
155 172 179
169 185 196
161 177 188
163 179 192
164 181 191
163 181 191
171 187 201
159 176 185
172 190 202
157 174 183
83 108 77
75 103 63
80 108 66
75 102 61
74 100 59
76 103 63
73 99 59
81 108 75
112 132 119
117 137 124
95 117 101
79 107 66
78 105 64
78 105 65
76 103 62
76 102 62
76 104 63
78 106 65
83 109 75
123 142 136
169 187 202
149 167 171
116 136 126
80 107 68
77 104 64
80 108 67
84 113 71
75 101 62
77 104 64
77 105 64
108 130 113
141 159 162
73 99 60
79 106 64
77 104 63
78 105 64
72 99 60
77 103 63
77 104 63
82 110 67
76 103 63
97 120 97
131 150 149
153 171 178
153 170 175
158 175 183
166 183 192
153 170 177
100 121 102
74 100 61
77 104 64
74 101 61
76 102 62
72 97 58
80 106 71
113 133 121
130 149 144
159 175 182
158 176 186
158 175 179
161 177 185
160 176 186
146 162 167
165 180 191
153 169 176
124 143 139
153 171 176
151 167 173
153 169 178
168 184 197
158 175 184
161 176 185
155 171 178
125 143 139
84 107 81
75 102 62
74 100 60
71 96 58
75 102 62
71 97 58
68 94 55
71 97 58
72 99 59
71 97 58
137 154 156
142 159 164
154 172 179
144 162 166
151 167 172
150 166 174
157 172 181
156 172 180
161 176 184
148 164 170
121 139 135
113 132 119
84 108 78
73 99 60
73 98 59
68 92 55
75 100 60
75 101 62
69 94 55
136 154 156
163 179 189
150 166 172
166 182 192
160 175 184
150 165 173
158 173 181
149 165 173
153 170 177
141 155 159
151 168 176
151 167 174
156 172 179
147 165 169
153 169 175
153 168 174
150 166 175
143 159 163
153 169 175
110 129 117
117 136 128
143 159 163
146 162 168
138 154 156
151 168 174
144 160 166
155 171 180
143 160 163
140 156 161
152 168 174
149 166 172
151 167 175
149 164 168
152 167 176
148 165 171
146 162 167
138 154 159
152 167 174
157 173 179
123 141 138
67 91 53
73 98 58
69 95 57
69 94 56
70 95 58
73 98 59
70 95 56
71 96 58
67 91 53
70 94 56
68 91 54
69 94 57
70 95 57
67 91 53
64 87 51
70 95 57
92 112 97
100 120 104
139 155 159
120 137 133
68 92 56
69 94 55
68 92 54
69 94 56
77 104 63
64 88 52
70 95 57
69 94 57
67 91 54
72 97 58
69 94 56
72 98 58
71 97 58
69 94 56
72 97 58
68 93 54
72 97 58
70 94 56
69 94 56
89 109 90
145 161 166
147 163 170
147 163 169
145 160 165
147 162 169
144 160 168
139 154 160
147 164 169
153 169 176
142 159 162
139 153 158
153 169 175
149 164 170
151 166 171
151 168 175
146 161 168
141 156 160
147 164 170
137 153 152
131 147 148
65 89 52
64 88 52
61 84 49
67 91 53
62 85 50
72 97 58
67 92 54
71 97 59
66 91 53
62 85 50
66 90 53
73 99 60
71 94 61
83 105 78
94 112 98
113 132 124
122 140 135
123 140 136
130 146 141
120 136 131
66 89 52
69 94 56
66 90 53
65 89 53
66 90 53
68 93 55
69 94 56
70 95 57
66 91 54
68 93 55
69 93 55
68 92 55
70 95 57
69 94 56
67 92 54
65 90 53
65 89 53
70 95 57
70 94 59
138 155 156
143 159 165
141 157 163
141 158 159
145 161 167
142 158 162
146 161 166
141 158 162
143 159 166
153 169 176
153 167 173
147 163 167
145 161 168
149 165 172
136 153 157
148 162 166
140 155 159
127 144 144
135 151 153
89 110 89
70 95 57
69 94 56
66 90 54
67 91 53
73 100 60
66 91 53
71 97 58
67 92 54
70 95 57
68 92 54
69 93 55
71 96 58
68 93 55
70 94 57
70 95 58
68 92 54
65 89 52
87 109 83
145 161 166
149 165 172
140 156 161
141 157 160
141 157 162
144 161 167
147 162 170
153 170 173
136 152 156
147 162 168
151 165 173
146 162 165
142 159 162
134 151 152
143 158 161
147 164 169
140 156 162
150 165 172
75 99 65
69 93 56
64 88 51
73 98 60
70 95 57
67 91 54
71 96 58
64 88 51
65 89 51
69 94 56
68 93 56
71 96 58
67 91 53
66 91 53
66 91 53
64 87 50
73 99 59
131 148 146
144 160 164
149 166 171
140 156 161
155 171 181
150 165 170
143 158 163
148 163 168
153 169 173
144 161 165
153 169 176
151 168 176
164 180 189
137 152 157
150 167 173
145 161 168
140 156 161
71 95 60
71 96 58
74 101 61
74 100 61
71 97 59
70 95 57
70 96 57
73 99 61
75 101 60
68 92 55
73 99 59
71 96 57
73 98 59
73 99 60
70 95 57
98 118 104
148 164 168
142 159 163
140 157 161
127 145 142
115 133 124
113 133 122
86 109 84
77 102 70
75 101 61
72 96 58
70 96 57
73 99 59
73 99 59
69 94 56
114 133 123
152 167 174
162 178 188
161 178 187
158 174 184
156 172 181
151 168 175
170 187 200
156 173 183
158 174 183
160 177 185
155 171 180
151 167 174
143 160 166
113 132 123
151 168 172
145 162 163
162 178 188
164 179 188
156 172 180
156 173 181
155 172 179
163 180 191
160 177 189
156 174 184
150 166 171
174 191 205
97 119 95
92 114 89
113 133 118
140 157 158
149 166 170
155 173 181
149 166 172
166 183 193
159 176 185
161 177 187
152 170 179
159 177 187
95 119 94
75 102 62
76 104 63
79 106 64
81 108 66
74 100 60
78 105 64
74 101 61
76 103 64
73 100 60
108 128 115
119 139 131
85 110 77
78 106 64
80 108 65
83 111 69
81 110 68
74 100 60
78 106 64
126 147 139
80 108 66
74 102 63
77 104 64
75 101 61
77 104 64
78 105 64
76 103 62
111 133 118
157 174 180
164 182 194
132 152 150
79 106 65
79 107 66
74 102 61
76 102 61
81 107 65
78 105 64
80 106 70
119 139 130
155 172 180
160 178 184
166 183 196
166 183 192
150 167 172
165 182 195
162 178 186
167 184 197
83 108 79
79 106 65
74 101 61
75 101 60
81 106 70
118 137 129
157 173 182
150 167 174
155 170 177
159 175 186
160 177 187
151 170 177
156 173 182
152 169 175
171 186 197
157 175 183
163 179 190
151 168 173
73 99 60
102 123 105
137 153 155
152 169 176
121 139 133
94 114 97
75 101 61
71 97 58
75 102 62
76 103 63
76 102 62
73 99 60
76 102 62
71 97 58
72 98 59
72 98 58
68 94 55
70 96 58
150 167 171
164 179 187
166 182 194
139 158 159
153 170 177
151 168 174
156 173 181
143 159 164
110 131 119
78 102 70
74 99 60
74 99 60
71 97 58
71 96 57
71 96 58
73 98 58
76 103 63
76 102 62
74 100 60
121 138 137
143 160 166
159 175 185
151 167 174
159 175 187
148 165 172
147 164 167
155 170 179
146 163 167
147 164 168
148 165 170
144 160 164
158 174 183
146 164 171
161 179 189
141 158 161
119 138 132
100 121 106
74 99 63
72 96 61
138 153 159
161 178 185
149 165 173
147 164 168
155 170 180
141 156 157
168 184 197
147 163 168
154 171 176
139 156 161
145 160 163
159 174 182
144 159 165
147 163 167
137 152 153
152 168 175
141 157 161
158 173 182
147 163 167
144 161 164
65 88 52
69 94 55
70 95 57
75 101 61
74 100 60
68 93 55
73 97 59
72 98 58
64 88 51
69 94 56
66 91 53
77 102 67
106 126 116
119 137 128
136 151 154
139 157 156
153 169 177
157 172 179
137 153 154
143 158 162
76 101 67
67 92 55
70 95 56
73 99 60
67 91 54
69 93 55
70 94 57
74 101 61
70 95 56
67 92 55
69 94 56
72 98 59
71 96 58
69 93 56
71 97 58
65 90 53
71 96 58
68 92 54
71 97 57
69 94 59
139 153 157
158 174 184
152 167 175
144 160 164
142 159 164
143 160 164
146 160 169
151 168 172
137 154 155
150 165 170
146 160 164
148 164 170
150 165 173
141 158 164
134 151 154
146 162 169
138 153 159
143 160 163
147 163 169
148 162 167
87 109 88
65 89 52
65 89 53
74 100 61
71 97 58
69 93 56
92 114 88
80 100 77
113 132 124
120 139 136
123 141 136
148 164 165
138 155 158
149 165 174
148 165 172
150 166 173
151 166 171
141 157 160
146 161 166
130 145 144
80 104 74
63 86 50
68 92 53
64 88 53
68 92 55
72 98 59
68 92 54
73 98 58
68 94 55
73 98 59
65 89 52
71 96 57
68 92 54
65 89 52
64 87 51
61 84 48
68 92 54
69 93 55
71 96 58
100 120 104
154 170 176
151 168 175
154 169 175
151 167 176
147 163 167
141 157 162
143 159 164
157 172 181
153 169 177
150 166 175
144 160 166
146 161 167
149 165 174
137 153 156
145 162 166
153 168 175
143 159 165
149 165 171
127 143 144
67 91 54
69 94 56
69 95 56
66 90 54
75 101 62
68 92 54
72 97 58
69 93 55
71 97 58
68 92 55
69 94 57
69 93 55
68 92 55
77 104 63
69 94 56
68 93 55
72 98 60
67 91 54
109 128 120
152 168 175
144 161 167
146 163 167
143 159 164
149 164 170
146 163 169
143 160 166
163 178 190
156 172 180
148 165 172
158 174 182
152 168 176
158 172 183
153 170 177
149 164 171
147 164 170
141 156 159
118 136 129
70 95 57
61 85 49
66 90 53
68 93 55
67 92 54
69 93 55
69 94 56
67 91 55
75 101 61
65 89 52
65 90 53
69 93 56
69 95 56
68 92 55
70 95 57
70 96 57
80 103 76
144 161 167
155 171 178
144 159 162
150 166 175
153 170 176
135 151 152
153 170 180
146 164 170
152 167 175
155 170 178
141 157 161
157 173 183
149 165 169
153 169 177
152 168 173
143 159 164
134 151 150
69 95 57
75 101 61
74 100 60
71 97 58
71 97 59
70 95 57
76 102 62
75 101 61
70 95 56
73 100 60
72 97 58
73 98 58
73 99 59
73 99 60
70 96 57
120 139 133
145 160 166
157 175 183
162 178 188
155 172 178
154 172 177
156 171 180
166 181 192
153 170 175
140 157 160
134 152 154
123 142 134
108 128 116
98 121 99
73 98 62
129 148 149
145 160 170
143 159 165
159 176 186
150 165 171
153 170 176
159 175 186
143 161 166
156 173 181
158 176 182
124 143 141
90 112 89
77 104 63
72 97 58
125 143 138
158 175 185
152 168 176
150 167 170
163 180 189
149 166 173
154 171 179
162 178 187
155 172 179
157 173 180
147 165 171
155 170 176
155 173 181
104 126 109
72 98 58
74 100 60
74 100 59
90 114 88
106 127 109
130 149 143
153 169 175
158 176 185
164 182 192
154 173 180
155 173 182
85 112 77
77 104 63
74 101 60
72 98 59
76 104 63
77 105 63
78 105 64
74 101 61
76 103 63
81 110 67
128 148 142
168 185 199
148 167 171
123 144 136
84 110 75
77 105 65
76 103 64
73 100 60
76 104 63
80 107 65
79 107 66
75 102 63
76 104 64
94 120 93
136 156 154
155 173 180
166 183 194
164 181 190
154 171 178
117 137 126
83 111 68
77 105 65
77 105 64
75 102 63
92 115 92
127 145 143
159 177 183
154 170 176
167 184 196
172 189 202
165 181 192
168 186 199
161 177 187
167 184 196
163 180 191
162 179 188
81 105 71
80 108 66
102 125 102
130 149 148
163 179 188
161 177 186
161 178 189
153 170 175
158 173 184
166 182 192
155 172 181
149 166 172
162 178 188
161 177 187
155 172 176
164 179 190
162 178 188
141 158 158
72 98 59
111 131 120
137 155 154
137 154 157
136 154 156
115 133 120
74 101 61
73 100 60
74 100 60
70 95 56
69 95 56
78 105 64
71 96 57
73 99 59
70 96 57
76 104 64
67 92 54
71 96 57
129 147 144
147 163 167
155 171 179
157 174 181
138 156 156
120 139 132
78 104 70
74 100 61
68 94 56
75 101 61
75 100 60
75 100 60
72 98 59
70 96 58
69 94 56
66 91 54
69 96 58
74 100 61
72 98 58
114 134 124
154 170 176
151 166 171
153 169 174
144 160 168
150 165 169
153 169 179
154 170 179
164 179 189
155 171 179
148 165 168
149 165 171
133 150 148
119 139 126
88 112 83
75 101 61
71 96 58
71 96 57
70 95 57
67 93 56
148 165 172
152 168 177
150 167 172
158 174 181
147 163 170
150 165 172
146 161 166
152 168 174
151 167 172
152 168 172
157 174 184
147 164 169
147 163 167
149 163 171
154 169 176
142 158 162
144 159 162
152 167 175
142 158 161
145 162 166
85 107 81
73 99 60
70 96 57
70 94 56
72 98 59
70 96 57
72 97 59
101 121 105
101 120 109
133 150 151
139 155 160
151 167 173
150 168 175
148 163 171
152 168 175
140 156 160
137 153 155
144 161 167
155 171 178
138 154 157
98 119 103
67 91 54
71 96 57
68 93 55
69 94 56
65 88 52
68 92 55
71 96 57
70 95 56
64 88 51
71 96 57
76 102 62
66 91 53
72 97 59
65 89 52
70 95 57
71 96 58
72 98 58
69 94 56
70 96 58
135 152 156
140 157 158
151 167 175
147 164 168
147 162 167
147 162 169
139 155 159
150 166 173
144 160 163
137 154 158
138 154 155
149 165 172
153 168 173
146 161 162
150 166 174
140 157 162
145 161 164
152 167 174
145 162 167
141 157 158
104 123 110
112 130 121
112 130 125
117 135 132
130 147 147
142 157 161
139 155 156
146 162 168
146 163 169
142 158 162
150 167 174
148 164 167
142 158 160
151 167 173
136 153 157
138 154 156
149 164 170
137 153 156
146 162 169
154 169 176
122 140 137
69 94 56
60 84 48
71 96 56
69 94 56
69 94 56
64 88 51
67 92 55
64 88 52
71 96 58
70 95 57
64 88 51
65 88 52
58 80 45
68 93 55
67 92 54
72 97 58
67 92 55
73 97 59
71 95 60
142 159 161
146 162 168
140 156 162
138 155 160
147 161 168
145 162 166
140 155 161
149 164 171
144 158 163
149 164 171
142 160 163
145 161 166
150 165 169
154 170 176
150 165 173
150 165 171
151 168 174
156 172 182
156 170 178
98 118 103
69 94 55
63 87 51
65 88 52
67 92 54
65 89 53
72 97 59
68 93 55
70 95 56
69 94 56
67 92 55
62 85 50
69 94 57
69 94 56
67 91 54
69 92 55
73 98 59
72 98 59
79 100 73
147 162 168
149 164 169
136 152 158
132 147 148
152 168 173
148 164 170
162 177 187
155 171 179
144 159 162
149 166 171
137 153 156
144 160 166
146 161 166
153 169 177
155 171 180
148 163 170
141 156 160
150 166 173
86 108 85
69 94 56
69 93 56
70 96 57
72 97 59
76 102 62
77 104 63
70 96 57
70 95 57
70 96 58
74 100 60
71 96 58
71 96 57
70 96 58
69 94 56
68 93 56
69 94 55
89 111 90
139 156 158
145 162 167
156 172 179
158 173 181
147 165 171
152 168 174
155 171 177
145 162 163
145 161 166
156 172 179
155 172 180
145 160 165
159 176 188
154 170 177
148 165 169
147 164 174
106 126 115
67 92 55
72 97 58
73 99 60
70 95 57
73 99 60
74 100 60
71 96 57
73 99 60
71 97 58
76 102 61
73 99 60
72 98 59
74 100 60
71 97 59
72 98 59
127 145 142
152 167 175
152 169 174
146 162 164
147 162 165
158 175 185
146 162 166
157 173 184
162 179 189
159 176 185
157 173 179
155 173 181
159 175 183
155 171 181
152 167 173
128 146 143
109 127 118
129 147 145
137 155 158
147 165 171
163 179 190
136 154 156
104 125 111
81 104 74
66 92 54
75 102 62
75 101 61
71 97 57
71 97 58
124 142 137
149 165 168
163 180 190
158 174 181
151 168 174
162 178 189
149 166 172
157 173 182
160 177 187
157 175 186
153 170 176
159 176 183
164 180 190
95 115 98
73 100 60
76 104 62
77 104 63
71 97 58
74 100 61
73 99 59
94 116 91
120 140 133
133 152 148
157 175 184
150 167 170
86 110 85
80 107 66
76 104 62
76 103 63
76 103 63
77 104 62
77 104 64
75 102 62
75 102 62
75 102 63
122 144 135
157 175 183
167 185 197
161 178 187
145 164 167
127 148 142
83 109 70
74 101 61
75 102 61
79 106 64
92 116 87
130 150 141
152 169 176
167 185 198
155 172 179
163 181 192
158 175 184
168 184 193
102 125 105
74 100 60
72 98 59
107 127 111
139 158 160
156 173 180
162 178 188
157 174 182
153 169 177
167 185 199
158 175 186
162 178 187
157 174 182
161 178 189
165 182 192
164 180 190
148 166 172
116 136 130
160 176 184
152 169 176
160 177 185
166 182 192
158 175 184
160 177 186
167 184 194
164 179 189
162 177 185
163 179 190
157 175 185
151 168 172
150 168 175
163 178 187
154 170 177
137 155 155
115 134 125
163 178 186
157 174 184
161 178 188
155 171 181
148 165 170
164 180 192
138 155 159
131 149 147
101 123 105
76 103 62
76 103 63
75 101 61
73 98 59
74 100 60
72 97 59
79 106 64
78 105 63
75 102 63
134 153 152
137 154 154
114 133 120
67 91 57
74 101 61
72 98 59
70 95 56
68 92 54
66 90 53
64 87 51
75 101 61
70 96 57
70 96 59
74 100 61
73 98 60
73 98 59
67 92 55
70 95 55
72 98 58
105 125 111
160 176 185
148 164 171
146 162 166
150 167 174
156 172 181
154 169 174
144 159 164
137 154 154
125 144 138
97 116 100
72 97 59
73 98 59
72 98 59
71 97 59
71 97 58
72 98 59
78 104 64
73 100 60
68 93 55
130 146 147
143 160 166
144 161 168
146 162 169
161 177 186
159 174 183
147 163 169
143 159 163
150 166 171
140 156 157
146 162 166
151 168 177
142 158 163
149 166 173
147 163 170
151 167 174
147 164 171
153 169 175
137 154 155
153 168 178
108 127 113
69 94 56
69 94 55
102 123 104
111 129 116
136 154 154
147 163 166
148 164 168
147 164 170
140 157 156
143 159 163
151 166 169
145 161 167
157 173 181
150 166 172
151 166 171
150 167 175
148 164 169
148 163 167
146 162 167
121 139 135
70 94 56
68 92 54
70 94 56
66 90 53
75 101 61
72 98 58
67 92 55
69 93 56
73 98 59
67 92 54
71 97 58
69 94 56
64 87 52
70 95 56
74 98 59
68 93 55
65 88 51
70 95 56
73 98 58
94 115 98
142 158 164
135 151 153
144 161 165
160 175 185
137 155 161
147 163 168
151 168 177
135 151 151
141 157 161
142 159 165
148 163 169
140 157 161
131 147 147
136 153 153
117 135 128
97 117 101
75 99 65
76 99 70
67 91 53
95 117 99
143 159 165
158 173 183
142 160 163
141 157 160
144 160 166
150 166 172
142 159 162
143 160 166
156 172 180
151 167 174
138 155 159
150 166 172
151 167 174
150 166 173
143 160 164
141 157 160
143 159 163
136 153 154
147 162 167
132 148 148
72 96 63
64 88 52
71 96 57
66 89 54
66 91 53
74 100 60
70 95 58
64 88 52
68 92 54
64 87 50
71 95 58
71 95 57
64 88 52
65 90 53
68 92 54
68 93 55
73 99 60
66 90 53
72 97 58
94 114 97
150 167 171
143 159 162
142 157 162
153 169 176
154 171 178
144 160 165
156 171 180
150 166 173
141 156 160
139 155 159
148 165 171
149 166 172
148 163 168
143 159 165
138 154 158
141 157 160
157 172 181
148 164 172
145 162 166
71 95 59
69 94 56
69 94 56
63 87 51
70 94 56
70 95 57
70 95 56
64 87 50
67 92 54
67 92 55
70 95 57
67 92 54
70 95 57
71 96 58
71 96 58
70 96 58
65 89 52
67 91 55
109 127 119
143 159 166
146 163 169
153 170 177
152 167 171
147 163 166
149 165 172
148 164 170
152 169 175
145 161 167
157 172 182
147 163 169
144 161 165
143 158 162
146 163 169
154 169 176
154 171 178
145 162 168
134 150 151
74 99 63
69 94 56
71 96 58
71 97 58
71 96 58
69 94 55
70 95 57
71 97 58
71 96 58
70 95 56
69 93 55
68 93 54
68 93 54
71 97 58
71 97 58
75 100 61
68 93 56
133 150 151
147 166 172
156 172 184
157 174 183
155 172 180
158 174 185
145 162 167
156 172 179
153 169 178
162 179 188
157 173 182
152 168 175
155 172 179
147 163 169
153 169 176
152 169 178
154 170 177
96 117 98
77 103 62
67 92 54
75 101 62
73 99 60
68 94 56
73 98 60
71 96 58
70 96 58
73 99 59
74 101 62
68 94 56
73 98 59
69 94 56
73 98 59
79 104 71
144 161 167
156 173 180
149 166 175
153 170 177
152 168 174
149 166 172
153 170 177
156 172 182
153 171 180
156 172 179
153 170 176
161 177 187
156 171 178
164 180 188
151 168 174
88 113 85
70 96 57
100 121 105
128 145 144
145 161 164
144 162 165
129 147 146
113 133 126
95 118 95
69 93 55
79 106 64
77 104 63
74 100 60
82 107 74
149 166 172
147 164 169
157 173 180
159 176 187
158 175 185
163 180 192
156 173 181
157 173 182
160 177 189
157 174 184
158 175 185
152 170 176
162 179 191
97 119 97
75 103 62
79 106 65
77 105 64
75 102 62
73 99 59
75 103 62
78 106 64
74 100 60
82 109 71
105 127 110
115 136 125
87 111 83
79 105 66
79 107 66
75 101 61
80 108 67
80 108 67
74 101 61
77 105 64
77 104 63
79 107 66
118 137 129
163 179 189
168 186 199
165 181 191
157 174 185
173 189 202
152 171 174
89 115 86
140 160 161
171 189 201
171 187 199
159 177 189
158 175 185
170 187 201
160 179 189
157 175 184
169 186 199
93 119 90
116 138 125
146 163 167
162 178 188
168 186 197
164 180 192
161 176 183
158 174 183
154 171 181
165 182 195
155 172 179
165 181 194
169 185 195
162 180 191
137 156 156
110 131 119
93 115 94
165 183 196
160 177 189
167 183 193
164 180 189
159 175 183
158 175 186
158 173 182
166 183 194
166 182 191
159 176 185
152 168 175
158 176 184
165 181 193
160 177 185
126 144 138
95 119 98
75 102 62
101 123 105
163 180 192
156 173 179
158 175 186
165 182 192
152 168 175
160 176 185
151 168 176
169 185 197
154 170 179
160 176 184
133 150 150
94 116 96
72 99 60
70 96 57
72 97 58
75 101 61
100 121 102
124 142 134
112 133 122
73 99 60
69 93 56
67 91 52
73 98 59
75 102 62
74 101 61
73 99 60
74 100 60
71 97 58
75 101 61
69 94 56
72 98 58
74 100 61
73 98 59
67 91 54
72 98 59
74 100 60
71 97 58
99 118 105
155 172 180
151 167 174
147 163 171
153 169 175
142 159 160
121 139 133
99 121 98
73 98 58
72 98 59
71 96 58
74 99 60
76 102 63
73 99 60
75 102 62
67 91 54
69 94 56
70 95 57
66 90 52
66 90 53
109 129 117
142 158 159
154 170 178
161 177 186
149 166 170
142 158 162
150 166 172
155 171 179
141 157 162
162 178 188
150 165 174
153 170 178
158 173 182
145 162 167
157 172 179
164 180 191
147 162 164
151 167 174
152 168 175
148 164 168
122 140 132
139 157 159
141 158 163
148 164 169
159 175 186
148 164 171
147 163 169
155 168 175
151 167 176
144 161 169
143 159 165
156 173 182
157 173 180
152 169 176
136 153 156
140 157 160
154 170 178
148 163 168
150 165 172
147 163 170
143 159 163
72 98 58
65 89 51
70 95 57
75 102 61
66 89 52
71 96 58
69 94 56
76 103 62
71 96 58
66 91 53
68 92 54
75 100 61
67 91 53
72 98 59
70 94 56
65 90 52
70 95 56
69 93 56
69 94 55
68 91 57
138 153 158
138 153 155
150 167 174
148 164 166
146 162 166
145 162 165
140 156 160
127 145 145
114 133 123
99 119 102
90 111 93
76 99 67
69 93 56
72 97 59
65 89 52
72 97 57
70 96 57
68 93 55
68 92 56
70 95 56
125 140 142
155 171 178
142 158 161
148 163 168
149 166 170
155 171 178
151 167 173
153 169 177
146 162 167
154 171 177
146 163 169
152 167 173
148 165 173
152 169 176
144 159 165
155 170 177
146 161 166
148 166 173
150 166 171
137 153 156
107 127 113
71 96 58
72 96 58
64 88 52
71 97 58
70 95 57
63 86 50
69 93 55
66 90 53
64 89 52
71 96 58
69 93 55
66 91 54
70 95 57
70 95 56
74 100 60
71 95 56
73 98 59
70 94 55
72 96 61
143 159 165
155 171 179
156 171 180
149 164 168
153 169 177
135 152 155
136 152 154
146 162 171
151 167 175
152 167 172
146 163 170
150 166 173
154 169 177
149 165 173
146 162 166
141 157 163
150 164 170
142 159 163
149 164 173
102 120 109
67 91 53
70 95 57
68 92 55
74 100 61
69 95 57
66 91 53
66 91 53
67 92 54
64 89 51
68 92 54
72 97 59
67 91 53
72 97 58
71 95 57
71 96 57
68 93 55
67 92 55
67 92 54
144 160 161
154 170 178
158 174 183
150 165 173
146 162 168
144 159 165
147 163 169
156 173 181
136 153 153
156 171 180
146 162 167
152 167 176
151 168 177
152 168 173
158 173 181
158 174 181
156 171 179
141 157 161
92 113 94
70 95 56
69 95 57
69 94 56
74 100 60
72 97 59
67 92 55
70 96 57
73 99 60
75 101 60
70 96 57
64 88 51
70 95 58
69 94 56
72 97 58
74 101 61
71 96 58
71 96 60
145 163 165
156 172 182
153 170 178
152 169 175
155 171 180
148 164 168
151 169 174
144 161 168
154 171 182
161 178 188
148 163 169
150 165 172
156 173 181
156 171 178
151 168 174
151 168 174
135 153 155
75 99 66
74 101 61
72 99 59
75 102 62
71 97 59
73 99 59
72 98 59
69 95 57
74 99 58
68 93 55
72 98 59
71 97 58
69 94 56
75 102 62
76 102 62
111 132 117
162 178 186
165 181 193
166 180 191
153 171 180
159 175 183
152 169 175
158 174 184
158 173 182
165 182 193
160 176 183
159 176 186
153 170 178
144 159 158
134 154 153
109 130 117
135 153 152
160 177 186
155 173 182
154 171 181
153 170 177
162 179 190
148 167 173
160 177 188
148 165 169
146 162 164
131 150 150
110 130 119
92 115 92
94 118 94
160 177 186
159 175 182
156 175 184
162 179 189
166 183 196
155 172 180
162 179 191
155 173 179
156 173 180
160 177 187
162 179 188
159 176 184
157 173 179
95 119 96
78 105 64
78 105 65
76 103 62
72 98 59
78 105 64
74 101 62
77 104 64
77 105 64
74 101 61
78 106 65
97 120 101
148 166 172
133 152 146
108 128 119
88 114 80
77 103 63
78 105 63
75 102 62
78 106 64
76 104 63
77 104 63
106 129 111
154 171 175
163 180 189
168 185 196
164 181 191
162 180 190
163 181 194
178 194 208
155 173 181
157 174 182
167 184 197
166 184 195
166 184 193
161 178 187
159 176 183
149 168 173
162 179 189
165 182 195
167 185 198
152 169 176
163 180 193
158 176 185
170 187 199
161 177 185
170 186 198
169 186 201
153 170 178
166 183 195
125 146 138
97 119 98
75 102 61
73 99 60
96 118 99
165 181 193
164 181 194
157 174 181
166 183 195
161 177 186
154 171 178
159 176 186
155 172 183
157 174 184
161 179 187
155 172 180
144 162 167
105 126 110
87 112 77
75 102 61
74 99 60
77 104 63
103 126 107
160 175 185
152 169 174
156 173 183
164 181 192
152 170 178
160 178 190
152 169 177
151 168 174
160 177 185
160 176 186
147 164 167
159 176 184
154 171 176
123 142 137
101 123 103
127 146 142
161 178 187
159 176 188
116 135 124
72 97 58
71 97 58
76 102 62
66 91 54
77 104 63
76 103 62
74 100 60
76 103 63
72 98 59
73 99 60
71 96 58
78 104 64
73 99 59
77 103 63
76 102 62
73 98 60
72 99 60
75 101 62
93 116 91
152 168 175
141 158 159
112 131 117
80 105 73
70 95 57
72 98 59
70 96 57
78 104 64
73 100 61
73 98 59
77 103 62
71 96 58
73 99 60
76 102 62
71 96 57
72 98 59
74 100 60
70 95 57
70 95 56
109 130 117
161 178 187
153 169 178
155 171 179
153 169 175
157 173 182
152 169 176
158 174 182
148 162 168
141 157 160
141 156 160
145 163 168
160 177 186
143 159 164
142 159 164
133 150 151
122 141 133
103 122 107
77 103 65
73 99 61
103 123 106
157 173 180
140 157 160
137 154 154
152 168 175
157 173 180
152 168 176
159 174 182
147 164 170
148 163 170
153 170 175
157 174 184
157 173 182
151 167 172
149 166 174
158 173 181
148 164 169
152 169 177
151 168 175
139 155 158
144 161 168
92 112 91
70 95 58
71 96 58
72 97 59
75 101 61
73 99 59
70 95 57
72 97 58
69 94 58
69 94 57
74 100 60
66 90 54
69 95 56
69 94 57
70 94 56
69 94 56
68 92 55
70 95 56
70 95 56
72 97 59
128 145 142
131 148 148
124 141 136
104 123 112
104 123 112
75 100 66
73 98 60
67 90 53
69 94 56
68 93 54
73 98 59
67 92 55
67 90 53
65 88 51
70 96 57
66 90 53
68 93 56
75 101 61
71 96 57
69 94 57
92 112 93
140 157 159
142 157 159
148 165 170
158 173 181
160 175 184
145 162 168
145 162 169
139 155 155
148 164 170
150 167 174
152 168 174
149 164 170
152 168 174
152 167 174
151 166 172
133 151 149
153 169 175
155 170 174
144 162 169
137 153 157
71 96 58
70 95 56
69 94 56
74 100 60
71 96 58
68 93 56
75 101 62
69 94 56
68 92 54
65 89 53
72 98 59
69 94 56
68 92 54
71 96 57
71 96 57
70 95 57
66 91 53
71 97 58
69 95 57
126 143 141
152 168 174
149 165 170
140 155 158
153 169 173
150 165 172
144 161 163
150 166 173
144 159 165
154 170 178
153 170 177
154 169 173
149 165 172
144 161 165
144 160 166
146 162 169
153 170 177
147 162 169
145 161 167
146 161 166
72 97 61
71 96 57
69 95 56
71 97 58
72 97 59
73 99 60
71 95 58
73 99 61
69 94 55
69 94 56
69 94 56
72 97 60
62 86 50
75 100 60
75 101 61
68 93 56
65 89 53
70 95 57
99 121 103
145 163 166
147 164 172
150 165 172
140 157 163
140 157 161
146 162 168
152 169 176
147 163 170
154 170 178
146 162 166
151 166 171
151 168 174
157 174 183
147 162 168
151 168 175
149 165 169
142 160 164
145 161 164
82 105 75
72 98 58
72 97 58
68 93 56
75 101 60
72 98 58
71 96 57
69 94 56
68 94 57
73 99 59
75 101 61
75 100 62
71 97 58
70 96 57
71 96 57
68 92 54
75 101 61
107 127 116
161 177 184
160 175 182
151 168 174
147 164 168
152 169 175
146 163 168
150 166 174
156 170 176
161 178 187
153 169 179
155 170 178
164 181 193
145 161 163
144 160 164
151 168 172
151 168 174
109 129 117
68 93 55
70 96 57
75 101 61
72 98 59
78 103 63
68 92 55
72 97 58
72 98 59
73 99 60
73 99 60
73 99 60
76 102 61
72 98 58
73 98 59
72 98 59
106 125 113
162 176 186
152 170 176
154 170 178
151 168 172
159 175 185
158 175 185
148 164 169
152 168 175
135 154 155
129 147 144
109 129 115
82 107 77
72 97 58
76 103 63
105 126 112
154 171 179
167 184 196
151 169 176
165 181 194
159 176 183
156 173 179
161 177 188
160 178 189
159 175 184
156 173 181
154 170 179
154 171 179
155 172 181
149 166 174
110 129 118
132 152 153
153 171 177
154 172 178
173 190 205
155 172 181
163 178 187
148 166 175
162 178 187
162 179 191
170 187 200
154 172 178
155 172 179
91 116 87
78 105 64
73 100 59
77 103 62
76 103 63
75 102 62
78 106 65
82 111 69
72 98 58
77 104 63
77 104 64
91 115 87
141 160 163
171 189 202
149 167 175
157 174 180
124 144 135
94 119 96
77 104 63
72 99 60
76 103 62
70 97 58
119 141 131
164 182 193
168 186 199
164 179 187
173 189 203
173 190 204
174 192 207
173 190 204
170 187 200
157 174 183
165 183 197
159 177 188
126 146 141
86 112 79
112 135 122
169 185 197
159 176 182
168 185 196
165 183 195
170 188 202
164 180 191
162 178 188
162 179 188
156 172 178
166 183 195
128 147 145
87 111 80
79 107 66
83 111 69
77 104 63
76 103 63
113 133 123
166 183 193
147 164 170
165 183 193
161 178 188
157 175 182
159 176 182
156 174 184
157 174 183
146 163 168
136 155 154
88 110 83
78 105 65
72 97 58
71 97 58
69 95 57
73 100 61
74 100 61
105 126 110
152 169 177
154 171 179
157 173 182
160 175 185
158 175 185
152 169 176
171 187 199
164 181 193
156 174 181
163 179 189
162 178 186
133 151 150
104 125 110
76 103 63
73 100 60
75 101 63
97 121 97
118 137 128
112 132 119
80 105 72
77 103 62
75 101 61
72 98 59
75 102 62
76 103 63
76 102 62
71 97 58
72 98 59
72 98 58
70 96 58
74 100 61
72 97 58
70 96 58
72 98 59
71 95 57
85 109 77
113 133 125
138 156 154
79 104 69
66 90 52
68 93 54
68 94 56
71 97 58
66 91 54
72 98 58
71 96 58
71 96 58
76 102 62
71 97 58
80 106 65
71 97 58
72 99 60
70 95 57
71 96 57
75 102 62
69 94 56
70 95 57
91 113 90
154 170 179
155 170 179
148 165 171
152 169 178
148 163 171
157 173 181
148 164 169
159 177 188
157 172 181
148 164 171
147 163 168
124 143 135
114 134 120
85 109 80
75 101 62
73 99 60
69 93 54
68 93 54
71 96 57
72 98 59
144 160 164
158 174 183
156 172 183
153 169 177
145 164 173
150 167 174
163 179 189
143 157 162
154 169 175
137 152 154
157 172 179
148 164 170
160 175 183
160 176 186
147 163 167
163 179 188
155 171 180
156 171 180
141 158 161
146 163 166
106 126 115
73 98 59
71 97 59
67 92 55
63 86 50
71 97 58
68 93 56
66 91 54
74 100 60
67 92 55
74 100 60
71 97 59
70 95 56
72 98 59
71 96 57
75 100 66
94 115 95
120 137 129
131 148 149
147 164 170
141 157 163
70 95 57
71 96 57
68 93 55
69 95 57
70 95 56
72 98 59
69 94 56
72 97 59
69 94 56
74 99 60
71 96 57
72 98 58
70 96 56
73 98 58
67 92 55
66 91 54
69 94 55
70 95 57
68 93 56
75 99 65
147 164 167
154 170 177
140 156 160
143 159 166
143 160 165
148 165 170
140 156 161
155 172 178
148 164 168
150 166 173
139 155 159
166 181 192
149 165 173
155 171 180
152 169 177
149 165 170
142 158 161
142 158 166
142 159 161
153 168 175
86 109 81
68 93 55
70 94 57
67 90 53
68 93 55
76 103 62
72 98 59
68 92 56
68 94 57
65 90 53
65 89 52
69 93 55
71 96 58
69 95 56
66 91 53
65 89 52
69 94 57
71 96 57
73 98 58
79 104 70
138 154 159
151 166 172
143 159 163
151 167 174
155 171 178
149 166 172
149 167 172
155 171 179
135 152 153
149 165 173
154 170 174
150 166 173
156 172 179
145 162 167
151 167 174
147 163 170
142 158 163
143 158 163
147 163 170
116 135 125
73 98 59
74 99 60
71 97 58
71 96 58
73 98 59
75 100 66
81 103 78
87 110 83
77 99 73
96 116 102
91 110 92
104 124 112
98 119 105
106 126 111
99 120 103
113 134 122
105 124 114
110 130 119
132 148 147
115 134 125
121 140 131
108 128 118
115 134 124
116 135 127
95 115 97
109 127 121
121 139 136
120 138 131
120 138 132
102 121 110
119 138 133
101 123 107
104 124 110
101 121 107
108 127 114
105 125 112
100 120 103
118 136 133
110 128 117
118 137 125
123 143 136
109 128 115
98 120 101
112 131 121
108 127 117
93 115 96
115 133 123
103 123 111
93 114 99
95 117 98
94 117 93
85 108 81
79 103 70
80 105 72
136 154 150
153 169 176
159 175 185
153 170 178
161 178 190
149 166 171
140 156 157
154 171 181
144 159 164
152 169 175
163 178 189
156 171 178
160 177 187
145 161 165
160 174 183
137 155 158
150 167 173
92 114 90
72 98 59
72 98 59
66 91 54
69 94 56
71 97 57
70 96 57
75 101 60
73 99 59
71 97 57
74 101 62
71 96 57
69 94 57
69 95 57
76 102 62
73 99 58
131 150 146
159 175 183
151 167 173
156 173 179
162 178 186
143 161 165
121 139 133
101 124 104
68 92 55
74 101 62
70 95 57
78 105 64
71 97 58
70 95 56
74 100 61
129 148 143
151 168 175
160 176 187
150 167 175
150 167 174
163 180 188
155 173 180
161 177 186
161 178 189
156 172 178
158 173 177
161 178 189
155 171 176
161 177 189
126 145 143
75 101 60
79 106 65
77 104 67
100 123 106
104 126 107
130 149 146
149 167 170
167 184 195
147 165 173
153 171 178
167 183 195
163 181 190
137 155 155
88 114 80
77 104 63
72 99 59
77 104 63
75 102 63
76 103 62
76 103 63
68 93 55
76 103 62
77 104 63
79 106 65
95 116 93
165 181 190
160 177 185
161 179 188
163 180 191
158 176 185
160 177 187
145 164 167
111 133 117
80 107 69
80 108 66
98 120 101
154 171 179
164 182 193
171 189 202
162 179 189
176 193 205
162 180 190
160 177 185
147 166 170
126 146 140
84 110 73
77 104 64
78 105 64
122 141 133
162 180 190
175 192 207
167 184 197
164 180 190
171 188 202
155 172 177
168 185 198
151 170 175
115 136 127
77 103 65
76 103 62
74 100 61
77 104 63
73 99 60
73 100 61
71 97 58
113 133 123
163 179 188
160 177 190
160 177 188
155 174 182
148 164 172
159 175 183
154 171 176
117 139 125
80 106 68
77 104 63
78 105 65
71 97 58
70 96 57
75 101 61
74 101 62
73 100 60
77 104 63
104 124 111
149 165 170
156 173 180
164 180 191
153 169 176
162 178 187
160 176 185
153 170 177
160 177 187
144 161 163
94 117 90
81 106 71
71 96 58
74 100 60
78 105 64
72 97 58
78 105 64
76 103 63
76 103 62
112 132 120
150 167 173
149 166 170
123 143 135
100 120 103
81 107 71
74 100 61
75 101 62
70 94 57
75 101 62
77 104 64
72 98 59
78 105 64
79 107 65
81 106 71
112 132 121
128 147 143
157 174 184
152 170 177
157 172 180
85 108 81
71 96 58
71 97 58
70 96 57
72 98 60
72 97 57
71 96 57
71 97 58
69 94 56
68 92 55
76 103 62
71 96 57
72 98 58
75 102 62
74 100 60
73 99 59
73 99 59
72 98 59
72 98 58
76 103 63
154 169 177
151 167 174
154 170 178
150 166 171
148 164 169
155 172 184
147 163 168
129 147 142
110 129 118
86 109 86
72 97 58
71 96 57
73 99 60
73 99 59
69 93 55
73 99 60
77 103 63
71 97 58
69 93 56
68 93 55
121 137 133
158 174 181
157 174 184
149 166 172
158 175 184
147 162 166
150 166 175
150 165 170
140 157 161
155 171 179
155 171 181
156 172 179
164 181 191
155 170 176
152 167 172
151 168 174
139 156 158
156 172 179
155 171 179
152 168 176
123 139 136
71 96 56
72 98 60
72 98 59
67 92 55
69 94 56
69 94 57
70 95 57
71 96 57
69 95 56
75 98 67
104 124 105
121 139 134
126 143 139
136 153 155
139 156 161
159 174 184
152 168 176
154 170 179
150 167 172
153 168 175
80 104 73
72 98 59
71 96 58
67 91 54
67 92 54
71 96 58
71 97 58
70 95 56
70 95 56
65 90 52
62 86 50
69 94 55
70 95 58
68 93 55
75 101 60
68 93 56
69 94 56
69 93 55
69 94 57
64 88 51
112 131 126
142 158 162
160 176 188
146 163 167
138 154 157
146 163 170
154 170 177
148 164 172
148 163 169
149 165 170
139 155 159
157 172 182
150 166 172
157 172 179
143 159 164
156 171 180
135 151 152
148 164 171
149 165 172
154 170 175
135 151 153
69 94 56
70 95 57
65 89 53
71 97 58
64 87 51
73 98 59
68 93 55
63 87 50
69 94 56
68 93 56
69 93 55
69 93 56
70 96 57
74 100 60
74 99 60
72 98 59
70 95 57
69 95 56
72 98 59
113 133 123
154 169 176
149 166 174
147 163 169
149 166 174
157 172 181
150 165 171
155 171 180
143 160 159
150 165 173
154 171 177
132 149 147
127 144 140
125 143 142
112 131 121
118 136 129
122 139 135
106 127 111
102 121 110
103 123 106
139 155 157
130 146 146
146 162 168
143 159 164
147 164 168
149 165 173
148 163 168
155 170 178
151 167 174
150 166 173
152 168 176
149 167 171
160 176 185
148 165 169
158 174 185
156 173 182
135 151 152
151 167 174
142 159 165
76 102 64
75 102 61
68 93 55
67 92 54
70 95 57
70 95 57
65 89 52
68 93 55
71 97 58
69 94 57
66 91 54
74 100 60
68 92 54
68 93 56
77 103 64
73 99 59
73 100 60
77 103 62
134 152 153
150 166 174
150 166 172
155 171 179
164 179 187
147 162 166
155 171 177
148 163 167
158 175 183
155 172 180
162 178 190
151 166 173
160 176 185
144 161 166
143 160 162
157 173 181
149 166 171
138 155 154
81 104 76
82 104 73
91 113 93
104 124 111
100 121 105
102 124 108
112 132 122
111 132 122
114 134 124
120 138 131
125 145 138
138 154 154
140 158 160
147 164 169
150 167 171
162 177 189
150 165 171
84 107 84
71 97 58
72 98 58
72 99 59
73 99 59
69 94 56
72 98 59
78 105 63
70 96 57
71 97 59
75 101 62
69 94 56
73 99 59
76 102 63
71 96 57
81 104 75
142 159 161
122 141 133
104 124 106
73 98 61
78 105 63
77 104 63
75 102 62
79 106 65
74 100 61
71 97 59
74 101 61
76 102 61
74 99 59
79 105 64
75 102 63
132 150 144
149 165 169
161 176 187
155 173 182
152 170 177
168 185 196
160 176 184
166 181 190
162 178 184
164 181 191
166 182 196
168 184 196
150 167 172
159 176 185
125 145 139
74 100 60
78 105 64
76 103 62
74 101 62
75 101 61
77 104 64
73 98 60
108 128 116
119 140 131
143 161 163
156 173 181
162 178 189
142 161 163
80 108 67
71 96 58
76 103 63
77 105 65
78 104 64
75 102 61
78 105 63
74 101 61
74 100 60
76 104 63
73 99 60
97 120 98
164 181 191
162 179 192
162 179 187
157 174 181
170 186 200
161 179 189
166 183 195
150 168 173
141 158 160
110 131 118
116 138 124
161 180 189
157 176 186
159 177 184
168 184 196
153 170 177
121 141 133
78 105 65
79 106 65
81 109 67
75 102 62
75 102 62
135 153 152
166 184 196
164 182 194
164 181 191
165 181 192
162 178 188
141 160 163
95 119 91
79 107 65
76 102 63
77 104 63
77 104 62
75 102 62
81 108 67
73 100 60
72 98 59
77 103 63
127 146 141
167 184 198
162 180 193
165 182 192
159 175 183
122 142 136
97 119 96
74 100 60
79 107 65
75 102 62
72 97 58
77 104 63
77 103 63
71 97 59
74 101 60
77 104 63
77 105 65
75 102 62
97 119 96
164 181 193
152 169 177
155 174 181
164 182 196
161 177 186
149 167 173
126 146 140
83 107 77
76 103 63
77 104 63
73 99 59
74 100 60
78 105 65
74 100 61
69 94 56
79 106 65
75 101 61
76 103 62
114 134 125
161 177 187
156 172 181
152 169 175
153 171 178
157 173 181
141 159 159
120 139 131
109 129 118
94 118 92
75 102 62
90 115 82
116 136 124
136 155 154
156 172 181
157 175 183
151 167 172
154 171 182
155 172 182
155 172 180
93 114 90
73 99 60
74 100 60
73 99 60
77 104 63
78 105 64
68 94 56
68 93 55
75 101 61
73 99 60
73 99 59
71 96 58
75 101 62
71 96 57
74 100 60
70 95 57
75 100 60
73 99 59
73 98 59
69 94 56
134 152 154
149 166 172
159 175 183
138 156 157
116 134 126
95 118 96
76 100 67
69 94 56
71 97 58
70 95 57
76 102 62
74 100 59
75 102 62
67 92 55
73 99 59
71 97 59
69 95 56
64 90 52
71 96 58
70 94 56
114 134 126
146 163 170
154 170 177
142 158 160
167 183 196
155 171 179
154 170 176
148 165 171
154 170 178
159 176 187
151 167 175
157 174 185
163 179 190
151 168 176
150 166 174
150 166 171
149 166 170
148 166 172
158 174 183
152 167 174
144 159 163
70 95 57
66 91 54
67 92 55
71 96 57
76 101 67
103 125 108
111 130 122
138 157 158
139 156 161
139 155 158
160 176 184
151 167 174
139 156 160
149 166 174
154 170 178
149 166 171
156 171 179
148 162 168
152 167 173
155 169 174
111 129 119
69 93 54
73 99 60
66 90 54
69 94 56
70 95 57
65 90 54
70 95 58
69 93 55
74 99 60
69 94 56
67 92 53
70 95 57
71 96 58
71 97 56
72 97 58
68 93 56
68 93 56
68 93 55
68 92 55
91 113 90
142 158 160
157 173 182
147 163 167
137 153 158
144 161 166
144 161 166
155 171 177
146 161 165
153 168 175
160 175 184
134 150 152
155 171 178
144 160 165
148 164 170
157 172 178
147 164 170
150 166 173
143 161 165
145 161 166
145 161 169
76 101 66
68 93 55
70 95 57
72 98 59
65 89 53
66 90 52
73 99 59
69 95 56
71 96 58
76 101 61
73 98 60
71 97 59
75 101 62
73 98 59
69 94 56
68 93 55
73 97 65
78 104 69
94 115 94
111 131 122
127 144 141
127 145 140
114 133 124
98 120 102
98 118 100
91 111 91
82 104 79
72 98 59
68 93 56
67 92 54
74 100 60
69 93 54
71 95 57
70 96 57
69 94 56
69 95 56
69 94 56
72 97 59
71 96 57
130 147 145
144 160 165
154 172 179
139 155 160
143 159 165
152 168 171
154 171 175
150 166 172
154 170 178
155 171 181
149 166 172
145 162 168
146 163 167
154 170 177
146 162 169
159 176 184
149 165 173
156 172 179
137 153 157
113 132 120
68 93 55
70 94 56
69 94 56
64 89 52
69 94 56
73 98 58
64 87 52
71 96 57
71 96 58
71 97 58
75 101 61
72 97 59
72 98 58
71 96 57
76 103 63
68 94 55
74 100 60
93 114 91
153 170 181
150 167 173
160 176 185
151 167 171
153 168 175
161 176 186
153 171 179
154 171 181
152 168 175
152 168 171
165 181 192
156 172 179
160 177 186
157 173 182
150 165 171
147 164 172
149 166 173
132 151 148
72 98 60
74 101 60
70 96 57
75 101 61
74 100 61
75 101 62
75 102 62
72 98 58
75 101 61
75 102 61
70 95 56
72 96 57
76 103 62
74 101 61
78 104 67
77 101 67
107 129 113
148 165 167
134 152 151
126 143 141
123 143 134
109 130 116
99 121 103
90 111 93
82 105 76
77 103 63
76 103 63
82 106 76
109 129 116
136 155 151
130 149 148
145 163 167
144 161 161
75 102 62
72 97 59
73 99 59
77 103 63
74 101 61
75 102 62
75 101 61
71 96 58
73 99 60
73 98 59
76 104 63
81 108 66
73 99 59
73 100 60
79 104 71
158 174 181
161 177 186
159 176 187
162 178 189
149 167 175
156 172 181
169 184 192
151 169 179
158 176 185
162 177 184
161 179 186
158 175 185
164 180 191
152 168 175
111 132 121
77 104 64
74 101 60
75 102 62
76 103 62
75 102 62
76 103 62
76 103 62
77 104 64
78 105 64
79 104 68
96 119 93
120 141 133
112 134 123
91 114 85
77 104 64
75 101 60
79 107 66
75 101 61
72 99 59
72 97 57
77 105 65
74 100 60
77 104 65
79 108 66
99 123 98
158 176 186
162 179 187
162 180 190
158 175 184
164 181 193
160 178 189
159 177 188
166 184 195
159 177 186
159 177 185
162 180 190
138 155 156
152 171 177
119 140 128
76 104 64
80 108 67
79 107 66
84 112 70
75 101 60
79 107 65
77 104 62
144 162 165
158 176 186
168 185 197
154 172 180
130 150 148
93 119 90
76 103 63
74 100 60
76 103 63
76 103 63
77 103 62
72 98 58
77 104 64
77 104 64
76 103 62
75 102 62
74 100 61
133 151 148
161 177 185
145 163 168
111 133 119
80 107 69
72 100 61
76 103 61
79 107 66
79 107 66
70 96 57
78 106 64
73 100 61
79 106 66
76 103 62
76 103 63
75 102 62
74 101 61
74 100 61
102 124 105
164 181 192
163 178 189
151 167 176
126 144 137
104 126 109
74 101 61
76 103 62
72 98 59
68 94 56
72 98 58
73 100 60
77 104 64
75 101 61
74 101 61
74 102 62
79 106 65
71 97 57
77 104 64
114 134 117
156 172 180
159 176 184
152 169 177
164 181 191
156 174 181
164 179 189
157 173 180
154 171 179
137 156 157
97 119 97
110 130 117
138 156 155
152 169 176
161 178 186
151 167 173
153 170 176
152 169 175
158 174 184
149 167 172
109 129 120
73 100 60
76 102 61
74 99 60
78 105 65
70 96 57
73 98 60
78 104 64
78 106 65
74 100 61
74 100 61
73 99 59
74 100 60
76 102 61
73 99 60
68 93 55
75 101 61
71 97 59
77 104 63
92 115 91
125 143 138
108 126 113
86 110 77
72 97 58
71 97 58
71 96 58
73 98 59
75 101 61
79 106 64
73 98 58
72 98 59
71 98 59
71 96 57
74 100 61
75 102 62
79 106 65
77 103 63
72 98 58
77 104 64
75 101 61
98 119 100
155 171 180
152 167 174
163 179 191
153 169 178
154 170 180
148 165 172
141 157 161
147 163 168
158 174 184
156 172 180
159 174 183
149 166 175
142 159 164
151 167 174
146 163 170
153 170 176
151 168 175
149 167 173
154 170 180
151 167 174
103 123 107
114 133 123
127 144 141
143 160 165
142 157 163
153 169 175
148 165 170
154 170 178
140 157 162
152 168 177
153 169 176
155 171 180
151 168 177
147 164 171
143 159 161
135 151 154
151 168 177
164 180 190
148 165 170
141 159 160
128 145 141
69 94 56
72 98 59
69 94 56
72 98 58
70 95 57
69 94 58
74 101 60
72 98 58
71 96 59
74 100 60
68 93 56
67 93 53
67 91 54
75 101 62
69 94 57
73 99 59
64 88 51
69 94 56
72 98 59
66 90 53
144 160 164
150 166 172
152 170 179
153 170 180
153 170 176
150 166 173
154 170 178
147 164 172
144 160 164
150 167 173
159 176 187
156 172 178
166 182 193
141 157 159
149 164 170
150 166 173
148 165 170
150 166 171
153 168 176
158 174 184
116 135 128
70 96 57
73 98 58
74 100 60
68 92 55
69 93 55
69 93 56
77 100 69
86 108 83
100 119 104
106 125 115
127 145 143
121 139 137
137 153 156
138 154 158
143 160 163
155 171 180
148 164 169
141 157 161
155 173 181
107 126 116
66 91 54
73 99 59
69 94 56
68 93 55
72 98 60
70 96 58
67 92 54
69 94 56
70 95 56
72 97 58
74 100 61
70 96 57
69 95 57
65 90 54
71 95 56
75 100 61
73 99 60
66 90 53
76 99 68
153 168 177
154 171 178
159 176 186
150 166 174
156 172 181
157 172 181
157 173 181
149 166 173
161 177 188
156 173 179
160 176 184
157 173 180
147 164 168
152 169 174
148 164 171
150 167 174
143 159 164
149 165 171
140 156 158
76 102 67
69 94 56
71 97 58
73 99 59
74 100 60
72 99 59
75 101 61
71 97 57
70 95 56
74 100 60
74 101 61
72 98 59
69 95 57
68 92 54
67 92 54
71 96 56
80 107 65
74 100 60
131 149 146
153 169 175
160 177 187
146 163 168
150 167 172
158 174 185
145 161 166
158 175 185
152 169 174
161 176 184
158 174 182
146 163 166
168 184 197
167 184 195
151 167 173
153 170 177
159 176 184
156 172 180
95 117 99
72 97 57
75 101 62
79 106 64
73 99 60
71 97 57
71 96 57
74 101 61
71 98 59
70 95 57
77 104 65
69 94 56
71 97 58
72 97 58
73 99 60
69 94 55
75 100 63
129 146 146
153 169 176
159 177 188
148 164 171
146 163 168
163 179 189
150 168 172
126 144 139
107 126 113
91 114 91
101 123 105
116 134 125
128 147 141
131 149 145
131 149 149
147 164 166
111 132 120
74 101 61
75 101 61
72 98 59
76 103 63
74 99 60
71 96 58
79 106 65
74 101 61
77 104 64
74 101 62
74 100 61
74 100 61
72 98 59
73 100 60
98 122 95
156 173 182
155 171 178
156 173 183
157 174 181
159 175 183
157 174 181
158 175 185
155 172 178
164 180 191
156 173 180
159 176 185
158 175 184
141 158 159
159 176 186
98 121 101
72 99 60
77 104 64
78 105 63
76 102 62
76 102 61
76 102 62
76 103 64
78 105 64
76 104 63
75 101 61
71 97 59
77 104 64
128 148 140
158 176 187
144 161 161
112 134 118
97 120 96
74 100 60
77 104 64
75 102 62
71 98 59
76 103 63
78 106 65
77 106 65
107 130 110
155 173 182
156 174 180
167 184 197
158 176 189
161 178 189
164 181 191
163 180 189
171 187 202
166 182 194
168 185 198
150 169 175
80 108 66
79 107 65
78 105 63
75 103 63
79 107 65
76 103 62
80 108 66
78 106 65
79 107 66
165 182 194
152 171 177
134 152 150
84 110 73
82 110 68
81 109 68
76 103 62
77 105 65
76 103 63
80 107 66
78 106 65
74 101 61
83 112 69
76 104 63
74 101 61
75 102 62
80 106 73
121 142 133
95 117 94
69 94 56
75 102 62
74 100 60
77 104 64
77 103 63
78 104 63
76 102 62
74 100 60
77 105 64
77 105 65
71 97 59
74 100 60
76 103 62
76 104 63
79 107 66
75 102 61
108 130 116
124 143 139
107 130 115
78 104 66
75 102 62
79 106 64
75 101 60
73 98 59
77 104 63
74 101 61
73 99 60
79 107 65
73 98 59
74 100 62
77 103 63
74 100 60
77 104 63
76 103 62
74 101 61
105 126 110
155 172 182
162 178 189
167 183 193
167 183 194
158 174 185
139 158 157
112 132 121
76 100 67
74 100 60
76 102 61
73 99 59
72 99 59
75 101 61
76 101 67
102 123 109
113 132 119
139 155 157
142 159 163
162 179 190
120 139 132
71 98 58
71 96 58
75 101 61
77 104 63
73 99 60
77 104 64
76 102 62
72 97 58
74 101 62
72 98 59
69 95 55
73 98 59
73 99 60
71 97 58
72 97 62
88 111 88
124 144 139
150 167 168
156 172 180
130 148 146
72 97 59
74 101 61
73 99 60
77 103 63
73 99 60
70 96 58
71 97 57
69 94 56
77 103 63
71 96 57
73 99 60
73 99 60
77 104 63
70 95 57
70 95 57
71 96 58
69 94 57
69 95 57
74 100 60
74 98 67
162 177 186
149 165 171
155 171 180
152 168 174
149 166 171
164 180 191
149 165 171
159 175 185
150 166 174
152 169 171
153 168 176
152 169 171
149 164 171
146 161 166
152 169 177
150 168 174
143 160 163
123 140 133
100 121 102
86 110 81
118 136 128
146 162 168
149 165 169
156 172 182
160 176 185
159 175 185
151 167 174
144 161 165
159 174 183
147 164 168
156 172 181
147 164 165
150 166 172
148 165 169
164 181 190
150 166 169
153 170 176
143 160 164
149 165 171
151 167 172
148 165 170
77 101 69
71 97 59
72 98 58
72 98 59
71 96 57
70 95 56
68 92 55
66 90 52
73 98 59
72 98 59
76 102 62
71 96 58
70 95 57
71 96 58
68 92 55
71 97 58
67 92 54
71 96 58
72 97 58
67 91 53
117 135 127
158 174 183
157 174 182
147 164 169
156 173 181
155 171 178
161 177 188
144 162 165
145 161 167
153 169 176
154 170 179
139 155 161
154 171 178
162 178 186
169 185 195
152 168 175
145 162 165
149 165 172
148 164 168
149 166 170
130 147 142
97 118 100
108 126 118
139 155 157
122 140 137
141 157 163
155 170 177
148 164 171
147 164 168
157 174 181
160 175 185
156 172 181
153 169 179
152 168 175
145 161 166
144 161 163
150 166 172
146 162 164
162 177 185
150 165 169
138 156 155
70 94 56
64 88 51
72 96 58
76 103 63
76 103 63
64 88 50
71 97 58
74 100 60
72 99 59
66 91 54
71 96 58
73 98 59
70 95 56
69 94 55
70 96 58
69 94 56
72 98 58
68 93 55
73 99 60
134 151 151
145 161 167
149 166 171
157 172 178
152 168 175
154 171 180
160 176 184
153 168 176
147 164 172
158 175 185
147 163 168
142 159 163
144 160 163
158 174 182
153 169 178
150 167 171
155 170 178
157 173 183
151 168 172
118 135 128
75 101 61
73 98 59
70 96 58
72 97 59
70 96 58
71 96 57
67 92 54
67 92 54
70 96 57
66 90 53
71 96 57
75 101 61
73 100 60
76 103 63
73 98 59
73 100 60
73 99 60
89 111 86
143 160 163
156 172 178
153 169 176
146 164 172
150 166 172
156 173 180
161 178 191
154 170 176
153 170 178
146 162 164
153 169 177
156 172 180
157 174 182
150 167 176
161 178 188
158 175 183
167 182 193
150 167 173
73 97 62
68 93 55
72 97 58
72 98 58
72 97 58
78 105 64
75 102 62
74 100 61
76 102 62
73 99 60
69 94 57
72 98 58
72 98 59
78 104 64
70 96 58
76 103 63
94 118 93
149 168 172
143 159 159
118 138 128
98 120 100
79 104 72
76 103 62
69 95 57
74 101 60
70 96 57
73 99 60
73 100 61
73 99 59
74 100 60
78 105 64
71 96 56
70 94 56
133 153 151
152 169 173
126 144 139
128 145 142
104 125 114
117 137 129
94 116 96
72 98 60
78 105 64
71 96 57
74 100 60
73 98 59
75 102 62
71 97 57
75 101 61
118 137 131
160 177 189
156 172 180
150 168 171
165 182 193
160 177 185
154 170 177
158 175 183
155 171 178
161 178 187
155 172 181
156 174 185
167 183 194
149 167 173
152 169 174
86 111 79
81 109 68
76 102 62
77 104 63
78 105 65
76 103 63
76 103 63
80 108 67
76 103 63
74 101 61
76 103 63
77 104 64
74 101 61
138 158 156
163 180 194
155 173 180
158 175 182
156 173 181
136 155 151
109 131 115
89 113 89
76 103 63
80 108 67
76 103 62
78 105 64
123 144 136
166 184 196
162 179 190
168 185 195
162 179 189
165 182 196
159 176 186
167 184 195
164 182 193
154 171 180
173 190 204
77 104 63
74 101 61
79 108 67
80 109 68
77 105 63
81 108 65
79 106 65
78 106 65
105 128 108
116 138 126
87 112 80
79 107 65
79 106 65
76 103 63
74 101 62
78 105 64
78 105 64
76 103 62
79 106 65
77 103 63
79 106 65
75 103 62
79 108 66
92 115 87
122 141 137
161 178 186
108 130 118
78 106 65
72 98 59
76 103 62
74 101 61
78 104 62
78 105 64
74 100 60
78 105 63
74 101 62
75 101 61
76 103 63
70 95 56
80 107 66
76 103 63
78 105 65
98 122 99
136 155 153
139 157 159
72 98 60
79 106 65
75 102 62
80 107 65
76 103 63
71 97 58
76 103 63
78 105 64
77 103 63
75 102 62
76 103 63
80 107 65
74 100 61
75 102 62
74 100 61
70 97 57
74 101 62
72 98 59
88 112 85
157 173 180
158 173 182
131 149 148
111 131 117
82 105 76
70 97 58
78 104 64
73 100 61
76 102 61
78 105 64
78 104 64
77 103 64
75 101 62
75 102 61
72 97 58
75 101 61
75 101 62
73 98 59
71 97 59
113 133 121
133 152 151
118 139 131
102 123 105
87 111 82
71 96 58
75 101 61
73 99 60
71 96 58
74 100 61
74 100 60
73 99 59
70 95 59
108 128 117
132 148 148
157 174 182
153 169 176
156 173 182
152 168 175
160 176 186
135 152 153
73 99 59
72 98 59
73 99 59
75 101 61
76 102 62
78 105 64
74 101 61
75 102 61
73 99 59
72 98 58
76 102 62
69 94 56
76 102 62
74 100 61
74 100 60
66 90 53
78 105 64
71 97 58
71 97 59
72 98 58
145 161 167
156 172 182
160 176 184
153 170 179
154 171 178
156 173 180
157 173 181
162 177 187
157 173 181
160 176 186
144 160 164
146 163 167
126 145 138
117 136 126
93 115 98
72 97 61
70 94 55
68 93 55
74 101 62
71 97 59
90 111 88
150 167 174
154 170 182
151 166 169
153 170 179
153 169 177
152 169 177
153 169 177
157 172 183
151 167 176
152 168 175
150 167 173
150 166 174
136 152 155
147 162 169
156 172 181
160 175 183
153 170 180
160 176 185
156 172 181
147 164 168
121 139 134
76 103 63
74 101 61
72 97 59
71 96 58
68 92 55
71 97 58
75 101 61
73 98 58
71 96 57
73 99 60
74 100 60
74 100 60
73 99 60
69 95 58
70 95 57
73 99 59
64 88 51
65 90 52
73 99 59
85 109 80
155 172 179
160 176 187
160 177 187
146 162 168
142 158 161
151 166 173
151 167 173
160 176 186
149 166 172
159 175 186
147 164 168
135 152 153
135 152 150
127 146 142
113 132 122
88 110 87
78 100 76
71 96 61
71 96 56
70 95 57
138 156 157
155 171 181
154 169 177
158 175 185
158 174 182
148 164 169
144 161 162
148 167 172
160 176 184
147 164 170
155 171 178
162 179 189
154 170 176
149 165 172
151 168 172
144 160 166
149 166 172
154 169 179
152 169 175
155 171 178
103 122 105
73 98 59
67 91 53
66 90 52
70 95 56
69 94 56
71 96 57
71 96 57
73 99 59
71 97 58
72 98 59
68 93 55
77 104 63
68 93 55
75 101 62
72 97 58
73 99 60
72 97 58
70 96 58
83 106 81
146 163 169
143 160 166
167 183 193
152 169 177
150 167 171
149 166 175
163 179 189
150 167 174
152 169 176
141 157 159
167 183 192
160 176 185
156 173 179
149 164 171
155 172 181
145 162 168
153 170 175
151 167 172
154 171 178
93 115 91
66 91 53
66 90 53
67 92 54
72 97 58
75 101 61
70 95 57
70 96 57
68 93 56
71 96 58
67 92 54
70 95 56
70 96 57
71 96 59
74 101 62
75 101 61
71 97 58
75 101 62
129 148 145
139 155 160
154 170 178
156 173 179
148 164 169
147 164 168
158 174 183
156 172 181
154 171 180
151 168 177
152 168 177
154 171 176
148 164 171
155 172 179
153 169 173
162 178 191
145 163 169
156 172 183
131 149 147
71 97 58
69 94 57
73 99 60
77 103 63
75 101 61
73 98 59
72 98 59
73 99 60
75 101 61
68 94 55
71 95 62
109 129 114
119 138 129
137 155 157
135 153 155
154 170 177
125 144 139
73 99 61
75 101 61
72 97 58
74 100 60
71 97 58
69 95 56
72 98 58
72 97 58
76 103 62
76 103 63
76 103 63
73 99 60
72 99 59
65 89 52
70 95 58
88 111 85
154 171 179
158 175 184
166 184 194
153 171 179
169 185 198
154 171 179
153 169 177
148 165 169
148 165 172
132 151 148
128 147 142
113 133 121
89 113 88
81 107 71
77 104 64
131 149 147
161 177 186
157 173 181
153 170 177
154 170 178
158 175 183
167 183 195
151 168 174
152 170 175
168 185 198
170 186 199
166 182 193
151 169 177
160 177 188
150 168 171
77 104 64
74 101 61
75 102 62
76 103 63
79 107 65
73 100 61
74 101 62
80 108 66
74 101 61
77 104 64
78 105 64
75 102 62
78 104 66
141 159 161
162 179 188
166 184 196
163 181 194
172 188 200
160 176 184
159 176 184
153 171 178
129 149 146
113 135 124
84 110 78
78 105 64
122 141 137
156 175 184
164 181 193
163 181 193
167 185 198
168 184 193
164 181 193
160 178 187
156 173 183
169 187 201
79 106 65
80 108 68
78 105 65
81 109 67
77 105 64
81 109 67
111 133 118
150 170 178
153 172 178
75 102 62
76 104 63
77 104 64
74 102 62
77 104 64
80 107 66
77 105 64
77 104 63
76 103 63
77 104 63
81 109 67
74 100 60
92 117 89
136 153 155
160 177 186
159 176 183
160 177 189
96 120 94
77 105 64
74 101 61
76 103 62
79 106 65
73 99 60
80 108 66
76 103 63
79 107 66
78 106 65
73 99 59
75 102 62
75 101 61
84 110 72
109 130 119
156 173 176
162 179 190
160 177 185
140 158 161
75 102 62
72 99 59
76 102 62
73 98 58
77 104 64
74 101 61
75 102 62
78 105 63
72 99 59
76 102 62
75 101 61
77 104 63
72 98 59
77 104 64
73 98 58
72 99 59
77 104 62
77 103 66
109 130 117
114 134 125
78 102 67
76 103 62
75 102 61
75 102 62
74 100 60
72 98 59
76 103 63
73 99 60
76 102 60
77 105 64
75 101 61
75 102 62
75 101 60
70 95 55
76 103 63
79 106 65
74 100 59
77 105 64
109 129 118
155 172 181
160 177 185
166 182 192
166 183 197
154 172 179
140 157 158
136 155 154
103 123 109
95 118 95
110 130 116
135 150 151
154 171 178
164 180 189
160 177 185
160 176 186
154 170 176
157 173 181
164 179 190
150 167 173
145 162 168
78 105 64
69 94 56
76 102 61
72 98 59
71 96 58
73 99 60
70 96 57
71 96 58
79 106 65
75 101 61
73 99 60
73 99 59
75 101 60
76 102 63
77 103 62
72 98 59
71 97 58
77 104 63
71 97 58
71 96 57
136 154 157
154 170 178
159 176 185
156 173 183
151 168 175
161 177 187
152 167 172
145 162 167
136 154 156
108 129 115
86 109 84
78 105 63
73 99 59
75 101 61
76 102 63
79 106 64
78 105 64
70 95 57
77 103 63
74 100 60
67 91 54
155 171 175
153 169 178
147 164 170
153 170 177
145 163 168
157 173 182
144 161 166
150 167 172
143 160 166
156 172 181
153 170 177
160 176 188
140 156 161
145 161 165
145 162 168
159 175 182
148 165 172
156 172 180
155 171 178
157 172 179
120 139 130
66 92 54
72 98 59
70 95 56
72 99 59
72 98 59
76 102 62
67 92 54
67 92 54
69 94 56
71 97 58
69 95 57
70 96 57
75 100 60
70 95 57
68 93 55
69 93 56
67 90 53
74 101 61
74 99 59
75 102 61
129 145 144
144 161 167
152 169 176
155 171 179
129 146 146
133 149 148
125 144 142
115 135 127
87 110 83
87 111 84
75 101 61
74 101 62
75 101 60
69 95 56
69 94 55
72 97 58
72 98 59
69 94 57
67 92 55
70 94 57
99 119 105
160 177 189
165 181 192
156 172 181
147 163 172
152 168 176
139 156 160
155 170 176
150 165 172
148 164 171
149 166 170
168 185 196
160 176 184
148 165 170
150 168 174
138 154 160
151 168 173
142 158 163
162 178 185
146 162 169
131 148 145
73 98 59
75 101 61
77 104 63
73 99 59
73 99 60
70 95 57
74 100 60
78 105 64
73 99 60
75 103 62
70 95 57
74 101 61
73 100 60
72 97 59
74 100 61
72 98 59
67 93 55
66 90 53
72 99 59
115 133 127
150 166 172
157 174 184
151 166 167
153 169 175
150 166 169
155 171 180
156 172 180
144 160 167
158 174 183
155 170 176
148 166 172
133 151 151
161 177 185
154 173 181
152 169 177
155 171 179
157 174 184
150 167 172
122 140 134
76 103 63
72 98 58
68 94 55
74 100 60
74 101 61
70 95 56
70 96 58
73 99 59
71 96 57
75 102 62
78 104 63
69 94 56
70 96 58
72 98 59
69 95 56
70 95 56
73 99 60
74 99 59
138 157 158
147 164 167
151 168 176
155 171 180
158 174 180
160 175 186
154 170 176
159 175 184
159 174 183
157 173 181
159 175 185
154 171 178
150 166 174
150 167 174
155 171 178
164 179 188
160 176 184
152 168 176
84 106 81
73 99 60
75 101 60
73 99 60
77 102 67
96 117 99
111 131 119
131 150 150
141 158 160
149 166 173
159 175 183
158 174 183
163 180 190
151 167 173
158 176 185
156 172 180
166 183 196
100 121 104
75 100 60
74 101 60
70 96 57
76 102 61
77 104 63
71 96 57
74 100 60
73 100 60
72 98 58
70 95 57
75 101 60
77 104 63
76 103 63
75 101 60
76 103 63
99 122 103
153 169 176
151 167 172
156 173 183
154 171 179
155 173 182
161 179 189
166 182 191
154 172 182
162 179 190
160 177 187
158 176 183
159 175 180
165 182 193
163 181 191
140 158 159
140 157 156
120 138 132
143 162 164
155 172 180
158 177 185
154 171 178
173 189 202
166 181 190
159 176 185
164 181 193
157 174 183
158 176 187
164 181 195
141 158 160
127 145 142
75 101 61
76 103 63
77 104 63
75 102 61
71 97 59
76 103 64
73 100 60
77 104 64
78 105 65
75 102 62
77 105 63
76 103 63
90 116 84
161 178 188
168 185 198
159 175 181
156 173 179
150 168 172
159 176 187
165 182 193
171 188 202
164 181 190
159 175 182
140 158 162
125 145 138
136 155 158
163 180 190
162 179 190
171 187 199
171 189 202
169 185 198
157 174 182
164 181 193
164 182 193
80 107 66
81 109 67
84 113 70
76 103 65
118 139 127
152 169 175
166 184 195
159 177 186
138 157 154
78 106 66
83 111 68
76 103 63
74 101 60
80 109 67
79 106 65
78 106 65
80 108 66
78 106 65
76 104 64
114 135 121
153 169 176
171 188 202
163 180 192
159 176 185
169 186 199
170 186 200
87 114 80
81 109 68
76 103 63
76 102 62
73 100 60
74 100 60
77 104 64
74 101 61
78 104 64
79 107 66
78 105 64
96 119 98
125 143 137
159 176 183
156 174 185
163 179 189
157 175 183
166 183 194
145 163 163
76 103 63
80 108 66
77 104 64
80 108 66
75 102 62
73 99 59
74 100 61
71 97 58
75 102 62
74 101 61
77 104 63
72 98 60
72 99 60
74 101 61
78 105 65
92 116 91
125 143 139
151 169 175
159 174 183
75 103 63
79 106 65
73 99 59
74 100 60
76 102 62
72 99 59
77 104 64
76 103 62
79 106 65
77 104 62
71 97 58
73 100 61
77 104 64
76 103 63
70 96 58
69 94 56
71 97 58
74 100 60
76 103 63
102 124 101
161 177 186
154 171 180
161 178 188
158 174 183
159 176 183
143 160 162
117 137 127
99 119 97
73 100 60
74 101 61
84 108 79
107 127 112
113 133 119
114 133 126
130 149 146
141 159 161
162 179 189
160 177 187
162 178 190
146 162 167
89 112 86
72 97 58
73 100 60
78 105 63
74 99 59
80 107 66
70 96 58
72 98 58
78 105 64
76 103 63
71 96 58
75 101 60
72 98 58
72 99 59
72 97 58
69 94 55
68 94 55
68 93 56
71 96 57
76 102 61
113 133 120
159 176 187
151 168 175
140 157 156
122 140 135
107 127 119
93 114 92
76 103 62
75 102 62
75 101 62
72 99 59
73 98 59
75 100 60
71 96 58
74 100 61
65 89 52
72 99 60
73 99 59
66 91 53
71 97 58
71 97 58
148 164 163
154 171 181
159 175 184
152 168 179
151 168 174
168 185 196
157 174 182
146 163 168
156 172 179
163 178 188
152 169 176
162 178 187
161 178 187
164 180 192
138 156 160
142 159 162
156 174 181
158 175 186
167 182 193
146 162 167
158 175 185
69 94 56
77 103 62
71 97 58
72 99 60
75 102 62
74 100 61
74 101 61
69 95 56
73 99 59
75 102 61
71 96 58
69 94 56
76 102 62
73 99 60
70 95 57
66 90 54
76 103 62
73 98 62
104 125 109
106 126 113
120 139 136
105 127 112
88 109 87
77 103 65
68 92 55
73 99 59
71 96 58
69 94 56
74 100 60
72 98 58
70 95 57
73 100 60
72 98 59
72 97 59
74 100 60
70 95 56
71 97 58
73 99 60
67 92 53
74 99 60
76 100 69
137 154 155
150 167 175
153 169 177
140 156 158
149 166 170
152 169 173
145 161 161
150 165 171
152 169 176
159 174 182
148 165 169
141 156 161
155 171 179
150 167 170
149 164 174
151 167 175
150 166 172
149 166 172
152 169 174
160 175 183
95 117 95
74 100 60
68 93 55
77 104 64
70 96 57
72 98 59
74 101 61
67 93 56
66 90 53
65 89 52
65 90 53
67 91 54
71 96 58
67 92 54
76 102 61
66 91 53
68 93 55
75 100 61
75 102 62
77 100 74
145 162 167
147 164 169
156 172 182
151 169 175
150 166 170
136 153 153
146 164 167
166 181 191
161 178 189
153 169 176
155 171 178
149 164 171
149 164 171
150 167 172
157 174 182
150 166 174
152 168 174
153 169 177
150 167 173
86 109 84
72 98 59
67 92 55
76 102 61
79 105 65
74 100 61
78 104 64
72 99 60
72 98 58
71 96 57
69 94 56
72 98 59
71 97 58
74 101 61
74 100 60
70 96 58
72 98 59
67 92 54
88 109 90
158 174 182
151 167 175
162 179 189
148 164 172
158 176 185
155 171 178
162 178 188
165 181 192
156 172 177
148 164 167
154 171 182
154 171 174
153 169 174
160 176 187
160 176 183
139 156 161
130 148 144
108 127 116
118 137 129
142 159 164
150 168 176
154 170 177
160 176 186
168 186 198
161 177 186
164 180 191
145 162 165
159 177 185
159 176 181
165 181 190
154 170 179
161 178 188
142 159 164
161 177 186
153 170 180
91 115 87
71 95 56
70 96 58
75 101 61
73 99 59
76 102 63
75 102 62
70 95 56
78 105 64
73 99 60
75 101 62
72 98 59
71 97 58
76 103 62
73 100 60
75 103 62
132 151 152
155 172 181
155 172 181
162 179 191
163 180 191
158 175 184
154 170 177
156 172 179
165 180 190
153 169 175
157 174 183
170 186 200
154 171 177
165 182 194
172 189 202
149 167 168
76 101 70
77 105 64
73 99 60
92 116 90
113 135 124
124 145 136
141 158 159
145 162 166
146 162 166
163 179 190
154 171 180
160 178 187
158 174 180
162 179 189
131 150 148
72 99 59
75 102 62
74 101 62
75 103 62
76 103 62
78 106 65
76 103 63
75 102 62
77 104 64
75 102 62
71 97 58
79 107 66
90 115 87
158 175 184
155 171 180
158 175 184
152 170 180
166 184 196
168 186 199
168 184 196
168 184 195
159 176 187
165 182 191
171 187 201
164 181 194
134 153 151
126 146 142
140 160 162
153 170 175
171 188 203
168 185 197
160 179 189
166 184 196
79 106 66
87 115 76
133 153 148
137 155 159
157 174 183
167 185 196
169 186 197
163 180 191
124 144 138
82 110 67
75 103 63
81 108 66
83 111 69
76 103 62
76 103 63
76 103 62
86 111 81
129 149 142
156 174 181
171 188 203
164 181 192
163 180 191
172 188 202
165 183 195
156 174 182
160 177 186
90 115 82
72 99 60
80 108 67
76 102 62
75 102 61
79 107 65
79 106 65
78 106 65
85 109 82
118 137 127
148 165 168
165 182 192
173 190 204
165 182 193
167 184 196
169 185 196
158 175 183
159 176 186
141 160 161
75 102 61
77 104 63
74 100 60
68 93 55
74 100 60
80 108 67
77 104 64
74 100 61
72 99 59
74 100 60
75 102 61
77 103 63
99 122 101
131 152 149
152 170 178
163 181 189
165 181 192
159 176 188
159 176 185
80 107 68
78 106 65
73 99 60
73 99 59
72 98 59
75 102 62
72 97 58
63 87 50
80 107 67
76 102 62
75 102 61
79 106 65
71 97 58
74 101 62
73 100 61
74 100 61
81 108 66
75 101 61
80 107 65
85 108 78
160 175 184
148 165 173
147 163 168
115 135 126
90 112 87
77 103 62
74 100 60
75 101 61
71 97 58
76 103 63
75 102 62
72 98 59
71 97 58
73 98 59
77 104 64
77 103 63
79 105 66
88 111 88
106 125 112
119 139 131
120 138 130
102 125 104
94 117 90
83 109 75
77 104 63
70 95 57
77 104 63
67 91 54
74 101 60
74 100 60
73 97 58
78 105 64
74 100 61
73 98 59
70 96 57
71 97 58
79 106 65
72 98 58
77 104 63
84 109 78
122 141 137
113 131 123
81 105 70
74 101 61
73 100 60
75 102 62
74 100 60
75 101 61
78 105 64
71 96 57
73 100 60
72 97 58
72 97 59
68 93 56
74 100 60
69 94 56
73 97 59
72 98 59
76 102 62
74 100 61
78 104 63
125 144 138
142 160 165
152 169 174
156 173 182
157 174 182
159 175 184
153 169 176
155 171 177
155 171 179
152 167 173
153 170 178
147 163 169
142 159 164
157 173 185
148 163 171
150 166 171
155 171 174
139 155 155
153 170 175
146 164 171
160 176 185
105 124 111
75 102 62
75 102 62
69 94 56
71 97 58
68 93 55
70 95 56
69 95 57
76 103 62
74 101 62
75 102 62
63 88 52
98 118 99
111 132 122
123 141 138
138 155 158
149 166 173
151 168 173
148 165 171
154 171 180
155 172 184
69 93 59
70 96 57
70 96 57
73 99 60
70 97 58
71 96 56
73 99 60
71 96 58
73 99 60
75 101 61
69 94 56
75 101 62
76 102 62
67 92 54
76 102 62
67 91 54
70 94 57
70 95 56
73 99 60
66 91 55
122 141 136
161 177 186
156 173 182
157 173 179
159 176 185
162 177 188
153 168 177
152 169 176
143 159 161
146 163 168
150 166 173
151 168 175
168 185 196
147 164 169
155 171 178
150 166 174
154 170 179
150 165 171
153 169 178
153 169 177
129 147 142
72 98 58
75 102 62
68 93 55
73 98 59
72 99 59
75 101 61
71 96 58
68 93 54
70 95 56
70 95 57
66 92 54
72 98 59
70 95 56
71 97 58
71 97 59
74 99 59
71 98 58
70 95 56
76 103 63
123 141 137
154 169 176
146 164 168
156 172 181
148 165 173
151 169 175
166 182 192
156 172 177
160 175 183
151 167 174
152 169 177
148 166 175
161 178 187
153 170 176
149 166 171
155 171 177
157 173 183
158 175 187
162 179 188
131 149 149
72 98 59
74 100 60
76 103 62
73 99 59
78 105 64
71 97 59
70 95 56
72 98 59
71 97 57
75 102 62
72 98 58
71 97 58
74 100 61
76 103 63
72 98 59
75 101 61
72 98 59
74 101 62
131 149 147
157 173 182
158 174 185
150 168 175
161 177 186
162 179 188
163 180 189
157 174 180
149 166 169
133 152 153
131 149 147
114 135 125
111 133 120
93 116 92
70 96 57
75 101 61
66 91 53
71 96 57
131 148 145
159 175 185
157 174 183
155 172 179
161 177 186
162 177 186
154 171 178
143 160 163
165 181 192
166 181 192
151 168 175
161 177 185
166 183 193
151 168 177
168 184 194
150 167 172
161 178 189
145 163 164
76 104 63
73 100 60
70 96 57
76 103 63
70 96 58
71 98 59
73 100 60
80 107 65
70 96 58
74 100 60
79 107 65
73 99 59
77 104 63
76 104 64
74 100 61
84 108 74
149 168 175
168 184 194
159 176 184
162 179 188
159 175 182
159 176 187
156 173 179
158 175 184
158 176 187
170 186 198
157 173 182
157 173 180
152 169 176
160 177 188
157 173 182
143 161 163
74 100 59
75 102 62
78 105 64
74 101 60
71 97 57
70 95 57
75 101 61
75 100 63
85 109 84
104 126 107
124 145 139
137 156 156
154 171 178
156 172 179
116 136 121
79 107 65
79 107 66
76 103 63
76 103 63
75 102 61
76 103 64
81 108 66
78 105 64
72 99 59
77 103 63
79 107 65
76 104 63
99 124 105
158 175 186
159 177 189
158 174 184
159 176 184
166 183 194
166 183 193
161 177 186
177 195 212
151 168 176
162 180 189
158 174 180
167 185 197
114 136 126
76 103 63
77 104 67
99 122 101
126 146 141
160 177 189
164 180 191
127 148 140
159 176 185
166 183 193
164 181 189
162 179 189
167 185 200
164 181 194
163 180 190
119 141 130
78 106 66
85 114 71
77 104 63
76 103 63
81 109 67
98 123 99
143 162 163
162 179 189
169 187 199
169 186 199
164 180 191
161 177 188
159 176 185
166 183 194
164 180 192
158 175 184
169 184 195
83 109 73
79 106 66
77 105 64
77 104 63
74 100 61
74 100 61
95 118 93
125 144 138
163 181 191
166 183 196
163 182 195
168 185 195
160 177 187
170 186 198
163 179 191
170 187 200
156 172 180
160 177 187
137 156 154
79 106 65
73 100 60
76 102 62
74 100 59
80 107 65
80 107 65
78 105 64
76 103 62
79 107 66
78 104 69
120 140 133
151 169 173
158 175 184
151 168 176
161 179 190
155 171 178
151 168 174
165 181 191
155 171 177
86 111 80
78 105 64
72 98 59
73 99 59
75 101 61
74 100 60
72 98 59
74 100 61
73 99 60
70 96 56
74 101 61
74 100 60
72 98 59
74 99 59
74 101 61
79 106 65
72 98 59
73 100 60
74 99 62
107 129 114
117 137 127
78 102 70
76 103 63
72 98 59
72 97 59
76 102 62
71 96 57
74 101 61
78 105 65
72 98 59
74 101 62
75 102 61
76 102 62
76 103 63
73 100 60
67 91 53
77 103 62
76 103 63
72 98 60
75 102 62
133 152 155
159 174 182
156 171 180
164 179 190
142 159 162
147 164 168
134 152 150
132 150 145
120 139 134
107 127 113
91 113 96
82 108 74
75 101 61
74 100 60
68 93 55
81 105 75
101 123 103
128 147 142
132 149 148
163 179 188
159 174 182
81 106 76
75 101 62
69 94 56
73 99 59
79 106 66
71 96 58
70 96 59
72 97 58
66 91 53
71 97 58
76 104 64
74 100 60
70 95 56
71 97 58
75 102 62
71 98 57
74 100 61
68 93 54
74 100 59
72 98 60
90 111 89
151 167 172
154 171 177
153 169 174
156 172 181
152 169 175
158 175 185
156 172 182
150 167 176
149 167 176
151 169 176
153 169 177
159 175 186
165 181 190
155 171 179
159 174 181
161 177 185
147 165 168
157 173 180
155 170 175
141 159 164
128 146 145
75 101 61
71 97 58
70 95 58
72 98 58
73 99 59
92 113 93
109 130 117
122 140 131
136 154 157
152 169 175
154 169 178
150 168 173
159 175 185
157 173 183
165 181 190
165 181 193
155 171 181
147 165 173
161 177 184
152 169 176
112 133 121
69 95 57
70 96 57
73 99 60
72 98 59
68 93 56
71 97 59
75 101 61
78 104 62
70 95 58
75 102 61
73 98 58
72 97 58
77 104 62
69 94 57
72 98 58
75 102 62
71 97 58
69 95 56
74 100 60
82 106 80
149 166 171
142 157 160
162 179 191
149 167 174
156 171 179
153 169 178
157 174 181
150 167 171
153 171 180
143 159 164
157 173 180
155 171 177
148 163 170
154 170 180
157 174 183
152 169 176
154 171 179
159 177 185
148 165 174
163 179 189
86 110 83
75 101 62
71 97 57
71 97 58
71 95 57
70 96 57
72 98 59
75 102 61
75 101 61
75 101 61
76 103 62
72 97 58
74 100 60
71 97 57
76 103 62
69 94 55
68 92 55
73 99 60
70 96 57
86 110 82
146 163 169
152 168 173
155 171 178
146 162 167
159 176 187
151 168 174
158 174 185
159 175 184
158 174 180
156 173 180
143 160 162
143 159 162
161 176 185
156 173 183
156 171 178
160 176 184
155 171 177
165 182 192
156 172 181
84 106 84
72 97 59
74 100 59
77 104 63
73 97 58
71 96 57
73 100 61
71 96 58
72 97 58
74 100 61
73 99 60
74 101 61
70 96 57
71 97 58
75 102 61
70 95 57
72 98 59
73 96 63
104 126 111
136 153 153
130 147 144
114 135 122
105 125 113
99 121 105
90 113 89
70 95 56
74 100 60
73 99 58
73 99 59
75 101 61
73 99 60
76 103 63
74 100 61
76 102 63
74 101 61
76 104 63
81 105 76
151 167 173
147 164 173
152 168 175
160 176 185
152 168 174
150 166 171
159 175 183
162 179 190
149 167 173
157 172 179
153 169 175
155 173 181
166 183 194
162 179 191
148 164 170
165 181 192
166 183 195
115 135 124
75 102 62
78 105 64
75 101 61
78 105 64
76 102 62
77 104 64
75 102 62
73 99 60
76 103 63
77 103 63
75 101 61
74 100 61
66 90 53
75 102 62
80 108 66
94 117 96
151 168 175
159 176 184
159 176 185
164 181 193
154 171 179
154 171 178
161 177 186
170 187 200
161 178 189
159 177 186
166 182 193
160 175 182
152 169 176
162 179 188
166 183 194
114 134 125
78 106 65
76 103 63
73 99 60
73 99 60
76 103 62
77 104 64
79 108 66
75 101 62
76 103 62
77 104 63
81 109 67
78 106 66
92 116 91
102 124 104
109 130 118
105 126 109
86 112 82
73 99 60
77 104 63
74 102 62
74 99 59
80 108 66
75 102 63
80 108 66
79 107 65
75 102 61
71 98 58
112 134 124
162 180 191
161 178 187
169 186 198
162 181 193
159 176 186
161 179 187
163 181 192
166 183 194
156 173 180
164 181 193
171 186 196
168 186 199
100 124 101
79 107 66
82 110 68
78 106 65
74 101 61
93 117 91
169 186 198
162 179 190
170 188 199
171 188 203
160 178 190
165 182 193
161 178 186
160 177 184
97 123 96
76 103 62
77 104 63
78 105 64
119 140 130
143 162 163
174 192 208
168 185 198
166 182 193
163 181 192
166 183 196
171 187 198
154 172 180
157 174 180
170 186 197
153 172 176
169 186 199
167 185 196
79 106 65
69 95 57
76 104 64
76 102 64
118 140 128
148 166 171
155 172 177
167 184 197
165 181 191
153 170 177
166 183 197
167 183 196
153 172 180
159 175 186
165 182 194
154 171 178
170 188 202
159 175 183
137 156 155
74 101 60
77 105 64
78 105 64
77 104 63
78 104 63
77 105 64
78 104 63
94 118 91
133 153 151
169 185 195
165 181 192
170 188 201
157 174 182
157 174 182
163 179 188
159 175 185
149 166 172
162 178 188
167 184 196
99 122 99
74 100 61
70 95 57
75 101 61
78 105 64
76 103 63
74 100 61
76 103 63
79 106 65
76 103 63
79 108 67
73 99 59
74 100 61
76 103 63
76 103 63
78 103 69
102 123 109
126 144 141
148 165 170
158 176 184
88 112 81
73 100 60
75 102 62
72 98 59
77 103 62
72 98 59
78 104 63
75 101 61
79 107 66
78 105 64
74 100 60
71 96 57
74 101 61
64 89 53
73 98 59
71 97 57
74 100 60
74 100 60
76 103 62
74 99 60
123 144 135
163 180 191
155 172 178
167 183 195
155 172 180
160 177 187
166 183 194
158 175 186
160 176 183
155 173 179
146 164 171
158 174 183
139 157 160
114 134 124
83 108 74
99 121 102
134 151 150
128 146 145
129 148 147
151 168 174
150 167 175
95 116 99
68 93 54
74 100 60
75 101 61
69 94 56
76 103 63
75 102 61
75 101 62
74 100 61
74 101 60
76 102 61
73 99 59
73 99 60
73 99 60
76 102 62
75 101 62
74 100 61
71 97 58
73 98 58
72 98 60
80 107 69
162 178 188
154 171 181
152 168 175
160 176 185
150 165 171
151 168 174
148 164 170
157 172 182
155 170 179
146 164 168
155 172 179
149 164 170
154 169 174
146 162 167
164 180 191
153 170 176
161 179 186
153 168 175
154 170 178
161 177 187
156 173 181
90 113 87
106 125 113
133 152 152
144 160 163
142 159 162
155 171 180
159 176 184
161 175 183
153 170 177
162 178 189
160 177 186
157 174 184
161 176 182
158 174 184
154 171 179
152 168 175
157 172 182
156 172 182
154 170 178
154 171 181
129 146 144
77 104 64
73 98 59
74 101 61
74 101 60
68 92 55
68 93 55
72 98 59
70 96 57
73 99 60
68 93 55
68 93 56
70 95 56
76 102 61
75 101 62
69 94 56
74 100 60
72 97 59
73 99 59
73 100 60
73 99 60
147 163 166
158 174 182
160 176 187
161 178 188
148 165 174
145 162 168
162 178 188
165 181 190
155 171 181
146 163 167
145 162 167
161 178 185
154 171 180
159 175 181
164 180 190
151 168 172
155 171 179
164 180 190
155 172 178
150 166 173
124 143 139
73 99 59
70 96 56
73 99 59
76 103 62
75 101 61
74 101 62
72 98 59
68 93 55
71 98 59
73 99 59
77 104 63
68 93 55
78 105 63
71 96 58
75 102 62
71 96 57
74 100 61
72 98 59
75 101 62
133 151 154
158 173 179
157 173 184
158 175 182
157 174 184
157 174 182
153 169 179
152 169 175
156 173 183
156 172 179
155 173 183
154 171 179
147 164 170
153 170 177
149 165 170
157 173 186
156 173 181
164 180 190
148 164 172
140 157 157
74 100 61
75 101 61
70 96 57
75 100 60
74 100 60
76 103 62
78 103 66
78 101 69
87 107 88
99 119 105
113 134 125
117 136 126
135 154 157
134 151 154
152 169 174
159 177 186
149 166 173
158 175 182
120 139 129
74 100 61
71 97 58
70 96 58
73 99 60
72 98 59
79 107 65
73 99 60
72 98 59
75 101 61
77 103 63
68 93 55
73 99 60
73 98 59
74 100 60
70 95 56
73 99 58
72 97 58
113 133 122
155 172 180
160 178 190
164 180 192
155 171 177
163 179 187
159 176 186
160 177 188
164 182 192
161 178 188
157 173 180
156 173 183
164 181 191
162 178 187
163 180 190
160 177 185
154 169 175
153 170 174
89 113 84
75 102 63
76 103 62
73 99 60
74 100 60
76 103 62
73 100 61
76 103 62
69 95 56
78 105 64
80 107 65
72 99 60
71 97 58
74 100 61
74 100 61
76 102 62
119 139 131
157 173 181
164 182 194
166 183 195
163 180 189
157 174 182
163 179 187
163 181 192
161 178 188
155 171 176
152 170 177
152 168 173
162 179 188
157 174 182
171 187 200
151 168 173
87 109 82
78 104 63
75 102 61
78 106 65
77 106 65
75 101 62
78 105 64
80 108 66
74 101 62
79 106 65
73 99 60
74 100 61
75 102 62
80 108 67
87 111 83
167 184 195
169 187 199
156 173 181
143 161 167
123 145 139
108 131 117
84 111 74
75 102 62
78 105 64
77 105 64
74 101 62
79 106 65
76 104 63
132 153 147
166 183 195
169 187 200
161 177 186
155 175 185
171 188 200
158 175 186
168 185 198
163 182 190
161 178 189
166 182 194
164 181 192
160 178 187
89 114 87
81 109 67
80 108 66
74 102 61
77 105 65
163 180 194
163 180 188
157 175 183
164 181 192
153 171 177
165 183 196
168 185 194
169 186 200
91 117 87
79 105 69
132 150 145
157 176 184
164 183 194
160 178 191
170 187 200
173 190 203
167 183 194
164 180 190
167 183 194
168 185 198
169 185 197
157 175 182
159 176 186
163 180 191
161 178 188
153 170 179
79 108 66
84 110 75
112 131 119
159 178 187
165 183 193
168 185 195
172 187 197
155 173 178
168 186 199
168 186 201
169 186 199
161 178 187
160 177 189
160 176 187
156 172 180
166 183 193
164 180 189
165 182 191
143 161 164
77 104 64
79 106 65
78 104 63
78 105 64
85 108 80
124 145 137
153 172 179
160 177 182
160 177 187
169 186 198
168 185 197
164 181 191
169 186 199
154 171 178
167 183 195
159 177 186
163 180 190
168 183 195
159 175 183
87 111 83
79 107 66
75 102 63
75 101 61
78 104 63
76 104 63
72 98 59
78 105 64
77 103 62
78 105 65
73 100 60
74 100 61
77 101 67
103 125 105
126 145 141
156 173 179
161 178 188
165 183 193
160 177 186
163 178 187
114 136 122
72 97 58
71 97 58
76 103 63
72 99 59
79 107 65
75 101 61
74 99 60
73 99 60
78 104 63
76 102 62
76 103 62
76 102 61
76 102 62
75 102 62
76 103 64
76 102 62
71 98 58
79 106 65
68 94 55
113 133 121
167 183 195
146 163 169
163 180 192
157 174 184
164 181 191
155 172 181
158 174 184
149 165 172
122 140 135
105 127 110
80 106 70
76 103 63
77 104 63
79 105 64
72 98 59
78 105 65
70 96 57
75 102 61
73 100 61
73 99 60
131 150 151
159 175 185
151 169 176
134 152 150
127 145 139
129 148 145
128 147 142
112 132 121
108 128 117
92 115 91
94 117 92
80 105 70
73 99 59
73 99 60
73 99 60
79 106 65
73 99 59
72 98 58
74 99 59
69 94 55
74 101 61
149 165 170
158 174 185
161 177 187
150 166 172
153 170 176
157 173 182
156 172 181
163 180 190
159 175 184
144 161 165
151 167 174
155 171 178
167 183 192
154 170 180
146 162 167
159 176 185
144 162 165
118 137 129
116 135 129
93 116 92
74 100 61
131 148 147
166 182 191
143 159 164
146 161 167
152 168 177
156 173 179
160 177 188
155 172 179
160 177 186
152 168 177
159 175 183
148 164 167
165 179 189
154 170 176
156 174 185
162 178 189
150 166 172
148 164 172
142 158 161
158 175 185
152 169 174
80 103 76
71 96 57
73 100 59
73 100 60
76 103 63
70 95 58
72 98 60
75 101 62
73 99 60
73 99 60
70 95 56
78 104 63
79 106 65
69 94 56
76 103 63
76 103 63
70 95 57
77 103 63
68 91 54
75 102 62
118 137 130
150 168 174
153 169 176
153 169 177
158 174 182
148 166 174
153 168 174
162 178 189
158 174 182
161 175 185
153 169 174
147 165 170
156 172 180
155 173 180
156 172 180
160 176 186
150 166 172
152 168 175
155 171 178
154 172 180
152 169 174
77 102 66
69 95 57
72 98 59
71 97 57
71 97 58
71 96 57
72 97 58
76 102 61
71 97 58
76 102 62
72 97 59
75 101 61
74 100 59
72 98 59
72 98 59
70 95 56
72 98 58
74 100 61
73 100 60
75 101 68
153 170 176
148 165 167
153 169 175
150 166 173
161 179 188
163 179 189
162 178 189
157 172 178
163 179 188
154 170 176
154 170 175
158 174 184
146 164 170
155 171 178
152 168 176
152 169 176
145 162 167
145 161 160
138 155 159
113 132 123
130 149 146
140 158 160
138 158 160
142 161 162
161 178 188
157 174 182
147 164 169
149 166 169
148 166 172
151 167 173
164 181 193
159 176 184
153 170 176
155 172 180
159 176 186
153 171 176
141 159 156
168 185 195
90 113 87
80 107 69
73 98 63
76 102 64
78 105 64
68 93 55
74 100 61
72 98 59
69 94 56
77 104 63
75 102 62
75 102 63
72 98 58
74 100 60
77 103 63
76 103 62
72 98 59
72 98 60
138 155 157
159 176 188
149 166 172
160 177 186
156 172 180
157 174 184
160 178 186
163 179 190
158 174 184
160 176 185
152 169 176
160 176 185
158 174 183
163 179 188
160 177 188
161 176 185
144 162 164
130 149 146
73 99 59
75 102 62
75 102 61
74 100 60
78 104 63
72 97 58
76 103 63
76 102 61
78 105 64
74 101 62
76 104 63
77 105 64
76 103 62
71 96 56
79 106 66
73 99 59
151 169 176
166 183 195
156 173 181
160 177 186
165 182 194
161 176 187
163 179 189
153 171 179
153 171 177
159 176 187
156 173 183
152 169 177
154 171 177
164 179 187
161 179 189
162 180 191
79 107 65
75 102 62
72 99 60
75 102 62
76 104 63
79 106 65
70 96 57
74 101 61
74 101 62
74 101 61
75 102 62
74 101 62
78 106 66
73 100 60
112 134 123
162 180 191
163 179 188
159 176 188
160 177 187
159 175 186
150 167 172
155 173 179
146 165 166
115 137 126
96 118 101
78 106 64
76 103 62
79 107 65
135 154 151
160 177 188
162 179 188
167 184 196
164 181 192
170 187 199
171 189 206
160 177 185
169 187 199
168 186 195
170 186 199
169 186 200
163 179 187
99 124 97
80 108 67
75 102 63
79 106 65
175 193 208
169 186 198
161 179 191
172 189 201
165 182 194
164 180 190
165 183 195
165 183 194
134 154 152
155 172 178
168 184 194
170 187 197
169 186 197
169 186 197
164 180 191
176 194 209
166 183 196
173 190 205
170 186 198
163 179 189
172 189 202
165 182 195
167 185 195
160 178 188
165 181 193
146 163 166
150 169 173
164 180 189
161 178 187
169 185 200
163 180 190
155 172 177
169 186 200
157 175 186
158 176 184
160 178 189
162 178 189
158 175 184
159 177 187
169 185 197
168 185 198
170 186 199
167 183 194
163 180 193
143 163 167
80 107 65
82 107 73
123 144 137
148 166 172
165 182 193
162 179 189
165 181 192
164 180 191
163 179 190
157 173 181
155 171 178
149 167 174
165 181 190
167 184 195
162 178 187
154 171 176
165 182 193
160 176 187
167 184 195
102 124 105
72 98 59
78 105 64
74 101 61
80 108 66
79 106 65
75 102 62
81 109 67
71 96 58
74 101 60
95 119 96
135 152 156
165 183 194
162 178 188
164 181 193
171 188 202
166 183 195
158 175 185
160 178 190
155 173 180
105 126 112
69 95 57
74 101 62
72 98 59
70 96 57
72 98 59
74 102 62
72 98 58
81 109 67
78 105 64
74 100 61
74 100 61
75 101 61
70 95 58
70 96 59
75 102 62
79 107 66
79 107 66
72 98 59
71 96 58
100 121 104
154 171 179
154 170 175
157 174 184
162 179 189
136 155 155
114 135 122
94 118 96
78 105 65
78 106 65
73 100 60
74 100 61
74 101 60
77 104 63
73 99 60
72 97 58
75 101 61
76 103 63
71 98 59
71 97 59
72 97 58
113 134 120
159 176 184
166 181 193
159 176 185
160 178 188
163 179 191
161 178 186
152 169 176
154 170 179
166 184 196
153 169 174
160 177 185
161 178 188
161 177 186
154 172 179
141 159 163
128 148 141
138 155 156
119 138 130
126 145 142
107 128 115
117 137 128
150 167 172
143 160 164
161 179 189
157 172 181
155 171 181
150 167 175
155 172 177
163 178 189
151 167 172
151 168 177
153 169 176
134 151 151
110 130 118
90 111 89
79 104 69
74 100 61
71 96 57
73 99 60
73 98 59
78 105 64
117 136 128
153 170 176
146 164 168
155 171 180
157 172 179
156 173 182
148 166 172
154 171 178
152 168 177
150 167 171
153 170 180
157 173 181
143 159 162
160 177 189
151 168 170
152 168 174
151 169 177
150 167 175
153 170 176
158 174 183
157 174 183
117 137 128
74 99 59
72 98 58
66 90 53
69 94 56
76 103 63
71 96 57
73 99 59
69 94 56
74 100 60
68 93 55
74 100 59
73 100 61
74 100 59
69 94 55
77 104 64
70 95 57
74 100 61
75 102 62
71 97 58
82 108 71
151 168 172
150 167 174
155 173 182
159 176 185
147 165 170
159 174 182
154 170 178
156 173 181
154 172 182
157 175 182
153 170 177
152 169 175
155 171 181
146 162 167
163 178 186
148 164 170
153 170 180
155 172 181
159 175 184
153 169 177
119 139 126
73 99 60
75 101 61
72 98 60
67 92 54
72 98 59
75 101 62
73 100 59
74 100 61
72 97 58
70 96 58
73 98 59
69 95 56
74 99 60
76 102 61
70 95 58
78 105 64
77 105 64
76 103 63
75 102 62
134 151 151
166 183 194
156 173 182
154 171 179
151 168 174
147 164 168
150 166 171
151 168 173
158 175 183
152 169 174
145 163 167
146 164 167
135 154 153
146 163 165
139 158 159
155 173 180
147 161 164
145 162 167
141 158 162
146 164 170
92 113 89
85 108 78
79 104 71
74 99 63
74 101 61
77 104 63
77 104 63
79 106 65
75 102 62
80 108 66
73 99 60
73 98 59
74 101 60
70 96 57
74 100 59
74 101 61
74 101 62
74 100 61
110 129 119
160 177 185
146 163 167
166 184 195
159 176 186
161 177 184
151 168 173
155 172 177
150 166 172
156 173 181
146 164 167
146 164 168
148 166 172
144 160 162
139 156 154
131 150 146
135 154 155
144 162 162
142 160 161
122 141 132
131 150 148
130 149 145
139 157 150
137 156 156
155 172 181
165 182 193
144 161 164
152 169 179
167 183 191
169 185 198
161 178 190
158 175 183
157 174 181
159 175 183
158 174 182
166 183 194
101 121 102
76 102 62
75 102 61
72 98 59
75 102 62
77 104 63
72 99 59
77 104 64
75 102 62
71 97 58
76 102 62
76 103 62
77 104 63
81 108 66
78 106 65
76 103 63
99 122 101
155 173 180
159 176 187
155 173 180
166 183 193
164 182 192
158 175 184
165 182 193
164 181 191
168 185 198
159 177 186
166 183 193
165 183 195
167 185 197
157 175 183
161 179 189
132 151 147
76 103 62
73 99 60
70 97 57
75 102 62
74 100 62
79 106 66
75 102 62
77 104 63
78 106 65
79 107 66
76 103 62
77 104 64
76 103 63
79 107 66
133 152 151
164 181 191
168 185 198
176 192 207
161 178 187
167 184 199
165 182 193
169 185 197
175 192 208
167 183 193
159 176 185
156 173 178
127 146 142
109 131 115
161 179 189
160 178 187
172 190 202
167 185 197
167 184 197
169 186 200
163 180 188
161 179 189
163 180 190
163 181 193
163 181 193
167 184 196
146 164 168
83 108 76
77 104 63
76 103 62
173 192 207
165 182 195
170 187 201
174 191 204
161 180 192
157 175 184
119 140 131
116 137 128
167 184 197
159 177 185
162 179 189
165 182 191
162 181 193
168 185 193
165 182 192
178 194 206
167 184 197
173 190 204
164 182 194
169 186 198
162 179 188
163 180 190
158 176 186
130 149 145
100 123 104
93 117 91
159 175 185
170 188 201
172 189 204
166 182 192
156 175 184
161 178 187
169 187 200
164 181 191
165 182 195
155 172 180
162 180 192
161 179 188
167 184 197
163 180 189
168 185 198
175 192 205
171 188 201
176 192 205
140 159 161
134 153 153
163 181 191
169 186 199
162 179 190
160 177 189
171 187 202
165 182 194
162 179 189
163 180 192
169 185 197
157 174 180
163 179 188
162 179 190
156 173 181
166 183 194
170 186 198
171 188 199
158 175 183
161 179 188
101 124 104
77 104 63
70 96 58
71 97 58
73 99 61
79 106 65
76 103 63
101 123 104
133 152 150
153 170 175
164 180 189
155 174 182
165 181 190
171 186 197
161 177 187
157 175 184
159 178 187
167 184 197
162 178 189
158 176 185
110 130 117
76 103 63
76 102 61
72 98 60
74 101 61
74 101 61
73 100 60
75 102 62
76 102 62
76 102 61
76 102 62
78 105 65
75 101 61
75 101 61
71 96 58
76 103 63
77 103 63
80 107 65
77 104 64
74 100 61
76 103 63
152 170 177
127 146 140
111 131 115
86 111 78
76 103 62
78 105 64
75 101 62
77 103 63
73 99 60
78 105 64
76 103 63
70 96 56
76 103 63
71 96 57
77 104 62
77 103 63
76 103 63
68 93 54
72 97 59
74 100 60
93 116 90
160 176 185
146 162 168
162 179 191
159 177 186
155 171 178
160 176 185
167 184 197
164 180 190
159 174 182
165 181 193
166 182 193
149 165 170
160 177 187
152 168 176
154 170 176
158 175 181
157 173 182
161 178 189
159 175 185
160 177 187
143 160 165
72 98 59
72 99 60
75 102 62
75 101 62
74 100 60
92 113 92
124 143 134
139 157 161
152 169 178
139 156 156
137 157 157
132 149 148
130 149 148
123 143 137
118 137 134
115 135 128
116 136 128
103 124 108
100 121 105
111 130 117
94 116 95
154 172 179
161 179 188
150 167 173
161 177 185
154 171 180
161 178 190
156 173 185
163 180 192
165 181 193
150 167 173
154 172 181
158 175 183
160 177 185
156 172 178
156 174 181
158 175 184
167 183 194
163 179 193
163 181 193
155 171 179
146 164 167
72 99 60
75 101 61
71 97 58
74 100 61
74 101 61
72 98 59
74 101 61
77 104 64
72 97 59
71 97 58
75 101 60
77 103 63
75 101 61
74 101 62
72 97 57
73 99 60
79 106 65
78 105 64
73 99 60
74 99 59
122 141 138
154 170 176
155 173 182
158 176 186
146 162 168
151 169 176
157 173 183
152 168 174
157 173 183
147 165 171
149 166 174
163 179 191
151 167 175
159 175 186
160 177 187
153 170 176
160 176 184
159 175 185
152 168 176
150 167 174
150 167 168
90 113 88
91 114 86
96 117 98
101 121 101
103 123 105
99 119 103
86 109 85
103 125 108
96 118 100
92 115 92
98 120 101
85 109 78
86 111 83
73 98 64
82 108 72
77 104 63
74 98 65
73 98 59
73 98 59
93 117 91
157 173 181
152 168 173
160 175 184
159 175 181
159 176 184
157 174 184
159 174 181
157 174 184
159 175 183
158 174 184
158 175 187
159 176 182
157 173 181
163 180 188
162 178 188
154 171 179
162 178 185
158 174 181
153 170 177
104 125 110
75 100 60
69 93 55
73 100 61
74 101 61
75 101 62
69 95 57
75 102 61
75 101 63
76 102 62
80 107 65
77 104 62
70 95 56
76 102 62
70 95 56
73 100 61
75 101 62
72 98 58
77 104 66
147 164 171
158 174 183
160 177 187
164 180 190
162 179 188
162 178 185
170 186 199
161 177 188
172 189 202
163 179 188
163 180 192
153 170 178
157 174 183
161 178 187
151 167 171
149 167 176
165 183 191
161 178 185
113 134 122
79 107 65
71 97 58
75 101 61
73 99 60
78 105 64
73 100 60
70 96 57
74 101 62
76 103 63
87 113 82
87 113 79
90 115 88
103 124 108
103 123 108
119 139 132
128 149 141
131 149 144
110 131 120
109 129 119
98 121 96
80 104 77
79 105 67
76 103 63
73 99 60
76 103 63
76 104 63
79 106 65
78 106 66
76 103 62
77 104 64
74 100 60
79 107 66
75 102 62
126 146 141
158 175 186
165 183 195
156 174 183
160 177 185
167 184 196
164 181 193
166 183 195
161 179 192
162 179 188
162 179 188
163 180 189
165 181 192
164 181 191
166 183 195
170 187 200
112 132 119
80 108 66
73 99 60
78 105 65
83 110 68
78 105 65
81 109 67
79 106 65
75 102 62
74 100 61
78 106 65
76 104 64
77 104 64
80 108 67
89 115 81
149 167 172
170 185 198
171 188 198
171 188 202
154 172 180
165 182 194
172 190 205
164 180 191
174 190 202
166 182 192
170 187 198
161 179 189
173 189 203
145 164 163
125 145 137
138 157 155
148 167 173
164 181 191
174 191 205
164 181 194
168 185 197
170 187 201
167 183 193
170 187 203
171 189 202
176 193 207
152 169 173
80 108 69
79 108 67
165 182 191
165 183 194
160 176 185
155 172 180
117 138 126
83 111 71
80 108 68
106 128 109
168 186 201
173 191 205
162 180 193
155 172 180
164 181 195
167 185 197
171 188 202
170 187 199
166 182 193
159 177 186
170 187 199
176 194 209
156 174 182
120 140 131
84 110 75
74 102 62
80 107 66
94 118 94
162 178 186
166 183 195
159 177 187
169 185 197
150 168 174
174 190 203
164 181 191
156 172 180
170 187 201
170 186 197
166 183 194
168 184 195
158 175 185
173 189 202
166 183 194
160 176 182
134 153 153
93 118 89
100 122 99
163 180 190
164 181 193
161 178 187
167 184 195
163 180 190
159 175 186
165 183 195
160 177 188
168 184 197
161 178 189
169 185 200
165 182 194
168 185 196
169 186 198
159 175 186
177 193 209
160 176 184
159 176 186
168 185 194
110 132 120
78 105 64
74 100 61
75 102 65
100 123 104
138 156 156
149 166 172
163 180 192
165 182 190
158 175 184
164 180 191
167 184 197
160 178 189
166 182 194
167 184 196
163 180 191
156 172 182
159 177 186
157 173 180
160 176 187
122 141 137
78 106 65
70 96 57
73 99 59
72 99 60
76 103 63
72 98 58
78 105 63
76 103 63
78 105 65
76 102 62
78 106 65
75 102 61
74 101 61
72 98 59
78 105 64
71 96 58
75 101 63
115 136 124
128 148 143
155 172 179
92 114 90
73 100 60
76 102 62
73 100 61
76 103 63
74 101 60
75 102 61
79 107 65
72 98 59
77 104 63
78 106 65
75 101 61
78 105 64
73 99 60
77 103 62
73 99 59
74 101 61
71 97 57
77 104 63
70 95 57
75 102 62
144 161 167
158 176 187
161 176 183
152 168 174
168 184 199
152 169 177
161 179 191
151 169 177
152 168 176
148 165 172
166 182 195
159 176 187
159 176 186
149 165 170
148 164 171
166 183 196
156 172 182
159 176 185
154 170 175
155 171 179
159 176 186
92 115 94
102 124 105
118 137 131
134 152 150
145 162 166
161 178 185
146 163 170
150 167 175
168 183 195
162 178 187
163 180 192
157 175 185
155 172 180
145 161 166
140 157 160
158 174 183
153 169 176
154 171 177
154 171 181
148 164 167
166 182 194
78 103 69
75 101 61
76 102 62
69 95 55
75 101 60
70 97 58
71 97 58
76 102 65
92 115 89
91 114 86
96 120 94
92 117 90
110 131 118
96 119 95
99 122 101
108 128 113
121 141 131
96 116 99
109 129 117
109 129 118
104 126 108
126 144 142
139 157 161
112 131 121
129 146 145
133 150 151
135 152 150
132 151 146
130 148 145
137 156 154
128 147 141
135 153 155
125 144 145
134 152 155
146 163 166
122 141 135
136 154 152
119 138 129
142 160 162
134 151 149
128 148 141
142 160 163
119 140 132
109 130 115
106 125 112
100 121 108
97 120 96
100 120 102
96 119 98
112 133 119
106 127 109
90 114 88
97 119 103
90 114 92
87 110 85
84 109 78
78 102 70
91 115 88
96 118 99
110 129 118
109 130 115
121 140 130
124 142 138
97 119 97
100 122 104
88 113 85
77 103 63
72 99 59
72 96 58
80 108 66
77 104 63
73 99 60
70 94 56
73 100 60
71 96 58
70 96 57
71 97 58
71 97 57
74 100 60
73 100 61
75 101 62
71 97 58
141 158 160
149 165 170
145 162 168
156 173 185
159 175 185
164 181 192
171 187 199
156 173 183
165 182 191
155 172 178
159 176 187
154 172 181
155 172 181
164 181 190
163 180 188
156 173 183
158 173 180
164 180 192
163 180 190
142 161 162
77 104 63
70 95 56
74 100 61
73 99 59
70 96 57
80 107 66
73 99 59
77 104 63
74 101 61
77 105 63
70 96 58
77 104 63
72 98 59
68 93 55
74 100 60
69 95 56
77 104 63
75 102 62
106 127 111
158 176 186
166 182 191
156 175 184
154 171 183
153 169 177
158 173 181
153 171 177
159 175 183
171 187 199
154 171 180
157 175 185
164 181 192
154 171 181
157 174 182
157 173 180
156 172 178
161 177 187
157 175 182
77 101 68
75 102 62
74 100 61
76 103 63
71 96 58
77 104 63
70 96 58
74 100 60
74 101 61
75 101 61
76 103 63
74 100 60
76 103 62
75 102 61
80 107 66
75 102 61
76 103 63
116 136 126
163 180 189
154 171 180
163 178 189
161 179 189
156 173 181
144 161 162
135 154 156
142 160 160
131 150 148
132 151 149
100 123 104
100 122 100
89 113 87
78 105 64
74 100 61
81 109 67
147 164 167
153 169 176
156 173 183
164 181 192
167 184 195
162 179 189
159 176 185
165 182 193
163 180 190
164 181 191
154 171 177
156 173 178
160 178 189
157 174 183
163 179 190
161 178 189
95 118 90
74 100 60
76 102 62
73 99 59
77 104 63
78 105 64
76 103 63
77 104 63
79 106 64
75 102 61
75 102 62
74 102 62
80 108 67
79 107 66
89 114 85
161 178 186
161 178 187
171 187 201
172 188 199
166 183 193
163 180 192
166 184 195
170 188 202
169 186 199
175 191 204
171 187 199
167 185 196
172 188 200
159 176 182
82 108 71
76 103 62
81 107 71
114 134 122
136 156 153
145 164 169
171 188 200
167 185 198
174 191 205
167 184 195
164 182 195
164 182 192
137 155 154
81 108 66
168 185 197
157 175 181
103 126 106
78 106 65
78 106 65
78 106 65
74 101 61
142 162 163
160 177 186
170 186 196
168 184 195
162 179 189
172 190 205
167 184 198
173 191 204
162 179 192
173 191 205
165 182 191
150 167 173
110 132 115
82 109 70
78 106 65
77 104 64
74 100 61
77 104 63
123 141 133
165 181 194
154 172 177
173 189 203
170 187 199
168 185 197
167 183 196
165 181 191
162 180 189
171 188 201
164 181 194
162 180 192
161 179 189
165 182 193
135 155 153
117 139 127
78 105 65
77 105 64
79 107 66
118 140 129
168 184 196
167 184 197
169 186 199
160 177 187
165 182 194
171 188 203
163 180 189
162 178 189
159 176 184
162 179 190
170 186 199
162 177 186
160 176 186
166 183 196
170 187 199
164 180 190
164 181 191
157 174 186
160 177 184
114 134 120
92 114 93
117 136 123
151 169 173
166 183 195
164 181 191
163 180 190
167 184 194
157 173 181
162 178 188
165 181 194
162 179 189
162 179 189
160 178 189
168 184 197
157 174 180
162 178 186
154 171 181
157 175 184
160 175 183
138 157 160
72 98 59
80 107 65
75 101 61
76 103 63
73 100 60
79 107 65
73 99 60
74 101 61
75 100 61
77 104 63
79 107 66
76 102 61
73 99 59
81 107 70
114 134 124
134 152 152
162 177 185
160 176 185
161 177 186
156 173 180
112 133 121
74 100 61
73 99 60
74 100 60
75 102 62
71 98 58
75 101 62
73 99 60
76 103 63
71 97 58
74 100 60
78 105 63
80 108 67
71 97 58
77 104 64
77 103 63
72 98 60
75 102 62
75 101 62
76 102 62
75 101 61
137 155 156
160 177 188
164 180 191
158 175 186
158 174 184
156 174 181
154 171 178
160 177 186
156 173 183
162 178 189
157 173 182
156 173 184
166 182 193
168 184 194
153 170 177
166 182 194
158 175 185
155 172 179
134 152 151
109 129 118
95 117 96
131 149 146
165 182 193
165 181 188
158 175 182
148 164 173
162 178 192
160 177 185
162 178 188
157 174 184
155 173 184
158 174 183
162 178 189
160 177 186
160 176 188
166 182 193
156 173 182
160 176 186
164 179 189
156 173 181
159 175 185
159 175 185
126 145 138
77 103 62
69 94 56
72 97 59
74 100 61
67 93 54
70 96 57
72 98 59
73 99 59
73 98 59
64 89 51
77 103 63
74 100 60
73 100 60
76 103 63
75 102 63
72 98 59
71 96 57
70 96 58
70 94 55
73 100 61
122 141 134
156 172 180
152 169 176
148 165 172
158 174 183
160 177 186
163 178 186
155 172 180
154 170 177
158 174 182
147 164 172
160 176 185
153 170 179
151 169 176
158 174 181
161 178 187
158 174 182
164 180 192
150 167 171
157 173 181
160 176 185
96 117 96
74 100 60
71 97 58
79 107 65
70 96 57
72 97 59
85 110 78
102 124 103
104 126 110
115 135 123
119 138 132
132 151 150
134 152 152
151 167 175
156 172 177
158 175 184
164 180 186
152 169 175
163 179 189
142 158 160
117 135 133
79 106 64
74 100 60
79 106 65
73 99 59
75 103 63
74 101 60
72 98 59
75 102 61
76 103 63
75 102 63
71 96 58
78 105 63
73 100 60
70 95 56
67 92 54
78 105 65
79 107 66
74 101 60
78 104 64
97 120 101
157 175 186
158 175 185
158 176 186
149 167 172
156 173 182
155 173 184
157 174 182
161 177 187
163 179 189
165 182 195
162 178 189
154 170 179
164 179 186
150 167 173
157 175 183
159 176 185
146 163 169
153 170 178
168 185 197
114 134 124
76 103 63
71 98 58
75 102 62
78 106 64
70 96 57
73 99 59
78 104 63
72 98 60
73 99 59
76 102 62
73 99 60
69 95 56
77 104 63
75 101 61
78 105 63
73 99 59
80 108 65
77 104 64
145 161 164
156 172 179
161 178 188
158 174 180
165 181 192
168 186 198
159 176 185
160 177 183
170 187 197
165 182 192
164 180 190
162 179 189
161 178 189
160 176 185
161 176 183
154 171 180
159 176 184
156 173 179
132 152 151
77 103 63
69 94 56
78 105 64
71 97 58
75 102 61
73 101 61
75 102 61
78 105 64
77 103 63
78 105 63
69 94 56
74 100 61
74 101 61
74 101 61
73 99 59
77 104 64
75 102 62
150 167 172
155 173 181
160 176 182
160 177 188
162 179 189
158 175 186
160 176 186
159 176 182
165 182 193
167 182 193
166 183 194
156 174 182
165 183 195
165 181 193
149 168 172
140 159 160
147 165 169
131 151 146
133 152 151
138 156 157
155 172 179
164 181 192
161 178 189
159 176 186
163 180 192
162 178 188
163 181 193
173 190 204
167 184 195
163 179 188
171 188 202
161 177 188
158 176 185
82 107 73
73 100 59
78 106 65
78 106 66
79 106 65
76 104 63
80 108 67
78 106 65
75 103 62
78 105 64
77 104 63
77 104 63
80 108 67
74 100 59
108 128 114
165 182 196
171 189 205
162 179 185
164 180 189
166 183 193
167 185 198
167 183 194
159 177 185
162 179 189
163 180 186
172 188 200
175 192 205
161 178 191
142 161 161
80 108 66
79 107 66
77 105 64
79 107 65
82 111 69
87 113 80
111 132 120
124 144 138
152 170 174
169 187 200
159 178 188
173 189 201
120 140 126
143 164 166
100 124 100
78 106 65
81 110 67
79 106 65
82 109 68
74 102 62
136 156 155
174 192 204
170 187 202
164 180 189
171 188 203
160 177 188
170 186 198
164 182 194
166 183 194
146 164 169
105 128 110
81 109 67
77 105 65
81 109 67
75 102 61
82 111 68
80 108 66
79 107 65
133 153 151
161 177 184
173 190 205
159 176 185
162 179 188
175 191 204
169 186 199
169 187 199
159 175 186
172 189 202
163 180 190
155 172 180
136 155 152
113 134 118
76 102 62
77 105 64
75 102 62
77 104 62
77 105 64
107 129 115
166 183 194
175 192 207
160 177 186
165 182 194
159 175 184
168 184 194
162 179 190
167 184 196
160 176 184
166 183 195
172 187 201
167 182 190
162 179 192
167 185 197
161 179 189
172 190 204
160 178 186
162 178 187
137 156 158
133 152 146
159 175 182
164 181 191
165 181 192
156 173 182
163 179 191
160 177 186
155 172 178
165 181 193
161 179 187
157 173 182
166 182 193
160 178 189
166 181 189
157 173 180
163 178 188
175 190 201
168 183 196
156 172 179
156 174 185
148 165 170
79 106 66
76 103 62
74 101 61
80 107 67
78 105 64
79 105 63
79 106 65
72 98 59
77 105 65
74 100 59
93 116 91
125 144 141
153 169 175
162 179 188
152 169 179
167 184 195
160 176 186
166 182 195
154 171 181
159 176 185
115 135 123
75 102 62
75 101 60
77 104 63
78 105 63
76 102 61
78 105 65
75 102 61
80 107 65
73 100 60
75 102 61
75 102 62
72 98 59
72 98 58
79 107 65
70 96 57
76 103 63
75 102 63
75 101 61
74 100 61
77 104 63
129 148 144
144 162 166
159 175 183
153 170 178
150 167 174
161 178 187
159 176 184
152 169 179
150 166 171
159 177 184
160 177 184
157 174 185
163 179 191
137 155 158
132 150 146
108 128 115
97 119 98
74 100 61
74 100 61
76 103 62
70 96 57
120 139 133
152 169 174
155 173 182
154 171 176
160 178 187
158 175 186
162 179 191
151 168 175
165 181 193
161 177 183
152 168 176
152 168 176
164 180 190
153 169 177
150 167 172
159 175 184
151 168 175
169 184 196
164 182 194
154 172 180
158 173 181
138 157 160
79 107 65
78 105 65
74 101 61
79 105 64
76 103 62
69 95 57
72 98 59
73 99 59
71 97 58
72 97 59
77 104 63
71 96 58
70 95 56
72 98 59
76 102 62
73 98 59
74 101 61
72 99 60
75 102 61
79 107 66
108 131 115
166 182 190
164 180 191
160 178 188
162 179 189
160 178 188
165 181 193
158 176 184
158 175 184
146 163 167
166 183 196
152 168 173
153 169 175
162 177 187
151 167 172
153 170 178
160 177 187
146 163 168
155 172 182
148 164 171
151 169 173
120 141 129
128 146 141
137 155 156
138 156 157
151 168 175
146 163 166
156 174 185
148 164 167
143 160 164
162 179 190
155 171 178
163 177 184
162 178 188
150 168 175
148 165 169
151 169 175
154 171 179
164 180 192
156 173 179
159 177 188
150 168 175
81 107 74
73 99 60
74 101 61
75 102 62
77 104 63
73 99 59
73 99 59
74 100 59
71 97 58
76 103 63
75 101 61
73 99 60
73 100 60
73 99 60
75 102 62
76 103 63
73 100 60
75 100 61
76 103 63
78 105 64
141 159 163
149 166 173
168 184 197
157 173 180
159 174 180
153 169 177
158 174 181
150 168 175
160 177 187
164 180 192
167 184 197
161 178 188
158 175 185
162 179 190
159 175 184
156 172 179
156 174 183
161 178 191
160 177 184
149 167 170
76 102 65
75 101 61
71 97 57
73 99 60
77 104 62
70 95 57
74 101 61
76 103 62
75 102 61
74 100 61
76 103 62
76 103 63
72 97 58
77 105 64
73 99 60
76 102 62
75 101 61
72 99 59
94 117 97
153 170 178
154 172 179
162 178 187
160 177 186
156 172 181
156 173 183
164 180 188
153 171 181
152 170 178
158 174 182
158 174 183
166 183 194
167 185 199
163 179 190
158 176 187
162 180 190
160 177 185
157 174 179
103 125 103
77 104 64
74 101 60
75 102 62
73 99 59
73 99 60
79 107 65
77 104 64
74 101 61
76 103 62
73 99 60
76 103 62
78 106 65
79 107 65
76 102 62
74 101 61
80 107 66
88 110 88
165 180 188
168 184 194
159 177 186
161 177 186
166 184 195
167 183 192
167 184 194
160 178 188
163 180 190
164 181 194
161 178 189
157 173 181
157 175 183
155 173 181
162 179 188
161 178 187
137 156 155
79 107 65
75 103 63
76 103 63
83 112 70
85 109 81
103 127 108
110 132 117
123 142 135
129 149 145
140 158 161
155 173 177
164 181 194
163 181 190
166 183 193
167 184 196
122 141 133
80 107 66
78 104 63
79 106 64
75 102 61
76 102 62
81 109 67
75 102 63
77 105 65
78 105 63
82 110 68
77 105 64
84 113 71
83 111 69
75 101 61
139 158 159
173 191 205
158 175 183
158 176 188
161 178 188
169 187 198
162 180 190
159 177 186
165 184 195
174 192 208
160 178 188
171 188 202
168 185 198
177 194 210
124 145 137
78 106 65
78 105 64
81 108 66
81 109 68
73 100 60
78 105 63
76 103 62
78 106 65
94 120 92
106 127 112
162 180 188
104 127 109
161 179 189
170 188 202
131 150 145
83 109 74
79 107 65
80 107 65
77 105 64
153 172 178
162 180 190
169 187 199
162 179 188
161 178 187
167 184 196
161 179 188
140 159 159
95 121 94
77 104 63
81 109 68
79 107 66
74 101 61
77 105 64
77 104 63
77 105 64
80 108 66
78 106 65
134 155 150
172 189 205
175 192 206
169 185 196
179 196 212
159 177 187
168 185 198
176 192 207
165 182 194
151 168 175
112 132 121
82 109 75
77 104 64
80 108 67
81 109 67
77 104 64
80 108 66
79 107 66
79 106 65
113 135 121
157 174 182
166 183 195
163 179 188
168 185 198
164 180 189
168 185 197
160 178 189
160 177 186
166 183 195
161 178 186
157 175 185
172 189 203
162 178 186
172 189 203
157 174 181
144 162 164
109 128 117
77 105 64
73 100 60
129 148 139
167 184 195
163 180 192
168 185 200
165 182 194
164 182 193
170 187 198
164 181 192
164 181 192
165 181 193
157 174 186
162 179 191
169 186 198
170 187 201
158 175 183
164 181 191
161 178 186
167 183 196
156 174 181
166 182 194
153 170 179
76 102 62
77 104 63
73 100 60
74 101 60
73 100 60
73 99 60
74 100 61
110 132 120
118 138 128
150 166 171
160 177 188
169 185 200
166 184 195
167 184 195
162 178 187
160 177 186
149 164 168
160 176 185
162 179 191
166 183 195
137 157 157
80 108 67
73 99 59
80 107 66
78 106 65
74 101 61
70 96 56
73 100 60
77 104 63
79 106 65
77 104 63
74 101 61
74 100 60
76 103 62
77 104 63
76 102 61
78 105 64
72 99 60
80 108 66
68 94 55
73 100 61
100 121 106
161 178 187
169 185 199
164 179 189
168 183 193
162 178 187
152 170 176
147 164 171
166 182 193
141 158 159
132 151 150
113 134 124
99 121 102
75 102 61
82 110 68
75 102 62
72 98 59
70 95 57
74 101 61
77 104 63
77 104 64
91 114 91
161 177 185
150 166 173
151 168 174
153 170 177
152 169 174
158 175 186
155 171 178
164 181 191
164 181 192
157 174 182
153 170 177
155 172 180
161 177 187
159 176 185
164 180 192
152 168 171
163 181 191
162 178 189
144 161 167
147 165 170
155 171 179
77 101 67
74 101 61
75 102 62
76 102 62
74 100 61
75 102 61
77 104 63
76 103 63
73 100 60
72 98 59
73 99 60
74 100 60
72 98 59
67 91 54
76 102 62
75 102 61
71 96 58
75 102 61
77 104 63
73 98 59
74 101 61
165 181 189
156 172 180
159 175 185
163 179 190
162 179 189
152 168 178
159 176 185
169 183 194
148 164 170
160 176 187
141 158 163
154 171 178
139 157 159
143 160 164
128 147 141
120 141 129
101 123 102
84 111 77
78 105 65
73 98 60
80 105 69
151 167 174
159 176 186
151 167 173
166 182 194
162 179 190
161 177 186
153 170 176
156 172 180
159 177 187
158 175 184
164 181 194
154 171 181
155 172 180
161 179 189
160 177 187
145 162 167
152 169 177
163 179 190
161 179 187
161 178 188
120 138 132
71 96 57
73 98 58
79 106 65
70 96 57
72 98 59
73 99 59
76 103 62
72 98 59
73 99 60
74 101 61
75 101 61
72 98 59
69 94 55
73 100 61
75 101 61
73 99 59
74 100 60
73 99 61
75 101 61
104 125 110
161 177 189
150 166 170
157 175 185
159 176 186
163 179 188
156 173 179
152 169 176
159 176 185
159 175 185
158 174 184
168 184 196
165 180 191
150 167 172
158 175 184
170 186 200
159 175 185
158 176 186
169 185 195
162 178 188
121 140 132
75 101 61
75 102 62
75 102 61
76 103 63
74 100 61
77 104 64
78 105 64
75 102 62
73 100 60
74 100 60
73 98 59
72 98 59
72 99 58
75 102 63
73 100 60
76 103 63
75 102 62
73 99 59
126 146 142
150 167 174
157 173 179
150 169 175
151 168 174
159 176 185
163 180 190
158 175 184
163 179 190
156 174 184
158 174 181
166 182 193
163 181 191
160 177 184
170 187 201
167 183 194
168 185 197
162 179 188
157 175 183
74 101 60
80 107 66
76 103 62
70 96 58
78 105 65
76 102 62
78 105 64
79 106 65
74 100 61
74 100 60
77 103 63
77 104 63
74 102 62
76 102 61
80 108 67
74 101 61
76 103 63
135 154 157
157 175 182
172 188 200
161 177 187
159 176 184
157 175 186
159 176 184
156 173 180
165 182 195
156 173 178
161 178 187
159 176 186
156 174 185
169 187 199
159 176 184
149 167 174
164 182 194
114 135 128
76 103 63
77 104 64
77 104 64
79 106 66
77 103 63
77 105 65
80 109 67
77 105 64
82 110 68
78 105 64
87 112 82
109 132 118
117 139 131
129 147 143
142 160 162
99 122 101
77 103 66
80 109 67
80 107 65
74 101 61
78 106 65
79 107 66
76 103 62
78 105 64
71 98 58
78 105 64
77 104 64
77 105 64
77 104 64
79 105 70
153 172 179
167 184 198
162 179 192
171 188 202
159 177 187
160 177 187
169 186 195
160 177 186
173 190 204
171 189 205
161 178 185
171 188 202
163 181 192
158 175 184
112 134 122
81 109 67
75 101 61
76 104 64
74 101 61
84 112 70
74 101 61
79 107 67
81 108 71
141 160 161
165 182 194
167 185 198
172 190 205
167 186 201
172 189 203
151 170 175
108 130 115
82 110 68
80 108 66
166 184 198
161 179 190
173 191 202
163 181 192
159 176 185
115 138 126
88 114 79
81 109 67
77 103 63
79 106 65
80 108 65
80 107 65
82 110 68
77 105 64
77 105 64
80 108 66
78 105 65
83 111 69
136 156 154
156 173 181
157 174 185
160 178 187
172 189 201
164 181 193
160 177 188
137 155 156
109 132 113
75 101 61
78 105 65
82 109 68
77 105 64
79 106 65
79 106 65
81 108 66
77 104 63
80 107 66
74 101 61
119 139 130
168 186 199
173 189 200
170 185 197
167 184 197
161 179 192
162 178 189
167 182 194
160 176 185
168 186 198
166 185 197
167 184 196
164 182 192
154 172 178
117 138 128
84 111 79
73 100 60
79 106 65
71 98 58
76 102 62
116 136 128
175 192 206
158 175 181
167 184 194
156 173 182
161 177 185
157 173 182
161 180 191
162 179 188
171 188 199
159 176 185
169 185 198
161 179 186
159 176 183
163 180 187
156 173 182
162 181 192
168 183 194
159 177 190
159 175 186
159 175 183
80 107 65
74 100 61
75 102 62
73 99 59
107 127 110
138 156 155
158 174 182
153 170 177
156 172 179
155 172 181
156 173 181
164 180 190
155 172 180
164 182 194
165 181 190
162 178 189
160 176 186
174 190 204
154 171 181
164 180 192
149 169 174
73 99 60
78 106 65
73 99 59
81 108 67
75 102 61
78 104 63
77 104 64
78 105 64
74 100 60
80 107 65
77 104 63
74 101 61
78 105 64
74 101 61
74 101 61
71 97 58
77 105 64
76 103 62
72 99 59
73 99 59
92 115 92
166 184 196
159 176 183
155 171 179
162 178 189
140 157 159
130 149 143
114 133 125
93 116 90
75 101 62
75 102 62
77 103 63
74 99 60
75 102 62
80 107 65
76 102 63
72 98 59
79 106 65
80 108 66
79 107 66
73 99 60
72 99 59
138 157 159
156 172 180
155 172 181
164 180 192
165 181 192
155 172 183
153 171 181
155 171 178
161 177 184
150 166 172
158 175 185
160 176 184
167 184 197
151 167 174
162 178 187
162 178 186
154 171 179
164 181 191
165 182 193
147 161 165
155 172 180
114 134 122
75 102 62
75 102 62
71 96 57
71 97 58
75 101 61
75 102 62
77 103 63
74 100 60
77 105 64
80 107 66
76 103 63
74 101 61
75 102 61
71 96 58
75 101 61
77 104 64
72 99 59
74 101 61
72 99 60
79 106 65
122 141 136
144 161 164
158 175 185
166 183 194
158 175 184
145 162 164
138 157 156
118 138 130
115 135 125
80 103 72
81 106 73
77 105 64
73 100 60
72 98 59
73 99 59
74 101 61
74 101 62
77 104 63
76 103 62
76 103 62
77 104 63
128 145 143
164 181 192
159 175 186
166 182 196
160 177 188
164 181 190
150 166 171
153 170 177
157 175 184
156 173 184
155 171 179
159 176 182
169 186 197
159 176 185
163 179 190
158 174 182
156 174 180
170 186 197
157 173 182
168 184 199
153 171 177
77 103 68
78 105 64
73 100 61
73 99 60
71 96 57
75 101 62
79 106 65
72 98 59
74 101 60
77 103 62
75 102 62
77 104 64
75 101 62
74 100 61
74 102 62
72 98 59
72 99 59
77 104 64
73 100 60
81 108 69
143 159 165
165 180 188
157 174 183
159 176 187
158 173 182
160 177 188
161 179 191
151 167 175
158 175 184
171 188 202
149 165 171
150 168 173
163 180 190
171 187 201
157 173 183
161 177 188
158 174 183
155 172 179
160 177 188
134 152 151
78 103 66
75 101 61
80 108 66
80 108 66
76 102 62
79 107 66
79 108 67
72 98 59
77 104 64
74 101 61
77 104 64
78 105 62
74 101 62
72 98 59
75 102 60
73 100 59
75 101 61
73 98 59
81 105 70
155 172 181
165 181 190
164 181 193
162 178 187
167 183 196
162 178 187
160 175 185
158 174 182
156 172 181
155 174 180
159 175 182
170 186 201
169 186 198
149 166 171
174 189 202
161 177 187
167 185 196
156 173 182
111 131 122
74 99 59
76 102 62
78 106 65
76 104 63
78 104 64
78 105 65
77 104 64
81 108 67
73 100 61
73 99 60
76 103 63
75 102 61
74 101 61
72 99 59
76 103 63
75 102 61
75 101 61
160 178 188
161 178 188
167 183 192
169 185 196
161 178 188
172 189 203
168 185 197
153 170 178
164 181 193
162 179 186
168 185 197
166 184 196
171 187 200
163 179 189
163 180 189
167 184 196
164 181 191
88 114 81
79 107 66
78 105 65
79 107 65
75 102 62
75 102 61
74 101 61
76 104 64
80 107 65
79 106 66
79 106 65
79 107 66
77 104 63
79 107 67
80 108 66
94 118 96
158 175 183
158 175 185
146 165 169
126 145 139
103 126 106
97 120 98
77 104 67
81 109 68
77 104 63
82 109 67
74 101 61
77 104 63
78 105 64
75 102 61
82 109 73
159 176 183
165 183 194
181 197 212
166 184 196
160 177 186
160 178 188
167 185 198
169 185 195
168 186 200
161 178 187
177 194 208
174 191 206
170 188 203
168 186 197
84 110 78
78 106 64
75 102 63
77 105 64
81 109 68
77 105 64
125 146 137
165 183 194
161 179 193
157 175 183
168 184 194
163 181 191
169 186 200
176 191 204
169 187 200
172 189 202
160 177 184
112 133 120
183 199 215
168 186 200
155 173 177
122 142 131
78 105 67
77 104 63
77 104 65
84 112 70
80 108 67
76 103 63
75 102 61
78 105 65
77 105 65
78 105 65
79 107 65
78 105 64
83 111 69
80 108 67
140 159 159
172 189 203
165 182 192
161 178 188
155 173 180
127 146 135
83 110 76
77 105 64
75 101 60
76 104 64
79 107 65
79 106 65
77 103 63
77 105 64
73 99 60
79 106 65
82 110 69
79 107 66
80 108 66
109 132 115
158 174 182
161 179 190
157 174 183
176 192 206
161 178 187
167 183 194
169 186 196
177 193 206
163 181 191
156 175 182
130 150 145
84 109 77
82 111 69
78 105 63
80 108 66
77 105 64
73 100 60
76 104 64
82 110 68
125 146 139
162 179 188
160 176 185
174 190 200
159 176 183
164 181 192
166 182 195
169 185 194
155 171 177
170 187 198
164 181 193
161 177 187
161 178 187
172 188 200
163 179 189
157 176 186
161 176 187
151 169 176
152 169 176
166 183 194
151 169 175
81 106 72
109 130 116
141 160 161
164 182 192
159 175 185
166 182 191
161 177 185
163 181 192
158 175 183
154 170 176
162 179 190
171 188 201
165 182 193
148 165 172
156 173 180
160 177 186
161 178 187
162 178 186
161 178 188
171 188 200
161 177 184
76 103 63
76 103 63
80 107 66
75 102 62
75 102 62
75 102 62
78 105 64
73 99 60
81 109 67
75 102 62
73 99 60
76 103 63
75 102 62
71 97 58
79 106 65
75 102 61
75 102 62
75 102 62
72 99 60
74 101 62
74 100 61
145 162 168
146 163 166
105 126 110
101 121 104
70 95 56
74 101 61
80 108 67
73 99 60
79 106 64
77 103 63
72 98 59
72 99 59
75 102 62
76 103 63
70 96 57
74 100 60
76 104 63
78 104 63
77 105 64
74 100 61
74 100 60
144 161 162
162 178 187
157 174 182
160 176 185
169 185 194
158 174 183
156 171 180
156 173 181
157 173 180
166 184 196
152 169 177
161 178 188
160 176 185
161 177 185
160 177 188
163 180 191
151 168 175
160 176 186
156 172 181
164 181 192
160 178 186
128 146 143
75 102 62
77 104 64
75 102 62
74 101 61
70 96 58
78 105 63
73 100 60
79 107 65
76 102 63
75 102 62
72 98 59
71 98 58
79 106 64
78 104 64
77 104 63
76 104 63
77 104 64
73 100 61
80 104 71
98 120 99
127 147 142
124 143 134
118 138 127
99 121 101
72 99 60
70 96 57
79 106 65
72 98 59
77 104 64
71 96 58
77 104 62
78 105 64
79 107 65
76 102 62
78 104 64
72 98 59
75 102 62
75 101 61
77 103 62
76 103 63
77 103 63
99 121 106
141 159 162
156 172 181
157 173 181
166 182 193
159 177 188
158 175 183
153 170 180
164 180 191
156 173 182
163 181 192
158 175 183
162 179 187
164 180 188
152 170 175
160 176 185
156 173 179
154 171 182
165 181 191
149 167 175
162 179 188
124 143 135
71 98 58
77 105 64
72 98 59
76 103 63
75 102 61
78 105 64
74 100 60
75 101 62
74 100 60
75 101 60
75 101 62
77 104 63
75 101 62
77 105 64
79 106 65
71 96 57
73 99 60
77 104 63
74 100 60
124 144 137
161 177 186
156 175 182
165 184 196
153 170 178
163 180 189
159 176 186
165 182 191
151 169 178
161 177 187
157 174 184
154 171 178
151 167 173
147 164 166
160 177 184
153 170 177
155 171 175
154 170 179
160 178 187
163 179 188
107 129 111
77 104 63
85 114 71
77 105 64
74 100 60
76 103 63
76 103 62
77 103 63
76 102 61
77 105 65
81 109 67
79 106 65
76 103 63
77 104 64
79 107 66
79 107 65
74 101 61
76 104 63
73 100 59
131 152 147
165 182 193
158 175 183
160 178 190
153 172 179
163 181 192
158 176 185
155 173 178
163 179 190
157 174 183
176 192 204
160 177 184
162 178 189
161 178 186
155 172 181
149 165 167
168 186 199
169 187 200
164 181 193
84 107 78
72 98 58
75 102 62
76 103 63
76 102 62
75 102 61
74 100 59
74 100 60
77 104 63
77 104 64
71 97 59
78 106 64
74 100 61
81 109 66
80 108 66
76 103 63
76 103 62
109 131 113
165 181 190
163 179 190
167 184 195
157 175 183
168 185 197
165 182 192
163 180 190
161 179 189
171 188 202
165 182 191
163 180 191
165 182 193
169 186 199
163 180 191
161 178 188
164 180 190
133 153 148
77 104 63
75 101 61
76 103 63
80 108 67
83 111 68
77 104 65
79 107 66
77 105 64
78 106 66
79 107 66
75 101 61
79 107 65
79 107 66
77 104 63
78 105 64
116 136 124
165 182 193
157 174 182
170 187 201
170 187 200
166 183 195
161 179 188
159 176 184
156 174 181
121 140 134
111 132 116
101 123 104
80 107 65
81 109 67
81 108 67
95 120 99
161 178 187
173 190 205
171 188 202
165 183 195
169 187 201
170 187 201
164 181 192
171 188 202
169 187 198
170 188 203
167 183 193
166 183 195
167 183 195
149 168 176
88 114 84
77 105 64
82 111 69
110 132 116
148 165 170
167 184 193
168 186 200
176 192 205
167 185 197
168 185 196
171 189 201
172 189 202
170 187 199
169 187 201
180 196 212
168 185 198
165 183 196
128 148 144
117 137 124
78 106 65
80 108 66
80 108 66
77 104 64
81 110 69
78 106 64
84 113 70
77 103 62
82 111 69
80 108 66
80 108 67
77 104 63
78 106 65
76 103 63
80 108 66
81 109 67
145 162 167
163 180 192
143 162 166
112 134 121
80 108 68
81 109 67
78 107 66
79 106 65
78 106 65
82 109 67
78 106 64
77 104 64
81 109 67
76 103 63
72 99 59
79 107 66
75 102 63
76 103 63
79 106 64
120 141 130
169 186 197
171 187 198
166 182 191
167 183 195
171 187 199
161 178 186
159 176 186
138 155 156
110 133 120
82 109 70
75 102 63
75 101 60
73 99 60
78 106 65
80 107 66
80 107 66
79 107 65
77 104 63
76 102 62
104 126 111
165 182 193
166 183 195
172 188 200
165 182 195
174 191 205
161 179 186
172 189 201
154 171 177
162 179 190
173 189 202
165 181 191
164 181 190
164 181 192
174 191 207
161 179 190
165 181 189
161 179 191
159 176 185
151 169 174
112 132 122
152 171 177
166 183 195
168 184 195
157 174 185
155 173 180
160 178 187
164 181 191
166 183 193
152 170 175
164 181 190
173 190 202
167 184 195
167 184 194
161 177 187
158 174 183
151 168 176
161 178 186
167 183 195
164 180 192
162 179 187
161 178 187
90 114 84
75 102 63
76 102 62
78 104 64
75 102 62
76 103 64
74 100 61
75 102 63
77 104 63
74 102 62
76 103 63
77 105 64
79 106 64
74 100 60
81 109 67
78 105 64
73 99 60
81 106 74
100 122 107
123 141 136
151 169 177
107 129 115
74 101 61
74 100 61
77 104 64
71 96 58
74 101 61
74 101 61
75 102 62
69 94 55
76 103 63
75 101 61
74 100 60
75 100 61
75 102 62
78 105 64
78 106 65
76 103 62
73 99 59
72 98 60
76 103 62
71 97 58
107 129 117
164 180 191
159 176 187
167 185 197
169 186 199
162 180 190
156 173 183
164 180 189
163 179 190
159 176 186
161 178 189
158 175 184
166 183 194
166 183 195
148 165 171
161 177 189
164 180 190
156 172 180
158 175 184
163 179 188
155 172 178
155 172 181
77 103 66
78 105 64
72 98 59
76 103 62
76 103 62
73 100 60
75 100 60
76 103 62
80 107 66
74 100 61
76 102 62
74 101 61
82 107 73
101 121 103
107 127 114
131 149 146
132 151 150
151 168 172
147 164 171
162 179 190
162 179 191
90 113 89
77 104 63
75 101 61
74 100 61
74 101 62
75 102 62
76 103 62
80 107 66
78 105 63
76 103 62
74 101 61
74 101 60
69 94 56
72 98 59
75 101 61
75 101 62
77 104 64
75 102 62
76 102 62
67 91 54
76 103 63
139 157 161
155 171 180
162 180 190
161 178 189
156 173 179
161 178 188
161 177 189
150 167 170
159 178 185
164 182 195
151 168 177
169 186 198
157 175 185
152 170 177
162 180 190
160 177 186
165 182 191
159 176 183
154 171 179
151 168 176
140 158 160
73 99 60
74 100 60
75 102 61
71 96 57
76 103 62
75 101 61
75 101 60
74 100 60
74 100 61
73 99 60
71 97 58
74 100 61
74 100 61
73 99 60
76 102 60
72 99 59
74 100 61
77 104 63
75 102 62
80 107 68
163 180 193
166 184 196
155 172 178
158 175 183
166 184 197
165 182 195
159 175 184
153 170 177
160 177 186
165 182 192
164 181 190
161 177 185
162 178 186
159 175 185
168 185 199
162 178 186
158 174 182
160 176 185
152 169 174
163 180 189
79 106 68
73 99 59
77 105 64
81 109 67
76 103 61
77 105 64
74 101 61
73 99 60
76 102 61
73 101 62
76 103 63
74 101 61
71 97 59
78 104 64
75 101 61
79 106 66
70 96 56
75 102 61
76 102 64
155 172 179
170 186 200
169 187 199
154 169 176
166 183 195
162 178 186
163 181 191
154 170 174
172 187 200
148 166 171
161 179 189
164 182 193
163 180 189
167 185 196
148 165 169
156 173 181
166 182 193
164 181 192
135 154 155
77 105 64
77 105 65
80 108 67
78 105 64
74 101 61
77 105 65
75 103 63
77 104 64
73 99 60
73 100 60
73 99 59
77 104 64
76 103 62
80 107 66
78 105 64
77 104 63
76 103 62
142 160 161
162 179 190
153 170 175
153 171 181
166 184 196
161 178 187
173 190 201
169 185 197
172 188 202
162 180 190
162 180 190
160 177 187
173 190 206
166 183 193
158 175 183
163 180 191
161 179 189
119 140 131
75 102 62
79 107 66
79 107 66
82 109 67
81 109 66
79 106 65
75 103 62
75 103 63
75 101 62
80 107 65
82 110 68
78 106 66
73 100 61
78 105 64
82 111 69
126 147 143
164 182 194
167 184 196
170 188 201
157 173 180
167 185 195
166 183 197
176 193 206
170 187 200
177 194 210
165 182 191
159 175 186
152 170 172
128 148 144
121 142 132
140 159 158
172 191 206
165 182 193
166 183 195
158 176 185
173 190 205
168 186 198
165 183 194
172 189 202
168 185 196
162 180 190
166 183 194
169 187 202
165 182 193
133 152 151
109 132 113
146 165 170
171 188 201
170 188 201
168 185 197
168 185 196
175 192 206
178 195 209
167 184 195
166 184 195
165 182 194
175 192 206
168 185 198
159 176 186
139 159 160
126 146 138
171 188 202
181 198 213
147 167 172
111 132 121
84 113 71
82 110 69
81 110 68
80 108 67
75 102 62
80 108 66
77 104 64
78 106 65
78 105 65
79 108 66
77 104 64
80 108 66
74 101 60
81 109 70
119 140 130
106 131 108
77 104 62
78 106 66
79 107 65
79 107 66
72 99 59
80 108 68
80 107 65
78 106 65
83 111 69
79 106 65
82 110 68
75 101 61
77 103 63
72 98 58
78 106 66
83 111 68
73 100 61
124 146 137
156 174 182
169 186 199
158 174 183
165 182 195
151 170 177
109 131 115
84 110 76
76 103 64
78 104 64
79 107 66
79 106 66
73 99 59
80 108 67
76 103 63
79 107 66
78 106 65
80 107 66
77 104 63
81 110 68
104 128 105
158 176 182
163 180 194
158 174 181
157 174 183
158 175 185
160 176 184
158 176 185
168 185 199
165 181 190
169 185 199
164 182 193
166 183 196
167 184 194
163 180 189
159 177 188
148 167 170
121 142 133
84 110 83
75 101 61
75 102 62
143 161 159
164 180 189
169 185 196
162 178 184
165 183 194
170 187 199
161 179 192
161 178 188
164 181 193
175 192 207
150 166 173
159 175 182
168 185 195
167 184 194
171 187 202
160 176 187
169 184 196
168 186 197
159 176 184
170 186 196
168 185 198
100 122 103
76 102 62
75 101 61
79 106 65
77 104 63
73 99 60
77 105 64
77 105 64
75 102 62
76 103 63
77 104 62
73 99 60
78 105 64
86 112 80
104 125 112
123 143 137
160 177 185
159 175 183
157 173 184
171 187 198
163 179 191
127 146 139
74 100 60
74 101 61
77 104 63
79 106 65
79 107 65
80 107 66
77 105 65
77 104 63
76 103 62
78 105 63
74 101 62
78 106 65
75 102 62
77 103 63
74 101 61
76 103 63
76 103 63
76 103 64
74 100 61
75 101 62
96 119 100
158 176 186
152 170 177
167 183 196
153 170 177
155 172 182
154 171 178
160 176 184
167 184 194
159 175 183
144 161 166
170 187 199
158 175 184
167 184 197
164 181 192
155 172 179
160 176 186
168 185 197
159 176 187
169 185 195
161 179 188
172 188 199
97 119 100
79 107 66
77 104 63
75 102 62
76 103 62
75 102 62
75 102 62
94 117 92
108 130 117
118 138 129
139 158 158
144 163 167
165 182 195
152 169 177
168 184 196
160 176 185
167 184 197
165 182 194
163 180 191
162 178 190
160 177 186
122 141 132
80 108 67
73 99 60
75 102 61
75 102 62
75 101 62
78 105 64
74 100 60
74 101 61
81 109 66
74 101 62
71 96 57
79 106 65
74 101 62
73 99 59
76 104 63
77 104 63
80 108 66
72 98 58
71 98 58
77 105 65
127 147 143
164 181 191
160 177 186
165 180 192
165 181 190
165 183 194
152 170 177
164 180 191
161 178 189
160 176 185
166 183 193
149 166 170
164 181 194
162 178 188
170 186 198
163 180 193
169 187 200
170 187 200
163 180 192
164 180 188
157 173 181
100 123 104
70 96 57
73 99 60
74 101 60
78 105 65
77 105 63
76 102 62
73 99 58
77 104 64
74 100 61
75 101 61
74 100 61
78 105 65
78 105 64
77 105 64
72 99 59
72 98 60
75 101 61
77 104 63
76 104 64
128 148 144
164 182 197
157 174 183
159 176 188
161 178 188
158 175 183
164 181 194
158 176 186
156 174 182
164 181 189
164 182 194
165 182 192
171 187 200
161 178 189
164 181 194
154 171 178
163 180 191
157 173 181
162 179 188
169 186 198
103 125 108
71 96 57
77 104 64
73 100 60
77 105 64
77 105 64
76 103 63
76 102 62
79 108 67
79 106 65
75 102 61
75 101 60
77 104 63
76 102 62
79 107 65
77 103 63
75 102 61
76 102 62
72 98 58
115 137 126
162 179 190
157 175 184
165 182 194
172 188 202
166 183 193
164 182 195
155 173 182
164 181 194
159 177 185
155 172 180
168 185 198
166 184 196
163 180 190
155 173 181
167 184 198
167 184 195
158 176 185
154 171 180
94 118 93
75 102 61
76 103 63
81 108 67
80 108 66
79 106 65
79 107 65
79 106 65
78 105 64
76 103 63
77 105 63
73 100 59
79 107 65
77 105 65
78 106 65
74 102 62
76 103 63
92 115 91
159 176 184
161 179 186
165 182 193
164 180 190
172 188 201
167 183 193
162 178 188
164 182 191
161 178 188
165 181 191
153 171 180
164 182 193
161 177 184
159 176 187
161 178 189
166 184 197
163 181 191
81 108 71
81 110 68
80 108 66
78 105 64
79 106 64
79 107 66
75 102 62
80 109 67
80 108 66
77 104 63
79 107 66
74 102 62
77 105 64
81 109 67
79 107 66
87 114 78
161 180 190
162 180 191
173 189 203
172 189 202
160 177 189
167 183 194
164 181 192
160 177 187
168 184 194
166 184 196
166 183 194
171 187 198
151 169 175
164 182 193
166 184 194
103 127 106
111 135 116
123 143 138
131 152 149
160 177 186
170 187 201
169 185 197
165 182 193
168 185 197
169 187 197
159 178 189
169 186 198
151 170 174
110 132 118
136 157 152
168 185 195
173 191 205
163 180 191
169 187 198
161 180 192
157 176 188
163 180 189
166 185 198
163 180 190
167 184 197
164 182 191
134 154 154
102 128 106
77 105 63
122 143 133
168 185 196
165 184 196
168 186 201
168 186 200
157 176 183
105 128 113
81 108 69
75 102 62
78 106 64
79 107 66
81 110 67
79 107 66
80 109 67
81 110 67
78 106 65
101 124 102
148 167 169
163 182 194
98 121 100
75 102 62
82 110 68
75 103 63
76 103 62
75 102 62
75 101 61
76 102 63
80 108 67
76 103 63
79 107 66
81 110 68
79 106 64
75 102 61
83 111 69
79 107 66
76 104 63
78 106 64
76 104 63
104 126 108
173 189 200
167 184 196
126 144 137
94 117 95
75 102 62
81 109 67
78 106 65
77 104 64
77 104 64
77 104 63
75 102 62
79 107 66
75 103 63
77 104 64
79 107 65
78 106 65
76 103 63
80 108 67
81 109 67
103 125 108
167 184 196
158 176 182
163 179 187
161 178 188
171 188 200
167 185 198
161 176 186
167 184 197
170 186 196
157 174 183
163 179 188
168 184 195
142 160 161
113 135 122
87 113 81
75 103 63
77 104 64
83 110 67
76 103 63
81 108 66
132 151 147
170 188 201
161 179 191
164 182 195
165 182 196
151 168 177
162 178 187
163 181 193
159 175 184
170 187 199
163 180 190
160 177 186
164 181 191
158 175 184
159 176 187
157 173 182
166 182 193
159 176 184
160 177 182
157 174 183
168 184 198
108 129 115
82 109 66
76 103 62
82 109 67
77 104 65
74 100 60
75 102 62
75 101 61
72 98 59
78 106 64
97 121 95
120 139 130
144 163 166
158 175 186
166 185 196
166 182 193
161 177 186
161 178 185
167 184 196
156 174 179
165 181 192
142 161 164
75 102 62
76 103 63
75 102 62
76 102 63
77 104 63
76 103 62
82 110 68
69 95 56
74 100 60
78 104 64
77 103 62
77 104 64
77 103 63
76 103 62
76 104 63
76 104 63
74 101 61
71 97 57
78 105 64
75 102 62
75 102 63
155 172 179
165 182 197
161 179 187
165 182 192
154 170 178
156 174 181
159 176 183
162 178 189
162 179 189
173 189 201
157 175 185
158 175 183
168 184 195
159 176 185
152 170 176
160 175 185
160 176 186
161 178 187
158 175 184
154 171 177
149 167 173
125 144 139
77 104 63
94 118 95
113 135 120
126 147 143
146 165 168
160 177 187
165 181 191
159 176 187
170 186 198
155 173 178
166 182 192
156 173 180
160 177 187
165 182 194
159 177 189
157 174 182
158 174 183
151 168 174
177 193 207
155 171 179
139 156 159
74 101 61
77 104 63
72 98 60
74 101 62
79 107 65
73 99 59
76 102 62
72 98 59
71 97 58
78 105 64
74 99 60
77 104 63
75 102 62
74 100 61
70 96 58
79 105 64
75 101 61
77 104 64
76 103 63
75 101 61
96 120 94
164 181 192
157 174 181
161 177 188
159 175 184
163 179 190
161 177 184
167 184 194
161 179 188
165 181 193
159 176 185
161 177 186
166 183 197
168 184 195
168 184 194
153 170 180
164 181 192
160 177 185
164 181 194
160 178 188
156 173 182
128 147 140
76 103 63
73 99 59
74 100 61
78 105 64
76 102 62
76 103 63
76 102 62
78 106 65
77 103 63
78 105 64
76 104 63
76 103 63
78 105 64
74 100 60
71 97 58
77 103 62
70 96 58
72 98 59
78 105 64
91 115 85
159 176 182
162 178 188
158 175 182
161 176 186
157 175 183
149 166 174
158 175 185
163 179 189
170 186 200
168 184 197
156 173 180
158 176 184
166 182 194
174 191 205
162 179 190
160 176 186
161 176 183
160 176 186
170 187 200
152 170 178
74 100 63
74 100 60
77 104 63
74 100 60
74 101 61
78 105 63
81 108 66
74 101 62
76 105 64
78 106 65
74 101 62
74 100 61
81 109 67
76 103 63
77 104 63
76 103 62
76 104 63
75 103 63
81 107 68
153 170 175
155 171 178
160 177 186
167 184 198
165 183 195
150 168 172
170 188 203
161 177 187
165 182 194
165 182 191
163 181 191
156 174 182
168 183 195
169 186 197
160 177 186
161 178 191
157 174 180
163 181 191
150 169 176
79 107 66
73 100 60
74 101 60
72 99 60
79 107 65
76 102 61
77 105 64
75 102 62
76 103 63
75 102 62
77 104 63
73 100 60
78 106 65
78 105 64
76 103 63
77 104 63
76 103 63
114 134 127
162 178 190
164 180 191
168 184 196
172 189 203
163 180 190
163 180 191
161 178 188
159 176 184
158 175 185
157 176 186
168 184 195
164 181 191
163 179 190
168 185 198
154 171 178
172 190 203
136 155 155
76 103 63
72 98 60
73 100 59
79 108 66
76 103 62
77 104 64
76 103 63
74 102 61
74 101 62
78 105 64
81 108 67
76 103 63
77 104 64
78 106 65
78 105 64
102 126 105
161 177 185
169 185 195
168 185 197
169 186 199
170 188 201
174 190 203
163 181 189
163 180 189
158 175 184
163 181 190
165 183 195
166 183 192
162 180 192
172 191 206
161 179 188
98 123 98
77 104 63
77 105 64
81 109 68
88 114 83
109 131 112
129 150 143
152 170 175
159 177 187
134 155 151
95 120 95
77 105 65
78 106 66
79 106 68
150 169 175
165 183 197
173 189 203
170 187 199
173 191 207
167 186 199
161 179 188
173 189 204
155 175 183
127 149 142
95 120 91
80 109 68
78 106 65
80 109 67
135 156 154
162 181 191
171 189 201
162 180 190
167 184 196
169 186 197
169 186 200
166 185 198
133 152 151
85 111 76
80 108 65
77 105 64
77 104 63
75 102 62
114 137 121
136 154 155
168 185 197
175 193 208
166 184 196
95 120 93
80 108 66
84 114 72
76 103 63
78 106 65
81 110 68
82 111 68
76 104 64
76 103 62
75 101 61
76 104 64
74 100 60
79 107 66
82 110 68
77 104 63
77 104 62
79 107 66
81 109 66
84 113 73
116 138 123
112 134 119
80 107 69
78 106 66
79 106 65
80 108 67
77 104 64
80 108 67
74 101 61
81 108 67
80 108 67
78 105 64
79 107 66
78 106 66
81 109 68
79 107 65
76 104 62
77 104 64
77 104 62
74 101 61
91 115 85
158 177 187
163 179 188
161 179 191
160 177 186
173 190 203
165 182 194
160 175 185
168 185 197
163 181 190
146 164 168
113 133 125
89 113 86
78 105 65
75 102 62
79 107 65
81 108 66
78 105 65
77 105 64
74 101 60
75 102 61
119 140 134
167 185 199
166 183 197
158 174 183
169 187 203
168 184 199
165 181 192
153 170 179
162 180 190
163 181 191
162 179 190
162 178 188
168 184 196
168 186 198
167 184 196
159 176 184
160 177 184
159 176 183
174 191 205
164 182 193
161 178 187
118 137 127
77 103 62
80 107 66
77 103 63
77 104 63
80 107 66
79 106 68
108 130 118
139 157 159
151 170 176
163 181 192
165 182 193
167 183 196
160 177 188
171 187 200
157 175 182
164 181 191
156 173 182
160 178 188
157 174 183
168 184 197
147 164 168
77 104 63
73 99 60
73 100 60
73 100 60
73 99 59
79 106 65
73 98 58
76 104 63
77 104 63
74 100 60
72 98 59
72 98 59
72 98 59
80 108 66
79 107 66
78 105 63
79 106 66
75 103 62
78 106 64
77 104 64
76 103 63
141 159 164
159 175 185
163 179 189
158 176 186
165 182 192
156 174 184
152 170 175
163 180 191
157 174 180
167 185 198
158 174 184
150 169 175
167 186 200
169 187 199
159 174 183
154 172 179
163 180 193
165 182 191
160 177 187
142 160 164
124 144 136
115 135 124
152 169 175
155 172 179
163 180 190
167 183 194
154 170 178
158 175 188
165 182 190
166 182 193
161 177 188
158 174 184
151 169 175
158 175 184
155 171 180
168 185 197
168 185 198
169 187 202
162 179 188
165 181 191
159 176 181
158 174 183
160 175 181
93 116 93
75 100 60
80 108 66
75 102 62
76 103 63
76 103 63
77 105 64
69 94 56
78 106 66
71 97 59
75 102 61
76 104 63
77 104 63
72 98 58
72 98 59
75 101 62
74 101 61
77 105 64
76 103 62
77 104 63
79 107 66
153 170 179
159 176 186
158 175 185
159 176 185
169 185 196
160 177 188
160 176 184
157 175 186
163 179 190
155 171 179
166 183 195
171 188 202
166 182 192
157 173 182
164 180 191
167 184 196
161 178 187
158 175 183
158 174 179
157 175 183
159 176 185
79 104 73
74 101 61
79 107 65
78 106 66
80 107 65
76 103 63
77 103 62
76 103 63
76 103 62
71 97 59
75 102 62
74 100 59
72 98 59
79 106 65
74 101 61
74 100 60
76 103 62
72 98 58
73 100 60
73 100 60
116 136 129
159 176 184
160 177 186
162 178 183
154 170 177
154 171 179
169 186 198
162 178 186
161 178 189
161 178 188
162 180 188
147 163 167
162 179 190
163 179 190
169 186 200
158 174 180
155 172 178
163 179 188
151 168 175
155 171 178
116 137 126
76 102 61
78 106 66
75 101 61
79 107 65
80 107 66
75 102 61
80 108 66
76 104 63
75 101 62
72 98 59
79 106 65
77 104 63
79 106 65
74 101 61
76 103 62
76 103 62
74 100 60
77 104 63
116 135 125
161 178 188
168 184 195
164 181 191
171 189 201
166 182 194
168 185 200
167 184 194
165 182 193
164 181 193
165 181 191
160 177 188
156 172 177
148 165 170
160 177 186
163 180 189
168 185 196
164 181 192
158 176 185
97 118 103
75 102 61
80 108 67
74 101 61
79 106 65
72 98 59
72 98 58
79 107 65
72 98 58
78 106 65
75 102 62
76 103 63
74 101 61
76 103 62
73 99 60
78 105 64
75 101 61
80 106 67
156 174 181
165 181 192
156 174 183
171 188 201
163 179 190
168 185 196
154 171 179
170 187 200
173 190 205
157 175 185
167 184 196
162 180 188
161 179 188
155 174 185
164 181 191
173 190 204
157 175 180
112 135 120
78 105 65
74 101 61
76 103 63
76 104 63
77 104 63
80 108 66
81 108 66
76 103 62
83 112 69
76 103 63
76 104 63
78 106 64
78 107 67
82 109 67
74 101 61
134 154 152
172 190 204
170 187 199
160 178 188
171 188 201
163 181 190
168 183 191
164 183 194
170 186 198
174 192 208
167 184 196
170 186 197
171 188 200
171 188 200
164 182 192
155 172 180
79 107 69
79 107 66
78 106 65
78 106 65
80 108 66
88 115 82
129 149 143
150 170 177
167 184 194
130 151 146
124 145 139
98 122 98
81 109 67
91 116 86
158 177 187
172 190 204
164 182 194
171 188 201
169 186 198
163 179 188
167 183 192
87 115 81
83 111 68
82 110 68
80 109 67
81 110 68
76 104 63
136 156 152
164 181 189
154 171 177
166 183 194
173 190 205
169 187 202
165 184 197
172 189 202
165 182 192
158 176 184
142 160 163
101 125 103
118 139 127
154 173 180
173 189 201
171 188 201
168 186 195
160 178 189
163 181 193
91 117 83
82 110 68
83 111 68
80 107 66
76 104 63
78 105 65
78 107 66
75 102 62
79 106 65
75 102 62
81 108 67
77 105 64
76 104 64
78 106 65
77 104 65
80 108 66
91 116 86
135 154 155
159 177 182
135 153 150
78 105 64
80 108 67
79 106 65
79 107 65
76 103 62
79 107 65
85 114 70
73 101 61
77 104 64
79 107 67
77 104 64
79 107 66
77 104 64
80 109 67
81 109 67
73 100 61
78 105 64
80 108 66
74 100 60
97 121 98
178 195 209
163 180 191
159 176 183
168 185 198
168 185 196
162 179 189
142 160 163
129 149 143
80 106 71
78 106 66
82 111 68
79 107 66
77 105 64
78 106 65
77 105 65
78 106 65
79 106 66
76 104 63
80 107 66
82 110 68
119 139 130
158 174 182
161 178 186
157 174 180
168 184 196
168 185 197
169 186 199
161 179 190
163 181 192
165 182 192
163 180 192
170 186 195
166 184 196
159 176 184
166 183 194
164 181 192
169 185 195
159 177 186
169 186 199
164 181 193
157 175 184
145 163 169
74 101 60
75 102 62
90 114 87
103 124 111
152 169 176
164 180 189
165 183 194
171 188 200
162 180 191
163 179 187
172 189 203
167 183 193
168 186 197
161 178 187
166 183 194
160 176 187
161 176 183
167 185 197
164 181 193
169 186 198
164 180 191
89 113 87
76 103 63
74 101 62
81 108 67
74 101 61
74 100 61
78 106 65
79 106 64
73 99 60
76 103 63
80 108 65
78 106 65
78 105 64
78 105 63
76 102 61
74 101 61
77 105 63
77 105 64
80 108 66
80 108 66
74 101 61
119 139 128
151 169 178
160 177 188
165 181 190
162 179 188
163 179 191
169 185 193
157 173 182
161 178 188
162 180 192
163 178 187
159 176 185
163 180 192
156 172 179
140 159 158
122 141 134
112 131 119
87 111 87
76 102 61
70 96 57
76 103 61
75 101 61
150 167 174
160 177 185
155 171 179
168 184 196
162 179 189
157 174 179
156 173 182
154 171 181
160 179 188
163 179 189
157 174 184
167 184 196
160 176 185
162 179 188
168 184 197
160 177 186
170 186 199
168 185 194
154 171 176
165 182 194
160 176 185
127 145 141
77 105 63
71 98 60
76 103 61
77 105 64
74 100 61
74 101 61
72 97 58
73 99 59
75 101 61
78 106 64
73 99 61
78 105 64
78 105 65
78 106 65
74 100 60
76 103 63
72 97 58
76 102 62
76 103 62
76 102 62
116 137 125
159 177 188
155 172 180
158 177 187
151 168 173
154 170 177
162 179 189
161 178 185
160 176 185
172 188 201
155 171 177
160 176 185
158 174 186
159 176 183
160 176 184
155 173 180
165 182 192
172 189 201
159 175 186
155 173 181
164 181 195
105 127 109
75 102 61
76 103 62
75 101 61
79 106 65
76 103 63
72 99 60
76 104 64
76 104 63
81 109 68
72 99 60
75 102 62
77 104 63
73 99 60
78 106 65
77 105 65
78 105 64
76 103 62
78 105 64
77 104 63
90 114 84
153 170 177
160 176 186
160 176 182
156 173 181
159 176 186
160 178 188
162 180 190
156 173 179
147 164 168
154 172 178
164 180 189
156 172 182
167 185 198
166 182 192
156 173 179
156 172 182
158 176 185
160 177 184
160 177 186
151 169 174
74 101 63
72 98 59
77 104 63
72 97 58
76 103 63
78 105 63
80 105 70
81 107 70
87 113 80
86 111 78
87 111 84
93 117 91
93 117 91
86 110 85
94 118 92
82 107 77
97 122 100
89 114 88
83 109 77
149 167 172
154 173 180
158 174 182
158 175 183
153 172 180
160 177 187
153 170 177
163 181 193
162 180 190
163 180 193
169 186 198
157 175 183
156 175 183
159 176 185
167 183 192
167 185 196
162 180 189
173 189 203
155 173 180
78 104 67
77 104 64
79 107 66
78 106 65
76 103 63
79 107 65
75 101 60
72 99 60
77 104 64
74 101 61
77 104 64
77 104 63
76 103 63
82 109 67
79 107 65
78 105 64
71 98 59
93 117 90
168 185 196
163 180 191
165 181 191
170 186 199
170 186 197
166 184 196
158 176 183
162 178 189
165 182 195
164 180 190
162 179 187
172 188 199
168 185 196
169 186 199
173 189 202
162 180 189
164 182 193
86 113 80
78 106 66
74 101 61
79 107 65
80 109 68
79 107 66
77 104 63
85 114 71
79 106 64
75 102 61
77 104 63
78 106 64
78 104 64
77 105 64
80 108 67
76 103 63
161 178 189
165 184 196
169 186 197
170 187 199
166 183 193
165 182 193
165 182 191
159 176 186
169 187 200
173 191 204
171 188 200
155 171 177
162 180 192
177 193 208
168 185 197
124 147 137
79 107 66
83 112 69
123 144 132
148 164 168
173 190 204
170 187 199
171 188 201
170 187 199
168 186 198
162 179 190
173 190 203
174 192 205
148 167 171
150 168 174
156 174 180
169 185 195
165 183 197
164 180 191
164 180 190
172 190 204
75 102 62
82 110 69
82 111 69
83 111 69
83 112 69
81 110 69
141 159 158
166 183 195
171 187 197
166 185 198
175 191 206
175 192 206
165 182 192
163 180 191
174 191 206
162 181 191
141 161 160
95 119 92
105 128 111
134 153 151
168 184 195
157 177 186
168 185 199
163 179 191
169 187 201
84 110 78
81 110 68
83 111 69
80 108 67
77 104 64
81 110 69
77 105 64
81 110 68
77 104 63
80 109 67
78 106 65
79 107 67
76 103 62
79 106 66
99 123 102
146 164 168
165 182 194
165 182 191
168 185 196
143 161 163
83 112 70
81 109 67
81 109 67
80 108 66
79 107 66
77 104 63
79 107 66
79 108 65
80 108 67
75 101 61
79 107 66
79 107 65
77 104 63
80 108 67
80 108 66
78 107 66
77 104 63
80 108 66
73 99 59
84 109 76
165 182 192
165 183 194
167 184 197
154 172 179
144 162 163
92 115 93
78 106 64
73 100 61
81 109 67
75 101 61
75 102 61
74 102 61
81 109 67
79 107 65
80 109 67
78 106 65
74 100 62
81 109 67
76 103 63
76 103 63
111 134 118
164 182 191
169 186 202
166 183 196
162 179 190
168 185 198
162 180 191
161 178 187
162 178 186
158 176 186
157 174 184
154 170 178
169 185 195
165 183 197
169 186 199
155 173 180
164 180 190
166 183 194
161 177 185
166 183 193
160 176 187
148 165 170
130 149 144
159 176 184
163 179 190
162 178 187
169 186 200
170 188 202
162 179 189
164 181 195
162 180 191
162 179 187
163 179 191
164 180 191
164 181 190
165 181 191
159 176 185
157 173 184
169 186 201
148 165 169
164 182 194
159 175 185
165 182 193
103 125 106
78 105 65
75 102 61
80 108 66
72 98 60
78 106 65
83 111 69
76 104 62
75 101 62
76 103 63
75 102 62
73 99 60
73 99 61
76 103 64
70 96 58
76 102 62
78 106 64
78 104 63
77 104 63
76 102 63
75 102 63
98 121 100
164 181 191
157 175 184
165 183 192
162 180 192
169 186 198
162 180 190
164 182 194
162 179 188
134 152 153
131 151 145
113 134 123
100 122 102
78 106 65
77 105 64
77 104 63
75 102 62
80 108 66
71 97 58
73 99 60
76 103 62
75 102 62
145 164 168
153 171 180
158 175 186
171 187 197
153 170 177
165 182 195
170 186 196
163 179 190
165 181 191
167 183 193
157 174 182
162 180 193
154 171 176
164 181 192
159 176 181
154 171 178
173 189 200
162 178 187
159 175 183
156 174 184
171 187 200
145 163 164
77 104 63
73 99 60
82 110 68
72 98 58
73 100 61
78 105 65
75 101 61
75 103 63
74 100 61
74 101 62
72 99 59
75 102 62
68 93 55
73 99 60
76 104 63
78 105 65
75 102 60
77 103 62
78 106 65
75 102 62
74 100 63
157 174 183
165 182 191
162 178 187
164 180 189
159 176 182
152 170 179
165 183 195
162 178 187
152 169 176
170 186 198
172 189 201
159 175 184
168 185 199
161 178 185
154 171 178
163 180 192
160 176 186
164 180 190
166 181 192
167 184 198
141 159 164
75 102 62
76 103 63
75 101 61
75 103 62
73 99 60
75 102 61
78 106 64
75 102 62
75 102 61
78 105 65
76 103 63
78 105 65
69 95 57
75 102 61
74 101 60
74 101 61
77 104 63
79 106 66
81 109 69
76 104 64
147 165 167
161 178 187
163 180 192
157 174 181
149 167 175
141 159 161
140 158 159
146 163 164
137 156 157
136 154 156
127 148 142
131 150 147
108 130 118
122 142 134
108 127 113
117 139 124
106 128 111
99 120 103
92 116 88
102 125 106
128 149 140
162 179 188
158 176 185
156 174 181
162 178 189
162 178 186
164 182 193
174 191 205
158 175 182
164 182 193
169 187 200
168 185 197
161 178 186
161 178 187
171 189 202
166 183 195
156 173 181
168 185 197
158 176 185
142 160 163
79 108 66
78 104 63
76 102 62
76 103 63
75 102 62
80 107 66
83 111 68
77 104 63
77 103 67
79 107 68
86 111 81
93 117 92
89 114 85
94 118 94
95 118 93
104 126 109
101 124 104
111 133 119
120 141 133
136 154 152
136 155 154
135 155 151
120 142 131
132 151 147
127 147 137
102 124 102
114 135 125
109 130 116
105 129 108
84 109 79
83 109 72
77 104 64
80 108 66
74 102 61
76 103 62
77 105 64
139 157 158
167 184 195
165 181 191
164 181 193
168 184 196
164 182 194
170 186 200
158 175 184
166 183 194
165 182 194
161 180 190
164 181 191
170 187 200
170 189 204
170 188 200
166 183 197
158 176 186
130 151 151
80 108 66
80 109 67
80 107 66
82 110 68
75 102 62
78 106 65
77 105 65
81 108 67
79 108 66
78 106 65
77 104 64
80 108 67
77 105 64
76 104 64
80 108 67
106 128 110
164 181 191
161 179 189
163 180 187
170 187 201
171 189 204
170 188 201
173 190 203
164 181 193
175 192 205
170 187 200
173 190 205
162 180 190
165 183 195
173 192 206
166 185 198
118 140 130
153 171 179
166 184 196
172 188 201
163 180 191
173 191 205
177 196 213
170 188 203
166 183 197
170 187 199
165 183 194
171 191 206
169 188 199
174 191 204
136 156 153
82 109 73
114 137 125
138 156 152
144 164 169
169 188 203
80 109 68
78 106 65
81 110 68
83 112 70
79 107 66
77 104 64
158 177 186
171 189 201
175 192 208
167 186 201
163 181 192
162 179 190
175 192 207
159 177 186
124 145 137
89 116 79
82 111 68
83 110 68
82 111 68
81 109 67
86 113 77
113 135 120
135 154 155
170 188 201
168 185 199
83 111 71
80 108 66
80 108 67
77 104 64
78 105 64
79 107 65
76 102 61
76 103 63
74 101 62
81 109 67
74 101 61
91 117 85
123 142 132
147 164 167
161 177 185
170 187 200
161 179 190
167 183 196
167 183 193
144 163 167
81 109 66
77 105 64
80 108 67
80 108 67
77 104 64
81 108 66
80 107 66
77 104 64
77 104 64
77 105 64
80 107 64
76 104 64
78 105 65
76 103 62
80 108 66
80 107 66
78 106 65
78 106 65
79 107 65
78 105 65
168 184 194
130 150 144
108 130 114
76 103 62
79 106 65
76 103 63
77 104 63
75 102 63
80 107 66
77 105 64
80 108 67
74 101 60
73 100 60
78 106 66
80 108 67
75 102 61
74 100 61
78 106 65
79 108 66
77 103 62
98 122 101
155 172 180
174 192 207
172 187 198
162 179 188
161 177 186
160 178 186
166 183 194
158 175 185
164 181 191
161 178 188
160 176 187
161 179 188
163 179 191
169 186 199
158 176 187
166 182 193
168 185 196
131 150 147
125 145 136
92 116 88
79 106 65
164 181 191
166 182 192
174 191 204
168 185 199
161 178 186
169 185 195
152 169 179
164 181 191
162 179 191
164 180 190
162 179 189
163 179 187
153 169 176
160 177 187
165 183 195
163 180 189
159 175 181
169 185 196
153 169 175
158 175 185
166 182 190
117 138 130
75 102 61
77 104 63
76 104 63
79 107 66
74 100 59
75 102 62
80 108 67
72 99 60
78 105 64
79 106 64
76 103 62
77 104 64
70 96 57
75 102 62
74 100 61
81 109 67
78 105 65
78 106 65
77 105 64
73 100 60
78 105 64
157 174 182
152 168 174
164 181 192
157 173 180
145 164 166
119 139 130
111 133 117
76 101 64
77 103 63
79 106 65
72 98 59
75 102 62
73 100 60
78 105 65
76 103 63
74 100 60
79 107 65
76 104 63
76 103 63
72 99 60
78 106 66
114 135 122
153 171 179
159 177 188
151 169 175
161 178 186
159 176 187
155 171 178
160 178 186
169 185 195
162 180 190
171 188 201
164 181 191
159 175 184
157 174 183
164 180 190
163 181 192
161 179 190
159 176 185
160 177 187
159 176 184
164 182 194
164 181 194
91 116 89
74 101 61
77 104 64
74 100 61
73 99 60
77 103 62
74 101 62
76 103 62
73 100 60
74 100 61
78 105 64
78 106 64
76 104 63
77 104 63
73 100 60
74 101 61
80 108 65
78 106 65
78 105 63
73 100 60
75 102 63
129 148 144
154 171 180
161 178 187
155 173 180
169 187 201
166 183 195
167 184 198
168 185 198
161 178 188
158 176 183
152 169 174
162 181 192
168 184 194
160 177 188
158 175 182
159 177 188
155 172 180
156 172 180
158 174 183
161 178 188
160 177 186
104 124 109
77 104 64
75 102 62
73 100 60
80 107 66
74 101 60
75 102 62
81 109 67
80 108 68
89 116 84
95 117 95
115 134 122
116 137 126
115 135 124
126 145 139
130 148 141
133 152 149
151 168 173
156 173 181
157 174 179
144 161 164
80 107 68
76 103 63
77 103 61
77 103 63
78 106 65
77 103 62
79 106 65
83 112 68
77 104 64
76 103 62
70 96 57
79 106 65
76 103 64
77 105 64
71 97 58
74 101 61
80 108 67
77 105 64
75 102 63
89 113 86
158 174 183
161 179 187
170 187 200
171 188 201
160 177 187
169 186 198
169 187 200
162 180 192
164 181 190
159 175 183
161 179 189
159 176 185
165 183 193
157 174 182
169 187 199
160 178 189
171 188 201
167 184 197
166 183 194
104 125 106
76 103 62
78 105 64
74 101 61
75 102 63
74 101 61
77 105 64
76 104 64
78 106 65
78 105 64
86 115 73
73 99 60
79 106 64
76 103 63
78 105 64
76 104 63
79 106 66
77 104 63
86 112 82
155 172 180
159 177 188
160 178 190
163 180 190
165 182 192
167 184 196
153 170 177
159 176 187
161 178 188
163 179 190
169 186 199
164 183 195
160 177 187
165 182 194
147 164 165
140 160 162
142 161 160
144 163 165
133 153 149
137 157 158
138 156 156
154 171 174
159 177 185
158 175 184
168 185 197
169 185 196
152 169 176
165 183 193
167 185 196
162 179 188
164 180 191
165 182 197
161 179 190
162 179 189
164 182 194
90 115 86
81 110 67
78 106 65
78 105 64
78 105 64
77 104 64
81 109 67
79 107 66
83 112 70
79 106 63
74 100 60
78 106 64
77 105 64
78 106 65
78 106 64
80 108 67
130 150 146
158 176 184
169 185 195
171 188 200
173 190 205
158 176 186
176 193 208
164 182 193
179 196 212
171 189 203
159 177 185
169 184 195
140 158 158
114 135 125
83 111 69
97 121 99
163 181 193
172 189 202
168 186 197
168 185 194
175 192 206
180 197 212
162 180 191
164 182 195
163 180 193
178 196 214
163 180 190
167 185 196
173 190 206
166 184 198
110 131 120
82 111 68
78 107 66
81 110 68
86 113 80
79 107 66
81 110 69
80 109 67
82 110 68
80 108 67
76 103 63
174 191 206
176 194 211
158 176 183
172 190 203
160 179 188
157 175 185
110 134 118
78 105 64
82 111 69
81 109 67
80 107 65
77 105 63
83 112 69
77 106 65
79 108 66
81 110 68
80 108 67
82 109 72
113 135 123
120 142 133
83 112 69
78 105 64
84 112 70
80 109 67
81 109 67
76 104 63
82 110 68
80 108 66
104 128 108
142 162 163
168 183 196
164 181 191
164 182 193
173 190 203
167 184 198
169 186 202
171 187 201
168 186 198
152 171 176
80 108 67
82 110 68
75 102 61
78 107 65
79 107 66
77 105 65
78 106 65
78 106 65
78 106 65
80 108 66
81 110 67
82 111 70
74 101 61
82 110 68
80 107 66
78 105 64
78 105 64
84 111 74
114 136 122
145 163 166
84 110 81
77 105 64
75 103 62
77 104 63
79 107 66
79 106 65
78 105 65
77 105 64
79 107 66
76 103 63
78 105 65
77 104 63
75 103 63
80 108 66
77 104 64
77 104 64
75 102 62
81 108 66
77 105 64
75 101 61
86 112 77
166 183 199
163 180 192
174 190 205
162 180 189
163 181 193
162 181 192
150 168 173
166 184 197
161 179 190
155 172 181
173 191 205
154 173 179
161 179 191
159 176 186
143 163 163
103 124 105
86 112 80
71 98 59
80 108 66
75 102 62
76 103 63
154 172 179
156 173 181
172 190 205
156 173 180
164 181 192
163 180 191
165 182 195
160 176 185
170 187 198
159 176 184
160 177 187
169 186 199
164 181 192
165 182 194
164 180 191
166 183 194
156 173 180
162 179 192
155 173 181
155 173 179
166 184 195
151 169 174
72 99 59
75 102 61
78 106 64
80 108 66
75 101 62
74 100 61
76 104 63
77 104 63
72 97 58
74 101 60
76 104 63
76 103 63
78 105 65
74 100 60
75 102 62
77 104 63
80 107 65
76 103 63
82 110 68
84 111 72
96 119 92
138 158 158
112 133 117
97 120 96
75 103 62
77 104 63
79 106 66
79 106 65
76 103 63
78 105 64
73 99 60
80 108 66
77 105 64
77 105 63
76 103 63
76 103 62
76 103 62
77 104 63
73 100 59
78 105 64
73 98 59
75 102 62
88 113 84
163 181 193
156 174 184
171 187 199
164 182 193
162 179 188
157 175 187
153 171 179
155 172 180
164 180 192
163 180 190
159 177 188
162 180 192
154 171 179
156 173 182
167 184 195
158 175 181
164 182 193
156 174 182
156 173 180
165 182 190
163 180 188
115 134 125
75 102 62
76 103 63
72 98 59
73 100 60
74 100 61
75 102 62
72 99 59
71 97 58
77 105 64
80 108 66
75 102 62
77 104 64
75 101 61
77 104 63
75 102 62
72 98 59
75 101 62
78 105 65
75 102 62
80 108 66
119 141 132
156 173 183
173 188 201
159 175 183
162 179 188
160 177 186
166 182 190
157 175 186
166 183 194
164 181 191
155 172 181
170 187 200
158 176 184
158 174 182
172 189 201
161 178 184
169 186 199
161 178 189
159 176 186
161 178 189
154 171 177
135 153 153
108 129 115
124 143 138
135 155 156
135 154 153
148 165 172
158 175 185
157 174 180
160 176 183
163 180 192
156 175 182
162 179 191
161 177 186
161 177 186
163 181 192
163 181 193
172 190 205
158 175 185
161 177 189
165 182 192
152 170 179
104 127 107
76 104 63
76 103 64
79 106 65
80 108 67
79 106 64
79 107 65
73 99 60
75 103 63
74 101 61
77 104 63
78 106 65
74 100 60
80 107 66
73 99 59
80 108 68
79 107 65
79 106 65
79 106 65
78 105 64
143 160 163
153 171 178
160 177 188
159 175 185
169 185 197
145 164 169
162 178 188
167 184 196
169 185 196
154 173 177
157 175 185
165 183 194
159 177 185
166 184 196
163 181 193
163 180 191
160 177 188
170 186 199
161 177 189
144 163 167
80 108 66
76 104 64
77 104 63
78 106 65
80 108 66
69 95 56
78 105 65
74 101 60
73 99 60
79 106 65
79 107 65
80 108 66
78 106 65
79 106 65
79 107 67
75 102 63
82 111 69
79 106 65
137 156 154
172 189 204
164 180 193
169 186 199
156 174 182
165 182 194
169 186 199
166 183 195
169 187 201
162 179 188
168 186 201
166 183 194
156 174 183
170 187 201
162 179 186
161 178 187
167 184 198
170 187 202
148 166 169
78 105 64
81 110 69
79 107 66
77 105 64
76 104 63
86 113 75
98 125 93
95 120 93
103 126 104
116 138 127
129 150 142
138 157 156
139 158 157
154 170 177
164 181 191
172 188 201
155 173 181
84 110 75
83 111 69
76 103 63
75 103 63
81 108 66
78 106 64
77 105 64
77 104 63
78 107 66
77 104 63
78 106 65
81 108 66
72 98 59
76 103 63
80 108 66
80 106 71
147 167 169
164 180 190
163 181 191
168 184 199
163 180 193
169 186 200
165 181 188
170 187 201
140 159 158
113 134 122
86 111 78
80 108 67
80 108 66
77 104 64
83 112 70
123 143 132
164 182 194
168 186 197
179 195 210
167 185 198
171 189 202
173 189 201
170 187 197
172 187 198
170 186 196
168 187 202
163 182 194
162 180 192
175 193 210
165 183 193
100 123 100
81 109 67
80 109 67
82 111 69
76 104 63
80 108 67
83 112 69
79 108 67
82 110 67
83 110 76
173 191 206
178 194 209
170 188 201
154 172 176
113 134 120
81 109 67
76 104 63
82 110 68
83 112 70
79 108 67
79 107 66
81 109 67
79 107 66
79 106 64
80 108 66
76 104 63
80 108 66
80 108 67
87 113 80
168 184 196
165 183 193
142 160 160
113 136 121
82 110 71
77 105 63
77 105 65
131 149 142
152 170 176
174 191 205
166 183 195
163 180 190
165 182 197
174 191 204
165 182 193
170 187 202
173 190 205
177 194 211
165 183 196
137 156 157
77 104 62
75 102 62
74 101 61
82 110 68
81 108 67
78 106 65
80 108 66
79 107 66
82 111 69
80 108 66
80 107 66
83 112 70
81 109 67
75 103 62
79 107 65
100 124 100
136 155 153
161 178 188
173 190 204
173 191 208
96 120 97
77 104 63
75 102 61
79 106 66
77 105 64
75 103 62
75 102 61
77 104 64
77 104 63
76 103 63
76 104 63
75 102 62
77 105 64
81 109 67
77 105 64
79 106 66
75 102 62
81 109 67
82 110 67
76 103 63
80 107 68
167 184 195
162 180 191
164 181 196
168 186 200
167 184 198
157 175 183
159 176 187
155 173 183
165 183 193
162 179 190
152 170 173
127 146 139
102 125 102
80 108 66
80 107 65
74 101 60
75 102 62
75 102 62
79 106 65
76 103 62
79 106 65
137 156 155
165 182 194
163 180 191
163 180 189
165 182 197
167 183 193
161 177 185
161 178 188
164 181 191
161 177 188
161 179 187
159 176 184
164 180 192
168 184 196
171 188 202
155 173 182
171 185 195
163 181 195
160 177 185
168 184 196
162 178 184
159 176 185
78 105 64
79 106 65
78 105 65
78 105 64
82 109 68
77 105 65
74 101 61
75 102 62
78 105 65
73 100 61
77 103 62
76 103 63
76 103 62
81 110 68
79 106 66
81 106 72
105 126 110
120 141 134
132 151 151
162 179 187
162 179 191
128 147 140
78 105 64
77 104 63
72 98 59
81 109 67
70 96 58
77 104 63
77 104 65
74 101 61
76 104 63
75 101 61
75 102 61
74 101 61
75 101 61
77 104 63
79 106 65
78 106 65
76 102 62
73 98 59
78 105 64
82 110 68
75 102 62
153 170 177
163 180 191
173 189 201
168 184 195
166 183 193
155 171 178
156 174 184
155 172 179
163 180 192
161 178 187
163 180 191
159 175 184
166 183 196
162 179 192
164 181 191
169 185 196
159 176 184
162 179 186
161 178 189
166 183 196
170 185 195
145 162 164
75 102 63
79 107 66
81 109 68
81 109 67
78 105 64
76 103 62
74 101 61
74 100 60
76 103 62
76 103 62
80 108 67
77 105 64
78 106 64
80 108 67
72 99 59
79 106 65
82 110 68
76 103 62
77 104 63
76 103 63
82 109 69
148 166 172
156 174 182
156 174 182
161 178 188
170 189 201
164 181 193
166 183 194
165 182 195
162 179 188
173 190 204
153 170 177
141 158 159
137 156 157
126 146 143
114 134 121
122 142 135
98 121 96
90 117 85
73 99 60
73 99 60
73 101 62
150 168 172
164 179 190
173 189 202
155 172 178
156 175 184
171 187 201
160 177 186
170 187 198
171 187 200
161 177 186
158 175 184
170 188 203
165 182 194
167 184 195
161 178 188
159 175 184
167 184 198
161 178 186
168 184 197
150 167 172
142 161 160
76 103 62
72 99 60
77 104 64
76 102 61
71 97 58
78 106 65
79 107 66
80 107 66
74 101 61
75 102 61
76 103 62
73 100 61
74 101 61
75 102 62
78 105 63
74 100 60
77 105 64
75 102 62
81 109 67
99 120 105
155 172 181
156 175 182
166 183 192
169 186 199
167 184 194
164 181 194
171 187 201
157 174 182
171 188 198
160 178 190
160 176 185
161 178 188
164 182 194
159 177 188
160 177 186
168 186 198
163 180 189
168 184 196
167 185 198
112 133 118
76 103 62
78 105 64
72 98 59
74 101 61
72 98 57
79 107 65
80 108 67
75 102 62
80 108 67
77 104 62
79 107 66
77 105 64
78 105 63
80 108 67
81 109 68
77 104 64
75 102 62
74 100 63
147 165 168
164 181 192
160 177 183
162 180 191
160 178 190
173 191 205
161 178 188
168 185 198
169 185 198
165 182 195
171 188 203
172 190 202
166 184 199
170 186 199
180 197 215
164 182 192
168 185 196
157 176 183
101 125 104
76 104 64
77 104 63
74 101 61
80 108 66
77 105 63
75 103 63
77 104 63
75 102 61
77 105 65
77 105 64
79 106 65
80 108 66
74 101 61
74 101 62
87 114 78
97 121 96
126 147 140
131 150 150
126 146 144
116 138 121
109 132 116
89 115 88
74 102 63
78 106 64
80 107 66
78 105 64
77 105 64
79 107 66
83 112 70
83 113 70
78 105 64
78 105 64
98 122 97
170 188 201
169 186 198
164 182 192
176 193 207
145 161 164
123 142 133
82 108 72
81 109 66
79 107 66
77 105 64
79 107 66
82 111 68
77 104 63
77 104 64
80 108 67
148 166 167
173 189 202
167 184 198
168 185 198
169 188 203
170 188 203
174 191 206
166 184 194
174 192 204
170 189 202
170 187 200
169 188 204
164 182 191
176 193 208
149 169 174
79 106 65
79 107 65
81 109 67
80 107 66
79 106 64
82 111 70
79 108 67
78 105 65
97 122 96
177 195 210
137 157 155
103 126 105
78 106 65
78 105 64
86 116 73
78 106 65
82 111 68
82 112 70
78 106 65
80 108 66
81 109 67
81 110 68
78 106 65
81 110 67
81 109 68
77 105 64
78 106 64
107 130 113
165 183 194
165 182 194
171 189 202
171 189 204
150 167 171
109 133 115
142 161 163
163 179 188
159 177 187
148 166 170
167 183 193
168 185 198
165 182 195
174 191 205
175 192 206
171 189 202
174 191 204
165 183 195
169 186 197
159 178 185
78 106 65
78 106 65
77 105 64
78 107 66
78 105 64
77 104 64
78 107 66
79 106 65
79 107 66
78 105 64
79 107 66
80 108 65
94 118 90
128 148 143
155 173 179
173 190 205
162 181 191
166 185 198
165 183 195
168 185 197
96 120 95
79 107 66
80 108 66
80 108 66
76 103 63
77 105 64
77 103 62
82 110 68
75 102 62
80 109 67
79 107 66
78 106 65
80 107 66
77 105 64
75 102 62
80 107 66
79 107 66
78 105 64
81 109 68
83 112 69
78 106 65
157 174 181
169 187 202
166 184 196
164 182 193
164 181 191
164 182 193
173 189 201
157 176 185
133 151 147
100 123 100
77 104 64
78 105 65
80 107 66
81 109 68
79 107 67
79 107 65
75 102 62
79 107 66
81 108 67
79 106 65
79 106 64
136 156 155
159 177 188
166 183 193
172 189 204
165 182 193
156 175 183
176 192 208
161 179 188
169 186 201
164 180 191
160 177 188
165 182 195
165 182 192
165 182 191
164 181 195
169 186 197
164 181 192
162 179 189
164 181 191
168 186 199
167 184 198
162 179 189
90 115 88
76 103 62
75 102 63
73 100 60
75 101 61
76 102 62
73 99 59
75 101 61
72 99 59
77 104 63
77 104 64
84 112 75
94 118 91
122 142 134
156 173 178
156 172 180
168 186 199
165 182 192
158 176 184
166 183 194
158 175 184
154 173 181
77 105 63
78 105 64
77 104 63
84 112 69
76 102 62
77 104 64
74 101 61
79 106 65
77 105 64
71 97 58
80 107 66
80 107 66
79 106 65
76 103 62
78 106 65
70 96 56
78 105 64
78 105 65
79 106 66
81 109 67
76 103 62
127 147 143
158 175 183
166 182 193
162 180 191
162 179 191
170 187 200
165 181 193
163 180 189
147 166 167
164 180 190
163 181 192
163 179 189
163 180 193
162 180 191
158 175 185
159 176 185
161 178 190
170 187 201
155 171 178
159 176 183
159 176 184
163 181 194
84 109 79
80 108 66
76 103 63
77 104 63
73 100 60
75 103 61
76 103 62
76 103 63
77 104 63
75 102 62
76 103 62
73 100 60
76 103 62
75 102 62
73 100 61
76 103 63
75 102 62
73 99 59
77 104 63
74 99 59
79 106 64
140 158 158
163 179 189
165 182 194
135 154 153
119 139 130
123 143 136
107 129 115
108 131 117
89 115 87
77 104 64
74 101 61
74 100 60
78 105 65
79 107 66
74 101 60
75 101 61
78 106 65
76 103 63
77 103 64
76 103 62
78 106 64
110 132 117
164 180 192
170 186 199
160 177 185
158 176 185
173 190 204
151 168 172
167 184 197
160 177 189
159 176 187
164 181 191
169 185 198
158 174 182
167 184 195
170 188 200
167 185 198
168 185 196
160 177 185
163 179 187
164 180 189
163 181 192
98 121 101
79 106 65
81 108 66
80 107 65
76 104 64
76 103 64
80 108 66
78 105 64
72 98 59
72 98 58
76 103 63
75 102 62
76 103 63
77 104 64
79 106 65
74 100 61
80 108 66
76 102 62
77 105 63
79 106 65
133 152 152
162 178 188
162 179 187
156 174 183
156 174 182
162 179 189
168 185 201
165 182 192
161 177 189
166 185 197
174 190 205
160 178 189
162 180 188
162 179 192
156 174 181
157 175 185
163 181 192
174 191 205
167 185 196
153 171 177
82 109 67
78 106 66
76 104 63
77 104 62
78 106 65
80 107 66
76 103 63
75 102 62
82 111 68
79 107 65
80 108 67
81 109 66
80 107 67
77 103 63
78 104 63
81 109 67
75 102 62
80 108 66
100 123 104
161 178 187
158 176 186
163 180 190
166 183 194
162 178 186
164 181 194
167 184 195
168 185 198
163 180 189
170 186 196
165 184 198
174 191 207
168 184 195
155 173 181
172 189 202
156 172 177
155 172 180
159 177 185
79 107 66
81 109 67
77 105 64
81 110 68
76 104 64
81 108 66
78 105 64
78 106 65
79 107 65
81 109 67
75 102 61
76 104 63
82 110 69
77 104 63
80 108 67
79 107 65
77 104 67
151 169 177
163 181 195
169 186 198
166 183 196
167 184 194
172 189 201
165 183 192
151 170 175
140 160 160
124 144 135
100 123 102
101 125 101
80 107 69
83 111 69
79 107 66
78 106 64
123 146 138
150 169 176
118 140 129
90 114 82
80 108 67
80 108 66
82 111 69
78 106 66
81 109 67
80 109 67
79 107 66
82 111 68
78 106 65
80 109 68
76 104 64
85 112 74
160 178 189
165 182 195
172 189 202
165 183 194
172 189 202
173 190 204
158 175 183
173 189 202
169 187 200
164 181 191
179 196 209
163 182 192
170 188 200
161 178 190
137 155 154
76 104 63
78 107 66
83 112 70
79 106 65
79 106 64
85 114 71
79 106 67
127 147 143
96 120 95
80 108 67
76 104 64
81 109 67
82 109 68
83 112 68
77 105 63
77 105 64
76 104 63
79 107 67
83 111 68
83 111 69
80 108 67
78 107 65
79 108 66
82 111 70
79 107 65
80 109 67
106 129 110
169 186 199
171 189 202
156 175 180
113 135 123
80 108 69
80 107 65
84 113 70
86 113 78
103 125 108
134 154 151
154 172 180
179 196 211
169 187 200
165 183 196
165 182 193
163 179 190
173 191 206
171 189 202
167 184 198
143 161 159
79 106 65
80 108 66
83 111 69
78 106 65
80 108 67
77 104 64
82 110 69
79 107 65
74 101 61
81 109 70
113 136 123
143 162 165
164 182 193
167 185 197
168 186 198
163 182 194
165 182 193
167 185 197
162 181 192
167 184 195
105 127 107
80 108 67
84 112 70
79 106 65
76 103 62
82 110 68
76 103 63
73 100 60
79 107 65
79 107 66
79 108 66
81 110 68
77 104 64
77 105 64
79 108 67
76 103 63
77 104 64
79 107 65
77 104 63
81 109 67
76 103 63
164 182 191
166 183 195
167 184 198
170 188 201
155 173 182
124 144 141
101 125 106
82 110 68
79 106 65
75 102 63
80 108 66
79 106 65
76 103 63
76 103 63
81 110 69
79 106 65
78 106 65
76 103 63
79 107 66
79 106 65
74 101 61
117 137 126
171 187 200
165 181 192
171 188 202
158 176 183
163 178 188
168 184 194
158 175 184
162 178 185
161 177 188
170 188 200
168 185 198
171 187 200
170 188 201
174 193 208
164 181 192
163 180 190
166 183 194
158 175 185
166 182 191
167 185 196
164 181 194
95 118 96
82 111 69
78 105 64
82 111 70
82 110 68
77 104 63
75 102 61
81 108 72
105 128 112
118 138 129
141 159 162
153 170 177
163 180 190
157 174 182
165 182 194
162 178 189
168 185 197
162 180 187
157 174 183
170 187 198
163 179 188
159 176 186
85 111 77
76 103 63
80 108 66
77 104 64
76 103 61
77 105 64
78 106 64
75 102 61
73 100 60
70 97 58
77 104 63
76 102 63
76 104 63
77 105 65
76 104 64
77 104 64
76 102 62
77 105 64
75 102 61
76 103 63
77 105 64
98 120 100
156 174 184
162 179 189
158 177 188
165 180 192
150 169 176
162 177 188
165 182 191
166 182 192
160 176 185
160 177 185
167 181 191
154 170 176
168 185 196
167 183 193
162 179 191
167 184 194
170 186 197
159 176 187
162 180 190
154 171 178
156 172 181
117 137 124
82 110 68
79 106 65
80 108 66
75 102 62
76 103 63
80 108 66
75 102 62
76 102 62
76 103 63
75 103 63
78 106 65
79 106 64
76 103 63
78 106 65
80 106 69
101 125 102
122 142 136
126 146 142
151 169 174
143 160 162
148 165 172
82 107 74
79 106 65
71 98 58
75 101 61
77 104 63
80 107 66
77 104 63
75 102 63
81 109 67
75 102 62
74 101 61
74 100 60
73 100 59
75 102 61
71 97 57
75 103 63
78 105 65
74 100 61
76 103 63
77 104 64
85 111 76
159 176 187
176 192 206
157 174 184
169 185 198
164 181 191
162 179 190
162 179 190
169 186 198
165 182 192
157 173 180
170 187 199
163 181 193
168 185 197
166 183 194
163 179 187
159 176 186
157 174 183
169 186 197
169 186 200
165 181 189
137 155 153
78 107 65
73 98 59
77 105 65
79 107 67
76 103 62
79 107 66
76 103 62
78 105 63
74 100 61
74 100 60
72 98 59
79 106 64
77 105 64
79 106 64
77 104 63
77 105 65
76 103 62
74 101 61
81 110 67
111 132 118
164 182 193
176 194 209
161 178 188
159 177 186
171 188 200
170 187 201
165 181 191
167 183 195
159 176 184
164 182 192
161 178 187
164 181 191
169 186 198
171 188 200
167 184 195
169 187 200
165 181 191
165 182 195
161 178 189
116 138 124
74 101 61
77 105 65
78 105 64
70 96 57
78 106 65
78 106 64
74 102 62
76 102 62
81 109 68
78 106 65
78 106 65
75 103 62
76 104 63
78 105 64
77 103 63
78 105 64
77 105 64
77 104 63
153 172 179
163 181 191
163 181 192
144 161 162
159 176 185
155 172 180
166 184 197
167 184 196
166 184 198
168 185 196
170 186 194
167 184 196
159 177 187
164 182 193
166 183 195
167 183 194
164 181 190
161 178 187
120 140 131
77 105 63
81 109 67
77 105 64
77 104 63
82 110 67
79 107 66
78 106 65
81 109 68
76 104 64
78 106 65
79 107 66
74 101 61
84 113 70
79 107 66
80 108 66
77 104 63
111 132 116
162 178 186
163 182 195
163 180 190
167 186 198
170 188 201
170 186 196
172 190 201
161 179 191
166 183 191
174 191 206
174 191 205
161 179 190
144 163 161
105 129 109
104 129 107
127 146 140
119 140 129
92 116 86
82 111 69
77 105 64
81 109 67
80 108 66
80 108 66
79 107 66
78 105 65
80 109 67
81 109 67
77 105 64
80 108 66
74 101 61
78 106 65
107 129 108
172 190 204
157 174 180
163 181 191
171 188 201
168 185 198
166 184 195
165 182 192
173 191 207
170 188 203
166 184 197
170 188 202
176 193 206
164 182 195
176 194 209
101 124 102
79 108 67
81 109 68
80 108 66
87 113 83
141 161 161
167 185 199
142 161 161
78 106 65
81 110 68
75 101 61
83 112 70
80 108 66
80 108 66
79 107 66
80 108 66
80 108 67
81 110 68
78 105 64
84 113 71
83 111 68
79 108 67
82 111 69
84 113 70
78 106 65
79 106 65
113 136 121
143 162 166
97 123 96
78 106 65
78 106 65
80 109 67
78 105 65
79 107 66
78 107 65
77 105 64
80 107 66
81 109 67
85 111 81
118 140 128
150 169 171
168 186 195
162 181 194
163 181 193
168 186 199
180 198 214
143 161 160
84 113 71
82 110 68
71 98 58
78 106 65
79 106 65
80 108 67
82 110 68
101 125 103
140 159 157
162 179 189
160 177 185
161 179 188
171 189 202
168 184 198
169 185 197
158 176 185
172 188 202
166 184 197
167 185 196
171 186 197
105 128 111
80 107 66
79 106 66
77 104 63
78 105 65
74 102 62
80 108 67
80 108 66
77 104 64
81 110 68
77 104 63
81 109 67
80 108 67
77 105 64
77 104 63
77 105 64
82 111 69
80 108 67
82 110 68
77 105 65
76 103 62
144 164 168
153 171 176
118 140 131
95 119 94
76 104 63
75 101 61
77 104 64
81 109 67
80 108 66
78 106 65
80 109 67
78 105 63
75 102 62
77 105 64
78 105 65
78 105 65
77 105 64
78 106 65
82 110 68
79 107 66
80 108 66
107 129 113
165 182 192
170 187 199
169 184 197
162 180 191
165 183 195
163 180 192
163 178 186
164 181 191
163 180 190
170 187 198
166 182 194
170 186 200
168 185 197
162 180 190
162 179 189
148 164 168
163 180 192
167 184 196
168 185 200
160 177 186
167 185 198
121 141 132
76 103 63
78 106 65
82 109 70
98 122 96
129 150 142
155 174 180
151 169 174
163 180 190
157 175 184
162 179 190
169 186 198
170 188 202
165 181 191
155 172 181
161 178 189
171 187 199
157 174 180
172 189 202
159 176 184
160 178 188
161 179 187
105 127 108
78 105 64
74 100 61
76 103 62
80 108 67
81 110 68
75 102 62
76 103 63
70 96 57
78 106 64
78 105 64
77 104 63
75 103 61
77 104 63
79 107 66
74 102 62
75 102 62
76 104 63
74 101 61
78 106 65
78 104 64
80 106 70
158 174 184
158 176 187
167 184 194
150 167 171
154 172 180
161 178 189
165 182 193
165 181 193
166 182 191
166 183 196
167 184 195
162 178 189
156 174 183
160 177 187
157 175 182
155 174 184
167 184 195
164 181 194
161 177 187
163 180 190
160 177 185
139 157 158
79 106 65
81 108 67
76 102 62
75 102 62
70 97 57
73 100 60
72 99 59
75 102 62
84 110 78
104 125 114
122 142 135
135 155 153
148 166 171
167 186 195
157 174 182
175 193 208
168 184 196
162 181 192
164 180 191
165 182 193
169 186 198
96 120 100
74 101 61
74 100 61
78 105 64
76 102 63
71 98 59
79 106 64
73 101 60
75 102 62
78 106 64
75 102 62
73 99 59
79 106 65
79 106 64
72 99 60
79 106 63
80 108 66
80 108 67
76 103 62
75 101 61
77 104 63
141 159 160
162 179 190
169 185 196
158 175 184
163 180 192
170 187 202
169 185 198
166 183 193
163 179 190
168 185 195
145 163 163
167 184 197
162 179 189
167 184 198
167 184 195
157 175 186
164 181 191
150 168 179
159 176 184
159 177 186
165 181 190
84 110 78
79 108 66
77 104 63
83 112 69
78 107 66
79 106 65
80 107 66
77 104 64
78 106 65
75 102 61
77 104 64
74 101 61
72 99 60
79 106 66
78 105 64
75 102 61
78 105 64
73 100 60
83 111 69
77 105 65
157 175 185
163 180 191
171 187 200
169 185 196
168 186 199
166 182 193
166 183 192
157 174 182
164 180 189
161 179 189
168 185 197
172 190 204
159 176 185
172 189 202
160 177 187
158 175 183
157 174 182
165 183 196
165 182 195
154 172 179
77 104 69
78 106 65
74 101 60
76 103 62
75 102 62
80 107 66
77 104 63
81 109 66
75 101 61
76 102 61
82 110 68
77 104 63
76 103 62
75 102 61
78 105 65
78 106 66
75 102 61
74 102 62
97 120 98
168 186 201
171 187 199
166 183 195
170 187 199
169 187 200
154 172 180
156 174 185
159 176 184
165 183 194
171 188 201
174 190 203
162 180 189
169 187 199
161 178 190
165 182 194
168 185 201
171 188 200
154 173 179
93 117 91
82 110 67
79 107 66
82 110 69
77 104 63
81 110 68
79 107 65
78 106 65
77 105 64
83 111 69
79 107 65
76 105 64
78 105 64
79 107 65
82 111 69
79 107 65
77 104 64
145 164 169
168 186 200
169 186 199
171 189 202
169 188 201
166 185 197
172 189 202
165 184 196
158 176 185
137 157 157
130 151 146
97 123 95
79 108 67
77 104 63
81 109 67
82 110 68
97 120 96
167 184 196
161 178 187
155 173 177
135 155 153
127 147 141
105 128 109
85 112 76
79 106 65
80 109 67
78 106 65
83 111 68
75 102 61
79 107 66
85 115 72
76 103 63
139 158 157
166 183 194
169 186 199
169 186 198
168 187 201
173 190 204
161 179 189
160 179 188
167 185 198
169 187 201
168 186 200
168 185 197
161 178 185
171 189 203
161 178 190
94 121 89
90 115 86
138 159 156
167 184 196
165 183 193
173 191 204
128 150 146
82 111 69
82 111 68
80 108 66
80 108 66
80 109 67
82 110 68
80 108 66
83 111 69
84 113 70
82 110 68
77 104 62
81 109 67
83 111 69
76 104 63
78 106 65
77 105 65
90 117 85
132 153 147
138 157 155
75 103 62
81 110 68
76 103 63
82 110 68
76 103 62
76 104 63
75 103 63
80 108 66
81 109 67
83 111 69
83 111 68
83 111 69
78 106 65
76 103 62
82 109 70
99 122 105
138 157 156
146 167 170
158 176 183
137 157 158
80 108 67
77 105 64
83 111 69
83 112 69
81 108 69
113 134 121
156 175 180
162 181 192
177 194 209
158 175 183
162 179 189
169 187 199
169 185 195
167 184 194
167 184 196
168 184 193
169 186 198
172 188 202
170 187 200
161 178 187
117 138 125
77 105 64
82 110 67
80 108 67
74 101 61
84 113 70
80 107 66
78 105 64
83 112 70
75 103 63
80 107 66
76 103 63
76 103 62
82 109 67
81 109 67
79 107 66
78 105 64
77 104 64
78 106 66
100 123 101
135 154 150
125 145 138
78 105 64
76 104 63
77 104 63
75 101 62
77 104 64
77 105 65
74 101 61
80 107 66
76 102 62
72 98 59
75 102 62
80 109 67
81 109 66
80 107 66
80 108 67
75 102 62
77 105 64
75 102 62
76 104 63
77 105 64
86 110 83
165 182 192
165 182 194
161 177 185
160 178 188
164 181 192
163 179 188
168 185 197
160 177 189
162 179 188
161 179 189
160 175 183
165 183 192
162 180 190
161 179 190
169 186 198
168 186 199
172 189 202
166 183 195
163 179 189
155 173 182
179 194 207
139 158 162
132 153 150
133 153 149
172 187 195
163 181 193
158 176 183
162 180 190
166 184 195
152 170 178
165 183 194
165 181 194
158 177 187
171 188 203
157 175 185
176 192 205
156 173 179
167 184 195
168 185 198
158 175 184
164 181 193
163 179 189
165 183 196
120 140 128
77 104 64
79 106 64
82 111 68
78 105 65
79 106 65
78 105 65
78 106 65
82 110 68
79 107 66
77 104 64
75 102 60
78 105 64
78 106 65
76 104 63
72 99 60
78 106 64
77 105 64
76 103 63
80 108 66
77 104 64
76 103 62
135 155 152
164 181 190
167 182 193
158 176 184
161 178 188
163 180 194
174 191 203
174 191 205
171 187 199
165 182 193
163 181 193
167 183 196
169 185 197
164 180 191
149 166 172
163 179 190
163 181 191
164 181 192
172 188 200
168 186 198
165 182 193
172 188 201
89 115 81
83 110 70
89 111 86
113 134 119
131 151 149
128 149 142
151 169 176
161 179 191
163 180 192
160 177 184
168 185 196
181 196 209
160 177 189
162 179 188
163 178 187
161 178 188
166 183 195
165 183 195
169 185 196
161 178 188
163 180 192
138 158 158
77 104 63
75 103 62
80 108 66
76 104 63
82 109 67
78 105 64
74 101 62
80 107 65
74 101 61
79 107 65
82 111 69
77 104 64
80 107 66
79 107 65
79 106 65
77 104 63
77 104 63
79 106 65
79 107 66
77 103 63
106 128 111
166 183 195
166 183 194
155 172 180
170 186 197
169 186 199
159 176 185
164 182 193
167 185 197
162 179 190
175 192 206
155 172 178
158 176 185
157 175 184
167 183 193
174 191 202
167 184 193
156 173 180
168 184 195
173 190 200
160 176 186
120 140 128
75 102 62
75 102 62
78 105 64
74 101 61
79 107 65
74 100 61
74 101 61
80 108 67
75 102 62
78 106 65
76 103 63
77 104 63
78 106 65
80 108 66
78 105 64
75 102 62
80 108 66
78 105 65
77 103 63
99 122 100
162 179 187
160 178 188
167 183 194
160 177 189
164 180 189
163 178 187
166 183 195
162 180 193
165 182 190
170 188 200
159 177 183
166 184 196
167 183 191
157 174 183
166 184 197
172 189 203
159 175 184
165 183 195
158 176 185
119 139 127
80 108 66
79 106 65
80 108 66
77 105 64
79 107 67
82 111 68
77 105 64
76 104 64
75 102 63
78 105 63
81 109 67
76 103 63
77 104 63
81 110 68
77 105 64
74 100 60
80 107 66
78 106 65
143 161 162
164 181 192
171 187 198
171 188 200
169 186 198
164 180 191
164 181 194
170 187 197
164 181 191
164 181 194
157 175 185
157 176 187
159 177 185
170 187 200
166 183 193
170 187 201
162 181 192
162 179 190
140 159 161
81 110 68
80 108 67
79 107 67
80 108 67
80 108 66
82 110 68
80 107 65
81 110 68
77 105 64
74 102 61
80 108 66
81 110 68
77 104 63
80 108 67
80 108 67
80 108 67
88 116 77
166 184 197
167 185 196
170 187 200
165 182 193
147 166 170
122 143 137
103 126 106
77 104 64
82 110 69
84 113 70
80 107 65
78 106 65
82 111 68
79 107 66
81 110 68
82 111 68
127 147 141
168 185 195
171 189 202
169 186 198
173 191 202
162 180 193
162 180 189
166 183 194
153 173 179
135 154 157
117 139 130
125 147 140
88 114 82
79 107 66
81 111 69
79 108 67
148 167 172
163 183 196
172 190 205
169 188 203
173 191 206
168 185 197
168 185 198
171 186 197
172 190 204
173 191 206
160 177 186
164 183 196
171 188 201
164 183 194
156 174 180
168 186 200
171 189 201
176 194 212
170 186 196
176 192 207
125 146 139
81 109 67
78 106 64
82 111 69
80 109 67
80 108 66
77 106 65
80 108 66
78 106 64
75 102 62
83 112 70
85 114 71
83 111 69
82 110 68
82 111 69
106 128 110
142 161 164
169 186 197
165 182 193
150 169 172
83 112 69
81 109 67
79 107 66
77 105 64
80 108 66
80 108 65
77 105 64
80 108 67
81 109 68
80 108 66
80 108 66
77 105 64
81 109 67
82 110 68
81 109 66
79 107 66
81 109 67
81 109 68
83 111 77
120 140 127
137 157 157
118 139 127
98 123 99
145 164 167
164 182 193
168 186 199
171 188 202
167 183 195
171 188 202
167 185 197
174 191 204
157 175 181
167 185 196
171 188 202
164 182 194
177 195 211
173 188 201
166 183 194
174 191 205
158 176 187
119 140 129
78 105 64
80 107 65
76 104 64
77 105 65
81 110 69
74 100 60
78 106 65
79 107 67
80 108 67
80 107 65
78 107 66
79 107 65
79 106 64
80 109 67
78 105 64
112 134 118
128 147 145
159 176 185
159 177 185
173 189 199
141 160 161
77 104 63
77 105 65
77 104 63
76 103 64
80 107 66
77 104 63
77 105 64
78 105 64
84 112 69
80 108 66
77 105 64
81 109 66
78 105 64
80 107 65
77 105 65
79 107 66
78 106 65
77 104 63
82 111 69
76 103 63
79 106 65
150 168 174
160 177 188
176 193 206
161 179 189
165 182 192
166 182 191
174 191 207
161 179 188
170 187 200
168 185 196
170 188 203
167 184 195
164 181 192
161 178 188
166 183 195
161 178 189
169 186 198
166 183 193
150 169 174
120 141 130
96 119 97
96 120 97
156 173 182
168 185 196
166 184 196
163 181 193
166 182 194
149 168 178
166 184 197
160 178 190
171 188 203
166 183 192
172 189 202
171 188 202
168 184 194
166 183 195
172 189 201
171 187 199
168 185 197
168 184 197
166 186 197
178 194 209
165 183 196
159 177 188
79 106 64
73 99 60
77 104 63
76 103 63
79 107 66
76 103 63
75 102 63
78 106 66
75 102 62
78 106 65
74 101 61
77 105 65
73 99 60
79 106 65
70 96 57
77 104 63
78 106 65
81 109 67
75 100 60
76 102 62
76 103 63
120 141 132
159 176 183
165 182 192
162 180 189
168 186 200
159 177 187
172 188 204
162 179 191
165 184 197
159 177 186
168 185 197
169 187 199
159 177 188
156 173 181
162 179 187
169 186 200
167 185 199
161 177 188
169 185 195
139 157 157
135 153 151
117 138 124
120 140 133
158 175 186
160 178 189
157 176 187
160 177 187
159 177 186
165 181 192
160 177 187
161 179 191
166 183 194
167 184 196
163 180 188
168 185 197
158 177 188
169 186 199
157 175 182
154 172 179
170 187 200
163 179 189
160 177 187
165 182 195
153 169 176
82 109 71
76 103 63
81 109 66
75 102 62
78 105 65
78 105 65
74 100 60
79 107 65
73 99 60
80 108 66
74 101 61
77 104 64
78 105 65
78 106 65
75 102 62
77 104 63
79 107 65
78 106 65
79 107 66
80 108 67
77 104 66
148 167 175
168 185 197
167 185 197
165 183 196
166 183 193
173 189 201
162 179 187
158 174 183
166 184 198
160 176 182
159 176 185
166 182 193
167 184 197
152 170 177
162 178 186
170 188 200
162 180 190
165 182 192
160 177 187
162 179 191
151 169 175
80 108 67
77 104 63
78 105 65
78 105 64
77 104 63
79 105 64
80 107 66
74 100 60
78 105 64
81 109 68
75 101 61
79 106 65
81 109 66
79 107 65
76 104 63
76 103 62
74 101 61
79 106 65
76 104 63
77 105 64
151 170 174
163 180 187
176 193 208
168 184 195
166 184 195
170 187 199
170 186 200
163 180 192
166 183 196
167 184 195
171 188 200
156 174 182
152 170 180
169 186 197
174 191 206
155 171 179
157 176 187
161 180 192
177 193 208
163 180 190
82 109 70
76 103 63
81 109 67
78 106 64
79 106 65
78 106 65
76 104 63
74 101 62
80 108 67
80 109 67
81 109 67
78 105 64
80 107 66
80 108 66
77 104 63
75 102 62
77 105 63
77 105 64
97 121 96
162 180 188
163 180 192
160 177 184
170 187 200
170 187 199
168 184 193
171 187 198
176 193 207
172 189 202
170 187 200
167 184 197
169 187 201
174 190 207
165 182 194
164 181 191
166 183 195
166 184 197
171 188 201
102 125 111
80 108 66
79 107 65
80 108 67
82 110 68
78 106 64
78 106 65
77 105 63
80 107 66
76 104 64
77 104 64
78 106 66
77 105 64
81 108 67
72 99 60
72 99 59
86 113 78
129 149 145
139 159 156
110 134 113
81 108 70
81 110 68
79 106 65
78 106 65
81 109 67
76 104 63
77 106 65
80 108 66
76 104 63
75 102 61
81 110 68
79 106 65
80 108 66
78 106 65
154 174 181
165 183 194
176 192 206
169 187 199
168 186 199
164 181 191
166 183 195
172 190 203
170 187 201
175 193 207
167 185 198
166 183 193
166 184 197
143 162 164
127 148 144
128 150 145
174 191 204
177 194 212
177 196 212
168 186 199
168 185 196
160 179 191
167 186 199
172 191 204
173 190 203
164 182 192
170 189 203
172 189 203
172 190 204
171 189 204
167 185 196
176 193 205
172 190 205
156 174 184
168 186 198
115 138 123
80 108 67
80 108 66
83 112 69
82 111 69
81 110 67
82 111 69
82 110 69
81 109 67
76 103 63
79 107 65
79 108 66
72 99 61
121 143 130
150 168 172
165 182 192
176 192 205
176 193 206
171 189 204
137 155 150
81 110 67
81 109 67
78 106 65
78 106 63
78 107 66
81 110 68
81 109 67
81 109 67
81 109 67
81 110 68
80 107 65
82 111 68
79 108 67
76 103 62
76 103 63
78 105 63
76 102 63
79 106 65
82 111 68
120 142 131
131 151 149
103 125 104
88 114 84
117 139 125
116 138 124
147 167 171
167 185 197
166 183 194
169 187 199
167 184 196
171 189 204
163 180 189
171 188 202
174 192 207
169 187 200
181 197 212
168 185 197
164 181 193
169 185 195
177 195 211
120 140 129
78 106 65
82 111 69
78 105 64
81 109 67
75 102 61
78 106 65
81 109 67
84 113 70
76 104 63
81 110 67
80 108 66
81 109 67
104 128 108
135 153 152
153 172 179
175 192 206
169 186 199
172 189 202
164 180 190
165 182 195
140 158 158
77 104 63
79 107 66
74 101 61
77 104 63
82 111 69
82 110 67
76 103 63
79 107 66
77 104 64
80 108 66
82 109 67
78 105 65
79 107 65
80 108 67
80 108 66
76 103 62
78 106 65
80 108 67
80 108 66
73 100 61
81 108 66
155 173 179
167 184 194
161 178 185
171 187 200
165 182 192
166 184 195
172 189 205
165 182 192
165 182 195
169 186 197
168 185 196
167 184 197
160 178 186
166 183 193
152 169 173
126 148 140
100 122 102
81 109 71
76 103 62
78 106 66
80 108 67
84 112 70
177 193 207
161 178 187
159 175 183
165 183 191
166 182 194
170 187 199
148 167 171
171 188 202
170 186 195
163 180 194
172 189 201
169 186 199
161 179 189
169 186 197
169 186 199
172 189 201
160 177 184
155 172 180
164 181 193
164 181 189
165 181 191
170 188 203
79 106 68
77 104 64
80 107 65
78 105 64
81 109 68
83 110 68
77 104 63
75 102 62
79 106 65
75 102 62
79 107 66
79 106 65
77 104 63
78 105 65
78 105 64
79 107 65
77 105 65
80 108 66
77 105 64
80 108 67
77 105 64
93 117 93
168 186 198
158 175 184
161 178 187
161 178 187
165 182 195
164 181 191
159 176 188
174 191 206
168 184 192
171 187 200
163 181 193
163 180 191
152 170 178
139 157 158
112 131 119
89 114 87
84 110 79
78 106 65
77 105 64
73 99 59
72 99 61
115 137 124
163 180 191
171 187 198
158 174 183
169 186 200
163 181 191
170 187 200
165 182 192
167 184 195
172 188 202
170 186 197
168 184 197
171 188 200
166 184 198
166 184 195
166 183 192
173 188 201
159 177 187
161 179 187
165 182 193
166 183 196
162 179 192
109 131 114
83 111 69
80 108 66
76 103 63
76 103 63
73 100 60
72 98 59
77 103 62
76 103 63
72 99 59
74 101 62
76 104 63
82 110 68
76 103 63
78 105 64
75 102 61
77 105 64
78 107 66
79 106 66
77 104 64
79 106 65
121 140 133
158 176 182
164 183 195
171 188 200
165 183 193
171 188 199
162 179 188
162 179 189
161 178 188
164 181 191
170 187 200
172 188 201
160 177 188
162 178 187
162 179 188
173 189 203
159 176 187
167 184 197
170 187 201
157 174 181
163 181 190
109 131 118
75 103 63
83 112 69
79 107 65
74 101 61
78 106 65
75 102 62
76 102 62
78 105 63
74 100 60
81 110 68
79 107 66
81 108 67
76 103 63
77 104 64
74 101 61
78 106 64
79 107 65
74 101 61
77 104 64
115 137 126
159 177 187
173 190 204
167 184 196
164 180 192
167 184 194
169 185 198
172 189 204
160 178 189
169 186 199
164 182 193
164 181 193
165 182 194
164 181 191
159 177 188
171 189 203
164 180 186
162 179 190
167 184 195
164 181 192
123 143 137
78 105 64
77 105 65
75 102 62
81 110 68
75 102 62
77 104 64
73 101 61
75 102 62
78 106 65
76 103 63
76 104 64
77 105 64
79 107 66
77 105 64
78 106 65
81 108 66
77 104 64
76 104 64
131 151 145
174 191 206
166 183 193
173 190 203
176 193 210
158 176 186
164 181 192
168 186 200
170 187 199
167 184 193
172 189 202
163 181 191
165 183 195
166 184 197
169 186 197
160 177 185
162 180 191
164 182 194
145 164 168
77 104 64
77 104 63
82 110 68
80 107 65
80 108 66
73 100 60
81 108 67
80 108 67
82 111 68
76 104 63
78 106 64
91 116 87
128 149 142
139 157 157
155 173 179
165 183 195
165 184 198
111 133 120
78 106 64
79 107 66
79 107 66
80 109 67
83 111 69
77 104 63
79 106 64
81 109 67
81 110 68
82 110 68
79 107 65
82 110 69
83 112 70
78 106 64
81 110 68
99 124 101
171 189 203
162 181 192
173 191 207
170 186 198
166 184 194
174 189 203
173 189 203
171 189 202
165 182 194
167 186 200
170 188 202
171 188 202
171 189 203
170 188 200
160 178 189
137 156 154
92 118 89
106 129 115
136 157 156
146 166 170
164 183 192
173 191 204
176 193 210
171 188 203
166 183 195
161 179 188
181 199 216
172 190 204
163 180 188
169 188 200
173 190 203
168 186 200
177 194 210
170 188 201
100 126 102
82 111 69
81 109 67
78 106 65
82 110 68
78 106 65
79 107 65
82 111 69
82 111 70
84 113 70
83 111 71
128 148 142
156 174 180
167 185 196
170 187 202
171 189 204
171 189 205
176 193 207
171 189 203
141 161 160
78 106 66
79 107 66
78 106 66
80 108 67
78 106 65
78 106 65
81 108 66
82 110 67
75 102 62
83 112 69
79 107 66
81 110 68
81 108 67
82 111 68
76 103 62
78 105 64
79 108 66
109 132 115
140 160 162
136 156 155
77 105 64
78 106 65
77 104 64
80 108 67
82 110 69
78 106 65
78 105 63
96 120 96
113 134 122
139 160 159
154 173 177
164 181 192
164 181 191
154 172 180
173 190 204
169 186 200
166 184 198
174 192 207
162 179 189
171 187 201
122 143 136
76 103 63
81 108 66
80 108 66
76 103 63
81 109 68
82 111 69
78 105 65
80 108 67
78 106 64
99 123 99
124 144 137
150 168 172
174 191 205
170 186 197
174 191 204
175 191 204
159 176 185
172 189 202
151 169 181
171 188 201
155 174 179
78 106 65
81 109 68
79 106 66
78 106 64
72 99 60
79 106 65
81 109 67
79 107 66
75 101 60
78 106 64
79 107 66
81 110 67
77 105 65
76 104 63
75 102 62
79 106 65
81 109 67
79 107 66
77 105 63
77 104 63
79 106 65
145 164 168
170 187 200
168 186 200
167 184 197
166 182 192
164 182 193
165 181 192
166 184 196
168 185 195
168 186 200
159 177 185
134 153 152
116 138 125
81 105 77
73 98 59
80 108 67
76 103 62
77 104 63
74 102 62
78 105 64
78 106 65
80 108 66
141 159 163
162 181 191
155 172 179
165 183 193
160 178 185
163 181 190
162 178 186
173 189 203
166 181 193
168 185 197
170 187 198
161 179 188
165 181 193
161 177 184
172 189 200
165 182 193
169 184 195
159 177 184
161 178 186
158 175 185
160 178 189
170 188 203
100 124 104
78 106 65
74 100 60
80 108 67
78 106 66
78 106 64
79 107 66
81 109 67
76 102 61
75 102 62
80 108 66
77 104 64
76 103 63
82 110 68
81 109 67
78 106 65
79 107 67
78 104 64
79 106 65
76 104 64
79 107 66
78 106 65
165 183 193
164 182 192
173 190 204
160 177 186
167 183 195
160 177 186
162 179 188
161 177 186
138 156 154
128 147 144
90 115 85
79 106 67
77 105 64
78 105 64
76 103 62
79 106 64
78 106 65
76 104 63
78 105 64
79 106 64
78 106 65
83 110 75
161 179 187
163 180 187
163 179 192
163 181 193
168 185 199
160 177 188
167 185 196
166 184 195
163 180 190
165 183 193
159 176 186
163 181 192
168 185 198
161 179 190
163 181 195
163 180 188
153 172 181
164 183 194
166 182 194
167 185 195
162 178 188
136 154 152
79 107 66
76 104 64
77 104 64
75 102 62
77 105 64
77 105 65
81 110 68
77 104 63
79 107 65
77 104 63
83 112 69
77 104 64
77 105 65
78 107 67
74 101 61
75 102 63
79 107 66
79 107 66
78 106 65
77 104 64
92 116 92
170 186 199
165 182 195
162 180 189
173 191 206
167 183 192
159 176 185
160 176 187
164 181 192
160 178 191
163 181 194
171 188 202
170 187 202
169 186 199
162 180 190
168 184 195
173 190 202
162 180 189
168 185 198
175 191 202
162 179 191
149 166 173
81 109 67
77 104 64
73 99 60
80 107 66
77 105 64
79 106 64
84 113 70
77 104 64
77 105 64
78 106 65
82 110 68
78 106 65
77 105 64
76 104 64
80 108 66
79 106 65
83 110 67
75 102 62
81 109 67
83 112 70
161 179 190
164 180 191
166 184 196
164 182 193
154 171 177
171 187 199
162 180 191
164 182 193
169 187 199
172 190 205
170 187 200
154 172 179
158 175 182
165 181 192
164 181 189
165 183 197
168 184 196
167 185 199
167 185 198
161 178 186
74 101 61
79 107 66
75 102 63
77 105 65
73 100 59
79 107 65
77 105 64
79 107 65
77 105 64
78 105 64
81 109 68
81 109 67
79 107 66
81 110 68
80 108 66
77 105 65
79 107 66
79 107 66
83 110 74
166 185 195
164 180 192
166 184 196
165 182 193
175 191 206
164 181 194
167 186 200
166 183 194
171 189 202
171 188 199
171 188 200
160 177 189
170 188 200
165 182 191
168 186 200
166 184 197
173 190 203
172 189 200
118 140 129
80 107 66
81 109 68
81 108 66
80 108 67
79 107 65
88 114 81
107 129 111
130 152 146
149 168 174
167 186 200
166 183 194
163 181 195
169 187 199
164 181 190
164 182 191
176 193 207
160 180 191
88 114 83
77 105 64
79 107 66
78 106 64
82 111 68
76 105 64
77 105 64
81 109 67
78 106 65
79 108 67
80 108 67
78 105 65
79 107 65
77 106 65
78 106 65
80 108 67
121 143 131
175 192 208
168 187 198
170 187 197
169 186 200
167 184 195
171 189 200
175 193 207
173 191 205
170 186 198
163 180 189
170 189 201
153 170 178
168 187 200
177 194 208
167 184 198
106 129 112
77 105 64
76 104 63
81 110 68
83 111 68
95 121 96
123 145 138
143 162 162
158 177 185
166 183 194
167 185 198
170 188 199
166 184 197
160 179 190
177 194 209
170 187 200
172 189 203
174 190 204
90 115 86
82 111 69
78 106 64
81 109 67
81 109 67
83 112 70
82 110 69
83 112 70
93 119 87
134 155 152
165 184 196
167 185 200
171 188 202
169 186 199
163 181 192
168 186 201
175 193 207
170 188 200
174 191 206
128 148 140
78 107 66
81 110 68
78 106 64
78 106 66
82 111 68
83 112 70
75 102 62
79 106 65
79 108 67
78 106 65
82 110 67
77 105 64
78 106 65
80 108 66
87 113 77
116 137 124
161 178 186
174 190 204
174 190 206
144 163 166
79 107 65
82 111 69
79 107 66
81 108 66
81 109 67
77 104 64
79 106 66
79 106 64
78 105 64
82 110 68
82 111 68
85 111 76
90 115 83
116 138 129
133 151 151
156 174 181
180 197 213
167 183 194
168 187 203
167 185 196
130 150 142
79 107 66
79 107 65
76 103 62
81 109 67
78 106 64
82 110 68
86 112 79
124 144 134
155 173 181
167 185 197
170 187 199
172 189 204
166 184 198
171 188 201
158 175 186
169 186 197
171 187 197
165 182 191
161 178 189
151 169 176
167 184 193
77 104 64
78 105 64
79 108 67
84 112 70
76 103 63
74 100 60
77 105 64
74 100 60
78 105 64
77 104 63
72 98 59
79 107 66
84 113 70
84 113 71
79 107 65
75 102 63
78 106 65
74 102 61
77 105 64
79 107 67
81 109 67
125 145 138
168 184 197
169 187 198
168 185 197
166 183 195
174 191 206
170 186 197
159 178 187
141 159 161
104 128 108
78 106 65
80 108 67
74 101 61
79 107 66
76 103 63
74 100 60
77 104 64
79 106 64
77 105 63
79 106 65
76 103 63
82 110 69
150 168 173
166 184 197
161 178 189
180 198 216
164 181 193
172 189 203
169 186 198
163 180 188
164 182 195
165 182 194
168 185 196
158 174 181
162 179 189
170 187 202
162 178 186
166 182 191
174 190 202
166 184 197
163 180 194
168 185 195
164 182 193
165 183 195
120 140 131
78 105 64
79 106 64
77 104 64
74 101 61
74 100 61
79 106 66
78 105 64
79 107 66
80 108 66
79 106 65
76 103 63
79 107 65
79 108 66
82 110 67
84 112 70
78 106 65
75 102 63
79 107 65
78 105 65
70 95 57
75 102 62
137 156 154
166 183 192
147 166 169
133 153 150
107 128 113
86 112 80
77 105 64
80 108 66
75 103 61
73 99 60
78 106 64
77 104 62
76 104 63
77 105 64
77 105 65
78 106 64
76 104 63
79 107 66
78 105 64
79 106 65
73 100 62
80 108 67
148 167 172
168 185 195
169 186 200
166 183 197
157 174 183
162 179 189
168 186 196
174 191 205
166 183 195
163 181 193
172 190 203
173 190 206
162 179 188
166 184 195
159 177 186
164 181 192
165 182 191
163 180 189
163 180 192
170 187 199
166 183 193
165 183 193
77 105 65
77 104 64
74 101 60
79 106 65
74 101 61
79 107 66
78 106 65
77 104 63
78 105 64
77 104 63
78 106 65
76 103 64
76 103 63
79 107 66
76 103 63
77 105 64
75 102 61
82 110 68
80 108 67
75 101 60
76 102 62
149 167 174
165 182 193
157 174 181
161 178 189
171 187 199
164 181 191
167 184 196
171 188 201
163 179 189
157 173 180
151 169 179
158 175 185
163 181 190
162 179 190
161 178 190
171 187 200
165 182 193
178 193 206
171 188 205
161 179 191
152 169 174
93 118 87
81 109 68
78 105 64
78 106 66
77 104 64
77 104 63
79 106 66
76 104 63
76 102 62
75 102 62
76 103 62
77 104 64
76 104 64
74 101 61
75 102 62
78 106 65
78 106 65
79 107 66
80 108 67
80 109 66
115 136 123
162 181 194
177 194 209
163 179 191
158 176 183
161 180 191
168 186 199
160 178 188
162 179 189
163 181 193
156 173 182
170 186 198
166 183 195
170 188 203
161 178 188
160 178 188
165 181 192
168 186 199
157 174 182
167 184 195
119 139 134
77 104 63
78 105 65
77 105 64
80 107 65
77 105 64
78 106 65
79 107 66
77 105 64
80 109 67
80 108 67
78 106 65
76 103 62
77 105 65
81 110 68
77 105 64
79 107 66
77 105 64
82 111 69
131 151 146
158 177 188
164 181 191
164 182 195
163 181 192
172 189 201
160 177 186
165 182 192
165 183 193
170 186 199
168 186 200
169 185 197
163 180 188
170 188 200
171 188 201
174 191 207
177 195 212
163 181 192
160 179 189
92 118 88
95 119 96
106 129 116
142 162 161
154 171 177
170 188 199
163 181 194
175 192 207
179 195 207
169 186 200
156 174 186
166 184 195
162 180 190
165 183 193
167 185 197
166 183 195
165 183 195
129 150 144
80 108 67
79 107 65
82 111 69
84 113 69
77 105 65
83 111 69
78 106 65
82 110 69
78 105 65
77 106 65
84 113 70
79 107 66
78 106 65
83 111 69
79 108 66
82 110 70
160 179 189
173 190 203
169 186 199
172 189 204
168 185 197
173 192 208
178 195 211
176 194 209
164 183 197
166 184 196
166 183 195
171 189 204
171 188 202
171 189 203
176 194 209
164 180 192
82 111 72
78 106 64
77 104 64
82 111 69
84 113 71
78 106 65
77 104 63
82 111 69
81 109 68
109 134 117
123 145 139
156 175 182
169 187 202
180 197 215
172 190 206
177 195 211
169 187 200
77 105 64
80 108 66
77 105 64
84 112 69
82 110 68
77 104 64
100 124 102
129 149 143
175 191 205
170 188 199
179 196 211
170 188 200
176 191 205
174 192 206
160 178 187
174 192 207
176 194 208
172 190 207
177 194 208
132 152 147
80 108 67
77 105 64
82 110 68
78 105 64
81 109 67
80 108 66
81 109 67
81 110 68
78 106 65
81 110 68
80 108 67
82 111 69
99 123 100
132 152 146
165 183 194
170 187 200
176 194 208
171 188 200
167 184 196
143 163 166
83 112 69
76 103 62
78 105 65
78 107 66
77 105 64
79 107 66
79 108 66
80 108 67
78 107 66
77 104 63
77 105 64
85 113 69
79 107 65
79 107 65
80 108 66
77 105 64
86 113 75
113 135 122
122 143 130
137 156 153
132 151 148
88 113 79
76 104 64
78 105 64
82 110 71
110 133 116
146 166 170
160 178 188
170 188 203
171 188 202
168 185 198
170 186 196
164 182 195
160 178 189
170 187 199
162 180 189
170 188 204
166 184 196
165 183 194
158 176 183
171 188 203
157 175 184
82 111 68
78 105 64
77 104 64
82 110 68
80 108 67
79 106 65
77 104 64
77 104 63
80 108 66
76 103 61
78 106 65
80 108 66
79 107 66
80 109 67
79 107 66
75 102 62
77 106 65
78 106 64
82 110 68
78 106 64
76 104 64
112 133 120
165 182 194
168 185 196
161 178 188
151 169 175
129 148 142
90 116 86
77 105 64
81 108 66
77 104 64
75 103 62
75 101 62
75 103 63
78 106 65
79 107 66
79 106 65
74 101 60
78 106 64
82 110 67
77 104 64
77 105 65
80 107 65
123 144 135
167 182 189
170 186 198
167 185 196
161 179 189
173 191 207
168 186 198
169 187 199
166 183 197
174 190 204
173 190 203
170 187 199
163 182 197
171 189 203
170 186 196
161 179 191
169 185 197
169 187 201
165 184 195
167 184 195
162 178 187
161 178 189
140 157 157
75 103 63
75 102 62
78 106 64
77 104 62
75 102 62
75 102 62
81 109 67
82 110 68
75 101 62
80 108 66
80 108 66
75 101 61
75 101 61
79 107 66
79 107 66
76 104 63
82 110 68
82 110 70
105 127 108
125 146 138
145 163 164
140 159 156
78 105 64
77 104 63
79 107 66
81 109 67
79 106 65
81 109 67
81 109 67
81 109 67
75 103 63
75 102 62
80 107 65
79 106 65
78 104 63
79 106 64
79 107 66
75 103 63
79 107 66
76 103 63
81 109 67
77 105 64
78 106 65
135 156 150
156 174 182
167 184 196
171 188 202
160 178 191
169 185 194
165 182 192
167 184 194
172 189 200
167 183 191
161 178 188
162 180 191
165 182 194
171 188 202
166 184 196
170 186 199
157 176 184
163 181 191
175 192 207
167 184 199
171 188 199
160 176 186
113 135 119
73 100 61
77 104 63
76 102 62
75 102 62
76 103 61
81 109 68
72 98 58
80 108 67
81 110 67
74 101 61
75 103 62
76 102 62
81 110 68
78 106 64
81 109 68
77 105 64
75 102 61
80 108 67
75 102 62
80 108 66
113 134 122
159 177 186
162 178 188
162 178 187
159 176 183
174 191 206
163 180 189
165 182 194
166 184 198
160 176 187
160 177 187
166 183 196
167 184 197
167 184 195
155 173 181
166 184 197
169 187 199
165 183 194
165 183 193
177 194 209
164 181 192
140 159 157
75 102 63
74 102 62
73 100 60
82 110 68
79 107 65
76 104 64
80 108 66
82 110 68
82 110 68
80 109 67
77 104 64
79 107 66
79 106 64
79 106 65
78 106 65
81 109 67
73 100 61
79 108 67
76 103 63
78 104 65
163 182 194
164 183 196
164 181 189
168 185 199
167 183 193
166 183 194
169 187 199
172 189 203
166 182 195
172 190 202
166 182 194
165 182 193
154 172 178
163 179 189
168 185 196
174 192 207
163 180 191
161 177 183
168 185 198
160 177 185
83 111 71
77 105 64
80 109 67
81 109 67
79 107 65
80 108 67
78 105 64
77 105 64
81 109 68
77 105 63
78 106 65
78 106 66
81 109 67
76 104 63
72 99 58
77 106 65
78 105 63
75 102 61
80 108 69
161 180 193
168 186 200
159 177 187
175 192 206
164 182 194
164 181 192
164 182 194
157 175 185
164 181 188
162 179 188
163 181 190
171 187 199
167 184 197
167 184 196
165 184 195
144 162 164
126 145 138
116 137 120
131 152 146
170 188 202
177 194 209
161 179 188
174 191 206
167 185 197
165 183 194
174 190 203
170 187 198
167 184 197
157 176 187
171 190 206
161 178 190
170 188 200
171 189 204
178 196 210
168 186 200
171 188 201
108 131 111
81 110 68
82 110 69
79 108 67
83 112 70
78 105 64
78 106 65
80 108 66
82 110 68
78 107 66
77 104 64
84 112 69
81 108 66
80 109 68
81 109 66
82 110 67
100 124 102
174 192 206
168 186 199
166 183 194
180 197 211
169 186 197
172 189 200
162 180 190
167 184 194
179 197 212
178 195 211
174 192 208
160 178 189
173 190 204
170 188 200
169 185 194
143 163 163
83 111 70
80 108 67
79 107 66
81 110 68
81 109 68
79 108 67
79 107 66
79 108 67
80 109 68
79 108 66
81 110 68
168 187 200
172 190 204
173 191 205
172 191 204
164 182 191
77 105 64
83 112 69
84 114 71
83 111 68
111 135 121
141 161 164
174 191 207
174 191 207
174 191 206
171 189 205
168 187 201
171 189 202
166 184 198
171 189 204
175 192 208
173 190 201
167 185 197
159 176 184
173 191 206
118 139 128
78 106 66
75 103 62
82 111 69
82 111 70
80 109 67
73 100 60
79 107 66
76 104 63
82 111 69
72 99 59
126 148 141
150 169 171
170 186 197
165 182 194
173 192 208
167 186 200
174 192 207
172 190 206
172 189 202
149 169 176
79 107 65
86 115 72
81 109 67
80 108 67
78 105 65
83 111 69
81 110 68
78 106 65
78 105 64
80 107 66
79 108 66
78 105 63
83 111 69
81 110 68
80 108 67
74 101 61
81 109 67
80 107 66
78 106 65
75 102 62
127 147 142
171 188 201
141 160 160
96 119 93
132 152 149
158 177 184
151 170 176
161 178 188
174 190 203
180 197 213
167 185 198
172 189 203
173 190 204
160 177 185
170 187 200
161 180 190
171 188 202
169 187 201
173 190 204
169 187 200
173 190 202
160 178 188
87 113 78
82 110 69
77 104 64
76 104 63
81 109 67
81 110 69
76 103 63
81 109 67
79 107 65
75 103 62
81 109 67
83 111 68
79 108 67
79 106 65
80 108 66
77 103 62
77 104 62
80 108 66
78 106 65
76 103 62
83 111 68
105 128 112
141 160 160
119 141 130
87 113 79
77 105 64
74 101 61
78 106 65
77 105 64
76 103 63
77 104 63
76 103 62
81 110 68
78 106 65
74 100 60
80 109 67
80 108 66
78 106 64
78 106 65
77 104 64
78 105 64
77 104 64
75 103 63
104 125 110
174 191 206
175 192 207
162 180 191
164 183 194
170 188 201
170 186 197
162 180 189
165 183 195
163 181 192
169 188 201
166 182 193
174 190 206
170 187 202
169 185 198
163 179 189
167 183 195
170 188 202
166 183 197
163 181 193
172 189 203
165 182 192
159 177 183
76 103 63
76 104 64
79 107 65
78 105 64
73 100 60
84 113 71
77 104 63
77 104 63
82 110 68
78 105 65
73 100 59
77 105 64
84 112 72
91 116 89
114 136 122
135 155 149
162 178 189
163 181 191
170 188 200
162 180 190
168 185 199
162 180 190
80 107 68
80 109 67
76 103 62
81 108 67
80 107 65
77 104 63
80 109 67
74 102 63
80 108 66
82 110 68
76 103 63
79 106 65
74 101 61
83 110 68
82 110 68
78 106 65
75 101 61
77 104 63
76 103 63
75 102 61
80 107 66
98 122 95
164 181 190
166 183 195
162 179 187
156 175 186
169 186 196
169 187 199
167 186 200
154 173 179
171 188 201
167 183 195
171 189 203
165 181 193
174 191 207
166 183 193
169 186 198
169 187 200
164 181 193
163 181 192
168 186 197
161 179 188
163 180 190
145 163 166
76 104 63
78 106 64
75 102 62
74 101 61
80 108 66
81 109 68
79 106 65
80 107 66
80 108 66
79 106 65
83 110 67
80 108 67
77 105 64
78 106 66
76 103 63
78 106 65
82 110 68
76 103 63
80 108 66
75 102 62
83 110 76
156 174 183
177 194 210
162 180 192
167 184 194
171 189 199
165 181 191
158 176 182
164 181 193
165 181 191
159 176 185
159 177 188
164 181 191
164 179 188
159 177 187
163 180 192
166 183 198
167 185 196
168 185 196
168 185 198
168 185 197
164 182 193
87 112 84
78 106 65
78 105 64
78 105 64
79 107 66
81 109 68
76 104 63
78 106 66
80 108 67
76 102 62
81 109 68
79 107 65
78 105 64
79 106 65
78 106 65
79 106 65
80 109 68
81 109 68
81 110 68
76 103 62
141 161 163
163 181 192
168 186 198
163 178 184
167 184 197
168 184 195
172 190 204
173 190 202
173 190 202
160 178 186
165 181 191
170 186 199
164 182 192
164 182 194
169 185 196
171 188 201
162 179 192
169 186 197
158 175 184
166 183 191
136 156 151
78 105 64
79 107 66
80 107 65
80 108 67
80 108 66
78 106 65
77 104 64
82 110 68
79 107 65
79 108 66
74 100 60
80 108 67
77 105 64
78 106 65
79 107 66
75 103 62
82 110 69
75 102 62
109 132 118
163 181 191
172 189 202
174 192 207
165 182 194
175 192 206
167 185 200
164 181 191
152 170 174
151 171 175
128 147 139
128 148 144
110 132 116
80 108 70
79 107 65
78 106 65
80 108 67
79 107 66
85 112 75
166 182 191
170 188 204
173 189 202
171 188 201
166 184 194
174 192 208
166 184 196
165 182 195
173 190 203
169 187 202
176 193 209
177 194 210
170 188 202
167 185 198
160 178 187
170 187 199
164 182 194
138 157 156
81 110 69
80 109 67
82 110 69
76 104 64
82 110 68
80 109 68
84 113 70
80 108 66
81 110 68
82 111 69
80 109 68
84 113 70
80 108 66
80 108 67
80 108 66
78 105 64
136 156 152
165 183 197
168 186 197
170 188 204
171 189 204
166 183 194
171 189 201
169 187 198
177 193 208
171 189 203
175 192 207
171 189 204
179 197 213
177 195 210
175 193 208
176 193 207
127 148 138
81 110 68
80 108 67
80 109 68
83 112 70
83 111 69
82 111 68
80 108 67
80 109 67
86 116 73
78 106 65
174 192 205
164 182 195
177 195 210
168 186 198
150 168 170
81 110 69
84 112 72
110 135 118
156 174 179
181 197 213
171 188 201
171 191 206
160 178 188
175 193 208
179 196 212
173 192 207
170 188 200
171 189 202
177 193 208
172 189 206
170 188 203
167 184 195
172 188 201
178 195 211
121 143 135
79 107 66
75 102 62
79 107 66
80 108 66
81 109 67
76 103 62
83 113 71
95 121 91
123 145 136
167 185 197
173 191 206
172 190 204
168 187 201
170 185 198
173 190 203
177 194 209
176 193 209
175 193 207
177 194 209
157 176 184
78 105 65
83 111 69
79 107 66
80 108 66
78 106 66
78 105 64
80 108 66
80 107 66
82 111 69
77 104 63
79 107 66
78 105 64
80 107 65
81 109 68
76 104 63
81 110 68
80 108 67
77 105 64
80 109 67
93 118 91
131 151 146
97 123 93
83 112 69
79 106 66
77 104 65
78 106 65
79 106 65
88 113 82
104 127 107
121 141 136
123 144 136
156 174 184
167 183 193
167 184 197
168 185 199
159 177 186
169 185 195
168 185 198
155 172 181
161 179 188
164 181 192
173 191 204
96 119 96
81 109 68
77 105 65
80 108 67
80 107 67
76 103 63
78 105 65
79 108 66
76 103 62
80 107 66
77 103 63
83 111 68
78 106 65
76 104 63
80 107 65
80 108 67
79 107 65
77 104 63
95 120 96
121 143 134
147 164 165
169 186 200
74 101 61
77 105 64
78 104 63
83 110 67
78 105 64
80 108 67
77 105 64
75 102 62
78 105 65
78 105 64
78 106 65
76 103 63
75 102 62
79 106 64
79 108 67
79 107 65
74 101 60
76 103 63
80 108 67
76 104 63
77 106 65
94 119 92
167 183 193
158 175 183
171 187 199
176 193 205
167 185 198
173 189 202
168 186 198
169 186 201
167 185 197
148 165 171
170 187 200
166 183 193
170 188 202
156 174 183
173 190 204
166 183 195
161 179 191
157 175 187
161 180 191
165 181 192
169 186 198
163 180 192
92 116 91
80 107 65
78 106 66
79 107 65
76 103 62
78 106 66
81 108 66
80 108 67
83 109 74
114 135 119
129 148 142
146 165 165
159 175 187
162 180 190
166 182 192
164 181 190
167 183 195
162 180 190
169 186 199
157 175 182
165 183 194
164 182 197
100 125 100
75 103 63
79 107 66
79 107 66
78 105 64
77 105 64
78 106 65
76 103 62
78 105 64
81 109 67
73 99 60
78 106 65
82 111 69
80 108 67
80 108 67
74 101 61
79 108 66
79 106 65
79 107 66
79 107 65
78 106 64
75 102 62
160 178 188
168 187 203
165 181 194
167 185 197
161 178 187
165 183 194
167 184 195
161 179 188
161 179 189
169 187 200
168 186 199
168 185 197
166 183 194
159 175 184
172 189 204
169 187 199
172 191 206
168 185 196
164 181 192
164 182 190
174 190 203
157 175 182
79 105 70
80 107 66
81 109 67
79 108 66
78 106 65
79 107 66
78 106 65
81 109 67
78 106 64
78 105 65
79 106 65
80 107 66
78 105 63
79 107 66
81 109 67
80 107 66
74 101 61
79 107 65
74 101 62
76 103 63
79 107 65
131 150 149
167 184 194
157 174 182
169 186 201
169 184 196
177 193 207
162 179 191
152 170 177
171 188 197
165 182 193
175 191 205
157 176 184
174 192 209
162 180 191
162 179 186
170 187 199
162 180 190
175 191 205
164 181 190
168 185 198
178 195 210
133 153 150
80 108 67
79 106 64
77 105 64
76 103 63
78 105 64
80 108 66
75 102 62
77 105 64
80 108 67
79 107 66
77 104 64
77 104 64
76 103 63
77 105 64
78 106 65
84 112 77
77 104 64
95 119 98
105 129 110
105 126 108
155 173 179
155 172 177
146 165 167
149 168 173
140 159 159
133 153 152
133 153 150
140 158 158
133 153 150
138 159 157
139 159 161
131 151 147
130 150 146
127 146 138
127 147 139
121 141 131
121 142 131
124 143 139
132 152 146
117 139 127
130 150 146
143 163 162
138 157 155
129 150 145
134 153 150
124 145 141
126 146 141
146 164 165
128 147 141
122 142 137
131 150 143
131 151 148
122 142 133
109 130 114
113 135 123
115 138 126
116 139 123
109 131 116
101 123 105
146 165 167
144 163 165
167 184 194
141 161 164
131 153 149
102 125 104
87 113 77
81 109 67
80 108 67
81 109 67
79 107 66
80 108 66
81 109 67
79 106 65
77 104 65
82 110 68
77 105 64
78 106 64
121 143 135
171 189 201
169 186 200
173 190 205
167 185 197
168 185 197
167 185 196
169 187 199
171 188 202
181 198 213
173 190 205
178 195 211
167 183 193
171 188 201
166 184 196
179 195 211
162 180 190
171 188 201
129 148 145
82 111 70
79 106 65
80 108 66
83 111 70
79 108 66
80 109 68
81 109 67
80 108 66
82 110 68
81 108 66
82 111 70
79 106 65
77 104 63
79 107 65
78 106 65
78 106 65
159 177 184
174 192 206
171 189 203
170 187 202
165 182 194
166 184 197
175 193 207
172 190 203
170 188 201
173 190 204
165 183 195
175 193 208
162 180 191
179 197 214
171 189 204
160 179 190
85 112 77
79 108 68
84 112 70
81 109 68
82 111 69
79 107 66
80 109 67
79 107 66
79 107 67
83 111 69
167 186 200
170 188 203
171 189 202
168 186 198
148 168 170
115 138 125
157 176 185
173 191 205
174 191 205
175 193 208
172 190 206
173 192 207
169 186 200
176 195 210
174 191 206
174 191 206
167 184 196
171 189 204
167 185 198
166 183 192
178 196 212
172 190 206
176 193 207
172 189 203
106 130 111
82 110 68
86 115 72
78 106 65
78 106 65
78 106 65
102 127 105
153 171 176
169 187 202
181 199 215
175 191 204
169 185 197
169 188 202
163 182 193
180 196 213
171 188 200
169 187 201
171 188 201
168 186 198
173 191 205
150 170 174
81 109 67
78 106 64
78 106 65
79 107 66
79 106 66
80 109 67
76 104 63
79 107 67
82 110 68
80 107 65
78 105 64
80 109 68
79 107 66
83 112 69
78 106 65
80 108 67
88 115 81
114 134 123
157 176 186
176 192 206
143 161 163
77 104 63
79 107 66
76 104 64
83 111 69
77 104 64
80 107 66
74 101 61
85 113 70
79 107 65
80 108 67
77 105 64
82 111 69
85 111 76
101 124 102
119 141 132
141 162 160
151 170 175
165 182 194
160 178 190
171 188 204
156 174 182
116 137 125
84 113 70
77 104 64
81 109 67
77 105 64
81 109 68
82 110 68
79 106 64
80 109 68
76 103 62
80 108 66
78 106 64
82 110 68
78 105 64
80 108 66
95 120 95
128 147 142
162 180 189
160 179 189
167 184 196
166 184 194
167 185 197
92 118 85
80 109 67
81 108 66
79 107 66
78 106 64
79 108 66
79 106 64
77 105 64
77 105 64
77 105 65
82 111 68
81 109 67
80 107 66
82 111 68
78 106 64
77 104 63
76 103 62
78 106 65
79 107 65
76 103 62
78 105 64
76 102 62
155 174 181
158 176 185
164 181 190
170 187 200
169 188 202
159 175 183
179 196 211
178 195 210
170 187 200
170 187 200
169 185 199
170 187 200
168 185 197
162 180 193
173 190 203
167 184 196
174 191 205
172 190 206
164 181 192
169 187 199
169 185 196
165 182 194
109 130 116
76 103 63
78 106 65
80 107 66
90 115 83
122 143 133
124 145 138
148 167 171
164 180 189
165 181 192
162 179 188
166 184 194
166 183 195
157 174 182
153 169 172
174 191 205
173 189 203
164 181 195
175 192 205
166 183 194
164 180 190
154 172 183
127 148 141
81 110 68
83 112 70
82 111 69
80 107 66
80 108 66
75 102 61
78 106 65
74 100 61
77 104 63
78 106 65
80 108 66
77 105 65
81 108 66
78 105 65
75 102 61
75 102 62
76 103 62
79 108 66
80 107 66
73 99 60
81 109 66
133 154 155
167 184 197
166 184 194
160 178 187
164 181 192
164 181 192
160 178 187
161 178 189
164 182 190
170 187 201
166 183 196
155 173 179
162 180 190
168 185 197
168 186 199
168 185 196
166 183 194
164 181 192
163 182 195
167 184 195
165 183 195
158 175 183
125 147 137
80 108 66
75 102 62
78 106 65
78 105 65
78 105 64
80 108 67
78 105 64
76 103 63
80 107 65
83 111 69
74 101 62
81 109 67
79 107 66
76 104 63
79 107 66
78 105 65
81 109 67
79 106 65
77 105 65
78 105 64
85 112 78
168 186 198
165 182 192
164 180 189
179 195 207
163 181 190
172 189 202
164 181 190
161 179 189
170 188 201
169 186 199
167 183 194
162 180 190
168 185 195
171 189 201
173 191 204
169 186 200
162 179 187
163 179 188
166 184 196
159 176 185
150 167 174
90 114 89
107 130 110
113 134 122
122 144 134
125 145 139
121 143 136
129 149 143
134 155 154
135 154 155
153 172 179
152 170 175
153 171 177
154 172 180
158 177 184
164 182 194
169 186 199
176 192 205
176 192 205
165 182 191
174 192 206
129 149 144
74 101 61
78 106 64
79 107 65
79 106 64
80 109 67
79 107 66
80 108 67
79 107 66
82 110 69
78 106 64
75 103 63
77 103 62
78 105 65
77 105 63
81 109 67
80 107 65
77 104 63
85 114 72
78 106 65
132 151 150
162 180 189
170 188 204
170 187 199
158 177 186
173 190 203
161 180 190
170 187 201
159 177 186
175 192 206
169 185 195
174 192 207
170 187 200
166 182 192
159 175 184
136 156 153
133 152 153
123 143 131
116 138 126
109 131 119
175 193 208
169 185 196
160 178 187
174 191 203
167 185 198
163 180 192
170 188 200
161 178 186
149 168 173
156 174 179
151 169 174
136 156 152
138 158 156
138 157 156
125 146 140
111 133 116
111 133 119
110 133 118
149 167 174
166 184 195
170 187 200
159 177 186
168 186 203
168 185 199
168 185 196
172 190 204
164 183 196
169 187 198
169 187 201
164 182 194
169 187 200
165 183 194
160 177 185
170 188 202
163 180 190
165 182 192
93 118 92
83 112 70
82 110 69
82 111 69
82 109 67
83 111 69
81 109 68
81 110 68
79 109 67
78 105 63
81 110 67
80 109 67
80 108 66
84 112 70
77 105 65
82 111 68
99 123 103
172 189 203
168 185 195
169 187 200
171 188 200
165 183 193
174 191 206
163 180 188
167 184 195
171 188 201
176 194 208
175 191 207
175 192 204
175 193 208
168 187 200
169 186 200
145 165 168
79 106 66
82 111 69
82 111 69
79 108 67
83 112 70
79 107 66
81 109 67
84 112 70
81 110 68
176 194 210
172 190 202
178 195 211
141 162 162
143 162 160
171 189 203
179 197 215
176 194 210
174 191 205
173 190 204
167 184 196
168 187 200
163 181 191
175 193 207
169 187 199
171 189 201
169 186 198
178 196 214
168 186 200
173 190 203
165 182 190
179 197 212
178 196 214
171 188 200
109 133 118
82 110 68
83 112 70
78 106 66
115 138 123
151 171 178
160 178 186
182 199 215
175 193 206
170 187 200
169 188 203
179 196 211
169 186 196
174 192 206
168 185 197
167 185 197
172 189 202
172 189 203
170 188 201
175 192 207
140 159 160
80 108 67
81 110 68
81 110 68
83 112 70
82 111 69
83 111 68
80 108 66
77 104 63
76 104 63
81 110 68
80 108 66
77 105 63
78 106 66
84 113 71
107 131 110
147 167 169
166 183 195
173 190 204
168 185 198
166 183 196
142 161 164
80 108 67
79 107 66
82 110 68
78 106 65
79 107 67
80 108 66
80 109 67
76 104 62
80 108 67
80 108 66
81 109 67
82 109 67
79 108 66
80 108 67
78 106 65
82 109 66
81 109 67
81 109 66
91 117 87
98 122 98
103 127 107
141 159 160
125 146 137
104 127 111
108 131 111
81 109 67
80 108 67
84 112 70
79 107 67
81 109 67
77 104 62
81 109 67
84 112 72
113 137 120
146 166 168
164 182 193
164 181 190
157 175 185
173 189 201
169 187 198
162 181 191
168 186 199
168 185 196
100 125 103
77 104 64
79 107 66
78 106 64
73 100 60
79 107 65
79 107 65
76 104 64
81 109 67
77 104 64
76 103 63
79 107 66
80 109 67
80 108 66
80 108 66
81 109 67
80 107 66
81 110 68
79 107 66
77 104 63
77 105 63
80 108 67
146 165 168
168 185 198
176 193 208
167 184 195
172 189 203
166 183 194
163 182 194
170 187 201
162 179 189
174 192 205
167 184 196
166 184 195
181 197 215
165 183 193
169 187 202
163 180 191
169 186 198
172 189 202
167 185 199
164 181 193
157 175 182
165 182 195
141 161 161
118 140 130
139 159 160
158 176 183
162 178 190
152 171 177
169 187 199
174 190 204
174 192 208
169 185 197
168 185 197
161 178 190
158 175 183
164 180 191
172 189 200
165 182 192
157 174 183
171 187 199
171 188 198
172 188 200
172 191 204
170 187 201
153 171 176
73 100 60
76 103 63
77 105 65
79 107 67
77 105 64
76 103 62
76 103 63
76 103 62
78 106 65
76 103 63
80 107 66
77 105 64
76 104 63
77 104 63
74 100 61
81 108 66
80 107 65
77 104 64
77 104 64
77 104 63
78 106 65
97 121 97
166 183 194
168 185 198
167 185 198
168 185 197
164 181 192
160 177 185
166 183 194
164 181 191
164 181 190
168 185 198
168 185 197
158 176 186
160 178 189
157 175 184
169 186 200
162 180 191
163 180 189
162 179 188
175 190 203
170 187 200
174 191 205
148 165 168
75 102 62
78 105 64
81 109 67
74 101 61
77 105 65
77 105 64
79 106 65
74 101 61
78 105 64
77 105 64
76 103 63
81 109 67
75 102 62
77 104 63
76 104 63
71 98 59
80 108 66
79 107 65
76 104 63
75 102 62
77 105 65
150 168 175
162 180 193
165 183 196
169 185 197
164 181 193
162 180 189
163 180 190
164 182 195
160 177 187
154 172 180
139 158 159
147 165 168
139 159 156
131 151 148
117 138 128
103 126 107
97 122 97
86 111 85
86 113 73
80 109 67
78 106 65
139 158 157
168 185 198
168 185 197
164 180 191
156 172 180
165 182 192
169 188 201
170 187 201
174 192 205
176 192 204
175 192 208
171 188 204
168 186 200
169 186 200
174 190 204
169 186 198
169 187 200
167 184 196
169 187 201
171 187 199
160 178 189
79 108 67
79 108 67
81 109 68
82 110 68
77 104 63
82 110 68
80 108 66
81 109 67
78 106 65
81 109 67
81 110 68
82 111 69
82 110 68
77 105 65
78 106 66
78 106 66
80 109 67
81 110 68
79 107 65
100 125 104
156 174 184
168 185 196
163 182 194
168 186 201
172 190 204
168 185 196
163 180 190
142 163 166
135 154 152
130 151 142
120 140 130
106 130 111
85 113 73
79 108 66
77 104 63
75 102 62
80 108 66
77 105 64
80 108 67
151 170 176
166 185 198
175 192 205
167 184 195
173 191 205
166 184 198
171 189 204
167 185 197
164 182 194
173 191 205
173 190 206
173 189 203
168 185 197
163 180 192
167 185 199
167 185 198
167 185 196
171 188 203
160 178 186
81 109 67
83 111 71
94 120 91
117 140 127
123 144 137
123 144 137
117 139 126
144 163 162
146 165 166
163 180 188
162 179 188
162 180 192
169 187 203
173 191 206
166 185 198
166 184 196
172 189 202
136 156 157
81 109 67
85 114 71
81 110 68
82 111 69
76 104 64
78 106 65
78 106 65
78 105 64
78 105 65
83 111 69
84 113 70
80 107 66
77 105 64
83 112 71
79 107 66
83 111 69
134 155 153
175 193 208
175 192 208
165 182 193
167 185 198
180 198 214
168 187 203
174 192 206
174 192 207
174 192 209
167 184 197
173 190 204
180 198 215
171 188 203
175 192 207
175 193 211
125 146 135
83 111 69
81 110 68
83 112 70
84 113 70
82 111 69
82 110 68
80 109 68
81 109 67
168 186 199
141 161 161
95 121 94
81 110 67
132 153 146
177 194 210
171 188 202
175 193 210
167 184 193
182 200 220
174 191 204
169 187 202
165 183 195
172 189 203
173 191 206
176 194 208
171 188 200
173 191 204
168 186 200
169 187 201
164 181 191
176 194 212
170 189 202
166 184 196
101 124 105
84 112 75
138 159 155
150 169 175
169 187 199
168 185 197
171 188 200
171 189 202
174 191 204
177 194 208
159 177 189
172 190 204
162 180 193
169 187 200
173 191 205
169 185 195
174 191 205
167 184 195
172 190 204
178 196 211
155 173 180
82 111 68
81 110 69
82 110 68
79 108 66
82 111 69
76 104 63
77 106 65
85 114 71
77 104 64
79 107 65
80 108 67
93 117 91
119 139 127
149 167 171
170 188 200
170 186 199
172 190 203
178 196 212
172 190 203
167 185 199
160 178 186
81 109 68
77 105 64
77 104 63
83 112 70
82 111 68
81 110 67
75 102 61
81 109 67
83 111 68
81 110 68
79 106 65
81 109 66
79 106 65
78 106 65
81 109 67
77 104 63
78 106 65
74 102 61
80 109 67
79 107 65
83 112 70
141 160 162
167 184 195
165 182 192
168 184 194
168 186 200
169 186 198
154 173 182
140 159 159
118 140 129
101 124 106
118 137 127
161 179 189
166 183 197
168 184 195
159 177 188
172 190 205
164 181 193
167 184 194
173 189 202
166 182 194
167 182 190
161 179 189
126 147 140
82 111 69
77 105 64
78 106 66
78 106 65
79 107 65
82 111 69
79 107 66
78 106 65
81 110 69
80 108 67
80 108 65
80 108 66
80 108 66
75 103 62
82 110 67
85 114 71
79 107 67
79 106 66
77 105 64
78 106 65
77 104 63
124 145 137
165 182 192
166 184 195
170 188 199
163 180 192
163 181 193
172 189 204
166 184 195
168 186 199
172 189 205
165 182 194
169 187 201
162 181 190
169 187 201
170 187 198
168 186 198
161 180 192
169 187 201
156 174 180
140 159 161
116 137 127
93 118 91
108 128 112
171 188 202
165 183 196
164 182 195
167 184 198
170 188 203
166 183 195
160 176 187
160 177 188
172 189 204
169 187 200
164 182 194
172 189 203
162 178 189
176 193 207
172 189 203
173 191 206
175 192 206
172 189 202
169 186 200
160 176 184
164 181 191
171 188 201
89 115 82
77 106 65
76 103 63
76 103 63
77 105 64
80 109 67
81 109 67
79 106 65
76 104 64
73 100 61
81 110 68
76 103 63
81 109 68
78 106 65
79 107 65
79 106 65
79 107 65
79 106 65
77 104 64
81 110 68
81 109 68
74 100 60
149 168 174
165 182 192
156 173 180
170 186 196
172 190 204
168 186 200
165 182 195
162 179 188
164 182 193
168 185 199
160 178 188
170 186 198
167 184 195
160 179 190
172 189 202
166 183 190
162 180 188
169 187 199
172 189 203
171 188 201
155 173 183
167 184 195
83 111 72
80 108 67
80 108 67
73 100 60
74 101 61
78 106 65
76 103 64
81 109 68
76 104 64
76 103 63
74 101 61
79 108 66
77 105 64
79 106 65
79 108 66
76 104 62
79 107 66
75 103 63
80 108 69
91 117 85
111 133 118
133 152 153
131 150 147
125 146 138
114 137 123
107 131 111
99 125 100
87 112 79
76 103 62
77 105 64
82 111 70
80 108 66
77 105 65
79 107 65
79 107 66
72 99 60
76 103 63
81 110 68
81 109 66
78 105 64
78 105 65
78 106 64
110 133 118
162 180 189
168 185 196
170 187 201
175 191 205
174 191 204
167 184 196
163 180 190
164 180 189
159 176 187
169 187 199
168 185 195
166 183 196
172 189 205
172 190 203
164 181 191
175 192 206
168 185 197
168 186 198
178 196 213
174 191 203
127 147 145
79 107 66
78 106 65
83 111 68
81 109 67
77 106 65
78 106 66
82 111 69
78 106 64
82 111 68
77 105 64
84 113 70
81 109 67
83 112 70
75 102 63
78 105 65
82 111 68
78 106 64
96 120 94
101 126 102
142 160 162
135 153 152
131 150 147
112 135 124
89 114 85
83 109 72
79 106 65
81 109 67
82 111 69
77 105 64
74 101 62
80 108 66
81 109 67
81 109 68
78 105 64
79 107 65
80 107 66
80 108 67
78 106 65
106 129 110
174 192 206
164 182 193
174 190 204
172 190 205
169 186 202
175 192 204
168 185 197
167 184 196
168 185 198
170 187 201
170 187 199
158 176 184
178 196 211
171 188 200
167 186 198
161 179 187
164 182 192
164 182 192
116 138 124
80 109 67
81 108 66
79 107 65
78 106 65
80 108 66
79 107 67
80 108 67
77 104 63
82 110 68
80 109 68
76 104 64
81 110 67
101 126 104
119 142 130
119 141 127
125 146 136
141 160 160
112 135 122
104 127 110
93 119 90
79 107 66
84 113 70
82 111 69
77 105 64
77 105 64
81 110 67
81 110 68
83 112 69
78 106 65
82 110 69
82 111 69
79 107 66
77 105 63
91 119 84
164 182 193
175 192 204
166 185 196
163 183 194
170 188 203
176 193 210
167 186 200
165 183 196
175 191 204
171 188 201
167 185 199
180 197 213
164 182 193
173 190 204
170 186 200
166 185 199
93 121 92
77 106 65
81 110 68
77 106 65
80 109 67
84 113 70
80 108 67
81 110 68
94 120 90
80 109 67
82 111 69
81 111 69
147 168 172
167 185 196
179 196 212
168 186 196
166 183 195
180 197 212
167 186 197
163 182 196
173 192 208
174 192 205
178 196 211
169 187 200
165 183 195
176 192 207
175 191 202
177 195 209
168 185 196
174 193 208
170 187 200
163 182 192
139 159 159
172 189 202
171 189 202
170 187 198
174 191 205
166 183 194
169 188 202
168 186 197
178 196 213
166 185 199
168 185 197
175 192 206
173 190 203
174 191 205
171 188 201
168 186 197
171 189 202
179 198 215
172 191 207
173 191 207
149 168 173
78 106 65
78 107 66
80 108 67
79 107 66
76 103 63
78 106 65
78 105 64
83 112 70
81 110 71
115 137 125
141 160 159
166 184 197
167 185 196
164 182 193
164 183 194
166 185 198
172 190 204
176 193 208
169 187 200
172 189 199
169 185 196
82 111 68
76 104 64
75 102 62
82 110 68
80 108 66
81 109 68
80 108 67
78 106 64
80 107 66
82 111 69
81 109 66
77 105 64
82 110 68
78 107 66
80 108 67
79 107 66
78 106 64
81 109 68
83 111 69
77 105 65
78 106 65
130 151 146
162 180 191
176 193 208
176 193 204
174 191 203
157 175 185
149 167 172
121 141 133
84 109 78
82 111 69
80 108 67
74 102 62
88 114 80
89 113 86
116 138 127
130 150 144
139 158 160
140 159 161
148 167 173
158 175 185
165 182 192
164 182 194
129 150 142
76 104 64
79 107 65
79 107 66
82 111 70
75 103 63
76 104 64
80 108 67
80 108 66
81 110 68
80 107 66
81 108 67
78 106 65
77 103 63
81 110 68
79 108 65
78 106 65
78 106 65
82 110 68
78 105 64
78 105 65
82 111 69
123 144 135
172 190 203
164 181 190
172 189 201
174 191 206
182 199 216
169 187 200
171 189 202
162 181 193
165 182 193
165 182 194
168 185 196
168 186 199
167 184 195
157 175 181
149 167 171
112 134 121
94 120 90
80 107 65
77 105 64
80 108 67
78 106 65
84 112 75
165 182 193
171 189 203
162 180 192
160 178 189
161 179 188
159 178 189
168 184 197
175 193 208
165 182 192
175 191 204
169 186 197
167 185 196
172 189 202
172 189 202
167 184 192
164 181 190
171 189 203
175 191 202
169 186 198
169 187 200
172 188 201
166 182 192
103 127 107
80 107 66
75 103 62
71 98 58
80 108 67
78 105 64
77 104 63
82 110 67
79 107 66
79 107 66
80 109 66
74 101 61
80 107 66
82 110 68
82 110 67
79 108 67
81 110 67
78 106 65
81 110 68
80 109 67
76 103 61
75 103 63
143 161 162
160 178 188
156 175 185
172 191 206
165 183 196
167 184 196
174 191 206
170 188 201
162 179 189
163 181 192
168 185 198
160 178 188
160 177 185
160 177 188
168 186 200
166 184 196
173 190 206
167 184 197
159 177 187
168 186 198
181 198 214
168 184 192
124 145 135
80 108 66
77 105 64
77 104 64
79 106 65
79 107 66
81 109 68
78 105 63
77 104 64
80 108 67
84 109 78
96 121 96
114 136 120
130 150 141
132 152 145
135 154 153
159 176 183
157 176 184
180 196 211
165 182 192
175 193 207
171 188 199
92 116 90
82 110 68
80 108 67
76 104 63
82 110 69
77 105 65
78 105 64
80 109 67
75 103 63
76 103 63
77 104 64
75 102 62
80 108 67
83 112 69
77 105 64
80 108 67
75 102 62
81 110 68
78 106 65
79 107 65
75 103 63
159 176 188
161 179 187
173 189 200
167 184 197
174 191 205
178 195 210
160 177 186
165 182 192
168 185 197
164 182 193
170 188 202
178 196 213
166 183 193
174 191 204
171 188 203
161 178 187
161 178 188
168 186 199
156 174 183
169 187 201
157 174 182
80 107 69
78 106 65
82 111 69
78 106 64
74 101 61
75 102 62
81 110 69
79 107 66
77 105 64
96 121 94
104 129 107
123 144 137
119 141 129
137 157 153
150 168 172
161 178 185
160 178 188
170 187 199
175 192 206
165 183 194
78 106 65
79 108 66
78 106 65
80 109 67
76 104 65
79 108 67
81 109 67
75 102 63
77 105 64
77 105 64
74 101 60
80 108 67
79 108 66
79 106 65
79 106 65
78 105 64
82 111 69
84 113 71
79 107 66
147 166 171
175 193 205
170 188 200
167 186 200
166 184 196
163 181 192
163 180 192
168 186 199
164 182 193
169 187 200
170 189 202
169 187 202
166 184 195
170 187 198
166 184 196
173 191 205
175 192 207
169 186 196
166 184 196
88 115 79
80 109 67
74 102 61
75 102 62
80 108 66
76 104 63
79 107 66
82 110 68
81 109 67
81 109 67
82 110 68
85 114 71
80 108 67
78 106 64
77 105 65
82 110 68
79 108 68
91 115 88
176 194 210
161 180 191
177 194 211
156 175 183
145 164 166
146 167 171
132 152 145
123 146 135
121 143 134
89 115 83
80 108 66
80 108 67
82 111 69
79 107 65
80 108 67
80 108 67
112 135 122
172 190 204
175 192 207
169 187 198
175 192 204
174 192 207
170 189 205
170 188 202
179 196 212
176 194 210
171 189 203
170 188 202
164 182 199
178 196 212
163 181 189
175 192 207
155 174 180
81 110 69
79 107 66
80 108 67
74 102 62
83 112 70
82 111 69
82 111 68
82 112 70
81 110 68
82 111 69
83 112 70
160 178 187
177 195 211
170 189 202
161 179 188
173 191 204
175 192 207
178 196 212
168 186 199
171 190 205
175 193 208
171 188 199
172 190 204
166 183 196
180 197 214
168 186 199
178 196 214
175 193 208
149 169 173
115 138 121
81 109 68
167 185 196
171 187 196
166 184 194
173 190 204
170 187 199
177 194 211
174 192 208
174 191 204
178 196 212
171 189 202
169 188 202
172 191 206
177 194 211
172 190 203
173 191 205
166 183 195
167 185 196
172 190 204
170 187 201
176 194 212
158 176 183
81 111 69
77 104 64
83 112 70
79 108 66
79 107 67
83 112 70
84 109 82
136 155 152
147 166 168
177 193 207
168 184 194
175 192 206
179 196 209
174 192 208
173 190 202
174 191 204
164 180 191
163 180 192
171 188 201
168 185 195
165 183 195
84 113 70
82 110 68
76 103 63
77 106 65
83 111 69
81 110 69
84 113 71
77 105 64
78 106 65
80 109 67
82 111 69
80 108 67
79 107 66
82 111 68
80 109 67
74 101 62
79 107 65
76 104 64
81 110 67
81 109 67
81 109 67
110 131 118
174 191 204
170 188 201
159 177 183
109 131 113
87 113 79
78 106 65
81 110 68
77 105 64
81 109 68
79 106 66
82 111 69
80 108 66
82 110 69
81 109 67
77 105 64
83 111 69
74 101 60
78 106 65
80 107 66
83 111 74
93 118 89
113 135 121
150 168 172
141 160 162
132 153 152
112 136 119
112 135 120
104 128 104
91 118 88
75 102 61
82 110 68
80 108 66
78 106 65
79 108 66
80 109 67
81 110 69
83 111 69
79 108 67
78 106 65
72 99 59
78 106 65
81 109 68
76 104 64
89 115 83
169 188 203
170 186 201
162 178 186
176 192 207
166 184 194
171 188 200
175 192 206
177 191 202
168 187 200
155 174 181
140 160 159
110 131 115
84 108 76
79 108 66
80 108 66
78 106 65
77 104 64
78 106 65
79 106 65
77 105 64
76 103 64
72 99 60
156 174 180
165 183 195
170 187 200
169 187 200
158 176 186
169 186 198
166 184 195
168 185 198
168 185 195
165 182 193
157 175 183
174 191 206
166 184 195
163 180 190
170 187 202
167 185 198
170 187 200
174 191 205
162 180 189
169 186 201
167 185 196
166 184 194
142 161 161
76 104 64
81 109 68
78 105 65
75 103 63
77 104 63
77 104 63
78 106 64
77 104 64
81 109 67
76 103 63
80 109 67
77 105 64
77 104 64
80 107 66
80 108 66
79 107 66
80 108 66
78 106 65
76 103 63
81 110 68
81 109 67
114 136 124
171 188 200
168 186 195
167 184 198
168 186 199
165 182 193
174 191 205
166 183 198
164 181 191
171 188 200
163 180 190
167 184 197
171 188 201
168 184 194
166 183 192
171 187 199
164 182 194
173 190 203
161 178 189
158 176 186
170 187 198
165 183 193
154 173 182
77 104 63
80 108 67
94 120 90
100 123 99
123 145 134
133 153 149
142 160 161
159 178 188
160 177 184
175 192 205
175 192 207
166 185 199
165 182 193
161 179 189
164 181 193
176 193 206
164 181 191
168 185 196
173 189 202
159 177 185
162 179 189
125 147 142
81 110 68
80 109 68
77 105 64
73 101 61
78 106 65
79 106 65
80 108 67
80 108 66
81 110 67
78 106 65
79 107 66
80 108 67
78 105 65
75 103 62
74 101 61
80 108 67
75 102 62
78 107 66
79 107 66
82 110 68
122 143 133
164 182 192
171 189 202
151 169 176
165 184 194
166 185 198
167 186 202
159 177 185
161 179 189
167 185 198
167 184 196
163 180 191
169 187 202
173 190 201
169 187 201
168 185 198
167 184 196
166 184 196
168 186 197
178 194 210
166 184 198
115 136 125
116 138 126
119 141 129
134 154 151
147 166 168
139 158 157
152 169 174
170 187 200
167 184 193
168 185 197
165 181 191
175 192 207
170 187 200
164 181 190
168 186 197
176 193 207
178 193 207
179 195 209
169 187 199
164 182 193
130 152 145
79 107 65
81 110 68
77 105 64
80 108 66
80 108 66
79 107 65
79 107 66
81 109 67
80 108 66
77 105 64
80 108 67
82 110 68
80 109 67
76 104 64
82 111 69
80 108 67
82 110 68
81 110 68
98 123 95
166 184 195
166 183 196
175 191 204
170 188 202
168 186 196
167 185 196
167 184 194
169 186 198
163 181 190
166 184 197
165 182 194
159 178 190
157 175 184
170 187 200
169 188 202
171 188 199
170 188 199
170 188 201
129 151 145
78 105 64
79 108 67
76 105 65
80 108 66
80 108 67
82 110 67
83 113 70
76 103 63
82 110 68
77 104 64
81 108 66
80 109 68
81 110 68
79 106 65
81 109 67
81 109 67
82 110 68
149 167 170
175 192 207
180 198 215
173 190 204
176 194 209
165 184 199
178 195 211
175 193 207
180 198 215
168 186 198
166 184 196
160 178 187
145 165 166
132 153 148
132 153 151
106 130 111
90 117 85
138 158 156
175 193 208
175 194 212
180 198 216
169 187 199
165 182 190
169 187 199
174 191 202
174 192 205
173 191 205
176 193 208
168 186 198
171 189 203
165 184 196
173 190 206
174 193 210
121 144 130
83 112 70
77 105 64
80 109 67
78 106 65
80 108 66
83 111 69
84 114 71
79 108 67
84 113 71
80 108 66
160 178 187
170 188 201
170 188 203
179 197 215
177 194 209
175 193 209
169 187 200
172 190 205
178 196 214
183 200 216
167 185 198
172 190 202
172 189 204
167 186 199
166 183 196
150 168 171
105 129 109
84 113 71
80 108 66
83 111 69
171 191 208
175 192 207
173 191 205
175 192 206
173 190 205
172 188 201
170 188 199
175 192 205
171 187 202
165 184 196
183 200 220
169 186 196
175 192 206
175 192 206
170 188 202
167 185 197
172 188 200
167 185 196
175 193 206
172 190 203
156 174 180
79 107 66
82 111 69
79 108 66
83 112 70
119 142 131
154 173 175
182 199 216
166 184 197
175 191 205
180 197 214
151 169 178
180 197 214
173 192 207
170 189 204
167 184 196
175 191 203
173 190 204
170 188 202
166 184 196
169 185 196
165 184 197
77 104 63
78 105 65
78 105 64
75 103 63
80 109 67
81 109 67
81 109 68
82 111 69
82 111 69
77 105 64
79 107 65
82 110 68
76 102 62
81 109 67
83 111 69
81 110 68
80 108 67
79 106 65
81 110 68
75 102 61
77 104 63
116 137 125
111 134 121
83 109 75
82 110 68
79 107 66
77 104 64
80 108 66
83 111 68
76 104 63
82 111 68
79 107 65
76 103 63
81 108 66
78 105 64
84 112 69
81 109 68
81 109 67
74 101 62
80 108 66
80 108 66
80 109 67
80 109 67
98 121 96
177 194 209
160 179 191
177 193 207
167 185 198
177 194 210
176 193 208
158 176 184
162 180 190
164 183 195
151 170 175
145 163 167
145 164 166
137 157 157
116 138 126
119 141 129
109 131 115
100 123 100
83 110 74
77 105 64
78 107 66
83 112 70
81 109 67
159 177 186
170 186 199
165 183 198
175 193 209
170 188 201
169 186 198
151 169 172
132 152 143
94 118 91
81 109 68
78 105 64
78 107 65
77 105 64
82 110 68
78 105 64
77 105 64
76 103 62
78 106 65
80 108 66
80 107 65
80 109 67
78 105 64
129 149 147
162 179 188
168 185 197
167 185 197
162 179 190
173 191 206
169 185 196
165 183 191
169 187 200
161 177 184
163 180 189
165 182 193
172 189 201
180 197 212
164 183 193
162 180 190
170 188 200
164 181 191
164 180 189
160 178 189
169 186 199
171 187 199
151 170 175
76 104 64
78 105 65
79 107 66
80 108 66
80 108 66
79 107 66
77 105 64
76 103 64
82 111 69
79 106 65
75 102 61
76 104 64
77 105 65
81 110 67
80 108 67
75 102 63
83 111 69
78 105 64
77 105 64
79 106 65
79 106 65
82 109 73
158 176 186
168 185 195
172 188 203
166 184 196
155 173 181
171 188 199
171 188 200
168 187 203
175 193 209
169 187 200
169 187 200
161 179 189
155 173 181
169 187 200
163 180 189
169 185 198
173 191 205
153 171 179
156 173 180
138 157 156
134 152 149
118 140 129
141 160 163
162 179 190
168 184 196
169 188 202
170 186 197
167 185 198
175 193 210
176 193 206
172 189 202
159 177 187
172 188 203
169 186 199
165 182 193
171 187 196
164 182 194
172 189 205
162 180 190
170 187 198
168 187 203
171 187 198
172 189 203
154 172 179
79 106 65
78 106 66
80 108 66
77 105 64
76 104 63
79 107 66
80 108 66
79 107 66
79 106 64
80 108 67
76 103 62
83 112 69
78 106 64
78 106 65
80 109 68
77 104 64
80 108 66
79 107 65
79 106 64
79 107 66
82 110 71
155 173 180
170 187 199
166 183 195
165 182 197
173 192 207
177 195 210
166 185 199
166 184 199
168 185 198
154 170 179
160 178 185
139 158 161
145 163 167
127 147 141
124 146 140
112 134 121
114 134 123
105 128 106
93 118 92
78 106 65
106 128 107
156 173 182
166 184 197
175 191 202
176 193 208
168 185 198
171 189 201
166 182 194
169 186 200
165 183 196
168 185 197
169 186 200
170 187 198
171 188 201
168 186 198
171 188 200
162 180 191
173 190 203
167 185 196
169 187 201
162 180 191
78 105 64
79 107 65
82 110 68
77 103 63
82 110 68
78 106 65
84 112 69
80 108 66
80 108 66
78 106 64
81 109 67
79 107 66
79 107 66
77 105 64
77 104 64
81 110 68
81 110 68
78 106 65
82 111 69
145 164 164
161 179 190
163 181 194
175 191 203
170 188 200
171 189 202
173 191 206
161 179 190
163 180 190
167 185 197
172 189 203
171 190 206
171 189 202
172 189 204
171 188 203
163 181 193
174 192 209
173 190 205
179 196 211
102 127 104
80 108 67
78 105 65
81 109 68
80 108 66
80 108 66
82 111 69
82 110 68
81 110 69
80 108 67
80 109 68
79 107 66
83 112 70
80 109 67
79 106 65
78 105 64
84 112 69
95 121 89
163 181 192
167 184 195
166 183 195
170 187 200
175 193 207
177 194 209
169 187 200
173 191 205
175 193 208
166 183 195
175 192 206
174 192 206
172 189 202
165 183 194
173 191 206
174 192 208
167 186 202
118 139 125
135 156 152
133 154 151
143 162 165
154 171 175
173 192 207
176 193 206
176 193 206
177 194 209
174 191 204
175 193 209
177 195 212
176 193 207
155 175 187
182 200 218
169 188 204
104 128 105
78 107 66
80 108 66
80 108 66
79 107 67
81 110 68
80 109 67
84 114 72
76 104 64
80 109 68
168 186 198
172 192 207
167 185 200
179 196 212
172 188 200
176 193 207
174 192 206
163 182 192
173 190 206
172 191 207
170 189 204
172 190 206
176 193 208
143 163 165
102 125 103
82 111 69
80 108 67
77 105 63
79 108 66
81 110 68
165 182 196
173 191 206
174 192 206
168 186 200
159 177 186
173 192 207
176 194 211
174 191 204
176 193 205
167 185 196
179 197 213
168 186 198
167 184 195
170 189 202
174 191 206
170 187 199
175 191 204
161 179 190
164 182 192
170 187 200
139 159 156
76 103 63
96 122 98
119 142 134
164 184 194
177 194 208
181 198 216
169 188 203
175 192 206
176 192 209
166 184 193
187 205 225
166 184 196
177 194 211
174 191 204
177 194 209
176 191 205
177 196 213
176 193 208
162 180 189
170 189 203
170 187 199
83 110 70
81 108 68
78 106 65
80 107 66
78 107 66
80 109 67
80 109 68
82 110 68
83 112 70
81 110 69
79 107 66
75 102 63
81 109 68
79 108 66
77 105 64
73 101 60
82 110 67
81 109 70
99 124 101
142 161 162
159 177 185
152 170 173
81 109 66
80 108 67
79 108 66
75 103 63
82 110 68
81 109 67
79 107 66
78 106 65
77 104 63
77 103 62
80 107 65
78 106 65
79 107 67
77 104 62
78 106 65
82 111 68
81 109 68
79 106 64
82 110 69
82 110 68
81 109 67
94 118 92
179 195 210
171 188 201
164 182 194
170 188 200
175 192 208
173 190 203
164 183 194
176 192 205
170 186 198
178 195 212
170 188 202
169 186 196
170 187 201
178 195 211
167 185 198
163 181 192
180 197 214
164 182 194
169 186 199
154 172 179
156 174 182
151 169 176
127 147 138
121 141 130
161 179 188
156 175 185
134 153 148
117 140 128
102 126 101
95 119 96
80 108 70
80 108 67
79 108 66
78 105 64
83 111 68
78 105 64
78 105 65
77 104 63
82 111 70
79 107 65
79 107 66
75 102 62
78 106 65
78 105 64
116 137 125
170 187 200
171 188 201
166 184 197
167 185 195
171 188 204
168 186 198
169 186 196
167 185 199
167 184 195
160 179 186
162 179 192
164 181 190
170 187 200
165 183 196
164 181 192
170 187 200
179 196 212
168 185 197
158 177 187
174 191 207
168 185 197
171 189 202
94 119 92
79 106 66
79 108 67
80 108 67
78 106 65
81 109 67
79 107 66
81 109 67
77 104 63
80 108 66
75 102 62
80 109 67
77 105 64
77 104 63
76 104 63
74 101 61
77 105 65
83 111 69
79 107 66
79 107 66
75 103 62
79 108 66
135 156 154
173 190 204
169 187 200
167 184 196
168 185 195
168 186 198
172 189 202
161 180 189
160 178 189
176 193 208
160 178 188
148 165 170
139 159 160
130 149 143
127 148 141
94 120 92
88 113 80
82 111 69
80 108 67
80 108 66
79 108 67
79 107 65
138 156 154
170 187 198
173 191 205
173 190 203
167 184 198
162 180 192
169 186 198
170 188 202
169 186 198
178 195 211
167 184 195
167 185 196
173 190 204
165 183 191
158 175 182
172 188 202
168 185 196
168 186 197
173 190 204
167 185 198
171 188 201
167 184 196
90 115 86
79 106 64
78 107 66
75 102 61
78 105 65
77 104 64
83 112 70
78 106 65
83 111 68
81 109 67
78 107 67
81 109 67
81 109 67
75 101 61
76 103 63
80 109 68
83 109 75
100 125 97
89 116 86
107 130 115
116 138 128
134 154 149
136 156 149
122 144 140
124 145 136
119 141 132
103 126 108
105 128 108
85 111 76
78 106 66
81 110 68
83 111 69
81 109 67
80 107 66
82 110 67
78 106 64
81 109 67
76 104 63
76 104 63
79 108 67
77 104 64
81 110 68
133 152 147
176 193 207
177 195 210
166 184 196
172 189 202
171 187 199
176 193 207
169 185 195
169 186 198
168 185 195
169 186 198
166 185 198
171 189 201
163 182 193
170 187 200
169 188 201
173 190 204
161 180 191
168 185 197
174 191 204
122 144 133
80 108 66
80 107 66
79 108 66
80 109 68
75 102 62
80 109 68
76 104 64
82 111 69
79 107 65
80 108 66
83 112 69
80 108 67
78 106 65
76 103 63
83 112 70
81 110 68
81 110 68
79 108 66
93 117 88
173 191 206
176 194 209
162 181 193
173 190 202
161 177 185
165 183 194
167 183 194
172 191 207
179 195 210
168 186 200
172 189 203
174 191 206
176 193 209
178 196 211
175 191 203
174 190 203
165 182 191
169 186 201
140 160 159
82 111 68
81 110 68
77 105 64
79 107 66
80 108 66
79 106 65
83 112 70
81 111 69
80 108 66
77 104 63
81 110 68
80 108 66
82 112 70
79 107 66
82 111 68
83 112 70
82 110 69
121 144 134
173 190 203
168 185 196
179 197 213
172 190 202
176 194 207
165 183 193
166 184 198
170 187 201
164 181 192
179 196 211
167 186 200
173 190 204
171 188 202
170 190 204
171 189 203
171 189 202
129 150 142
83 112 70
81 110 68
80 108 66
78 107 66
88 114 80
105 130 112
122 143 134
140 159 159
160 179 187
169 187 196
174 191 206
174 193 209
182 200 217
174 191 206
172 191 206
148 168 172
87 116 73
80 108 67
80 108 66
80 109 67
85 114 71
80 109 67
81 109 68
79 107 66
85 113 78
179 197 215
176 194 209
179 197 215
170 188 201
171 189 202
172 191 207
174 190 204
174 192 207
174 190 204
168 187 197
166 184 195
128 149 141
86 114 75
83 111 68
83 112 70
82 110 68
83 112 69
82 111 68
83 112 69
86 114 76
175 191 204
165 183 197
176 194 211
171 189 204
176 194 209
169 188 203
177 195 212
176 194 211
161 178 189
174 193 207
175 194 209
171 189 204
176 193 206
172 190 204
171 188 202
176 193 211
164 181 190
180 197 212
175 192 208
178 196 212
146 165 168
144 164 168
166 183 194
173 190 203
172 190 205
177 194 211
173 189 202
168 185 197
171 188 203
163 180 191
163 180 192
169 187 200
166 185 200
178 195 210
171 187 200
172 189 204
172 192 207
181 197 212
167 184 196
176 194 209
172 190 202
181 197 212
95 121 93
79 107 66
78 106 66
79 107 66
78 106 65
79 107 66
79 107 65
81 110 68
83 111 69
82 111 69
78 106 65
73 100 60
80 108 67
78 107 66
78 106 66
100 124 100
132 152 146
153 172 178
166 185 200
175 192 208
170 187 199
163 181 190
79 107 65
80 109 68
80 109 68
78 106 65
79 107 66
80 108 67
83 112 69
77 105 64
80 108 67
81 109 67
81 109 68
80 108 66
79 107 65
77 106 65
79 107 66
79 107 66
81 109 68
83 112 69
85 114 71
76 103 63
80 107 66
77 105 64
170 187 202
171 188 200
166 184 196
169 186 200
170 187 200
175 191 205
158 176 185
174 191 206
169 186 199
174 191 206
159 178 189
173 190 206
171 189 205
164 182 192
168 186 198
163 182 195
181 197 215
172 189 200
157 175 185
163 181 191
165 183 197
135 155 155
139 158 157
167 184 196
172 189 203
171 188 203
167 184 197
168 185 197
171 188 202
173 190 204
161 178 186
159 177 187
160 178 187
151 171 178
151 168 172
156 174 180
141 160 161
141 159 161
139 160 159
137 156 155
128 148 142
124 145 136
127 148 138
115 136 123
120 141 133
151 169 178
161 178 186
155 173 180
162 180 190
155 173 183
158 176 185
165 183 193
168 185 198
166 184 197
164 182 192
168 186 199
169 186 200
169 186 197
166 184 196
158 176 186
164 181 189
164 182 192
169 186 197
159 176 187
169 186 199
169 186 199
154 171 176
125 145 140
78 106 64
77 105 65
77 104 64
76 104 63
80 108 67
80 108 67
80 108 66
83 111 69
81 109 68
78 106 66
81 109 68
80 109 68
78 106 65
80 107 65
75 102 61
78 105 65
75 102 62
77 105 65
76 103 62
82 110 68
78 106 64
114 136 125
167 184 197
170 187 200
163 181 193
161 180 192
157 176 182
151 168 173
137 157 155
110 132 119
91 116 87
84 111 74
77 105 65
80 109 68
79 108 67
83 111 69
79 107 66
82 110 67
80 109 67
79 106 65
78 106 66
80 108 66
77 105 64
106 128 110
164 182 190
173 190 204
173 190 203
167 185 197
165 184 197
168 185 196
176 193 207
169 186 198
171 189 204
157 175 186
165 182 193
168 185 197
163 181 192
162 180 192
163 179 188
175 192 206
172 190 203
159 176 185
173 190 202
162 179 189
153 171 179
132 152 147
98 122 101
110 131 111
125 147 138
110 131 115
122 143 133
119 141 130
123 143 138
132 150 148
139 159 162
154 172 178
154 172 177
149 169 174
155 172 177
156 174 181
157 175 181
164 182 195
174 193 206
171 187 198
169 187 200
170 187 199
160 178 189
78 106 65
79 107 66
76 103 63
79 106 65
85 113 70
80 109 67
79 108 67
82 111 69
79 107 65
74 101 61
79 107 66
78 105 64
77 105 65
79 107 66
75 102 63
79 107 65
76 104 64
83 111 68
80 108 67
85 114 71
119 141 128
159 177 189
163 181 190
168 185 197
167 186 201
157 175 182
167 184 197
167 185 195
168 186 199
168 186 200
169 186 199
165 183 194
173 191 204
168 185 200
165 183 194
173 190 201
173 191 206
172 189 203
169 186 200
169 186 200
165 183 193
78 105 66
79 108 66
81 109 67
79 106 65
80 108 67
78 106 65
81 110 68
81 109 67
84 112 69
81 109 66
81 110 68
80 108 66
77 105 65
79 108 66
81 110 68
80 108 66
75 102 61
78 106 65
79 107 65
143 162 162
169 188 202
169 187 200
166 185 199
173 190 203
168 186 202
176 194 210
180 197 212
176 193 207
168 186 197
168 186 199
161 180 192
161 179 189
174 192 209
173 191 204
168 185 198
175 191 204
167 185 198
170 188 201
95 120 93
85 113 70
81 110 69
82 110 68
79 107 65
82 111 69
80 108 67
77 105 63
81 109 68
81 110 68
82 111 69
78 106 66
81 109 67
80 108 66
83 111 69
82 111 69
82 111 69
85 113 75
161 179 189
177 193 208
170 189 203
176 194 209
174 192 207
178 194 209
170 187 198
180 197 213
169 187 200
169 187 199
169 188 203
171 189 203
176 194 207
179 196 211
176 193 207
168 187 201
178 196 213
116 137 122
83 113 70
81 110 68
79 107 67
83 112 70
76 105 63
81 110 68
81 109 67
85 114 71
78 106 66
86 113 75
110 133 112
126 148 140
135 156 151
161 179 187
168 186 196
132 153 150
81 108 66
82 110 69
82 111 69
81 110 68
85 114 71
80 109 68
82 111 69
102 127 104
166 185 199
170 188 205
174 192 208
165 182 192
171 190 206
179 197 214
167 186 200
186 203 220
170 187 198
119 142 128
81 109 68
84 112 70
77 105 65
79 107 65
80 109 67
79 108 66
83 112 69
78 106 66
80 108 67
87 114 78
169 188 202
173 192 206
178 195 210
163 180 189
174 191 204
172 190 202
176 194 209
175 192 207
174 192 207
169 186 199
172 189 202
176 194 209
172 190 205
173 191 201
173 191 207
172 190 204
177 195 212
169 186 196
148 168 170
96 123 96
94 119 92
171 189 201
169 186 197
163 181 191
167 186 199
176 193 206
165 184 196
170 186 196
176 193 208
175 193 207
173 190 204
170 188 202
171 189 203
171 189 201
166 185 198
180 197 214
176 193 207
162 180 192
167 184 196
165 183 195
165 182 193
173 190 204
98 124 97
78 106 64
74 101 60
86 116 72
83 112 69
83 112 69
79 107 65
83 113 70
84 112 70
80 109 68
82 110 69
79 108 66
100 124 97
121 143 132
169 186 196
172 191 207
173 192 205
167 184 198
164 181 191
171 188 200
172 187 198
174 191 204
87 115 77
78 105 64
81 110 68
78 106 65
81 110 68
79 107 65
81 110 67
83 112 70
81 109 67
79 106 65
80 107 66
80 108 67
78 105 65
80 108 66
82 111 69
80 108 66
80 109 67
84 114 71
82 109 67
79 107 66
79 108 66
83 111 69
151 169 174
179 195 208
169 187 201
164 183 195
171 188 202
168 185 199
170 189 204
166 184 197
167 185 197
165 182 194
166 185 198
165 183 195
169 187 201
172 189 201
167 184 195
174 191 204
168 186 199
145 165 166
105 128 108
95 120 95
80 108 66
79 107 65
127 149 141
171 187 200
172 188 200
164 182 195
162 179 187
162 180 188
171 187 198
172 188 200
169 185 200
166 183 194
169 186 198
170 187 201
172 190 206
170 188 201
166 183 194
175 193 208
163 180 191
168 186 198
171 188 202
170 186 198
169 187 200
168 185 197
171 188 198
93 118 92
78 105 65
74 102 62
83 112 69
82 110 70
89 116 84
97 124 94
98 123 96
106 129 112
113 135 118
112 134 118
107 130 109
118 138 127
107 130 116
126 146 140
129 151 147
131 150 150
142 160 158
132 153 147
129 149 143
138 157 154
139 159 156
123 143 135
116 138 125
115 137 123
115 136 121
114 136 121
107 131 112
101 126 102
109 134 119
102 125 106
105 129 109
110 132 115
104 128 109
91 116 89
99 124 98
95 119 94
94 119 92
97 121 95
91 116 87
92 117 89
92 117 90
89 114 77
91 116 84
116 138 125
119 138 128
125 146 138
98 120 99
94 118 95
91 116 86
95 120 95
93 119 86
88 113 82
98 122 96
103 128 108
93 117 90
98 122 101
93 118 91
110 133 113
102 126 106
107 130 107
103 127 102
112 135 118
113 135 120
110 133 116
110 134 115
125 145 134
141 160 160
139 159 158
135 156 155
139 159 154
127 147 140
128 150 141
125 144 138
117 140 126
119 139 132
119 140 129
121 141 133
113 136 123
108 131 115
102 125 105
95 120 95
89 115 83
89 114 84
85 112 77
80 107 69
77 105 64
79 107 66
95 121 94
170 187 200
166 184 197
177 195 210
162 180 189
175 192 206
172 189 203
159 177 185
172 189 203
167 184 196
164 182 194
176 194 210
168 186 200
173 191 208
171 189 203
163 182 195
171 187 197
171 188 201
165 182 192
175 192 208
171 188 201
173 192 206
102 126 106
79 108 67
80 108 66
81 109 67
77 105 64
79 107 66
80 108 67
79 106 65
78 105 64
80 108 67
78 106 65
79 107 65
80 108 67
77 104 62
77 104 63
79 107 66
82 110 68
80 109 67
81 109 67
76 103 63
80 108 66
166 184 195
167 186 201
168 186 198
169 185 196
172 190 204
160 179 187
176 192 206
163 179 189
175 192 205
167 185 197
170 187 200
166 184 194
175 192 206
165 182 193
170 187 200
168 186 199
171 189 202
172 189 204
169 187 202
163 180 192
118 139 129
80 108 67
79 107 66
79 107 66
79 108 66
80 109 67
79 107 66
77 104 64
82 110 68
83 111 69
75 102 62
80 108 67
77 105 65
80 108 66
81 110 68
80 108 67
79 108 67
82 110 68
82 111 68
94 121 90
164 181 189
171 188 201
171 188 202
161 179 189
179 196 213
166 184 198
167 184 195
174 192 207
166 182 193
172 191 208
176 193 207
175 192 205
173 190 205
180 197 211
168 185 196
175 192 208
166 184 195
167 185 197
159 177 185
82 111 69
79 107 66
85 114 71
82 110 68
79 108 66
80 107 65
81 110 68
82 110 68
79 108 67
78 106 65
81 109 67
79 107 66
84 113 71
78 107 66
81 110 69
82 111 69
77 105 64
111 134 117
171 189 204
166 184 196
169 187 201
173 191 208
172 190 204
172 189 203
171 189 203
165 184 195
174 193 209
176 193 207
163 181 192
173 192 208
174 192 206
170 188 201
166 185 199
168 185 198
163 181 190
84 111 75
83 111 69
82 112 70
79 107 66
82 110 68
82 111 69
84 114 71
81 109 67
84 114 71
81 109 68
81 110 69
79 108 67
81 109 67
82 111 69
82 111 69
98 124 99
131 152 144
121 145 136
99 125 100
88 116 80
82 112 70
83 112 69
83 113 70
105 130 110
169 187 200
170 188 200
169 187 203
178 195 212
172 192 206
177 194 212
158 177 184
117 140 126
76 104 65
82 111 70
80 109 67
79 107 66
82 111 69
77 104 64
80 109 68
80 108 66
80 109 67
82 111 68
82 111 69
101 126 103
177 194 208
173 191 206
170 188 201
174 191 206
173 190 203
168 186 199
170 187 199
171 189 205
172 190 205
169 187 199
170 188 202
175 192 205
174 192 208
172 190 202
172 189 201
160 177 185
133 153 148
91 118 83
84 113 71
83 112 71
111 133 118
171 188 201
165 182 190
177 194 210
169 186 199
171 190 206
169 187 203
174 191 204
170 186 198
169 187 203
161 180 189
174 191 206
178 195 209
171 190 206
176 191 205
172 191 206
171 189 205
174 190 204
175 193 209
173 190 203
170 187 198
172 190 202
111 134 119
80 109 67
79 107 67
79 107 65
82 111 69
79 108 66
80 108 67
78 106 65
78 106 65
85 112 74
125 147 140
157 176 185
173 190 202
169 186 199
175 193 206
170 188 201
167 186 199
171 189 202
176 192 204
175 193 207
176 194 211
169 187 198
84 109 77
78 105 64
81 109 67
78 106 65
79 107 66
83 112 69
80 108 67
84 113 70
79 106 66
82 110 68
80 108 67
79 107 66
77 105 65
78 105 64
82 110 68
74 100 60
78 106 66
77 104 64
81 109 68
78 106 65
81 110 69
77 105 63
155 173 179
166 183 200
166 183 195
174 192 208
171 188 202
169 185 198
180 197 210
173 192 208
175 192 207
167 186 199
170 187 202
178 195 210
166 183 193
156 175 181
140 160 159
91 119 89
78 104 65
81 109 67
83 111 68
78 107 65
80 108 66
77 104 63
116 138 122
173 191 205
168 185 199
171 189 204
170 187 201
172 190 203
164 182 194
173 190 203
165 182 195
167 184 196
168 184 199
169 187 200
169 187 201
168 187 200
167 185 198
174 191 203
165 182 192
166 184 197
172 189 202
169 188 201
172 190 204
162 180 191
165 182 196
128 149 142
83 112 70
80 108 65
80 108 68
78 106 65
81 109 68
81 110 69
76 105 64
78 105 64
77 105 65
80 108 66
80 108 67
82 111 69
77 104 64
80 108 66
80 108 67
80 108 67
79 107 66
76 104 63
77 105 64
78 105 65
78 106 65
92 118 88
173 191 208
179 197 213
178 195 211
168 185 195
165 183 196
171 188 200
169 187 200
166 183 193
175 192 205
160 178 188
164 181 193
171 188 202
165 182 194
164 181 194
164 181 191
149 168 174
149 169 170
121 142 133
98 120 98
85 113 75
80 108 66
75 102 63
148 166 169
174 191 205
177 193 207
163 182 193
165 184 195
159 177 188
174 190 205
174 191 203
160 177 187
174 191 205
174 192 208
175 193 208
170 188 201
170 187 201
176 194 209
177 193 206
167 185 196
169 186 197
171 189 203
171 188 200
167 186 199
170 187 199
127 148 144
77 105 63
83 111 69
76 104 64
79 108 66
82 110 67
76 102 61
80 108 65
79 108 67
78 105 64
79 107 66
83 113 70
82 110 68
81 109 68
78 107 66
83 111 69
82 111 69
81 110 67
77 104 64
76 104 63
79 107 66
82 110 68
142 162 162
170 188 199
172 189 204
157 175 184
176 193 209
169 187 199
160 179 190
168 186 198
166 183 194
170 188 201
169 186 197
170 187 201
166 184 196
168 186 202
166 184 195
174 192 207
168 186 202
174 191 205
176 193 209
171 188 201
160 177 186
147 166 169
80 107 66
82 111 68
78 106 66
81 109 67
81 109 66
85 115 72
75 103 63
79 107 66
79 107 65
80 108 66
82 111 68
82 111 69
79 106 65
80 108 66
76 102 61
76 103 61
80 110 68
81 109 67
80 108 66
80 108 67
120 143 132
171 188 201
164 182 197
171 188 200
175 193 209
164 181 191
162 178 187
178 196 213
170 186 198
167 185 199
171 188 202
168 186 200
159 177 186
170 189 204
179 196 213
170 187 199
165 183 193
176 194 210
173 191 205
162 181 193
164 181 190
81 109 70
81 109 67
80 108 67
80 108 67
79 106 65
77 105 64
75 102 62
80 109 68
82 111 69
83 112 70
78 106 65
81 110 68
85 113 69
82 111 69
85 113 70
81 109 68
82 111 69
82 111 69
83 112 69
142 162 164
172 189 202
167 184 196
170 189 203
179 196 211
175 192 206
174 192 209
170 186 197
162 180 187
166 183 195
164 182 194
171 189 203
164 182 193
172 191 206
169 187 200
168 186 200
166 183 195
162 181 191
168 186 200
120 143 133
81 110 69
80 109 67
82 111 70
82 111 68
80 108 66
81 110 68
84 112 69
82 110 67
79 107 66
81 109 68
79 107 65
81 109 68
81 110 68
78 106 65
80 107 66
76 104 63
85 114 71
152 170 177
175 192 204
181 198 214
171 188 204
172 189 203
173 191 206
165 183 191
169 186 198
171 188 201
175 193 209
170 188 200
168 186 198
179 196 211
173 190 205
165 183 195
171 190 204
176 195 211
134 155 151
81 110 69
81 109 68
82 110 68
83 112 70
81 110 69
81 110 69
81 109 67
81 110 68
80 108 67
82 110 69
78 107 66
86 116 73
82 111 69
80 109 68
83 114 71
119 142 131
178 195 211
166 185 198
171 191 204
85 114 70
85 115 73
79 108 67
124 146 136
172 190 207
176 193 207
171 187 199
178 194 206
143 164 163
113 135 122
83 111 71
82 111 69
79 107 66
83 111 69
81 109 68
77 105 65
85 113 70
82 111 69
83 112 70
82 110 69
80 109 67
79 108 68
78 106 65
98 125 98
166 184 195
175 192 207
171 189 202
165 182 191
175 193 211
171 189 201
172 191 206
174 191 206
173 190 203
171 189 203
172 190 204
165 183 195
171 188 201
143 162 162
106 132 114
82 111 70
82 110 68
79 107 66
82 112 70
78 107 66
107 132 113
179 196 211
171 189 201
172 189 203
178 195 210
163 181 191
174 192 207
180 197 214
170 187 201
175 193 208
173 192 206
174 193 209
167 184 196
168 186 197
174 190 204
166 184 198
166 183 195
167 186 200
165 182 194
178 196 212
171 190 205
172 190 205
111 134 117
80 109 68
79 107 66
84 113 70
79 107 66
76 104 64
78 105 66
109 132 121
144 163 166
157 175 186
166 184 198
168 186 198
174 192 208
171 188 199
170 189 204
178 195 208
170 187 202
176 193 207
178 195 209
172 189 203
172 189 202
167 184 198
108 132 110
79 108 66
81 109 68
83 112 69
80 109 68
78 106 65
82 111 68
81 109 68
79 107 66
85 113 71
79 107 67
78 106 65
80 108 67
82 111 70
83 112 70
78 106 65
80 108 67
83 112 70
78 107 66
84 113 71
78 106 66
83 113 71
137 156 152
164 182 194
170 188 198
170 187 199
172 190 203
175 192 208
169 186 199
172 189 204
172 190 201
169 186 198
154 173 178
125 146 139
104 129 108
83 111 69
80 108 67
78 106 64
75 101 61
81 109 67
78 106 65
81 110 69
80 108 67
78 106 65
86 113 77
175 191 205
170 188 204
174 193 209
170 188 203
168 185 199
175 193 208
170 187 200
175 191 206
170 188 200
173 191 204
165 183 194
177 194 208
180 198 219
176 193 208
169 187 199
166 183 195
169 186 201
178 194 207
170 187 199
165 183 193
172 190 206
175 193 209
133 152 152
85 114 71
79 107 66
83 112 70
78 105 65
81 109 68
75 102 62
75 102 61
77 105 64
80 108 66
78 106 65
81 108 66
79 107 66
77 106 65
79 107 67
79 107 66
80 108 67
79 107 67
78 106 64
79 107 65
76 103 63
81 108 66
79 106 65
157 176 184
169 187 199
173 189 203
162 179 190
176 193 207
167 184 195
160 179 188
163 182 194
170 187 200
170 187 201
146 166 169
143 163 165
113 133 122
96 123 93
78 105 65
77 105 65
81 109 67
81 110 69
80 108 66
83 111 69
78 105 64
78 105 65
120 142 128
168 185 198
158 176 186
174 192 208
174 192 206
163 181 191
177 193 207
166 184 199
181 197 214
173 191 209
163 181 191
172 190 204
173 191 206
164 182 192
167 185 198
167 185 197
177 194 207
178 195 210
168 186 200
176 193 208
167 185 198
166 184 195
155 173 182
78 106 65
82 111 69
76 104 63
78 105 65
77 104 63
83 111 69
77 105 65
82 111 68
82 110 68
81 109 68
80 107 66
77 105 65
80 108 66
79 107 66
80 108 66
73 101 60
79 106 66
75 102 62
81 110 67
78 106 65
78 106 65
123 144 135
177 195 211
164 182 192
170 189 202
174 192 207
168 187 199
177 195 211
164 182 191
161 179 191
167 185 196
171 190 205
165 181 190
168 185 197
169 186 197
165 183 195
165 182 191
167 184 195
162 180 192
174 192 207
166 185 197
168 186 200
168 185 197
96 122 93
79 107 66
80 109 67
81 110 68
80 108 67
81 109 68
77 106 65
75 102 62
84 113 70
76 103 62
78 107 65
83 111 68
83 112 70
78 107 65
78 106 66
82 110 67
83 112 70
76 104 63
80 108 66
80 107 65
95 121 86
165 183 193
173 190 203
170 188 202
171 189 201
172 189 201
164 181 191
163 180 190
165 182 193
163 181 194
171 189 202
169 186 199
172 190 204
175 192 206
175 193 207
168 185 197
161 179 191
166 183 194
167 185 195
172 190 206
164 182 193
115 138 125
81 109 67
79 107 66
82 110 67
78 106 65
81 109 67
80 109 67
83 111 68
80 109 67
79 107 65
79 107 67
81 110 67
79 108 67
82 111 69
78 106 65
81 109 67
80 108 66
83 113 70
79 106 64
83 110 74
169 188 204
173 191 204
170 188 203
164 181 189
164 183 194
167 183 194
171 189 203
167 185 197
164 182 191
167 184 198
177 195 210
167 185 199
162 179 186
172 190 205
170 187 202
172 190 205
174 191 203
170 188 202
154 172 179
82 110 72
81 109 67
77 105 64
79 108 67
82 111 70
77 104 63
80 109 67
83 111 69
82 110 68
80 107 66
80 109 68
81 110 68
81 110 68
82 111 69
82 111 69
78 106 65
78 106 65
96 120 92
177 195 210
176 194 209
177 195 211
169 187 199
175 192 206
175 193 210
177 195 213
178 195 211
172 190 203
169 187 197
167 184 194
171 189 202
180 197 215
160 179 189
186 203 222
164 182 194
167 186 199
95 120 91
81 109 68
82 110 68
80 109 68
83 112 70
83 112 70
87 117 74
80 109 67
81 110 68
77 105 64
80 109 68
83 112 69
82 110 68
80 108 66
80 108 67
83 113 71
146 165 169
169 186 198
175 193 210
80 108 67
83 111 69
85 114 72
133 154 148
175 192 207
170 188 201
149 169 176
114 138 124
82 111 69
81 109 68
83 112 69
79 107 65
86 115 72
82 111 69
83 111 69
81 109 68
82 110 68
80 108 66
79 108 66
85 115 73
81 109 68
82 111 68
79 108 67
94 120 93
173 192 207
170 187 200
174 192 205
173 192 209
178 195 209
171 189 203
167 184 195
172 190 204
175 192 205
165 184 197
172 190 203
138 158 155
95 121 92
80 109 68
83 112 70
82 110 67
82 110 69
83 112 69
80 109 68
80 109 67
123 145 134
173 190 204
166 185 200
179 196 213
165 182 196
178 195 210
169 187 198
173 191 204
173 190 204
170 189 202
171 188 203
174 191 204
165 183 195
179 197 212
173 191 208
167 185 197
165 182 191
177 196 212
168 186 199
169 187 198
176 194 209
172 191 207
123 146 132
80 109 67
82 110 68
75 103 63
100 124 104
140 160 159
171 188 200
174 191 206
170 188 202
176 192 204
170 187 200
167 184 197
176 195 212
174 191 205
162 180 192
174 192 206
175 193 208
167 185 199
169 186 200
174 192 206
173 190 206
179 196 210
109 131 114
83 111 68
85 113 70
80 108 67
81 110 68
82 110 68
77 105 64
80 108 66
76 104 63
83 111 68
80 107 66
80 109 67
81 110 68
83 111 69
79 107 66
79 108 66
82 111 69
77 104 64
80 108 67
82 111 70
80 108 66
77 105 64
133 153 149
170 187 201
172 189 201
174 191 203
169 189 204
179 196 210
168 186 198
143 163 165
118 138 123
84 112 75
82 110 67
82 111 69
81 109 68
78 106 65
82 111 69
77 105 65
78 106 65
74 102 62
75 102 61
80 108 66
79 107 65
81 109 68
82 110 68
170 187 199
173 190 203
163 180 192
167 183 193
178 195 211
175 192 205
176 193 209
169 185 198
174 191 205
170 186 198
176 193 206
176 193 207
168 185 195
169 186 198
173 192 206
173 191 207
161 179 191
169 186 196
170 189 203
170 188 200
172 190 203
175 193 207
161 179 187
81 109 67
78 106 64
79 107 66
79 107 65
77 105 64
78 106 64
80 108 66
82 110 68
79 108 67
81 109 67
82 111 69
80 107 65
78 107 66
80 107 65
82 111 69
78 105 65
80 108 66
77 105 65
82 111 69
76 103 63
81 110 68
79 107 66
142 161 164
172 189 201
178 194 209
165 183 196
159 175 181
149 168 171
135 155 152
122 143 134
107 131 114
84 113 70
80 108 67
76 104 63
82 110 68
78 106 65
76 103 62
77 104 63
81 108 67
80 108 67
77 104 64
79 106 66
81 110 68
81 110 68
88 114 83
168 185 198
164 180 188
168 186 198
171 189 201
165 183 193
165 183 191
173 191 206
171 188 200
167 184 195
167 184 195
161 179 190
178 194 208
162 180 190
178 196 211
175 192 204
173 190 204
167 185 201
176 194 209
167 186 199
170 187 199
169 188 202
165 183 194
95 120 95
76 104 63
78 106 65
77 106 65
77 106 65
80 108 66
85 114 71
78 106 64
81 110 68
79 107 65
82 111 68
77 105 65
80 109 68
82 111 69
83 112 70
78 106 64
77 105 64
78 106 65
81 110 68
77 104 63
80 108 67
89 115 81
174 190 204
169 186 199
163 181 190
172 189 205
171 188 203
171 188 200
173 191 206
166 183 197
178 194 210
174 191 208
174 191 204
174 192 207
167 185 198
169 186 200
171 189 201
168 187 199
159 177 183
177 195 211
173 191 207
171 190 207
171 189 203
135 155 150
78 106 65
81 110 68
79 107 65
81 109 68
81 110 68
75 103 62
80 108 67
81 109 68
80 108 66
82 111 69
76 104 64
81 110 68
83 112 70
78 105 64
79 107 65
82 110 67
83 112 70
86 116 72
77 105 64
79 107 65
140 160 160
170 188 201
172 188 201
161 178 188
180 198 216
174 191 204
173 191 207
171 188 202
173 192 210
166 184 192
167 185 198
173 190 203
166 184 194
167 185 196
166 185 199
176 193 210
168 186 198
170 188 203
175 191 205
176 193 210
150 168 174
82 111 69
79 107 66
81 109 67
79 108 67
84 112 70
84 113 70
82 111 68
76 103 64
83 112 70
79 107 66
79 107 66
83 111 69
79 107 66
79 108 67
79 107 65
76 103 62
81 109 66
80 110 69
81 109 67
145 165 165
169 186 196
176 193 208
163 181 189
183 200 217
174 192 207
173 190 204
177 194 209
180 199 219
178 195 208
178 196 214
173 191 206
171 189 204
167 185 197
177 195 213
171 189 201
178 197 216
170 188 201
170 188 200
137 157 154
77 106 65
83 112 69
81 110 68
82 110 67
80 109 68
76 104 63
81 110 68
79 107 65
80 108 67
74 101 61
79 107 66
78 107 65
80 108 67
81 110 69
79 107 65
81 110 67
81 110 67
126 146 137
175 192 207
175 192 207
170 188 201
177 195 213
173 190 205
170 187 200
173 191 208
171 189 201
175 193 209
172 191 206
176 194 210
172 189 201
177 195 212
166 184 197
170 187 199
177 194 210
150 169 173
80 109 67
86 114 71
84 113 70
84 113 70
77 105 65
78 107 66
83 112 70
81 110 68
81 110 68
83 112 70
82 111 69
80 109 68
82 110 68
82 111 68
79 106 65
101 127 102
169 187 198
163 182 194
83 112 70
79 108 67
80 109 67
139 158 156
158 176 183
102 129 105
81 110 69
85 114 71
80 109 68
80 108 67
82 110 68
79 108 67
82 111 69
82 110 68
82 110 68
81 110 69
79 108 67
84 113 70
82 111 69
79 107 65
81 109 67
82 111 69
80 108 66
115 138 121
178 196 211
175 193 206
167 185 197
175 193 207
174 192 209
176 192 207
173 191 205
171 189 201
164 182 193
129 150 142
87 114 76
81 110 69
77 105 64
81 109 67
83 111 69
74 102 63
80 109 68
79 107 66
80 108 67
82 110 68
123 145 134
170 189 202
166 183 196
179 197 212
168 185 197
178 195 210
175 194 213
171 189 203
170 187 198
175 192 206
174 192 208
174 192 207
171 188 200
178 196 211
173 190 203
175 193 207
173 191 207
168 185 200
170 187 200
176 195 211
164 182 192
176 194 209
118 140 128
92 119 90
124 146 137
160 179 191
170 187 198
168 186 198
173 192 208
164 183 194
172 187 197
180 198 214
173 190 203
168 186 199
168 185 196
173 190 203
169 186 199
171 189 203
172 189 203
163 181 192
167 186 198
156 174 184
168 186 199
181 199 217
123 144 136
80 109 68
82 111 69
79 107 65
79 108 67
81 109 67
78 106 65
79 106 65
81 110 67
81 109 68
82 110 68
80 108 66
78 106 65
81 109 68
83 112 70
81 109 67
81 109 67
79 107 67
79 107 65
80 107 65
81 110 69
81 109 67
108 131 113
173 192 207
166 184 195
147 166 172
133 153 151
94 119 93
83 110 70
81 109 67
79 107 65
76 104 63
79 107 66
78 105 64
83 112 70
79 107 66
82 110 68
81 109 67
78 106 64
78 106 66
87 115 71
82 111 68
82 110 68
76 103 63
82 111 69
151 170 176
169 187 203
167 183 194
174 191 205
170 188 199
161 179 189
172 190 207
172 189 200
165 184 194
170 186 198
170 189 201
173 190 202
170 189 202
172 189 203
169 186 198
170 188 201
170 187 198
174 192 208
170 188 201
161 180 190
172 190 205
161 180 191
169 187 200
82 109 70
84 113 70
78 105 64
83 111 69
78 106 64
81 109 68
80 108 67
78 106 65
78 107 66
77 105 65
83 111 69
80 108 66
82 110 68
81 109 67
75 103 63
73 99 59
77 105 64
81 109 67
76 103 63
80 108 66
82 110 68
84 111 74
111 132 119
139 159 159
131 152 142
93 118 90
83 111 73
77 106 65
79 106 65
79 106 65
82 111 69
78 105 65
76 103 62
78 106 65
82 111 69
81 109 67
78 106 65
79 107 66
77 105 65
79 107 66
78 106 65
80 108 66
79 107 66
82 110 69
78 106 65
151 170 177
166 183 194
167 185 197
169 187 199
176 194 208
167 184 195
174 191 204
163 181 191
165 182 193
173 190 203
172 190 206
165 183 193
171 188 203
174 190 204
166 184 195
173 190 203
172 190 201
161 179 191
167 186 200
162 180 191
164 182 193
171 189 204
124 146 139
80 109 67
80 109 67
78 106 66
81 108 66
81 109 68
80 108 66
79 108 67
78 106 66
80 109 67
83 112 69
81 108 66
79 106 65
83 112 70
83 111 69
76 103 62
80 108 67
79 107 66
81 109 68
80 109 66
81 109 68
82 110 68
144 163 163
162 180 189
169 186 198
166 182 195
171 188 200
169 185 197
167 184 195
167 184 196
176 191 204
176 192 207
169 187 201
174 191 206
169 187 200
170 187 201
157 174 181
171 189 202
185 202 220
164 182 194
172 189 201
179 196 212
169 187 198
171 189 203
81 109 68
78 106 65
81 109 67
78 107 66
80 108 66
82 110 68
76 104 64
85 115 72
81 108 66
81 109 67
79 107 66
83 111 68
78 106 65
77 105 65
80 108 67
81 109 67
79 107 65
81 109 67
79 108 67
81 110 68
100 124 105
165 182 191
178 194 208
156 175 182
169 186 201
166 183 193
164 181 191
170 187 199
166 184 197
173 190 205
178 196 211
167 185 194
174 192 206
167 185 196
175 191 205
176 192 206
171 189 201
174 192 206
175 193 210
172 189 204
174 191 206
121 143 134
79 107 66
84 113 70
77 104 64
82 111 68
77 105 64
78 107 66
81 111 68
80 108 67
79 107 66
80 108 66
84 112 69
82 111 69
84 113 70
79 107 65
82 111 69
80 107 66
79 106 65
78 106 64
87 114 80
171 189 201
178 196 213
169 187 200
171 189 202
172 190 202
168 186 199
169 187 198
177 194 211
166 184 195
169 187 200
169 185 196
173 191 204
179 197 213
175 192 207
173 191 203
176 194 210
172 189 202
174 191 203
159 177 184
91 116 83
80 108 67
80 108 67
81 109 68
79 107 65
82 110 69
77 104 64
83 113 71
82 111 69
78 107 66
79 107 66
79 108 67
83 112 69
84 113 71
77 105 65
81 110 67
82 111 69
89 116 83
164 182 193
157 176 185
173 190 205
172 190 203
180 198 218
173 191 209
176 194 208
169 187 198
173 190 202
180 197 212
174 191 205
164 183 194
173 191 207
166 184 195
176 194 211
170 188 201
174 192 207
119 142 131
81 110 69
84 113 70
78 106 65
83 113 71
80 108 67
80 109 67
80 109 67
86 115 72
83 112 69
84 113 71
84 113 71
83 111 69
83 112 69
80 108 67
84 114 70
133 154 149
172 191 204
82 111 69
86 115 72
120 143 129
113 138 119
80 109 68
79 108 67
81 110 69
83 112 69
84 112 69
79 108 66
79 107 66
80 108 67
81 110 68
81 109 67
82 110 68
82 112 70
80 109 68
86 116 72
83 112 69
81 110 68
83 113 71
79 107 67
85 114 71
113 136 117
174 191 206
172 190 207
156 175 185
177 194 209
165 183 196
170 187 198
146 166 167
109 133 118
79 106 65
81 110 69
80 109 68
80 108 66
79 108 67
81 109 67
85 114 71
82 111 68
79 108 66
82 110 67
84 114 71
82 110 68
114 137 124
168 185 196
174 192 206
178 195 209
178 197 213
165 183 196
180 198 215
173 191 206
175 192 207
169 187 200
179 196 214
170 188 202
170 188 201
169 187 198
173 191 206
170 187 199
173 190 203
174 192 207
173 192 209
168 185 199
174 191 205
154 174 181
148 167 172
167 184 195
179 196 212
180 196 209
169 187 200
174 191 204
173 191 207
174 191 207
179 196 213
163 180 192
167 184 197
178 196 212
161 179 188
176 194 210
158 176 187
173 190 204
167 185 199
169 186 200
178 195 211
173 191 205
170 186 195
174 191 205
126 147 142
78 106 65
84 112 70
82 110 68
81 110 67
79 107 65
81 109 68
81 109 68
79 108 67
79 107 66
78 106 66
83 113 71
81 109 67
75 102 63
76 104 63
84 113 70
77 105 64
82 110 69
83 111 70
81 109 67
78 105 64
78 105 67
108 131 117
126 146 143
102 126 107
78 106 66
79 108 67
82 111 69
81 109 67
82 111 69
80 109 67
81 109 67
85 113 70
84 113 70
84 113 70
80 108 66
81 109 68
81 110 68
78 106 64
81 110 68
77 106 65
79 107 66
77 104 63
80 108 66
80 108 67
145 164 164
174 191 206
168 186 198
170 186 196
166 184 197
167 184 198
170 188 200
170 188 200
166 185 198
165 184 195
172 189 202
166 184 198
172 188 202
169 187 200
167 185 196
175 193 208
168 186 199
171 188 202
171 188 202
169 187 200
176 193 210
166 183 196
169 187 198
112 135 118
81 109 67
80 109 68
83 111 70
79 107 66
76 104 64
81 110 69
80 108 67
81 109 67
83 112 69
77 105 64
77 105 64
80 108 66
80 108 66
77 105 64
79 106 66
81 109 67
98 122 100
128 148 140
140 159 158
149 168 173
174 190 202
165 182 193
80 109 68
80 108 66
76 103 63
79 107 65
78 107 65
82 110 68
78 107 66
76 104 64
81 110 69
77 105 63
81 109 68
79 108 66
78 106 66
78 105 64
81 110 68
84 112 69
80 109 67
74 102 62
81 109 67
78 106 65
77 105 63
81 110 69
132 153 149
167 184 194
170 187 200
167 183 192
169 187 200
175 193 210
172 189 201
173 191 205
167 183 195
170 187 200
173 190 205
167 185 200
175 192 207
163 182 193
163 181 194
169 187 200
174 191 206
167 186 196
179 197 215
173 190 204
165 183 193
169 186 200
145 163 167
82 111 68
82 110 68
82 111 68
77 104 63
80 108 67
75 103 63
78 106 64
80 108 66
83 112 70
82 111 69
81 109 68
76 103 63
79 108 66
80 109 67
77 104 64
81 109 68
82 111 69
81 109 67
75 102 62
77 104 63
81 109 67
101 125 101
158 176 188
180 198 215
180 196 211
175 191 204
168 185 197
171 188 202
175 193 208
167 185 197
166 183 194
169 187 199
168 186 200
170 188 203
171 188 201
173 192 207
175 192 207
164 182 192
168 188 205
173 191 204
173 190 204
175 192 207
166 183 190
119 142 128
83 111 69
82 110 68
78 106 65
76 105 65
77 105 64
80 108 67
80 108 67
78 106 64
77 104 64
81 109 67
78 106 65
81 110 68
78 106 65
84 113 71
82 111 68
82 110 68
80 108 68
83 113 70
80 108 66
77 105 63
140 160 158
171 187 198
172 189 203
166 183 195
163 180 193
176 193 211
178 196 215
175 192 207
173 191 206
177 194 211
168 185 197
172 189 203
171 188 200
164 182 191
172 189 203
170 187 200
177 193 206
173 191 204
170 186 198
173 192 209
150 169 174
79 107 65
80 108 67
79 107 66
82 111 69
79 107 66
81 109 67
79 107 66
84 113 70
84 113 70
82 111 68
78 106 65
79 107 66
80 108 66
80 108 66
82 111 69
81 109 68
82 110 68
78 105 65
81 109 68
130 151 144
169 187 201
181 199 216
177 195 210
168 186 200
171 189 203
175 193 208
176 194 210
168 186 200
175 192 207
182 200 218
172 188 201
174 191 205
173 190 202
171 189 204
163 181 193
176 193 208
164 183 193
186 204 224
133 153 147
85 114 71
82 110 68
76 103 63
79 107 66
78 106 66
82 111 69
83 113 70
80 108 67
80 109 67
81 109 69
81 109 67
81 110 69
84 114 71
82 111 69
77 105 63
82 111 69
84 114 72
115 139 125
178 195 211
179 196 213
168 187 200
177 193 209
174 191 205
173 190 202
175 192 206
167 185 197
172 189 203
172 190 204
166 185 197
180 196 213
175 195 213
177 195 210
179 196 211
167 186 198
167 185 195
86 112 79
84 112 69
83 112 70
84 113 71
82 112 70
80 108 66
80 108 66
83 112 70
84 113 71
81 110 68
82 110 68
81 110 68
84 113 69
83 112 70
83 112 70
81 109 67
162 181 188
