P3
400 225
255
215 232 255
215 232 255
215 232 255
215 232 255
215 232 255
215 232 255
215 232 255
215 232 255
215 232 255
215 232 255
215 232 255
215 232 255
215 232 255
215 232 255
215 232 255
215 232 255
215 232 255
215 232 255
215 232 255
215 232 255
215 232 255
215 232 255
215 232 255
215 232 255
215 232 255
215 232 255
215 232 255
215 232 255
215 232 255
215 232 255
215 232 255
215 232 255
215 232 255
215 232 255
215 232 255
215 232 255
215 232 255
215 232 255
215 232 255
215 232 255
215 232 255
215 232 255
215 232 255
215 232 255
215 232 255
215 232 255
215 232 255
215 232 255
215 232 255
215 232 255
215 232 255
215 232 255
215 232 255
215 232 255
215 232 255
215 232 255
215 232 255
215 232 255
215 232 255
215 232 255
215 232 255
215 232 255
215 232 255
215 232 255
215 232 255
215 232 255
215 232 255
215 232 255
215 232 255
215 232 255
215 232 255
215 232 255
215 232 255
215 232 255
215 232 255
215 232 255
215 232 255
215 232 255
215 232 255
215 232 255
215 232 255
215 232 255
215 232 255
215 232 255
215 232 255
215 232 255
215 232 255
215 232 255
215 232 255
215 232 255
215 232 255
215 232 255
215 232 255
215 232 255
215 232 255
215 232 255
215 232 255
215 232 255
215 232 255
215 232 255
215 232 255
215 232 255
215 232 255
215 232 255
215 232 255
215 232 255
215 232 255
215 232 255
215 232 255
215 232 255
215 232 255
215 232 255
215 232 255
215 232 255
215 232 255
215 232 255
215 232 255
215 232 255
215 232 255
215 232 255
215 232 255
215 232 255
215 232 255
215 232 255
215 232 255
215 232 255
215 232 255
215 232 255
215 232 255
215 232 255
215 232 255
215 232 255
215 232 255
215 232 255
215 232 255
215 232 255
215 232 255
215 232 255
215 232 255
215 232 255
215 232 255
215 232 255
215 232 255
215 232 255
215 232 255
215 232 255
215 232 255
215 232 255
215 232 255
215 232 255
215 232 255
215 232 255
215 232 255
215 232 255
215 232 255
215 232 255
215 232 255
215 232 255
215 232 255
215 232 255
215 232 255
215 232 255
215 232 255
215 232 255
215 232 255
215 232 255
215 232 255
215 232 255
215 232 255
215 232 255
215 232 255
215 232 255
215 232 255
215 232 255
215 232 255
215 232 255
215 232 255
215 232 255
215 232 255
215 232 255
215 232 255
215 232 255
215 232 255
215 232 255
215 232 255
215 232 255
215 232 255
215 232 255
215 232 255
215 232 255
215 232 255
215 232 255
215 232 255
215 232 255
215 232 255
215 232 255
215 232 255
215 232 255
215 232 255
215 232 255
215 232 255
215 232 255
215 232 255
215 232 255
215 232 255
215 232 255
215 232 255
215 232 255
215 232 255
215 232 255
215 232 255
215 232 255
215 232 255
215 232 255
215 232 255
215 232 255
215 232 255
215 232 255
215 232 255
215 232 255
215 232 255
215 232 255
215 232 255
215 232 255
215 232 255
215 232 255
215 232 255
215 232 255
215 232 255
215 232 255
215 232 255
215 232 255
215 232 255
215 232 255
215 232 255
215 232 255
215 232 255
215 232 255
215 232 255
215 232 255
215 232 255
215 232 255
215 232 255
215 232 255
215 232 255
215 232 255
215 232 255
215 232 255
215 232 255
215 232 255
215 232 255
215 232 255
215 232 255
215 232 255
215 232 255
215 232 255
215 232 255
215 232 255
215 232 255
215 232 255
215 232 255
215 232 255
215 232 255
215 232 255
215 232 255
215 232 255
215 232 255
215 232 255
215 232 255
215 232 255
215 232 255
215 232 255
215 232 255
215 232 255
215 232 255
215 232 255
215 232 255
215 232 255
215 232 255
215 232 255
215 232 255
215 232 255
215 232 255
215 232 255
215 232 255
215 232 255
215 232 255
215 232 255
215 232 255
215 232 255
215 232 255
215 232 255
215 232 255
215 232 255
215 232 255
215 232 255
215 232 255
215 232 255
215 232 255
215 232 255
215 232 255
215 232 255
215 232 255
215 232 255
215 232 255
215 232 255
215 232 255
215 232 255
215 232 255
215 232 255
215 232 255
215 232 255
215 232 255
215 232 255
215 232 255
215 232 255
215 232 255
215 232 255
215 232 255
215 232 255
215 232 255
215 232 255
215 232 255
215 232 255
215 232 255
215 232 255
215 232 255
215 232 255
215 232 255
215 232 255
215 232 255
215 232 255
215 232 255
215 232 255
215 232 255
215 232 255
215 232 255
215 232 255
215 232 255
215 232 255
215 232 255
215 232 255
215 232 255
215 232 255
215 232 255
215 232 255
215 232 255
215 232 255
215 232 255
215 232 255
215 232 255
215 232 255
215 232 255
215 232 255
215 232 255
215 232 255
215 232 255
215 232 255
215 232 255
215 232 255
215 232 255
215 232 255
215 232 255
215 232 255
215 232 255
215 232 255
215 232 255
215 232 255
215 232 255
215 232 255
215 232 255
215 232 255
215 232 255
215 232 255
215 232 255
215 232 255
215 232 255
215 232 255
215 232 255
215 232 255
215 232 255
215 232 255
215 232 255
215 232 255
215 232 255
215 232 255
215 232 255
215 232 255
215 232 255
215 232 255
215 232 255
215 232 255
215 232 255
215 232 255
215 232 255
215 232 255
215 232 255
215 232 255
215 232 255
215 232 255
215 232 255
215 232 255
215 232 255
215 232 255
215 232 255
215 232 255
215 232 255
215 232 255
215 232 255
215 232 255
215 232 255
215 232 255
215 232 255
215 232 255
215 232 255
215 232 255
215 232 255
215 232 255
215 232 255
215 232 255
215 232 255
215 232 255
215 232 255
215 232 255
215 232 255
215 232 255
215 232 255
215 232 255
215 232 255
215 232 255
215 232 255
215 232 255
215 232 255
215 232 255
215 232 255
215 232 255
215 232 255
215 232 255
215 232 255
215 232 255
215 232 255
215 232 255
215 232 255
215 232 255
215 232 255
215 232 255
215 232 255
215 232 255
215 232 255
215 232 255
215 232 255
215 232 255
215 232 255
215 232 255
215 232 255
215 232 255
215 232 255
215 232 255
215 232 255
215 232 255
215 232 255
215 232 255
215 232 255
215 232 255
215 232 255
215 232 255
215 232 255
215 232 255
215 232 255
215 232 255
215 232 255
215 232 255
215 232 255
215 232 255
215 232 255
215 232 255
215 232 255
215 232 255
215 232 255
215 232 255
215 232 255
215 232 255
215 232 255
215 232 255
215 232 255
215 232 255
215 232 255
215 232 255
215 232 255
215 232 255
215 232 255
215 232 255
215 232 255
215 232 255
215 232 255
215 232 255
215 232 255
215 232 255
215 232 255
215 232 255
215 232 255
215 232 255
215 232 255
215 232 255
215 232 255
215 232 255
215 232 255
215 232 255
215 232 255
215 232 255
215 232 255
215 232 255
215 232 255
215 232 255
215 232 255
215 232 255
215 232 255
215 232 255
215 232 255
215 232 255
215 232 255
215 232 255
215 232 255
215 232 255
215 232 255
215 232 255
215 232 255
215 232 255
215 232 255
215 232 255
215 232 255
215 232 255
215 232 255
215 232 255
215 232 255
215 232 255
215 232 255
215 232 255
215 232 255
215 232 255
215 232 255
215 232 255
215 232 255
215 232 255
215 232 255
215 232 255
215 232 255
215 232 255
215 232 255
215 232 255
215 232 255
215 232 255
215 232 255
215 232 255
215 232 255
215 232 255
215 232 255
215 232 255
215 232 255
215 232 255
215 232 255
215 232 255
215 232 255
215 232 255
215 232 255
215 232 255
215 232 255
215 232 255
215 232 255
215 232 255
215 232 255
215 232 255
215 232 255
215 232 255
215 232 255
215 232 255
215 232 255
215 232 255
215 232 255
215 232 255
215 232 255
215 232 255
215 232 255
215 232 255
215 232 255
215 232 255
215 232 255
215 232 255
215 232 255
215 232 255
215 232 255
215 232 255
215 232 255
215 232 255
215 232 255
215 232 255
215 232 255
215 232 255
215 232 255
215 232 255
215 232 255
215 232 255
215 232 255
215 232 255
215 232 255
215 232 255
215 232 255
215 232 255
215 232 255
215 232 255
215 232 255
215 232 255
215 232 255
215 232 255
215 232 255
215 232 255
215 232 255
215 232 255
215 232 255
215 232 255
215 232 255
215 232 255
215 232 255
215 232 255
215 232 255
215 232 255
215 232 255
215 232 255
215 232 255
215 232 255
215 232 255
215 232 255
215 232 255
215 232 255
215 232 255
215 232 255
215 232 255
215 232 255
215 232 255
215 232 255
215 232 255
215 232 255
215 232 255
215 232 255
215 232 255
215 232 255
215 232 255
215 232 255
215 232 255
215 232 255
215 232 255
215 232 255
215 232 255
215 232 255
215 232 255
215 232 255
215 232 255
215 232 255
215 232 255
215 232 255
215 232 255
215 232 255
215 232 255
215 232 255
215 232 255
215 232 255
215 232 255
215 232 255
215 232 255
215 232 255
215 232 255
215 232 255
215 232 255
215 232 255
215 232 255
215 232 255
215 232 255
215 232 255
215 232 255
215 232 255
215 232 255
215 232 255
215 232 255
215 232 255
215 232 255
215 232 255
215 232 255
215 232 255
215 232 255
215 232 255
215 232 255
215 232 255
215 232 255
215 232 255
215 232 255
215 232 255
215 232 255
215 232 255
215 232 255
215 232 255
215 232 255
215 232 255
215 232 255
215 232 255
215 232 255
215 232 255
215 232 255
215 232 255
215 232 255
215 232 255
215 232 255
215 232 255
215 232 255
215 232 255
215 232 255
215 232 255
215 232 255
215 232 255
215 232 255
215 232 255
215 232 255
215 232 255
215 232 255
215 232 255
215 232 255
215 232 255
215 232 255
215 232 255
215 232 255
215 232 255
215 232 255
215 232 255
215 232 255
215 232 255
215 232 255
215 232 255
215 232 255
215 232 255
215 232 255
215 232 255
215 232 255
215 232 255
215 232 255
215 232 255
215 232 255
215 232 255
215 232 255
215 232 255
215 232 255
215 232 255
215 232 255
215 232 255
215 232 255
215 232 255
215 232 255
215 232 255
215 232 255
215 232 255
215 232 255
215 232 255
215 232 255
215 232 255
215 232 255
215 232 255
215 232 255
215 232 255
215 232 255
215 232 255
215 232 255
215 232 255
215 232 255
215 232 255
215 232 255
215 232 255
215 232 255
215 232 255
215 232 255
215 232 255
215 232 255
215 232 255
215 232 255
215 232 255
215 232 255
215 232 255
215 232 255
215 232 255
215 232 255
215 232 255
215 232 255
215 232 255
215 232 255
215 232 255
215 232 255
215 232 255
215 232 255
215 232 255
215 232 255
215 232 255
215 232 255
215 232 255
215 232 255
215 232 255
215 232 255
215 232 255
215 232 255
215 232 255
215 232 255
215 232 255
215 232 255
215 232 255
215 232 255
215 232 255
215 232 255
215 232 255
215 232 255
215 232 255
215 232 255
215 232 255
215 232 255
215 232 255
215 232 255
215 232 255
215 232 255
215 232 255
215 232 255
215 232 255
215 232 255
215 232 255
215 232 255
215 232 255
215 232 255
215 232 255
215 232 255
215 232 255
215 232 255
215 232 255
215 232 255
215 232 255
215 232 255
215 232 255
215 232 255
215 232 255
215 232 255
215 232 255
215 232 255
215 232 255
215 232 255
215 232 255
215 232 255
215 232 255
215 232 255
215 232 255
215 232 255
215 232 255
215 232 255
215 232 255
215 232 255
215 232 255
215 232 255
215 232 255
215 232 255
215 232 255
215 232 255
215 232 255
215 232 255
215 232 255
215 232 255
215 232 255
215 232 255
215 232 255
215 232 255
215 232 255
215 232 255
215 232 255
215 232 255
215 232 255
215 232 255
215 232 255
215 232 255
215 232 255
215 232 255
215 232 255
215 232 255
215 232 255
215 232 255
215 232 255
215 232 255
215 232 255
215 232 255
215 232 255
215 232 255
215 232 255
215 232 255
215 232 255
215 232 255
215 232 255
215 232 255
215 232 255
215 232 255
215 232 255
215 232 255
215 232 255
215 232 255
215 232 255
215 232 255
215 232 255
215 232 255
215 232 255
215 232 255
215 232 255
215 232 255
215 232 255
215 232 255
215 232 255
215 232 255
215 232 255
215 232 255
215 232 255
215 232 255
215 232 255
215 232 255
215 232 255
215 232 255
215 232 255
215 232 255
215 232 255
215 232 255
215 232 255
215 232 255
215 232 255
215 232 255
215 232 255
215 232 255
215 232 255
215 232 255
215 232 255
215 232 255
215 232 255
215 232 255
215 232 255
215 232 255
215 232 255
215 232 255
215 232 255
215 232 255
215 232 255
215 232 255
215 232 255
215 232 255
215 232 255
215 232 255
215 232 255
215 232 255
215 232 255
215 232 255
215 232 255
215 232 255
215 232 255
215 232 255
215 232 255
215 232 255
215 232 255
215 232 255
215 232 255
215 232 255
215 232 255
215 232 255
215 232 255
215 232 255
215 232 255
215 232 255
215 232 255
215 232 255
215 232 255
215 232 255
215 232 255
215 232 255
215 232 255
215 232 255
215 232 255
215 232 255
215 232 255
215 232 255
215 232 255
215 232 255
215 232 255
215 232 255
215 232 255
215 232 255
215 232 255
215 232 255
215 232 255
215 232 255
215 232 255
215 232 255
215 232 255
215 232 255
215 232 255
215 232 255
215 232 255
215 232 255
215 232 255
215 232 255
215 232 255
215 232 255
215 232 255
215 232 255
215 232 255
215 232 255
215 232 255
215 232 255
215 232 255
215 232 255
215 232 255
215 232 255
215 232 255
215 232 255
215 232 255
215 232 255
215 232 255
215 232 255
215 232 255
215 232 255
215 232 255
215 232 255
215 232 255
215 232 255
215 232 255
215 232 255
215 232 255
215 232 255
215 232 255
215 232 255
215 232 255
215 232 255
215 232 255
215 232 255
215 232 255
215 232 255
215 232 255
215 232 255
215 232 255
215 232 255
215 232 255
215 232 255
215 232 255
215 232 255
215 232 255
215 232 255
215 232 255
215 232 255
215 232 255
215 232 255
215 232 255
215 232 255
215 232 255
215 232 255
215 232 255
215 232 255
215 232 255
215 232 255
215 232 255
215 232 255
215 232 255
215 232 255
215 232 255
215 232 255
215 232 255
215 232 255
215 232 255
215 232 255
215 232 255
215 232 255
215 232 255
215 232 255
215 232 255
215 232 255
215 232 255
215 232 255
215 232 255
215 232 255
215 232 255
215 232 255
215 232 255
215 232 255
215 232 255
215 232 255
215 232 255
215 232 255
215 232 255
215 232 255
215 232 255
215 232 255
215 232 255
215 232 255
215 232 255
215 232 255
215 232 255
215 232 255
215 232 255
215 232 255
215 232 255
215 232 255
215 232 255
215 232 255
215 232 255
215 232 255
215 232 255
215 232 255
215 232 255
215 232 255
215 232 255
215 232 255
215 232 255
215 232 255
215 232 255
215 232 255
215 232 255
215 232 255
215 232 255
215 232 255
215 232 255
215 232 255
215 232 255
215 232 255
215 232 255
215 232 255
215 232 255
215 232 255
215 232 255
215 232 255
215 232 255
215 232 255
215 232 255
215 232 255
215 232 255
215 232 255
215 232 255
215 232 255
215 232 255
215 232 255
215 232 255
215 232 255
215 232 255
215 232 255
215 232 255
215 232 255
215 232 255
215 232 255
215 232 255
215 232 255
215 232 255
215 232 255
215 232 255
215 232 255
215 232 255
215 232 255
215 232 255
215 232 255
215 232 255
215 232 255
215 232 255
215 232 255
215 232 255
215 232 255
215 232 255
215 232 255
215 232 255
215 232 255
215 232 255
215 232 255
215 232 255
215 232 255
215 232 255
215 232 255
215 232 255
215 232 255
215 232 255
215 232 255
215 232 255
215 232 255
215 232 255
215 232 255
215 232 255
215 232 255
215 232 255
215 232 255
215 232 255
215 232 255
215 232 255
215 232 255
215 232 255
215 232 255
215 232 255
215 232 255
215 232 255
215 232 255
215 232 255
215 232 255
215 232 255
215 232 255
215 232 255
215 232 255
215 232 255
215 232 255
215 232 255
215 232 255
215 232 255
215 232 255
215 232 255
215 232 255
215 232 255
215 232 255
215 232 255
215 232 255
215 232 255
215 232 255
215 232 255
215 232 255
215 232 255
215 232 255
215 232 255
215 232 255
215 232 255
215 232 255
215 232 255
215 232 255
215 232 255
215 232 255
215 232 255
215 232 255
215 232 255
215 232 255
215 232 255
215 232 255
215 232 255
215 232 255
215 232 255
215 232 255
215 232 255
215 232 255
215 232 255
215 232 255
215 232 255
215 232 255
215 232 255
215 232 255
215 232 255
215 232 255
215 232 255
215 232 255
215 232 255
215 232 255
215 232 255
215 232 255
215 232 255
215 232 255
215 232 255
215 232 255
215 232 255
215 232 255
215 232 255
215 232 255
215 232 255
215 232 255
215 232 255
215 232 255
215 232 255
215 232 255
215 232 255
215 232 255
215 232 255
215 232 255
215 232 255
215 232 255
215 232 255
215 232 255
215 232 255
215 232 255
215 232 255
215 232 255
215 232 255
215 232 255
215 232 255
215 232 255
215 232 255
215 232 255
215 232 255
215 232 255
215 232 255
215 232 255
215 232 255
215 232 255
215 232 255
215 232 255
215 232 255
215 232 255
215 232 255
215 232 255
215 232 255
215 232 255
215 232 255
215 232 255
215 232 255
215 232 255
215 232 255
215 232 255
215 232 255
215 232 255
215 232 255
215 232 255
215 232 255
215 232 255
215 232 255
215 232 255
215 232 255
215 232 255
215 232 255
215 232 255
215 232 255
215 232 255
215 232 255
215 232 255
215 232 255
215 232 255
215 232 255
215 232 255
215 232 255
215 232 255
215 232 255
215 232 255
215 232 255
215 232 255
215 232 255
215 232 255
215 232 255
215 232 255
215 232 255
215 232 255
215 232 255
215 232 255
215 232 255
215 232 255
215 232 255
215 232 255
215 232 255
215 232 255
215 232 255
215 232 255
215 232 255
215 232 255
215 232 255
215 232 255
215 232 255
215 232 255
215 232 255
215 232 255
215 232 255
215 232 255
215 232 255
215 232 255
215 232 255
215 232 255
215 232 255
215 232 255
215 232 255
215 232 255
215 232 255
215 232 255
215 232 255
215 232 255
215 232 255
215 232 255
215 232 255
215 232 255
215 232 255
215 232 255
215 232 255
215 232 255
215 232 255
215 232 255
215 232 255
215 232 255
215 232 255
215 232 255
215 232 255
215 232 255
215 232 255
215 232 255
215 232 255
215 232 255
215 232 255
215 232 255
215 232 255
215 232 255
215 232 255
215 232 255
215 232 255
215 232 255
215 232 255
215 232 255
215 232 255
215 232 255
215 232 255
215 232 255
215 232 255
215 232 255
215 232 255
215 232 255
215 232 255
215 232 255
215 232 255
215 232 255
215 232 255
215 232 255
215 232 255
215 232 255
215 232 255
215 232 255
215 232 255
215 232 255
215 232 255
215 232 255
215 232 255
215 232 255
215 232 255
215 232 255
215 232 255
215 232 255
215 232 255
215 232 255
215 232 255
215 232 255
215 232 255
215 232 255
215 232 255
215 232 255
215 232 255
215 232 255
215 232 255
215 232 255
215 232 255
215 232 255
215 232 255
215 232 255
215 232 255
215 232 255
215 232 255
215 232 255
215 232 255
215 232 255
215 232 255
215 232 255
215 232 255
215 232 255
215 232 255
215 232 255
215 232 255
215 232 255
215 232 255
215 232 255
215 232 255
215 232 255
215 232 255
215 232 255
215 232 255
215 232 255
215 232 255
215 232 255
215 232 255
215 232 255
215 232 255
215 232 255
215 232 255
215 232 255
215 232 255
215 232 255
215 232 255
215 232 255
215 232 255
215 232 255
215 232 255
215 232 255
215 232 255
215 232 255
215 232 255
215 232 255
215 232 255
215 232 255
215 232 255
215 232 255
215 232 255
215 232 255
215 232 255
215 232 255
215 232 255
215 232 255
215 232 255
215 232 255
215 232 255
215 232 255
215 232 255
215 232 255
215 232 255
215 232 255
215 232 255
215 232 255
215 232 255
215 232 255
215 232 255
215 232 255
215 232 255
215 232 255
215 232 255
215 232 255
215 232 255
215 232 255
215 232 255
215 232 255
215 232 255
215 232 255
215 232 255
215 232 255
215 232 255
215 232 255
215 232 255
215 232 255
215 232 255
215 232 255
215 232 255
215 232 255
215 232 255
215 232 255
215 232 255
215 232 255
215 232 255
215 232 255
215 232 255
215 232 255
215 232 255
215 232 255
215 232 255
215 232 255
215 232 255
215 232 255
215 232 255
215 232 255
215 232 255
215 232 255
215 232 255
215 232 255
215 232 255
215 232 255
215 232 255
215 232 255
215 232 255
215 232 255
215 232 255
215 232 255
215 232 255
215 232 255
215 232 255
215 232 255
215 232 255
215 232 255
215 232 255
215 232 255
215 232 255
215 232 255
215 232 255
215 232 255
215 232 255
215 232 255
215 232 255
215 232 255
215 232 255
215 232 255
215 232 255
215 232 255
215 232 255
215 232 255
215 232 255
215 232 255
215 232 255
215 232 255
215 232 255
215 232 255
215 232 255
215 232 255
215 232 255
215 232 255
215 232 255
215 232 255
215 232 255
215 232 255
215 232 255
215 232 255
215 232 255
215 232 255
215 232 255
215 232 255
215 232 255
215 232 255
215 232 255
215 232 255
215 232 255
215 232 255
215 232 255
215 232 255
215 232 255
215 232 255
215 232 255
215 232 255
215 232 255
215 232 255
215 232 255
215 232 255
215 232 255
215 232 255
215 232 255
215 232 255
215 232 255
215 232 255
215 232 255
215 232 255
215 232 255
215 232 255
215 232 255
215 232 255
215 232 255
215 232 255
215 232 255
215 232 255
215 232 255
215 232 255
215 232 255
215 232 255
215 232 255
215 232 255
215 232 255
215 232 255
215 232 255
215 232 255
215 232 255
215 232 255
215 232 255
215 232 255
215 232 255
215 232 255
215 232 255
215 232 255
215 232 255
215 232 255
215 232 255
215 232 255
215 232 255
215 232 255
215 232 255
215 232 255
215 232 255
215 232 255
215 232 255
215 232 255
215 232 255
215 232 255
215 232 255
215 232 255
215 232 255
215 232 255
215 232 255
215 232 255
215 232 255
215 232 255
215 232 255
215 232 255
215 232 255
215 232 255
215 232 255
215 232 255
215 232 255
215 232 255
215 232 255
215 232 255
215 232 255
215 232 255
215 232 255
215 232 255
215 232 255
215 232 255
215 232 255
215 232 255
215 232 255
215 232 255
215 232 255
215 232 255
215 232 255
215 232 255
215 232 255
215 232 255
215 232 255
215 232 255
215 232 255
215 232 255
215 232 255
215 232 255
215 232 255
215 232 255
215 232 255
215 232 255
215 232 255
215 232 255
215 232 255
215 232 255
215 232 255
215 232 255
215 232 255
215 232 255
215 232 255
215 232 255
215 232 255
215 232 255
215 232 255
215 232 255
215 232 255
215 232 255
215 232 255
215 232 255
215 232 255
215 232 255
215 232 255
215 232 255
215 232 255
215 232 255
215 232 255
215 232 255
215 232 255
215 232 255
215 232 255
215 232 255
215 232 255
215 232 255
215 232 255
215 232 255
215 232 255
215 232 255
215 232 255
215 232 255
215 232 255
215 232 255
215 232 255
215 232 255
215 232 255
215 232 255
215 232 255
215 232 255
215 232 255
215 232 255
215 232 255
215 232 255
215 232 255
215 232 255
215 232 255
215 232 255
215 232 255
215 232 255
215 232 255
215 232 255
215 232 255
215 232 255
215 232 255
215 232 255
215 232 255
215 232 255
215 232 255
215 232 255
215 232 255
215 232 255
215 232 255
215 232 255
215 232 255
215 232 255
215 232 255
215 232 255
215 232 255
215 232 255
215 232 255
215 232 255
215 232 255
215 232 255
215 232 255
215 232 255
215 232 255
213 230 255
209 227 252
210 229 254
206 224 249
202 221 245
200 218 242
201 219 244
197 216 240
196 213 237
197 214 236
195 212 234
197 214 237
204 224 250
205 224 249
205 222 246
212 229 253
213 231 254
215 232 255
215 232 255
215 232 255
215 232 255
215 232 255
215 232 255
215 232 255
215 232 255
215 232 255
215 232 255
215 232 255
215 232 255
215 232 255
215 232 255
215 232 255
215 232 255
215 232 255
215 232 255
215 232 255
215 232 255
215 232 255
215 232 255
215 232 255
215 232 255
215 232 255
215 232 255
215 232 255
215 232 255
215 232 255
215 232 255
215 232 255
215 232 255
215 232 255
215 232 255
215 232 255
215 232 255
215 232 255
215 232 255
215 232 255
215 232 255
215 232 255
215 232 255
215 232 255
215 232 255
215 232 255
215 232 255
215 232 255
215 232 255
215 232 255
215 232 255
215 232 255
215 232 255
215 232 255
215 232 255
215 232 255
215 232 255
215 232 255
215 232 255
215 232 255
215 232 255
215 232 255
215 232 255
215 232 255
215 232 255
215 232 255
215 232 255
215 232 255
215 232 255
215 232 255
215 232 255
215 232 255
215 232 255
215 232 255
215 232 255
215 232 255
215 232 255
215 232 255
215 232 255
215 232 255
215 232 255
215 232 255
215 232 255
215 232 255
215 232 255
215 232 255
215 232 255
215 232 255
215 232 255
215 232 255
215 232 255
215 232 255
215 232 255
215 232 255
215 232 255
215 232 255
215 232 255
215 232 255
215 232 255
215 232 255
215 232 255
215 232 255
215 232 255
215 232 255
215 232 255
215 232 255
215 232 255
215 232 255
215 232 255
215 232 255
215 232 255
215 232 255
215 232 255
215 232 255
215 232 255
215 232 255
215 232 255
215 232 255
215 232 255
215 232 255
215 232 255
215 232 255
215 232 255
215 232 255
215 232 255
215 232 255
215 232 255
215 232 255
215 232 255
215 232 255
215 232 255
215 232 255
215 232 255
215 232 255
215 232 255
215 232 255
215 232 255
215 232 255
215 232 255
215 232 255
215 232 255
215 232 255
215 232 255
215 232 255
215 232 255
215 232 255
215 232 255
215 232 255
215 232 255
215 232 255
215 232 255
215 232 255
215 232 255
215 232 255
215 232 255
215 232 255
215 232 255
215 232 255
215 232 255
215 232 255
215 232 255
215 232 255
215 232 255
215 232 255
215 232 255
215 232 255
215 232 255
215 232 255
215 232 255
215 232 255
215 232 255
215 232 255
215 232 255
215 232 255
215 232 255
215 232 255
215 232 255
215 232 255
215 232 255
215 232 255
215 232 255
215 232 255
215 232 255
215 232 255
215 232 255
215 232 255
215 232 255
215 232 255
215 232 255
215 232 255
215 232 255
215 232 255
215 232 255
215 232 255
215 232 255
215 232 255
215 232 255
215 232 255
215 232 255
215 232 255
215 232 255
215 232 255
215 232 255
215 232 255
215 232 255
215 232 255
215 232 255
215 232 255
215 232 255
215 232 255
215 232 255
215 232 255
215 232 255
215 232 255
215 232 255
215 232 255
215 232 255
215 232 255
215 232 255
215 232 255
215 232 255
215 232 255
215 232 255
215 232 255
215 232 255
215 232 255
215 232 255
215 232 255
215 232 255
215 232 255
215 232 255
215 232 255
215 232 255
215 232 255
215 232 255
215 232 255
215 232 255
215 232 255
215 232 255
215 232 255
215 232 255
215 232 255
215 232 255
215 232 255
215 232 255
215 232 255
215 232 255
215 232 255
215 232 255
215 232 255
215 232 255
215 232 255
215 232 255
215 232 255
215 232 255
215 232 255
215 232 255
215 232 255
215 232 255
215 232 255
215 232 255
215 232 255
215 232 255
215 232 255
215 232 255
215 232 255
215 232 255
215 232 255
215 232 255
215 232 255
215 232 255
215 232 255
215 232 255
215 232 255
215 232 255
215 232 255
215 232 255
215 232 255
215 232 255
215 232 255
215 232 255
215 232 255
215 232 255
215 232 255
215 232 255
215 232 255
215 232 255
215 232 255
215 232 255
215 232 255
215 232 255
215 232 255
215 232 255
215 232 255
215 232 255
215 232 255
215 232 255
215 232 255
215 232 255
215 232 255
215 232 255
215 232 255
215 232 255
215 232 255
215 232 255
215 232 255
215 232 255
215 232 255
215 232 255
215 232 255
215 232 255
215 232 255
215 232 255
215 232 255
215 232 255
215 232 255
215 232 255
215 232 255
215 232 255
215 232 255
215 232 255
215 232 255
215 232 255
215 232 255
215 232 255
215 232 255
215 232 255
215 232 255
215 232 255
215 232 255
215 232 255
215 232 255
215 232 255
215 232 255
215 232 255
215 232 255
215 232 255
215 232 255
215 232 255
215 232 255
215 232 255
215 232 255
215 232 255
215 232 255
215 232 255
215 232 255
215 232 255
215 232 255
215 232 255
215 232 255
215 232 255
215 232 255
215 232 255
215 232 255
215 232 255
215 232 255
215 232 255
215 232 255
215 232 255
215 232 255
215 232 255
215 232 255
215 232 255
215 232 255
215 232 255
215 232 255
215 232 255
215 232 255
215 232 255
215 232 255
215 232 255
215 232 255
215 232 255
215 232 255
215 232 255
214 232 255
209 227 252
203 222 248
197 216 241
181 199 223
176 193 214
177 197 220
159 178 199
160 178 199
182 206 237
161 183 210
139 156 171
138 156 172
133 152 182
132 150 170
146 164 185
130 149 177
154 173 190
154 168 170
105 116 131
123 136 151
133 146 161
81 92 118
76 87 112
55 64 97
66 77 109
67 75 103
120 133 160
126 138 163
145 158 183
167 181 205
178 195 220
206 224 248
214 231 255
215 232 255
215 232 255
215 232 255
215 232 255
215 232 255
215 232 255
215 232 255
215 232 255
215 232 255
215 232 255
215 232 255
215 232 255
215 232 255
215 232 255
215 232 255
215 232 255
215 232 255
215 232 255
215 232 255
215 232 255
215 232 255
215 232 255
215 232 255
215 232 255
215 232 255
215 232 255
215 232 255
215 232 255
215 232 255
215 232 255
215 232 255
215 232 255
215 232 255
215 232 255
215 232 255
215 232 255
215 232 255
215 232 255
215 232 255
215 232 255
215 232 255
215 232 255
215 232 255
215 232 255
215 232 255
215 232 255
215 232 255
215 232 255
215 232 255
215 232 255
215 232 255
215 232 255
215 232 255
215 232 255
215 232 255
215 232 255
215 232 255
215 232 255
215 232 255
215 232 255
215 232 255
215 232 255
215 232 255
215 232 255
215 232 255
215 232 255
215 232 255
215 232 255
215 232 255
215 232 255
215 232 255
215 232 255
215 232 255
215 232 255
215 232 255
215 232 255
215 232 255
215 232 255
215 232 255
215 232 255
215 232 255
215 232 255
215 232 255
215 232 255
215 232 255
215 232 255
215 232 255
215 232 255
215 232 255
215 232 255
215 232 255
215 232 255
215 232 255
215 232 255
215 232 255
215 232 255
215 232 255
215 232 255
215 232 255
215 232 255
215 232 255
215 232 255
215 232 255
215 232 255
215 232 255
215 232 255
215 232 255
215 232 255
215 232 255
215 232 255
215 232 255
215 232 255
215 232 255
215 232 255
215 232 255
215 232 255
215 232 255
215 232 255
215 232 255
215 232 255
215 232 255
215 232 255
215 232 255
215 232 255
215 232 255
215 232 255
215 232 255
215 232 255
215 232 255
215 232 255
215 232 255
215 232 255
215 232 255
215 232 255
215 232 255
215 232 255
215 232 255
215 232 255
215 232 255
215 232 255
215 232 255
215 232 255
215 232 255
215 232 255
215 232 255
215 232 255
215 232 255
215 232 255
215 232 255
215 232 255
215 232 255
215 232 255
215 232 255
215 232 255
215 232 255
215 232 255
215 232 255
215 232 255
215 232 255
215 232 255
215 232 255
215 232 255
215 232 255
215 232 255
215 232 255
215 232 255
215 232 255
215 232 255
215 232 255
215 232 255
215 232 255
215 232 255
215 232 255
215 232 255
215 232 255
215 232 255
215 232 255
215 232 255
215 232 255
215 232 255
215 232 255
215 232 255
215 232 255
215 232 255
215 232 255
215 232 255
215 232 255
215 232 255
215 232 255
215 232 255
215 232 255
215 232 255
215 232 255
215 232 255
215 232 255
215 232 255
215 232 255
215 232 255
215 232 255
215 232 255
215 232 255
215 232 255
215 232 255
215 232 255
215 232 255
215 232 255
215 232 255
215 232 255
215 232 255
215 232 255
215 232 255
215 232 255
215 232 255
215 232 255
215 232 255
215 232 255
215 232 255
215 232 255
215 232 255
215 232 255
215 232 255
215 232 255
215 232 255
215 232 255
215 232 255
215 232 255
215 232 255
215 232 255
215 232 255
215 232 255
215 232 255
215 232 255
215 232 255
215 232 255
215 232 255
215 232 255
215 232 255
215 232 255
215 232 255
215 232 255
215 232 255
215 232 255
215 232 255
215 232 255
215 232 255
215 232 255
215 232 255
215 232 255
215 232 255
215 232 255
215 232 255
215 232 255
215 232 255
215 232 255
215 232 255
215 232 255
215 232 255
215 232 255
215 232 255
215 232 255
215 232 255
215 232 255
215 232 255
215 232 255
215 232 255
215 232 255
215 232 255
215 232 255
215 232 255
215 232 255
215 232 255
215 232 255
215 232 255
215 232 255
215 232 255
215 232 255
215 232 255
215 232 255
215 232 255
215 232 255
215 232 255
215 232 255
215 232 255
215 232 255
215 232 255
215 232 255
215 232 255
215 232 255
215 232 255
215 232 255
215 232 255
215 232 255
215 232 255
215 232 255
215 232 255
215 232 255
215 232 255
215 232 255
215 232 255
215 232 255
215 232 255
215 232 255
215 232 255
215 232 255
215 232 255
215 232 255
215 232 255
215 232 255
215 232 255
215 232 255
215 232 255
215 232 255
215 232 255
215 232 255
215 232 255
215 232 255
215 232 255
215 232 255
215 232 255
215 232 255
215 232 255
215 232 255
215 232 255
215 232 255
215 232 255
215 232 255
215 232 255
215 232 255
215 232 255
215 232 255
215 232 255
215 232 255
215 232 255
215 232 255
215 232 255
215 232 255
215 232 255
215 232 255
215 232 255
215 232 255
215 232 255
215 232 255
215 232 255
215 232 255
215 232 255
215 232 255
215 232 255
215 232 255
215 232 255
215 232 255
215 232 255
215 232 255
215 232 255
215 232 255
215 232 255
215 232 255
215 232 255
215 232 255
215 232 255
215 232 255
215 232 255
212 230 255
205 225 253
176 193 215
159 175 193
139 154 174
93 101 111
75 76 60
80 81 62
81 82 54
85 86 63
82 84 62
88 97 88
68 73 44
106 122 143
156 179 208
165 189 223
124 141 158
82 94 117
62 65 54
62 67 50
57 62 73
101 115 146
133 149 171
73 79 93
116 128 144
77 81 80
77 77 70
80 82 73
72 76 74
79 85 94
92 102 113
77 85 92
113 129 148
96 110 133
72 82 109
56 65 95
24 26 70
0 4 68
77 88 120
115 130 161
156 173 201
183 201 225
208 228 254
211 230 255
215 232 255
215 232 255
215 232 255
215 232 255
215 232 255
215 232 255
215 232 255
215 232 255
215 232 255
215 232 255
215 232 255
215 232 255
215 232 255
215 232 255
215 232 255
215 232 255
215 232 255
215 232 255
215 232 255
215 232 255
215 232 255
215 232 255
215 232 255
215 232 255
215 232 255
215 232 255
215 232 255
215 232 255
215 232 255
215 232 255
215 232 255
215 232 255
215 232 255
215 232 255
215 232 255
215 232 255
215 232 255
215 232 255
215 232 255
215 232 255
215 232 255
215 232 255
215 232 255
215 232 255
215 232 255
215 232 255
215 232 255
215 232 255
215 232 255
215 232 255
215 232 255
215 232 255
215 232 255
215 232 255
215 232 255
215 232 255
215 232 255
215 232 255
215 232 255
215 232 255
215 232 255
215 232 255
215 232 255
215 232 255
215 232 255
215 232 255
215 232 255
215 232 255
215 232 255
215 232 255
215 232 255
215 232 255
215 232 255
215 232 255
215 232 255
215 232 255
215 232 255
215 232 255
215 232 255
215 232 255
215 232 255
215 232 255
215 232 255
215 232 255
215 232 255
215 232 255
215 232 255
215 232 255
215 232 255
215 232 255
215 232 255
215 232 255
215 232 255
215 232 255
215 232 255
215 232 255
215 232 255
215 232 255
215 232 255
215 232 255
215 232 255
215 232 255
215 232 255
215 232 255
215 232 255
215 232 255
215 232 255
215 232 255
215 232 255
215 232 255
215 232 255
215 232 255
215 232 255
215 232 255
215 232 255
215 232 255
215 232 255
215 232 255
215 232 255
215 232 255
215 232 255
215 232 255
215 232 255
215 232 255
215 232 255
215 232 255
215 232 255
215 232 255
215 232 255
215 232 255
215 232 255
215 232 255
215 232 255
215 232 255
215 232 255
215 232 255
215 232 255
215 232 255
215 232 255
215 232 255
215 232 255
215 232 255
215 232 255
215 232 255
215 232 255
215 232 255
215 232 255
215 232 255
215 232 255
215 232 255
215 232 255
215 232 255
215 232 255
215 232 255
215 232 255
215 232 255
215 232 255
215 232 255
215 232 255
215 232 255
215 232 255
215 232 255
215 232 255
215 232 255
215 232 255
215 232 255
215 232 255
215 232 255
215 232 255
215 232 255
215 232 255
215 232 255
215 232 255
215 232 255
215 232 255
215 232 255
215 232 255
215 232 255
215 232 255
215 232 255
215 232 255
215 232 255
215 232 255
215 232 255
215 232 255
215 232 255
215 232 255
215 232 255
215 232 255
215 232 255
215 232 255
215 232 255
215 232 255
215 232 255
215 232 255
215 232 255
215 232 255
215 232 255
215 232 255
215 232 255
215 232 255
215 232 255
215 232 255
215 232 255
215 232 255
215 232 255
215 232 255
215 232 255
215 232 255
215 232 255
215 232 255
215 232 255
215 232 255
215 232 255
215 232 255
215 232 255
215 232 255
215 232 255
215 232 255
215 232 255
215 232 255
215 232 255
215 232 255
215 232 255
215 232 255
215 232 255
215 232 255
215 232 255
215 232 255
215 232 255
215 232 255
215 232 255
215 232 255
215 232 255
215 232 255
215 232 255
215 232 255
215 232 255
215 232 255
215 232 255
215 232 255
215 232 255
215 232 255
215 232 255
215 232 255
215 232 255
215 232 255
215 232 255
215 232 255
215 232 255
215 232 255
215 232 255
215 232 255
215 232 255
215 232 255
215 232 255
215 232 255
215 232 255
215 232 255
215 232 255
215 232 255
215 232 255
215 232 255
215 232 255
215 232 255
215 232 255
215 232 255
215 232 255
215 232 255
215 232 255
215 232 255
215 232 255
215 232 255
215 232 255
215 232 255
215 232 255
215 232 255
215 232 255
215 232 255
215 232 255
215 232 255
215 232 255
215 232 255
215 232 255
215 232 255
215 232 255
215 232 255
215 232 255
215 232 255
215 232 255
215 232 255
215 232 255
215 232 255
215 232 255
215 232 255
215 232 255
215 232 255
215 232 255
215 232 255
215 232 255
215 232 255
215 232 255
215 232 255
215 232 255
215 232 255
215 232 255
215 232 255
215 232 255
215 232 255
215 232 255
215 232 255
215 232 255
215 232 255
215 232 255
215 232 255
215 232 255
215 232 255
215 232 255
215 232 255
215 232 255
215 232 255
215 232 255
215 232 255
215 232 255
215 232 255
215 232 255
215 232 255
215 232 255
215 232 255
215 232 255
215 232 255
215 232 255
215 232 255
215 232 255
215 232 255
215 232 255
215 232 255
215 232 255
215 232 255
215 232 255
215 232 255
215 232 255
215 232 255
215 232 255
215 232 255
215 232 255
215 232 255
215 232 255
215 232 255
215 232 255
215 232 255
213 230 254
205 223 248
179 195 220
151 169 195
136 153 179
106 120 143
66 71 91
49 51 60
42 43 59
49 51 58
51 53 54
62 65 50
52 55 42
47 53 59
45 53 40
44 53 50
42 53 55
41 52 66
41 53 67
42 53 73
46 57 68
56 62 46
42 50 51
47 49 43
61 61 44
62 63 46
70 75 67
65 66 48
80 87 100
84 92 105
64 69 67
64 68 58
57 59 48
30 35 57
37 45 84
40 52 96
41 47 66
49 53 47
39 43 58
50 54 58
81 88 85
84 93 98
63 70 90
63 72 102
7 16 75
1 16 79
4 18 80
34 41 84
58 70 107
131 149 174
173 193 219
206 227 255
209 229 255
214 232 255
215 232 255
215 232 255
215 232 255
215 232 255
215 232 255
215 232 255
215 232 255
215 232 255
215 232 255
215 232 255
215 232 255
215 232 255
215 232 255
215 232 255
215 232 255
215 232 255
215 232 255
215 232 255
215 232 255
215 232 255
215 232 255
215 232 255
215 232 255
215 232 255
215 232 255
215 232 255
215 232 255
215 232 255
215 232 255
215 232 255
215 232 255
215 232 255
215 232 255
215 232 255
215 232 255
215 232 255
215 232 255
215 232 255
215 232 255
215 232 255
215 232 255
215 232 255
215 232 255
215 232 255
215 232 255
215 232 255
215 232 255
215 232 255
215 232 255
215 232 255
215 232 255
215 232 255
215 232 255
215 232 255
215 232 255
215 232 255
215 232 255
215 232 255
215 232 255
215 232 255
215 232 255
215 232 255
215 232 255
215 232 255
215 232 255
215 232 255
215 232 255
215 232 255
215 232 255
215 232 255
215 232 255
215 232 255
215 232 255
215 232 255
215 232 255
215 232 255
215 232 255
215 232 255
215 232 255
215 232 255
215 232 255
215 232 255
215 232 255
215 232 255
215 232 255
215 232 255
215 232 255
215 232 255
215 232 255
215 232 255
215 232 255
215 232 255
215 232 255
215 232 255
215 232 255
215 232 255
215 232 255
215 232 255
215 232 255
215 232 255
215 232 255
215 232 255
215 232 255
215 232 255
215 232 255
215 232 255
215 232 255
215 232 255
215 232 255
215 232 255
215 232 255
215 232 255
215 232 255
215 232 255
215 232 255
215 232 255
215 232 255
215 232 255
215 232 255
215 232 255
215 232 255
215 232 255
215 232 255
215 232 255
215 232 255
215 232 255
215 232 255
215 232 255
215 232 255
215 232 255
215 232 255
215 232 255
215 232 255
215 232 255
215 232 255
215 232 255
215 232 255
215 232 255
215 232 255
215 232 255
215 232 255
215 232 255
215 232 255
215 232 255
215 232 255
215 232 255
215 232 255
215 232 255
215 232 255
215 232 255
215 232 255
215 232 255
215 232 255
215 232 255
215 232 255
215 232 255
215 232 255
215 232 255
215 232 255
215 232 255
215 232 255
215 232 255
215 232 255
215 232 255
215 232 255
215 232 255
215 232 255
215 232 255
215 232 255
215 232 255
215 232 255
215 232 255
215 232 255
215 232 255
215 232 255
215 232 255
215 232 255
215 232 255
215 232 255
215 232 255
215 232 255
215 232 255
215 232 255
215 232 255
215 232 255
215 232 255
215 232 255
215 232 255
215 232 255
215 232 255
215 232 255
215 232 255
215 232 255
215 232 255
215 232 255
215 232 255
215 232 255
215 232 255
215 232 255
215 232 255
215 232 255
215 232 255
215 232 255
215 232 255
215 232 255
215 232 255
215 232 255
215 232 255
215 232 255
215 232 255
215 232 255
215 232 255
215 232 255
215 232 255
215 232 255
215 232 255
215 232 255
215 232 255
215 232 255
215 232 255
215 232 255
215 232 255
215 232 255
215 232 255
215 232 255
215 232 255
215 232 255
215 232 255
215 232 255
215 232 255
215 232 255
215 232 255
215 232 255
215 232 255
215 232 255
215 232 255
215 232 255
215 232 255
215 232 255
215 232 255
215 232 255
215 232 255
215 232 255
215 232 255
215 232 255
215 232 255
215 232 255
215 232 255
215 232 255
215 232 255
215 232 255
215 232 255
215 232 255
215 232 255
215 232 255
215 232 255
215 232 255
215 232 255
215 232 255
215 232 255
215 232 255
215 232 255
215 232 255
215 232 255
215 232 255
215 232 255
215 232 255
215 232 255
215 232 255
215 232 255
215 232 255
215 232 255
215 232 255
215 232 255
215 232 255
215 232 255
215 232 255
215 232 255
215 232 255
215 232 255
215 232 255
215 232 255
215 232 255
215 232 255
215 232 255
215 232 255
215 232 255
215 232 255
215 232 255
215 232 255
215 232 255
215 232 255
215 232 255
215 232 255
215 232 255
215 232 255
215 232 255
215 232 255
215 232 255
215 232 255
215 232 255
215 232 255
215 232 255
215 232 255
215 232 255
215 232 255
215 232 255
215 232 255
215 232 255
215 232 255
215 232 255
215 232 255
215 232 255
215 232 255
215 232 255
215 232 255
215 232 255
215 232 255
215 232 255
215 232 255
215 232 255
215 232 255
215 232 255
215 232 255
215 232 255
215 232 255
215 232 255
215 232 255
215 232 255
215 232 255
215 232 255
215 232 255
215 232 255
215 232 255
215 232 255
215 232 255
215 232 255
215 232 255
215 232 255
215 232 255
215 232 255
215 232 255
214 231 254
176 190 213
152 164 186
87 97 113
44 51 63
34 39 29
37 43 22
48 54 27
55 59 40
64 66 42
54 59 36
48 55 29
47 54 31
45 50 34
49 53 35
53 57 37
55 59 39
45 53 38
51 54 31
53 54 30
51 53 28
54 55 29
54 55 29
53 55 30
53 58 30
53 55 33
56 57 37
59 59 39
58 59 44
58 60 43
58 60 45
51 54 43
52 53 42
42 45 49
77 82 85
85 96 111
91 105 133
37 48 97
10 20 73
10 17 70
7 12 68
23 26 59
20 22 61
28 29 56
68 68 43
69 72 49
55 59 47
88 94 91
103 117 132
115 129 146
71 82 97
78 90 113
30 40 86
0 21 84
16 30 87
50 61 98
124 141 163
184 207 236
202 225 255
205 227 255
211 230 255
215 232 255
215 232 255
215 232 255
215 232 255
215 232 255
215 232 255
215 232 255
215 232 255
215 232 255
215 232 255
215 232 255
215 232 255
215 232 255
215 232 255
215 232 255
215 232 255
215 232 255
215 232 255
215 232 255
215 232 255
215 232 255
215 232 255
215 232 255
215 232 255
215 232 255
215 232 255
215 232 255
215 232 255
215 232 255
215 232 255
215 232 255
215 232 255
215 232 255
215 232 255
215 232 255
215 232 255
215 232 255
215 232 255
215 232 255
215 232 255
215 232 255
215 232 255
215 232 255
215 232 255
215 232 255
215 232 255
215 232 255
215 232 255
215 232 255
215 232 255
215 232 255
215 232 255
215 232 255
215 232 255
215 232 255
215 232 255
215 232 255
215 232 255
215 232 255
215 232 255
215 232 255
215 232 255
215 232 255
215 232 255
215 232 255
215 232 255
215 232 255
215 232 255
215 232 255
215 232 255
215 232 255
215 232 255
215 232 255
215 232 255
215 232 255
215 232 255
215 232 255
215 232 255
215 232 255
215 232 255
215 232 255
215 232 255
215 232 255
215 232 255
215 232 255
215 232 255
215 232 255
215 232 255
215 232 255
215 232 255
215 232 255
215 232 255
215 232 255
215 232 255
215 232 255
215 232 255
215 232 255
215 232 255
215 232 255
215 232 255
215 232 255
215 232 255
215 232 255
215 232 255
215 232 255
215 232 255
215 232 255
215 232 255
215 232 255
215 232 255
215 232 255
215 232 255
215 232 255
215 232 255
215 232 255
215 232 255
215 232 255
215 232 255
215 232 255
215 232 255
215 232 255
215 232 255
215 232 255
215 232 255
215 232 255
215 232 255
215 232 255
215 232 255
215 232 255
215 232 255
215 232 255
215 232 255
215 232 255
215 232 255
215 232 255
215 232 255
215 232 255
215 232 255
215 232 255
215 232 255
215 232 255
215 232 255
215 232 255
215 232 255
215 232 255
215 232 255
215 232 255
215 232 255
215 232 255
215 232 255
215 232 255
215 232 255
215 232 255
215 232 255
215 232 255
215 232 255
215 232 255
215 232 255
215 232 255
215 232 255
215 232 255
215 232 255
215 232 255
215 232 255
215 232 255
215 232 255
215 232 255
215 232 255
215 232 255
215 232 255
216 232 255
215 232 255
215 232 255
215 232 255
215 232 255
215 232 255
215 232 255
215 232 255
215 232 255
215 232 255
215 232 255
215 232 255
215 232 255
215 232 255
215 232 255
215 232 255
215 232 255
215 232 255
215 232 255
215 232 255
215 232 255
215 232 255
215 232 255
215 232 255
215 232 255
215 232 255
215 232 255
215 232 255
215 232 255
215 232 255
215 232 255
215 232 255
215 232 255
215 232 255
215 232 255
215 232 255
215 232 255
215 232 255
215 232 255
215 232 255
215 232 255
215 232 255
215 232 255
215 232 255
215 232 255
215 232 255
215 232 255
215 232 255
215 232 255
215 232 255
215 232 255
215 232 255
215 232 255
215 232 255
215 232 255
215 232 255
215 232 255
215 232 255
215 232 255
215 232 255
215 232 255
215 232 255
215 232 255
215 232 255
215 232 255
215 232 255
215 232 255
215 232 255
215 232 255
215 232 255
215 232 255
215 232 255
215 232 255
215 232 255
215 232 255
215 232 255
215 232 255
215 232 255
215 232 255
215 232 255
215 232 255
215 232 255
215 232 255
215 232 255
215 232 255
215 232 255
215 232 255
215 232 255
215 232 255
215 232 255
215 232 255
215 232 255
215 232 255
215 232 255
215 232 255
215 232 255
215 232 255
215 232 255
215 232 255
215 232 255
215 232 255
215 232 255
215 232 255
215 232 255
215 232 255
215 232 255
215 232 255
215 232 255
215 232 255
215 232 255
215 232 255
215 232 255
215 232 255
215 232 255
215 232 255
215 232 255
215 232 255
215 232 255
215 232 255
215 232 255
215 232 255
215 232 255
215 232 255
215 232 255
215 232 255
215 232 255
215 232 255
215 232 255
215 232 255
215 232 255
215 232 255
215 232 255
215 232 255
215 232 255
215 232 255
215 232 255
215 232 255
215 232 255
215 232 255
215 232 255
215 232 255
215 232 255
215 232 255
215 232 255
215 232 255
215 232 255
215 232 255
215 232 255
215 232 255
215 232 255
215 232 255
215 232 255
215 232 255
215 232 255
215 232 255
215 232 255
215 232 255
215 232 255
215 232 255
215 232 255
215 232 255
215 232 255
215 232 255
215 232 255
215 232 255
215 232 255
212 229 252
160 173 187
139 150 159
65 72 59
38 47 24
33 43 12
37 44 13
37 47 24
28 41 46
25 33 42
19 26 45
22 28 30
31 40 32
40 45 18
39 45 17
39 44 22
40 43 24
37 43 21
37 41 23
45 51 28
50 54 28
55 56 26
53 53 27
52 53 25
47 49 24
44 45 23
41 42 23
44 46 20
43 45 23
44 47 27
49 51 30
46 48 28
48 52 37
40 44 52
39 42 64
25 28 65
16 20 61
55 58 52
79 83 59
54 56 55
46 48 57
65 73 90
57 63 94
11 18 70
39 42 59
43 45 52
29 31 51
43 46 53
61 65 53
48 52 40
69 70 48
65 66 48
57 57 49
61 66 71
87 97 113
35 41 65
0 7 65
0 13 72
0 19 80
13 23 76
24 31 69
116 133 150
175 197 224
196 220 252
198 223 255
205 227 255
211 230 255
214 232 255
215 232 255
215 232 255
215 232 255
215 232 255
215 232 255
215 232 255
215 232 255
215 232 255
215 232 255
215 232 255
215 232 255
215 232 255
215 232 255
215 232 255
215 232 255
215 232 255
215 232 255
215 232 255
215 232 255
215 232 255
215 232 255
215 232 255
215 232 255
215 232 255
215 232 255
215 232 255
215 232 255
215 232 255
215 232 255
215 232 255
215 232 255
215 232 255
215 232 255
215 232 255
215 232 255
215 232 255
215 232 255
215 232 255
215 232 255
215 232 255
215 232 255
215 232 255
215 232 255
215 232 255
215 232 255
215 232 255
215 232 255
215 232 255
215 232 255
215 232 255
215 232 255
215 232 255
215 232 255
215 232 255
215 232 255
215 232 255
215 232 255
215 232 255
215 232 255
215 232 255
215 232 255
215 232 255
215 232 255
215 232 255
215 232 255
215 232 255
215 232 255
215 232 255
215 232 255
215 232 255
215 232 255
215 232 255
215 232 255
215 232 255
215 232 255
215 232 255
215 232 255
215 232 255
215 232 255
215 232 255
215 232 255
215 232 255
215 232 255
215 232 255
215 232 255
215 232 255
215 232 255
215 232 255
215 232 255
215 232 255
215 232 255
215 232 255
215 232 255
215 232 255
215 232 255
215 232 255
215 232 255
215 232 255
215 232 255
215 232 255
215 232 255
215 232 255
215 232 255
215 232 255
215 232 255
215 232 255
215 232 255
215 232 255
215 232 255
215 232 255
215 232 255
215 232 255
215 232 255
215 232 255
215 232 255
215 232 255
215 232 255
215 232 255
215 232 255
215 232 255
215 232 255
215 232 255
215 232 255
215 232 255
215 232 255
215 232 255
215 232 255
215 232 255
215 232 255
215 232 255
215 232 255
215 232 255
215 232 255
215 232 255
215 232 255
215 232 255
215 232 255
215 232 255
215 232 255
215 232 255
215 232 255
215 232 255
215 232 255
215 232 255
215 232 255
215 232 255
215 232 255
215 232 255
215 232 255
215 232 255
215 232 255
215 232 255
215 232 255
215 232 255
215 232 255
215 232 255
215 232 255
215 232 255
215 232 255
215 232 255
215 232 255
215 232 255
215 232 255
215 232 255
215 232 255
216 232 255
216 232 255
216 232 255
216 232 255
216 232 255
216 232 255
216 232 255
216 232 255
216 232 255
216 232 255
216 232 255
216 232 255
216 232 255
216 232 255
216 232 255
216 232 255
216 232 255
216 232 255
216 232 255
216 232 255
216 232 255
216 232 255
216 232 255
216 232 255
215 232 255
216 232 255
215 232 255
215 232 255
215 232 255
215 232 255
215 232 255
215 232 255
215 232 255
215 232 255
215 232 255
215 232 255
215 232 255
215 232 255
215 232 255
215 232 255
215 232 255
215 232 255
215 232 255
215 232 255
215 232 255
215 232 255
215 232 255
215 232 255
215 232 255
215 232 255
215 232 255
215 232 255
215 232 255
215 232 255
215 232 255
215 232 255
215 232 255
215 232 255
215 232 255
215 232 255
215 232 255
215 232 255
215 232 255
215 232 255
215 232 255
215 232 255
215 232 255
215 232 255
215 232 255
215 232 255
215 232 255
215 232 255
215 232 255
215 232 255
215 232 255
215 232 255
215 232 255
215 232 255
215 232 255
215 232 255
215 232 255
215 232 255
215 232 255
215 232 255
215 232 255
215 232 255
215 232 255
215 232 255
215 232 255
215 232 255
215 232 255
215 232 255
215 232 255
215 232 255
215 232 255
215 232 255
215 232 255
215 232 255
215 232 255
215 232 255
215 232 255
215 232 255
215 232 255
215 232 255
215 232 255
215 232 255
215 232 255
215 232 255
215 232 255
215 232 255
215 232 255
215 232 255
215 232 255
215 232 255
215 232 255
215 232 255
215 232 255
215 232 255
215 232 255
215 232 255
215 232 255
215 232 255
215 232 255
215 232 255
215 232 255
215 232 255
215 232 255
215 232 255
215 232 255
215 232 255
215 232 255
215 232 255
215 232 255
215 232 255
215 232 255
215 232 255
215 232 255
215 232 255
215 232 255
215 232 255
215 232 255
215 232 255
215 232 255
215 232 255
215 232 255
215 232 255
215 232 255
215 232 255
215 232 255
215 232 255
215 232 255
215 232 255
215 232 255
215 232 255
215 232 255
215 232 255
215 232 255
215 232 255
215 232 255
215 232 255
215 232 255
215 232 255
215 232 255
215 232 255
213 230 253
196 211 231
134 145 154
55 65 48
44 53 20
53 60 30
51 57 29
54 61 33
38 47 12
37 47 11
37 42 10
33 38 14
31 37 12
33 41 10
33 41 8
35 43 14
37 42 18
33 39 17
28 35 20
33 38 17
41 45 19
45 48 19
46 48 20
48 49 19
44 45 21
44 46 21
32 35 24
38 42 19
37 41 18
35 38 20
41 46 21
40 44 16
42 45 21
39 42 35
28 30 50
15 17 62
6 12 71
0 10 74
0 3 65
0 5 68
0 2 67
5 6 64
13 15 57
51 55 58
21 24 64
10 15 65
47 52 68
8 16 65
35 38 58
43 44 59
30 33 61
29 31 59
23 25 60
33 35 54
54 54 53
59 59 53
64 65 58
81 88 92
58 64 74
12 14 59
0 7 63
0 0 64
0 1 63
0 3 62
0 2 63
48 54 85
86 97 116
157 177 204
189 215 248
200 224 255
197 222 254
199 221 249
186 204 230
211 228 251
215 232 255
215 232 255
215 232 255
215 232 255
215 232 255
215 232 255
215 232 255
215 232 255
215 232 255
215 232 255
215 232 255
215 232 255
215 232 255
215 232 255
215 232 255
215 232 255
215 232 255
215 232 255
215 232 255
215 232 255
215 232 255
215 232 255
215 232 255
215 232 255
215 232 255
215 232 255
215 232 255
215 232 255
215 232 255
215 232 255
215 232 255
215 232 255
215 232 255
215 232 255
215 232 255
215 232 255
215 232 255
215 232 255
215 232 255
215 232 255
215 232 255
215 232 255
215 232 255
215 232 255
215 232 255
215 232 255
215 232 255
215 232 255
215 232 255
215 232 255
215 232 255
215 232 255
215 232 255
215 232 255
215 232 255
215 232 255
215 232 255
215 232 255
215 232 255
215 232 255
215 232 255
215 232 255
215 232 255
215 232 255
215 232 255
215 232 255
215 232 255
215 232 255
215 232 255
215 232 255
215 232 255
215 232 255
215 232 255
215 232 255
215 232 255
215 232 255
215 232 255
215 232 255
215 232 255
215 232 255
215 232 255
215 232 255
215 232 255
215 232 255
215 232 255
215 232 255
215 232 255
215 232 255
215 232 255
215 232 255
215 232 255
215 232 255
215 232 255
215 232 255
215 232 255
215 232 255
215 232 255
215 232 255
215 232 255
215 232 255
215 232 255
215 232 255
215 232 255
215 232 255
215 232 255
215 232 255
215 232 255
215 232 255
215 232 255
215 232 255
215 232 255
215 232 255
215 232 255
215 232 255
215 232 255
215 232 255
215 232 255
215 232 255
215 232 255
215 232 255
215 232 255
215 232 255
215 232 255
215 232 255
215 232 255
215 232 255
215 232 255
215 232 255
215 232 255
215 232 255
215 232 255
215 232 255
215 232 255
215 232 255
215 232 255
215 232 255
215 232 255
215 232 255
215 232 255
216 232 255
216 232 255
216 232 255
216 232 255
216 232 255
216 232 255
216 232 255
216 232 255
216 232 255
216 232 255
216 232 255
216 232 255
216 232 255
216 232 255
216 232 255
216 232 255
216 232 255
216 232 255
216 232 255
216 232 255
216 232 255
216 232 255
216 232 255
216 232 255
216 232 255
216 232 255
216 232 255
216 232 255
216 232 255
216 232 255
216 232 255
216 232 255
216 232 255
216 232 255
216 232 255
216 232 255
216 232 255
216 232 255
216 232 255
216 232 255
216 232 255
216 232 255
216 232 255
216 232 255
216 232 255
216 232 255
216 232 255
216 232 255
216 232 255
216 232 255
216 232 255
216 232 255
216 232 255
216 232 255
216 232 255
216 232 255
216 232 255
216 232 255
216 232 255
216 232 255
216 232 255
216 232 255
216 232 255
216 232 255
216 232 255
216 232 255
216 232 255
216 232 255
216 232 255
216 232 255
216 232 255
216 232 255
216 232 255
216 232 255
216 232 255
215 232 255
215 232 255
215 232 255
215 232 255
215 232 255
215 232 255
215 232 255
215 232 255
215 232 255
215 232 255
215 232 255
215 232 255
215 232 255
215 232 255
215 232 255
215 232 255
215 232 255
215 232 255
215 232 255
215 232 255
215 232 255
215 232 255
215 232 255
215 232 255
215 232 255
215 232 255
215 232 255
215 232 255
215 232 255
215 232 255
215 232 255
215 232 255
215 232 255
215 232 255
215 232 255
215 232 255
215 232 255
215 232 255
215 232 255
215 232 255
215 232 255
215 232 255
215 232 255
215 232 255
215 232 255
215 232 255
215 232 255
215 232 255
215 232 255
215 232 255
215 232 255
215 232 255
215 232 255
215 232 255
215 232 255
215 232 255
215 232 255
215 232 255
215 232 255
215 232 255
215 232 255
215 232 255
215 232 255
215 232 255
215 232 255
215 232 255
215 232 255
215 232 255
215 232 255
215 232 255
215 232 255
215 232 255
215 232 255
215 232 255
215 232 255
215 232 255
215 232 255
215 232 255
215 232 255
215 232 255
215 232 255
215 232 255
215 232 255
215 232 255
215 232 255
215 232 255
215 232 255
215 232 255
215 232 255
215 232 255
215 232 255
215 232 255
215 232 255
215 232 255
215 232 255
215 232 255
215 232 255
215 232 255
215 232 255
215 232 255
215 232 255
215 232 255
215 232 255
215 232 255
215 232 255
215 232 255
215 232 255
215 232 255
215 232 255
214 231 254
191 206 226
120 132 138
60 70 58
42 52 18
43 53 21
46 56 23
56 67 32
67 72 42
66 68 41
42 51 18
34 46 8
35 45 8
39 45 16
39 46 14
31 39 7
28 38 17
25 40 19
27 44 20
29 39 15
26 37 10
29 37 12
36 42 17
36 41 12
37 39 17
34 38 13
33 38 12
36 40 15
39 44 20
43 46 16
38 42 20
43 47 17
41 44 16
44 46 13
45 46 17
28 31 42
7 10 68
0 0 68
0 3 68
0 0 68
0 0 71
0 0 70
0 0 68
0 0 64
0 0 64
0 0 63
0 0 62
0 0 64
0 6 70
5 10 70
0 7 68
21 27 58
58 58 32
57 57 29
60 61 38
64 65 45
59 62 46
39 41 58
24 26 51
17 19 57
38 40 59
41 46 64
17 20 54
15 17 62
2 8 68
0 7 67
0 0 58
0 0 59
0 0 61
0 0 66
5 10 66
84 96 116
160 180 204
194 218 250
199 223 255
178 202 235
95 108 138
144 156 177
185 200 222
215 232 255
215 232 255
215 232 255
215 232 255
215 232 255
215 232 255
215 232 255
215 232 255
215 232 255
215 232 255
215 232 255
215 232 255
215 232 255
215 232 255
215 232 255
215 232 255
215 232 255
215 232 255
215 232 255
215 232 255
215 232 255
215 232 255
215 232 255
215 232 255
215 232 255
215 232 255
215 232 255
215 232 255
215 232 255
215 232 255
215 232 255
215 232 255
215 232 255
215 232 255
215 232 255
215 232 255
215 232 255
215 232 255
215 232 255
215 232 255
215 232 255
215 232 255
215 232 255
215 232 255
215 232 255
215 232 255
215 232 255
215 232 255
215 232 255
215 232 255
215 232 255
215 232 255
215 232 255
215 232 255
215 232 255
215 232 255
215 232 255
215 232 255
215 232 255
215 232 255
215 232 255
215 232 255
215 232 255
215 232 255
215 232 255
215 232 255
215 232 255
215 232 255
215 232 255
215 232 255
215 232 255
215 232 255
215 232 255
215 232 255
215 232 255
215 232 255
215 232 255
215 232 255
215 232 255
215 232 255
215 232 255
215 232 255
215 232 255
215 232 255
215 232 255
215 232 255
215 232 255
215 232 255
215 232 255
215 232 255
215 232 255
215 232 255
215 232 255
215 232 255
215 232 255
215 232 255
215 232 255
215 232 255
215 232 255
215 232 255
215 232 255
215 232 255
215 232 255
215 232 255
215 232 255
215 232 255
215 232 255
215 232 255
215 232 255
216 232 255
215 232 255
216 232 255
216 232 255
216 232 255
216 232 255
216 232 255
216 232 255
216 232 255
216 232 255
216 232 255
216 232 255
216 232 255
216 232 255
216 232 255
216 232 255
216 232 255
216 232 255
216 232 255
216 232 255
216 232 255
216 232 255
216 232 255
216 232 255
216 232 255
216 232 255
216 232 255
216 232 255
216 232 255
216 232 255
216 232 255
216 232 255
216 232 255
216 232 255
216 232 255
216 232 255
216 232 255
216 232 255
216 232 255
216 232 255
216 232 255
216 232 255
216 232 255
216 232 255
216 232 255
216 232 255
216 232 255
216 232 255
216 232 255
216 232 255
216 232 255
216 232 255
216 232 255
216 232 255
216 232 255
216 232 255
216 232 255
216 232 255
216 232 255
216 232 255
216 232 255
216 232 255
216 232 255
216 232 255
216 232 255
216 232 255
216 232 255
216 232 255
216 232 255
216 232 255
216 232 255
216 232 255
216 232 255
216 232 255
216 232 255
216 232 255
216 232 255
216 232 255
216 232 255
216 232 255
216 232 255
216 232 255
216 232 255
216 232 255
216 232 255
216 232 255
216 232 255
216 232 255
216 232 255
216 232 255
216 232 255
216 232 255
216 232 255
216 232 255
216 232 255
216 232 255
216 232 255
216 232 255
216 232 255
216 232 255
216 232 255
216 232 255
216 232 255
216 232 255
216 232 255
216 232 255
216 232 255
216 232 255
216 232 255
216 232 255
216 232 255
216 232 255
216 232 255
216 232 255
216 232 255
216 232 255
216 232 255
216 232 255
216 232 255
216 232 255
216 232 255
216 232 255
216 232 255
216 232 255
216 232 255
216 232 255
216 232 255
216 232 255
216 232 255
216 232 255
216 232 255
216 232 255
216 232 255
215 232 255
215 232 255
215 232 255
215 232 255
215 232 255
215 232 255
215 232 255
215 232 255
215 232 255
215 232 255
215 232 255
215 232 255
215 232 255
215 232 255
215 232 255
215 232 255
215 232 255
215 232 255
215 232 255
215 232 255
215 232 255
215 232 255
215 232 255
215 232 255
215 232 255
215 232 255
215 232 255
215 232 255
215 232 255
215 232 255
215 232 255
215 232 255
215 232 255
215 232 255
215 232 255
215 232 255
215 232 255
215 232 255
215 232 255
215 232 255
215 232 255
215 232 255
215 232 255
215 232 255
215 232 255
215 232 255
215 232 255
215 232 255
215 232 255
215 232 255
215 232 255
215 232 255
215 232 255
215 232 255
215 232 255
215 232 255
215 232 255
215 232 255
215 232 255
215 232 255
215 232 255
215 232 255
215 232 255
215 232 255
215 232 255
215 232 255
215 232 255
215 232 255
215 232 255
215 232 255
215 232 255
215 232 255
215 232 255
215 232 255
215 232 255
215 232 255
215 232 255
210 227 249
167 181 196
95 106 108
36 48 13
30 44 4
31 45 7
32 43 5
32 44 6
47 60 24
50 60 29
51 57 29
40 52 20
26 42 0
27 40 0
28 42 3
31 44 4
31 45 8
29 42 10
26 40 15
32 44 5
31 44 4
31 42 6
28 38 11
30 37 13
31 39 7
27 35 5
26 34 5
30 38 13
37 45 13
35 41 18
40 46 22
36 41 15
35 38 15
40 44 13
44 47 14
47 49 15
43 45 12
8 13 65
0 8 69
0 6 70
0 4 70
0 0 64
0 0 64
0 0 69
0 0 69
0 0 68
0 0 68
0 0 67
0 0 64
0 0 64
0 0 63
0 4 66
0 5 65
1 4 66
34 40 54
51 54 21
47 48 21
48 50 26
52 53 29
61 61 39
61 61 34
50 52 38
13 16 58
16 21 61
0 0 66
5 5 63
19 25 56
1 5 66
0 0 64
0 0 64
0 0 65
0 0 62
0 6 68
0 10 73
0 8 71
85 96 121
147 165 191
191 214 246
196 220 252
123 141 171
26 33 77
80 87 109
172 186 207
210 226 249
215 232 255
215 232 255
215 232 255
215 232 255
215 232 255
215 232 255
215 232 255
215 232 255
215 232 255
215 232 255
215 232 255
215 232 255
215 232 255
215 232 255
215 232 255
215 232 255
215 232 255
215 232 255
215 232 255
215 232 255
215 232 255
215 232 255
215 232 255
215 232 255
215 232 255
215 232 255
215 232 255
215 232 255
215 232 255
215 232 255
215 232 255
215 232 255
215 232 255
215 232 255
215 232 255
215 232 255
215 232 255
215 232 255
215 232 255
215 232 255
215 232 255
215 232 255
215 232 255
215 232 255
215 232 255
215 232 255
215 232 255
215 232 255
215 232 255
215 232 255
215 232 255
215 232 255
215 232 255
215 232 255
215 232 255
215 232 255
215 232 255
215 232 255
215 232 255
215 232 255
215 232 255
215 232 255
215 232 255
215 232 255
215 232 255
215 232 255
215 232 255
215 232 255
215 232 255
215 232 255
215 232 255
215 232 255
215 232 255
215 232 255
216 232 255
216 232 255
216 232 255
216 232 255
216 232 255
216 232 255
216 232 255
216 232 255
216 232 255
216 232 255
216 232 255
216 232 255
216 232 255
216 232 255
216 232 255
216 232 255
216 232 255
216 232 255
216 232 255
216 232 255
216 232 255
216 232 255
216 232 255
216 232 255
216 232 255
216 232 255
216 232 255
216 232 255
216 232 255
216 232 255
216 232 255
216 232 255
216 232 255
216 232 255
216 232 255
216 232 255
216 232 255
216 232 255
216 232 255
216 232 255
216 232 255
216 232 255
216 232 255
216 232 255
216 232 255
216 232 255
216 232 255
216 232 255
216 232 255
216 232 255
216 232 255
216 232 255
216 232 255
216 232 255
216 232 255
216 232 255
216 232 255
216 232 255
216 232 255
216 232 255
216 232 255
216 232 255
216 232 255
216 232 255
216 232 255
216 232 255
216 232 255
216 232 255
216 232 255
216 232 255
216 232 255
216 232 255
216 232 255
216 232 255
216 232 255
216 232 255
216 232 255
216 232 255
216 232 255
216 232 255
216 232 255
216 232 255
216 232 255
216 232 255
216 232 255
216 232 255
216 232 255
216 232 255
216 232 255
216 232 255
216 232 255
216 232 255
216 232 255
216 232 255
216 232 255
216 232 255
216 232 255
216 232 255
216 232 255
216 232 255
216 232 255
216 232 255
216 232 255
216 232 255
216 232 255
216 232 255
216 232 255
216 232 255
216 232 255
216 232 255
216 232 255
216 232 255
216 232 255
216 232 255
216 232 255
216 232 255
216 232 255
216 232 255
216 232 255
216 232 255
216 232 255
216 232 255
216 232 255
216 232 255
216 232 255
216 232 255
216 232 255
216 232 255
216 232 255
216 232 255
216 232 255
216 232 255
216 232 255
216 232 255
216 232 255
216 232 255
216 232 255
216 232 255
216 232 255
216 232 255
216 232 255
216 232 255
216 232 255
216 232 255
216 232 255
216 232 255
216 232 255
216 232 255
216 232 255
216 232 255
216 232 255
216 232 255
216 232 255
216 232 255
216 232 255
216 232 255
216 232 255
216 232 255
216 232 255
216 232 255
216 232 255
216 232 255
216 232 255
216 232 255
216 232 255
216 232 255
216 232 255
216 232 255
216 232 255
216 232 255
216 232 255
216 232 255
216 232 255
216 232 255
216 232 255
216 232 255
216 232 255
216 232 255
216 232 255
216 232 255
216 232 255
216 232 255
216 232 255
216 232 255
216 232 255
216 232 255
216 232 255
216 232 255
216 232 255
216 232 255
216 232 255
216 232 255
216 232 255
216 232 255
216 232 255
216 232 255
216 232 255
216 232 255
216 232 255
216 232 255
216 232 255
216 232 255
216 232 255
216 232 255
216 232 255
216 232 255
216 232 255
216 232 255
216 232 255
216 232 255
215 232 255
215 232 255
215 232 255
215 232 255
215 232 255
215 232 255
215 232 255
215 232 255
215 232 255
215 232 255
215 232 255
215 232 255
215 232 255
215 232 255
215 232 255
215 232 255
215 232 255
215 232 255
215 232 255
215 232 255
215 232 255
215 232 255
215 232 255
215 232 255
215 232 255
215 232 255
215 232 255
215 232 255
215 232 255
215 232 255
193 209 228
132 145 152
83 94 85
54 66 43
39 49 15
35 46 8
33 46 10
39 52 15
29 42 9
28 42 8
26 41 2
23 39 1
25 43 2
26 43 0
26 42 0
27 42 0
25 41 0
28 44 1
31 45 0
28 43 0
31 48 2
40 55 11
35 48 9
32 42 12
40 45 31
39 45 22
39 47 17
39 48 19
34 43 13
28 36 15
28 37 13
30 38 17
37 42 15
35 42 13
33 40 8
32 38 9
33 38 3
38 44 8
38 45 8
37 42 18
32 36 24
6 29 84
0 27 83
0 14 78
0 6 69
0 6 66
0 4 67
0 0 67
0 0 69
0 0 69
0 0 65
0 0 64
0 0 62
0 0 63
0 0 63
1 1 60
25 29 50
42 47 27
44 48 17
45 49 15
47 50 19
52 56 21
53 56 24
56 57 28
46 51 35
31 39 50
20 33 73
7 30 84
47 54 51
66 68 54
39 41 55
0 0 62
0 0 63
0 0 64
0 5 65
0 4 65
0 6 67
0 5 64
0 5 66
25 29 73
115 130 156
142 160 184
148 168 193
99 115 146
0 0 58
52 57 82
139 150 170
199 214 236
215 232 255
215 232 255
215 232 255
215 232 255
215 232 255
215 232 255
215 232 255
215 232 255
215 232 255
215 232 255
215 232 255
215 232 255
215 232 255
215 232 255
215 232 255
215 232 255
215 232 255
215 232 255
215 232 255
215 232 255
215 232 255
215 232 255
215 232 255
215 232 255
215 232 255
215 232 255
215 232 255
215 232 255
215 232 255
215 232 255
215 232 255
216 232 255
215 232 255
216 232 255
216 232 255
216 232 255
216 232 255
216 232 255
216 232 255
216 232 255
216 232 255
216 232 255
216 232 255
216 232 255
216 232 255
216 232 255
216 232 255
216 232 255
216 232 255
216 232 255
216 232 255
216 232 255
216 232 255
216 232 255
216 232 255
216 232 255
216 232 255
216 232 255
216 232 255
216 232 255
216 232 255
216 232 255
216 232 255
216 232 255
216 232 255
216 232 255
216 232 255
216 232 255
216 232 255
216 232 255
216 232 255
216 232 255
216 232 255
216 232 255
216 232 255
216 232 255
216 232 255
216 232 255
216 232 255
216 232 255
216 232 255
216 232 255
216 232 255
216 232 255
216 232 255
216 232 255
216 232 255
216 232 255
216 232 255
216 232 255
216 232 255
216 232 255
216 232 255
216 232 255
216 232 255
216 232 255
216 232 255
216 232 255
216 232 255
216 232 255
216 232 255
216 232 255
216 232 255
216 232 255
216 232 255
216 232 255
216 232 255
216 232 255
216 232 255
216 232 255
216 232 255
216 232 255
216 232 255
216 232 255
216 232 255
216 232 255
216 232 255
216 232 255
216 232 255
216 232 255
216 232 255
216 232 255
216 232 255
216 232 255
216 232 255
216 232 255
216 232 255
216 232 255
216 232 255
216 232 255
216 232 255
216 232 255
216 232 255
216 232 255
216 232 255
216 232 255
216 232 255
216 232 255
216 232 255
216 232 255
216 232 255
216 232 255
216 232 255
216 232 255
216 232 255
216 232 255
216 232 255
216 232 255
216 232 255
216 232 255
216 232 255
216 232 255
216 232 255
216 232 255
216 232 255
216 232 255
216 232 255
216 232 255
216 232 255
216 232 255
216 232 255
216 232 255
216 232 255
216 232 255
216 232 255
216 232 255
216 232 255
216 232 255
216 232 255
216 232 255
216 232 255
216 232 255
216 232 255
216 232 255
216 232 255
216 232 255
216 232 255
216 232 255
216 232 255
216 232 255
216 232 255
216 232 255
216 232 255
216 232 255
216 232 255
216 232 255
216 232 255
216 232 255
216 232 255
216 232 255
216 232 255
216 232 255
216 232 255
216 232 255
216 232 255
216 232 255
216 232 255
216 232 255
216 232 255
216 232 255
216 232 255
216 232 255
216 232 255
216 232 255
216 232 255
216 232 255
216 232 255
216 232 255
216 232 255
216 232 255
216 232 255
216 232 255
216 232 255
216 232 255
216 232 255
216 232 255
216 232 255
216 232 255
216 232 255
216 232 255
216 232 255
216 232 255
216 232 255
216 232 255
216 232 255
216 232 255
216 232 255
216 232 255
216 232 255
216 232 255
216 232 255
216 232 255
216 232 255
216 232 255
216 232 255
216 232 255
216 232 255
216 232 255
216 232 255
216 232 255
216 232 255
216 232 255
216 232 255
216 232 255
216 232 255
216 232 255
216 232 255
216 232 255
216 232 255
216 232 255
216 232 255
216 232 255
216 232 255
216 232 255
216 232 255
216 232 255
216 232 255
216 232 255
216 232 255
216 232 255
216 232 255
216 232 255
216 232 255
216 232 255
216 232 255
216 232 255
216 232 255
216 232 255
216 232 255
216 232 255
216 232 255
216 232 255
216 232 255
216 232 255
216 232 255
216 232 255
216 232 255
216 232 255
216 232 255
216 232 255
216 232 255
216 232 255
216 232 255
216 232 255
216 232 255
216 232 255
216 232 255
216 232 255
216 232 255
216 232 255
216 232 255
216 232 255
216 232 255
216 232 255
216 232 255
216 232 255
216 232 255
216 232 255
216 232 255
216 232 255
216 232 255
216 232 255
216 232 255
216 232 255
216 232 255
216 232 255
216 232 255
216 232 255
216 232 255
216 232 255
183 198 216
137 153 159
79 95 85
147 165 177
135 153 161
67 80 60
38 49 16
30 44 11
39 52 17
31 44 7
28 43 8
44 57 26
25 40 7
21 41 0
24 44 0
24 44 0
23 45 0
25 46 0
28 48 4
32 51 10
27 45 0
26 45 0
26 46 0
30 46 7
34 46 6
37 47 12
42 48 15
39 46 19
30 37 14
30 41 7
28 41 3
25 37 12
17 26 23
27 37 11
28 38 7
30 42 9
32 45 11
31 42 7
33 43 8
35 45 1
34 48 7
38 47 9
39 47 12
29 49 59
31 48 44
27 41 45
24 34 58
19 32 58
3 19 75
0 5 68
0 0 66
0 3 69
0 7 71
0 0 69
0 0 66
0 6 68
0 3 70
2 4 65
2 4 57
3 5 61
31 37 48
44 51 18
44 50 20
48 52 21
52 57 24
53 58 23
52 57 20
45 54 18
41 51 18
40 52 25
45 51 21
58 61 27
67 67 42
55 58 49
27 34 58
5 7 65
0 0 63
0 0 59
0 0 54
0 0 54
0 3 61
0 0 65
0 4 65
0 10 73
9 18 72
90 103 133
61 74 99
7 9 60
0 0 54
0 0 53
94 101 120
178 192 213
214 231 254
216 232 255
216 232 255
216 232 255
216 232 255
216 232 255
216 232 255
216 232 255
216 232 255
216 232 255
216 232 255
216 232 255
216 232 255
216 232 255
216 232 255
216 232 255
216 232 255
216 232 255
216 232 255
216 232 255
216 232 255
216 232 255
216 232 255
216 232 255
216 232 255
216 232 255
216 232 255
216 232 255
216 232 255
216 232 255
216 232 255
216 232 255
216 232 255
216 232 255
216 232 255
216 232 255
216 232 255
216 232 255
216 232 255
216 232 255
216 232 255
216 232 255
216 232 255
216 232 255
216 232 255
216 232 255
216 232 255
216 232 255
216 232 255
216 232 255
216 232 255
216 232 255
216 232 255
216 232 255
216 232 255
216 232 255
216 232 255
216 232 255
216 232 255
216 232 255
216 232 255
216 232 255
216 232 255
216 232 255
216 232 255
216 232 255
216 232 255
216 232 255
216 232 255
216 232 255
216 232 255
216 232 255
216 232 255
216 232 255
216 232 255
216 232 255
216 232 255
216 232 255
216 232 255
216 232 255
216 232 255
216 232 255
216 232 255
216 232 255
216 232 255
216 232 255
216 232 255
216 232 255
216 232 255
216 232 255
216 232 255
216 232 255
216 232 255
216 232 255
216 232 255
216 232 255
216 232 255
216 232 255
216 232 255
216 232 255
216 232 255
216 232 255
216 232 255
216 232 255
216 232 255
216 232 255
216 232 255
216 232 255
216 232 255
216 232 255
216 232 255
216 232 255
216 232 255
216 232 255
216 232 255
216 232 255
216 232 255
216 232 255
216 232 255
216 232 255
216 232 255
216 232 255
216 232 255
216 232 255
216 232 255
216 232 255
216 232 255
216 232 255
216 232 255
216 232 255
216 232 255
216 232 255
216 232 255
216 232 255
216 232 255
216 232 255
216 232 255
216 232 255
216 232 255
216 232 255
216 232 255
216 232 255
216 232 255
216 232 255
216 232 255
216 232 255
216 232 255
216 232 255
216 232 255
216 232 255
216 232 255
216 232 255
216 232 255
216 232 255
216 233 255
216 233 255
216 233 255
216 233 255
216 233 255
216 233 255
216 233 255
216 232 255
216 233 255
216 232 255
216 232 255
216 232 255
216 232 255
216 232 255
216 232 255
216 232 255
216 232 255
216 232 255
216 232 255
216 232 255
216 232 255
216 232 255
216 232 255
216 232 255
216 232 255
216 232 255
216 232 255
216 232 255
216 232 255
216 232 255
216 232 255
216 232 255
216 232 255
216 232 255
216 232 255
216 232 255
216 232 255
216 232 255
216 232 255
216 232 255
216 232 255
216 232 255
216 232 255
216 232 255
216 232 255
216 232 255
216 232 255
216 232 255
216 232 255
216 232 255
216 232 255
216 232 255
216 232 255
216 232 255
216 232 255
216 232 255
216 232 255
216 232 255
216 232 255
216 232 255
216 232 255
216 232 255
216 232 255
216 232 255
216 232 255
216 232 255
216 232 255
216 232 255
216 232 255
216 232 255
216 232 255
216 232 255
216 232 255
216 232 255
216 232 255
216 232 255
216 232 255
216 232 255
216 232 255
216 232 255
216 232 255
216 232 255
216 232 255
216 232 255
216 232 255
216 232 255
216 232 255
216 232 255
216 232 255
216 232 255
216 232 255
216 232 255
216 232 255
216 232 255
216 232 255
216 232 255
216 232 255
216 232 255
216 232 255
216 232 255
216 232 255
216 232 255
216 232 255
216 232 255
216 232 255
216 232 255
216 232 255
216 232 255
216 232 255
216 232 255
216 232 255
216 232 255
216 232 255
216 232 255
216 232 255
216 232 255
216 232 255
216 232 255
216 232 255
216 232 255
216 232 255
216 232 255
216 232 255
216 232 255
216 232 255
216 232 255
216 232 255
216 232 255
216 232 255
216 232 255
216 232 255
216 232 255
216 232 255
216 232 255
216 232 255
216 232 255
216 232 255
216 232 255
216 232 255
216 232 255
216 232 255
216 232 255
216 232 255
216 232 255
216 232 255
216 232 255
216 232 255
216 232 255
216 232 255
216 232 255
216 232 255
213 230 253
173 188 204
112 127 137
57 72 85
91 109 113
101 120 137
143 165 179
112 135 138
122 141 145
31 46 9
32 47 9
39 52 14
42 54 19
38 52 21
62 74 44
23 40 5
23 42 0
22 42 0
23 43 1
27 48 6
26 46 3
23 44 0
23 42 0
23 43 0
24 45 0
24 44 0
23 42 2
28 42 8
19 33 7
25 38 6
28 40 4
22 35 0
20 35 0
25 40 0
23 39 5
25 39 0
27 40 5
28 44 0
26 43 0
23 40 0
25 44 6
28 44 0
26 42 0
29 45 0
29 43 5
28 41 0
31 42 0
33 44 2
30 41 0
31 41 5
36 43 9
30 43 25
24 38 51
19 28 60
11 18 69
3 14 72
3 11 72
0 16 78
0 10 73
0 6 74
7 17 65
5 11 63
0 2 59
11 17 65
33 42 20
40 46 12
35 42 12
36 42 13
44 50 13
46 53 13
44 52 13
43 51 16
33 43 7
36 44 12
37 41 9
47 53 21
59 61 33
58 60 32
35 45 37
7 14 61
0 0 65
0 0 59
0 0 57
0 0 56
0 0 57
0 0 59
0 0 61
0 2 64
0 13 71
0 17 75
0 14 73
0 11 69
0 0 52
0 0 51
0 0 52
108 116 136
182 196 217
215 231 254
216 232 255
216 232 255
216 232 255
216 232 255
216 232 255
216 232 255
216 232 255
216 232 255
216 232 255
216 232 255
216 232 255
216 232 255
216 232 255
216 232 255
216 232 255
216 232 255
216 232 255
216 232 255
216 232 255
216 232 255
216 232 255
216 232 255
216 232 255
216 232 255
216 232 255
216 232 255
216 232 255
216 232 255
216 232 255
216 232 255
216 232 255
216 232 255
216 232 255
216 232 255
216 232 255
216 232 255
216 232 255
216 232 255
216 232 255
216 232 255
216 232 255
216 232 255
216 232 255
216 232 255
216 232 255
216 232 255
216 232 255
216 232 255
216 232 255
216 232 255
216 232 255
216 232 255
216 232 255
216 232 255
216 232 255
216 232 255
216 232 255
216 232 255
216 232 255
216 232 255
216 232 255
216 232 255
216 232 255
216 232 255
216 232 255
216 232 255
216 232 255
216 232 255
216 232 255
216 232 255
216 232 255
216 232 255
216 232 255
216 232 255
216 232 255
216 232 255
216 232 255
216 232 255
216 232 255
216 232 255
216 232 255
216 232 255
216 232 255
216 232 255
216 232 255
216 232 255
216 232 255
216 232 255
216 232 255
216 232 255
216 232 255
216 232 255
216 232 255
216 232 255
216 232 255
216 232 255
216 232 255
216 232 255
216 232 255
216 232 255
216 232 255
216 232 255
216 232 255
216 232 255
216 232 255
216 232 255
216 232 255
216 232 255
216 232 255
216 232 255
216 232 255
216 232 255
216 232 255
216 232 255
216 232 255
216 232 255
216 232 255
216 232 255
216 232 255
216 232 255
216 232 255
216 232 255
216 232 255
216 232 255
216 232 255
216 232 255
216 232 255
216 232 255
216 232 255
216 232 255
216 232 255
216 232 255
216 232 255
216 232 255
216 232 255
216 232 255
216 232 255
216 232 255
216 232 255
216 232 255
216 232 255
216 232 255
216 232 255
216 233 255
216 233 255
216 233 255
216 233 255
216 233 255
216 233 255
216 233 255
216 233 255
216 233 255
216 233 255
216 233 255
216 233 255
216 233 255
216 233 255
216 233 255
216 233 255
216 233 255
216 233 255
216 233 255
216 233 255
216 233 255
216 233 255
216 233 255
216 233 255
216 233 255
216 233 255
216 233 255
216 233 255
216 233 255
216 233 255
216 233 255
216 233 255
216 233 255
216 233 255
216 233 255
216 233 255
216 233 255
216 233 255
216 233 255
216 233 255
216 233 255
216 233 255
216 232 255
216 232 255
216 232 255
216 232 255
216 232 255
216 232 255
216 232 255
216 232 255
216 232 255
216 232 255
216 232 255
216 232 255
216 232 255
216 232 255
216 232 255
216 232 255
216 232 255
216 232 255
216 232 255
216 232 255
216 232 255
216 232 255
216 232 255
216 232 255
216 232 255
216 232 255
216 232 255
216 232 255
216 232 255
216 232 255
216 232 255
216 232 255
216 232 255
216 232 255
216 232 255
216 232 255
216 232 255
216 232 255
216 232 255
216 232 255
216 232 255
216 232 255
216 232 255
216 232 255
216 232 255
216 232 255
216 232 255
216 232 255
216 232 255
216 232 255
216 232 255
216 232 255
216 232 255
216 232 255
216 232 255
216 232 255
216 232 255
216 232 255
216 232 255
216 232 255
216 232 255
216 232 255
216 232 255
216 232 255
216 232 255
216 232 255
216 232 255
216 232 255
216 232 255
216 232 255
216 232 255
216 232 255
216 232 255
216 232 255
216 232 255
216 232 255
216 232 255
216 232 255
216 232 255
216 232 255
216 232 255
216 232 255
216 232 255
216 232 255
216 232 255
216 232 255
216 232 255
216 232 255
216 232 255
216 232 255
216 232 255
216 232 255
216 232 255
216 232 255
216 232 255
216 232 255
216 232 255
216 232 255
216 232 255
216 232 255
216 232 255
216 232 255
216 232 255
216 232 255
216 232 255
216 232 255
216 232 255
216 232 255
216 232 255
216 232 255
216 232 255
216 232 255
216 232 255
216 232 255
216 232 255
216 232 255
192 207 226
110 122 138
43 56 73
1 3 57
0 0 55
0 0 60
33 46 58
29 43 45
120 141 147
94 112 101
60 78 47
49 67 30
42 55 19
32 45 12
28 44 10
22 39 5
26 48 1
35 58 10
37 59 8
39 62 12
40 63 17
22 41 0
25 44 3
22 43 0
25 46 0
24 43 0
23 42 0
25 45 5
26 44 3
21 37 0
20 37 4
22 40 2
16 30 9
20 36 5
17 31 0
17 33 0
20 36 0
25 39 2
28 44 5
26 42 0
23 43 0
24 39 0
22 40 0
19 34 0
15 30 4
20 35 0
21 37 0
22 40 0
25 41 0
27 40 0
28 40 8
29 37 0
32 39 0
32 37 0
34 41 0
33 41 15
34 42 20
36 43 24
35 44 34
11 33 92
0 19 84
0 28 86
12 23 65
28 34 39
34 44 18
39 47 10
36 44 5
38 45 8
36 44 5
32 38 6
33 40 7
34 42 2
38 45 6
39 46 7
40 48 13
34 41 6
34 42 4
42 51 11
45 49 18
49 53 21
38 47 30
22 31 54
5 15 66
0 0 61
0 0 57
0 0 56
0 0 58
0 0 59
0 0 59
0 0 63
0 0 61
0 2 61
0 10 68
0 0 59
0 0 51
0 0 52
0 0 51
0 0 52
110 118 139
178 192 213
215 231 254
216 232 255
216 232 255
216 232 255
216 232 255
216 232 255
216 232 255
216 232 255
216 232 255
216 232 255
216 232 255
216 232 255
216 232 255
216 232 255
216 232 255
216 232 255
216 232 255
216 232 255
216 232 255
216 232 255
216 232 255
216 232 255
216 232 255
216 232 255
216 232 255
216 232 255
216 232 255
216 232 255
216 232 255
216 232 255
216 232 255
216 232 255
216 232 255
216 232 255
216 232 255
216 232 255
216 232 255
216 232 255
216 232 255
216 232 255
216 232 255
216 232 255
216 232 255
216 232 255
216 232 255
216 232 255
216 232 255
216 232 255
216 232 255
216 232 255
216 232 255
216 232 255
216 232 255
216 232 255
216 232 255
216 232 255
216 232 255
216 232 255
216 232 255
216 232 255
216 232 255
216 232 255
216 232 255
216 232 255
216 232 255
216 232 255
216 232 255
216 232 255
216 232 255
216 232 255
216 232 255
216 232 255
216 232 255
216 232 255
216 232 255
216 232 255
216 232 255
216 232 255
216 232 255
216 232 255
216 232 255
216 232 255
216 232 255
216 232 255
216 232 255
216 232 255
216 232 255
216 232 255
216 232 255
216 232 255
216 232 255
216 232 255
216 232 255
216 232 255
216 232 255
216 232 255
216 232 255
216 232 255
216 232 255
216 232 255
216 232 255
216 232 255
216 232 255
216 232 255
216 232 255
216 232 255
216 232 255
216 232 255
216 232 255
216 232 255
216 232 255
216 232 255
216 232 255
216 232 255
216 232 255
216 232 255
216 232 255
216 233 255
216 233 255
216 233 255
216 233 255
216 233 255
216 233 255
216 233 255
216 233 255
216 233 255
216 233 255
216 233 255
216 233 255
216 233 255
216 233 255
216 233 255
216 233 255
216 233 255
216 233 255
216 233 255
216 233 255
216 233 255
216 233 255
216 233 255
216 233 255
216 233 255
216 233 255
216 233 255
216 233 255
216 233 255
216 233 255
216 233 255
216 233 255
216 233 255
216 233 255
216 233 255
216 233 255
216 233 255
216 233 255
216 233 255
216 233 255
216 233 255
216 233 255
216 233 255
216 233 255
216 233 255
216 233 255
216 233 255
216 233 255
216 233 255
216 233 255
216 233 255
216 233 255
216 233 255
216 233 255
216 233 255
216 233 255
216 233 255
216 233 255
216 233 255
216 233 255
216 233 255
216 233 255
216 233 255
216 233 255
216 233 255
216 233 255
216 233 255
216 233 255
216 233 255
216 233 255
216 233 255
216 233 255
216 233 255
216 233 255
216 233 255
216 233 255
216 233 255
216 233 255
216 233 255
216 233 255
216 233 255
216 233 255
216 233 255
216 233 255
216 233 255
216 233 255
216 233 255
216 233 255
216 233 255
216 233 255
216 233 255
216 233 255
216 233 255
216 233 255
216 233 255
216 233 255
216 233 255
216 232 255
216 232 255
216 232 255
216 232 255
216 232 255
216 232 255
216 232 255
216 232 255
216 232 255
216 232 255
216 232 255
216 232 255
216 232 255
216 232 255
216 232 255
216 232 255
216 232 255
216 232 255
216 232 255
216 232 255
216 232 255
216 232 255
216 232 255
216 232 255
216 232 255
216 232 255
216 232 255
216 232 255
216 232 255
216 232 255
216 232 255
216 232 255
216 232 255
216 232 255
216 232 255
216 232 255
216 232 255
216 232 255
216 232 255
216 232 255
216 232 255
216 232 255
216 232 255
216 232 255
216 232 255
216 232 255
216 232 255
216 232 255
216 232 255
216 232 255
216 232 255
216 232 255
216 232 255
216 232 255
216 232 255
216 232 255
216 232 255
216 232 255
216 232 255
216 232 255
216 232 255
216 232 255
216 232 255
216 232 255
216 232 255
216 232 255
216 232 255
216 232 255
216 232 255
216 232 255
216 232 255
216 232 255
216 232 255
216 232 255
216 232 255
216 232 255
216 232 255
216 232 255
216 232 255
216 232 255
216 232 255
216 232 255
216 232 255
216 232 255
188 204 222
107 116 137
13 19 63
0 1 56
0 0 54
0 0 56
0 0 59
12 18 54
21 38 39
44 64 50
109 135 129
68 89 74
38 58 26
28 44 19
23 37 7
17 34 0
20 39 1
20 37 4
21 40 2
33 54 7
29 52 5
29 49 5
27 45 2
29 48 4
38 58 13
36 58 13
39 61 15
37 57 18
32 50 10
34 53 10
32 52 10
26 46 0
21 39 0
24 41 5
30 48 1
31 48 10
32 48 0
29 47 1
32 51 7
28 51 10
25 50 8
21 47 9
23 47 10
28 42 6
28 40 6
22 37 0
16 32 0
22 40 3
23 40 4
23 40 0
23 38 0
21 36 0
20 36 5
26 39 0
27 39 0
31 39 0
30 37 0
31 38 0
32 42 7
32 40 5
27 40 6
16 50 72
5 41 100
0 44 104
9 46 101
32 46 45
37 46 17
27 36 13
26 36 5
25 34 11
33 43 8
32 42 5
28 36 4
27 36 0
28 38 5
31 36 11
29 36 3
32 39 0
35 42 12
28 36 3
31 39 6
35 39 11
44 51 18
41 51 19
31 39 26
20 34 55
14 23 63
9 13 62
0 0 54
0 0 54
0 0 58
0 0 59
0 0 60
0 0 58
0 0 55
0 0 57
0 0 53
0 0 51
0 0 52
0 0 53
0 0 52
0 0 55
101 109 129
175 189 210
216 232 255
216 232 255
216 232 255
216 232 255
216 232 255
216 232 255
216 232 255
216 232 255
216 232 255
216 232 255
216 232 255
216 232 255
216 232 255
216 232 255
216 232 255
216 232 255
216 232 255
216 232 255
216 232 255
216 232 255
216 232 255
216 232 255
216 232 255
216 232 255
216 232 255
216 232 255
216 232 255
216 232 255
216 232 255
216 232 255
216 232 255
216 232 255
216 232 255
216 232 255
216 232 255
216 232 255
216 232 255
216 232 255
216 232 255
216 232 255
216 232 255
216 232 255
216 232 255
216 232 255
216 232 255
216 232 255
216 232 255
216 232 255
216 232 255
216 232 255
216 232 255
216 232 255
216 232 255
216 232 255
216 232 255
216 232 255
216 232 255
216 232 255
216 232 255
216 232 255
216 232 255
216 232 255
216 232 255
216 232 255
216 232 255
216 232 255
216 232 255
216 232 255
216 232 255
216 232 255
216 232 255
216 232 255
216 232 255
216 232 255
216 232 255
216 232 255
216 232 255
216 232 255
216 232 255
216 232 255
216 232 255
216 232 255
216 232 255
216 232 255
216 233 255
216 232 255
216 233 255
216 233 255
216 233 255
216 233 255
216 233 255
216 233 255
216 233 255
216 233 255
216 233 255
216 233 255
216 233 255
216 233 255
216 233 255
216 233 255
216 233 255
216 233 255
216 233 255
216 233 255
216 233 255
216 233 255
216 233 255
216 233 255
216 233 255
216 233 255
216 233 255
216 233 255
216 233 255
216 233 255
216 233 255
216 233 255
216 233 255
216 233 255
216 233 255
216 233 255
216 233 255
216 233 255
216 233 255
216 233 255
216 233 255
216 233 255
216 233 255
216 233 255
216 233 255
216 233 255
216 233 255
216 233 255
216 233 255
216 233 255
216 233 255
216 233 255
216 233 255
216 233 255
216 233 255
216 233 255
216 233 255
216 233 255
216 233 255
216 233 255
216 233 255
216 233 255
216 233 255
216 233 255
216 233 255
216 233 255
216 233 255
216 233 255
216 233 255
216 233 255
216 233 255
216 233 255
216 233 255
216 233 255
216 233 255
216 233 255
216 233 255
216 233 255
216 233 255
216 233 255
216 233 255
216 233 255
216 233 255
216 233 255
216 233 255
216 233 255
216 233 255
216 233 255
216 233 255
216 233 255
216 233 255
216 233 255
216 233 255
216 233 255
216 233 255
216 233 255
216 233 255
216 233 255
216 233 255
216 233 255
216 233 255
216 233 255
216 233 255
216 233 255
216 233 255
216 233 255
216 233 255
216 233 255
216 233 255
216 233 255
216 233 255
216 233 255
216 233 255
216 233 255
216 233 255
216 233 255
216 233 255
216 233 255
216 233 255
216 233 255
216 233 255
216 233 255
216 233 255
216 233 255
216 233 255
216 233 255
216 233 255
216 233 255
216 233 255
216 233 255
216 233 255
216 233 255
216 233 255
216 233 255
216 233 255
216 233 255
216 233 255
216 233 255
216 233 255
216 233 255
216 233 255
216 233 255
216 233 255
216 233 255
216 233 255
216 233 255
216 233 255
216 233 255
216 233 255
216 233 255
216 233 255
216 233 255
216 233 255
216 233 255
216 233 255
216 233 255
216 233 255
216 233 255
216 233 255
216 233 255
216 233 255
216 233 255
216 232 255
216 233 255
216 233 255
216 232 255
216 233 255
216 232 255
216 232 255
216 232 255
216 232 255
216 232 255
216 232 255
216 232 255
216 232 255
216 232 255
216 232 255
216 232 255
216 232 255
216 232 255
216 232 255
216 232 255
216 232 255
216 232 255
216 232 255
216 232 255
216 232 255
216 232 255
216 232 255
216 232 255
216 232 255
216 232 255
216 232 255
216 232 255
216 232 255
216 232 255
216 232 255
216 232 255
216 232 255
216 232 255
216 232 255
216 232 255
216 232 255
216 232 255
216 232 255
216 232 255
216 232 255
216 232 255
216 232 255
216 232 255
192 208 229
123 136 149
12 16 58
0 0 52
0 0 52
0 0 53
0 0 54
0 0 55
0 1 58
6 20 39
7 24 33
58 80 62
54 76 49
31 49 14
17 34 0
16 31 0
17 34 0
17 37 0
22 40 6
37 54 22
31 45 14
24 39 0
21 39 0
23 43 0
36 56 12
43 65 18
46 69 22
48 72 24
51 73 27
58 77 34
60 76 34
55 73 34
53 70 30
57 72 32
57 74 31
58 75 34
52 72 29
44 63 20
30 51 0
30 49 3
27 47 6
20 47 12
26 43 4
13 45 0
24 42 8
28 42 3
29 44 0
28 41 0
26 39 0
24 38 0
23 39 0
22 38 0
19 34 0
22 36 0
18 35 0
20 36 0
17 32 0
21 36 0
27 38 0
27 37 0
29 40 0
30 41 0
29 40 0
26 47 23
20 74 85
12 64 108
3 66 118
15 56 99
32 52 32
39 47 10
28 39 5
31 43 0
31 42 0
32 43 0
29 40 5
29 41 0
28 38 0
27 36 0
31 41 0
28 37 0
30 37 0
31 40 4
27 37 5
22 31 12
22 31 8
29 41 0
27 39 5
29 42 6
24 50 39
23 42 34
10 28 52
0 8 65
0 3 56
0 0 52
0 0 54
0 0 57
0 0 57
0 0 58
0 0 58
0 0 57
0 0 54
0 0 52
0 0 52
0 0 53
0 0 53
0 0 54
105 114 134
200 216 238
216 232 255
216 232 255
216 232 255
216 232 255
216 232 255
216 232 255
216 232 255
216 232 255
216 232 255
216 232 255
216 232 255
216 232 255
216 232 255
216 232 255
216 232 255
216 232 255
216 232 255
216 232 255
216 232 255
216 232 255
216 232 255
216 232 255
216 232 255
216 232 255
216 232 255
216 232 255
216 232 255
216 232 255
216 232 255
216 232 255
216 232 255
216 232 255
216 232 255
216 232 255
216 232 255
216 232 255
216 232 255
216 232 255
216 232 255
216 232 255
216 232 255
216 232 255
216 232 255
216 233 255
216 232 255
216 232 255
216 233 255
216 233 255
216 233 255
216 233 255
216 233 255
216 233 255
216 233 255
216 233 255
216 233 255
216 233 255
216 233 255
216 233 255
216 233 255
216 233 255
216 233 255
216 233 255
216 233 255
216 233 255
216 233 255
216 233 255
216 233 255
216 233 255
216 233 255
216 233 255
216 233 255
216 233 255
216 233 255
216 233 255
216 233 255
216 233 255
216 233 255
216 233 255
216 233 255
216 233 255
216 233 255
216 233 255
216 233 255
216 233 255
216 233 255
216 233 255
216 233 255
216 233 255
216 233 255
216 233 255
216 233 255
216 233 255
216 233 255
216 233 255
216 233 255
216 233 255
216 233 255
216 233 255
216 233 255
216 233 255
216 233 255
216 233 255
216 233 255
216 233 255
216 233 255
216 233 255
216 233 255
216 233 255
216 233 255
216 233 255
216 233 255
216 233 255
216 233 255
216 233 255
216 233 255
216 233 255
216 233 255
216 233 255
216 233 255
216 233 255
216 233 255
216 233 255
216 233 255
216 233 255
216 233 255
216 233 255
216 233 255
216 233 255
216 233 255
216 233 255
216 233 255
216 233 255
216 233 255
216 233 255
216 233 255
216 233 255
216 233 255
216 233 255
216 233 255
216 233 255
216 233 255
216 233 255
216 233 255
216 233 255
216 233 255
216 233 255
216 233 255
216 233 255
216 233 255
216 233 255
216 233 255
216 233 255
216 233 255
216 233 255
216 233 255
216 233 255
216 233 255
216 233 255
216 233 255
216 233 255
216 233 255
216 233 255
216 233 255
216 233 255
216 233 255
216 233 255
216 233 255
216 233 255
216 233 255
216 233 255
216 233 255
216 233 255
216 233 255
216 233 255
216 233 255
216 233 255
216 233 255
216 233 255
216 233 255
216 233 255
216 233 255
216 233 255
216 233 255
216 233 255
216 233 255
216 233 255
216 233 255
216 233 255
216 233 255
216 233 255
216 233 255
216 233 255
216 233 255
216 233 255
216 233 255
216 233 255
216 233 255
216 233 255
216 233 255
216 233 255
216 233 255
216 233 255
216 233 255
216 233 255
216 233 255
216 233 255
216 233 255
216 233 255
216 233 255
216 233 255
216 233 255
216 233 255
216 233 255
216 233 255
216 233 255
216 233 255
216 233 255
216 233 255
216 233 255
216 233 255
216 233 255
216 233 255
216 233 255
216 233 255
216 233 255
216 233 255
216 233 255
216 233 255
216 233 255
216 233 255
216 233 255
216 233 255
216 233 255
216 233 255
216 233 255
216 233 255
216 233 255
216 233 255
216 233 255
216 233 255
216 233 255
216 233 255
216 233 255
216 233 255
216 233 255
216 233 255
216 233 255
216 233 255
216 233 255
216 233 255
216 233 255
216 233 255
216 233 255
216 233 255
216 233 255
216 233 255
216 233 255
216 233 255
216 233 255
216 233 255
216 233 255
216 233 255
216 233 255
216 233 255
216 233 255
216 233 255
216 233 255
216 233 255
216 233 255
216 233 255
216 233 255
216 233 255
216 233 255
216 233 255
216 233 255
216 233 255
216 233 255
216 233 255
216 233 255
216 233 255
216 233 255
216 233 255
216 233 255
216 233 255
216 233 255
216 233 255
216 233 255
216 233 255
216 233 255
216 233 255
208 225 247
139 151 170
36 44 67
1 2 51
0 0 49
0 0 49
0 0 51
0 0 53
0 0 56
0 4 53
5 16 53
1 15 62
29 46 41
63 86 64
51 68 49
19 31 0
19 32 0
20 36 0
20 38 0
18 36 3
50 68 40
48 61 31
59 69 40
58 66 41
28 39 11
25 45 0
38 62 13
44 70 19
52 73 27
65 80 42
68 79 43
80 87 52
82 89 53
78 85 49
76 82 50
82 88 51
76 86 46
66 81 41
59 77 36
48 66 24
44 66 23
34 55 9
35 58 12
28 54 8
24 48 0
28 51 2
34 50 4
27 40 0
29 45 0
21 35 0
18 33 0
17 33 0
18 34 0
15 30 0
16 32 0
16 33 0
19 35 0
16 33 0
16 33 0
20 37 0
23 39 0
24 38 0
28 40 0
30 43 0
29 39 0
31 42 0
32 46 19
29 50 67
11 89 128
9 78 111
24 56 57
35 44 10
28 42 1
31 43 5
27 39 0
27 39 0
28 40 2
29 40 3
30 42 0
32 43 0
35 46 0
31 43 0
29 40 0
29 40 0
24 35 0
22 33 0
24 34 0
26 39 0
27 40 0
21 36 0
15 37 19
22 37 18
21 36 0
22 38 15
16 32 50
3 9 61
0 0 53
0 0 54
0 0 58
0 0 54
0 0 56
0 0 57
0 0 55
0 0 53
0 0 54
0 0 55
0 0 55
0 0 55
0 0 56
30 32 67
155 168 189
209 225 248
216 233 255
216 233 255
216 233 255
216 233 255
216 233 255
216 233 255
216 233 255
216 233 255
216 233 255
216 233 255
216 233 255
216 233 255
216 233 255
216 233 255
216 233 255
216 233 255
216 233 255
216 233 255
216 233 255
216 233 255
216 233 255
216 233 255
216 233 255
216 233 255
216 233 255
216 233 255
216 233 255
216 233 255
216 233 255
216 233 255
216 233 255
216 233 255
216 233 255
216 233 255
216 233 255
216 233 255
216 233 255
216 233 255
216 233 255
216 233 255
216 233 255
216 233 255
216 233 255
216 233 255
216 233 255
216 233 255
216 233 255
216 233 255
216 233 255
216 233 255
216 233 255
216 233 255
216 233 255
216 233 255
216 233 255
216 233 255
216 233 255
216 233 255
216 233 255
216 233 255
216 233 255
216 233 255
216 233 255
216 233 255
216 233 255
216 233 255
216 233 255
216 233 255
216 233 255
216 233 255
216 233 255
216 233 255
216 233 255
216 233 255
216 233 255
216 233 255
216 233 255
216 233 255
216 233 255
216 233 255
216 233 255
216 233 255
216 233 255
216 233 255
216 233 255
216 233 255
216 233 255
216 233 255
216 233 255
216 233 255
216 233 255
216 233 255
216 233 255
216 233 255
216 233 255
216 233 255
216 233 255
216 233 255
216 233 255
216 233 255
216 233 255
216 233 255
216 233 255
216 233 255
216 233 255
216 233 255
216 233 255
216 233 255
216 233 255
216 233 255
216 233 255
216 233 255
216 233 255
216 233 255
216 233 255
216 233 255
216 233 255
216 233 255
216 233 255
216 233 255
216 233 255
216 233 255
216 233 255
216 233 255
216 233 255
216 233 255
216 233 255
216 233 255
216 233 255
216 233 255
216 233 255
216 233 255
216 233 255
216 233 255
216 233 255
216 233 255
216 233 255
216 233 255
216 233 255
216 233 255
216 233 255
216 233 255
216 233 255
216 233 255
216 233 255
216 233 255
216 233 255
216 233 255
216 233 255
216 233 255
216 233 255
216 233 255
216 233 255
216 233 255
216 233 255
216 233 255
216 233 255
216 233 255
216 233 255
216 233 255
216 233 255
216 233 255
216 233 255
216 233 255
216 233 255
216 233 255
216 233 255
216 233 255
216 233 255
216 233 255
216 233 255
216 233 255
216 233 255
216 233 255
216 233 255
216 233 255
216 233 255
216 233 255
216 233 255
216 233 255
216 233 255
216 233 255
216 233 255
216 233 255
216 233 255
216 233 255
216 233 255
216 233 255
216 233 255
216 233 255
216 233 255
216 233 255
216 233 255
216 233 255
216 233 255
216 233 255
216 233 255
216 233 255
216 233 255
216 233 255
216 233 255
216 233 255
216 233 255
216 233 255
216 233 255
216 233 255
216 233 255
216 233 255
216 233 255
216 233 255
216 233 255
216 233 255
216 233 255
216 233 255
216 233 255
216 233 255
216 233 255
216 233 255
216 233 255
216 233 255
216 233 255
216 233 255
216 233 255
216 233 255
216 233 255
216 233 255
216 233 255
216 233 255
216 233 255
216 233 255
216 233 255
216 233 255
216 233 255
216 233 255
216 233 255
216 233 255
216 233 255
216 233 255
216 233 255
216 233 255
216 233 255
216 233 255
216 233 255
216 233 255
216 233 255
216 233 255
216 233 255
216 233 255
216 233 255
216 233 255
216 233 255
216 233 255
216 233 255
216 233 255
216 233 255
216 233 255
216 233 255
216 233 255
216 233 255
216 233 255
216 233 255
216 233 255
216 233 255
216 233 255
216 233 255
216 233 255
216 233 255
216 233 255
216 233 255
216 233 255
216 233 255
216 233 255
216 233 255
216 233 255
216 233 255
216 233 255
216 233 255
216 233 255
216 233 255
216 233 255
216 233 255
216 233 255
216 233 255
216 233 255
216 233 255
216 233 255
216 233 255
173 186 208
67 74 95
0 0 54
0 0 51
0 0 49
0 0 49
0 0 52
0 0 54
0 0 54
0 0 54
7 24 42
5 18 61
2 11 47
24 41 26
76 99 79
45 59 37
31 41 4
35 46 5
30 44 0
21 38 0
18 35 1
31 49 22
56 74 41
68 81 56
78 86 62
58 65 37
39 57 15
55 75 30
74 84 46
86 89 56
93 92 63
102 98 70
106 103 72
103 102 67
94 97 62
83 89 59
81 89 53
73 83 49
66 79 43
60 76 34
55 74 32
50 73 27
42 69 21
40 61 12
40 64 14
35 61 13
34 57 12
41 63 10
32 48 6
32 47 0
26 40 0
25 39 0
22 36 0
19 34 0
18 34 0
15 31 0
13 27 0
15 30 0
18 35 3
20 36 0
20 38 0
23 41 0
23 40 0
24 41 0
24 41 0
28 42 0
31 46 0
30 45 0
25 42 6
31 47 16
32 44 15
34 45 10
28 43 7
26 38 0
23 38 8
25 38 1
27 40 0
22 34 6
15 26 10
22 35 0
26 41 0
24 38 0
29 40 0
19 30 0
20 32 0
23 36 0
22 36 0
25 39 0
30 43 0
23 36 0
24 38 0
19 35 0
21 36 0
22 39 0
21 37 0
25 43 2
20 36 33
3 8 58
0 0 55
0 0 56
0 0 53
0 0 53
0 0 58
0 0 61
0 0 56
0 0 54
0 0 56
0 0 56
0 0 58
0 0 58
0 0 56
0 0 58
57 61 89
173 186 208
214 230 253
216 233 255
216 233 255
216 233 255
216 233 255
216 233 255
216 233 255
216 233 255
216 233 255
216 233 255
216 233 255
216 233 255
216 233 255
216 233 255
216 233 255
216 233 255
216 233 255
216 233 255
216 233 255
216 233 255
216 233 255
216 233 255
216 233 255
216 233 255
216 233 255
216 233 255
216 233 255
216 233 255
216 233 255
216 233 255
216 233 255
216 233 255
216 233 255
216 233 255
216 233 255
216 233 255
216 233 255
216 233 255
216 233 255
216 233 255
216 233 255
216 233 255
216 233 255
216 233 255
216 233 255
216 233 255
216 233 255
216 233 255
216 233 255
216 233 255
216 233 255
216 233 255
216 233 255
216 233 255
216 233 255
216 233 255
216 233 255
216 233 255
216 233 255
216 233 255
216 233 255
216 233 255
216 233 255
216 233 255
216 233 255
216 233 255
216 233 255
216 233 255
216 233 255
216 233 255
216 233 255
216 233 255
216 233 255
216 233 255
216 233 255
216 233 255
216 233 255
216 233 255
216 233 255
216 233 255
216 233 255
216 233 255
216 233 255
216 233 255
216 233 255
216 233 255
216 233 255
216 233 255
216 233 255
216 233 255
216 233 255
216 233 255
216 233 255
216 233 255
216 233 255
216 233 255
216 233 255
216 233 255
216 233 255
216 233 255
216 233 255
216 233 255
216 233 255
216 233 255
216 233 255
216 233 255
216 233 255
216 233 255
216 233 255
216 233 255
216 233 255
216 233 255
216 233 255
216 233 255
216 233 255
216 233 255
216 233 255
216 233 255
216 233 255
216 233 255
216 233 255
216 233 255
216 233 255
216 233 255
216 233 255
216 233 255
216 233 255
216 233 255
216 233 255
216 233 255
216 233 255
216 233 255
216 233 255
216 233 255
216 233 255
216 233 255
216 233 255
216 233 255
216 233 255
216 233 255
216 233 255
216 233 255
216 233 255
216 233 255
216 233 255
216 233 255
216 233 255
216 233 255
216 233 255
216 233 255
216 233 255
216 233 255
216 233 255
216 233 255
216 233 255
216 233 255
216 233 255
216 233 255
216 233 255
216 233 255
216 233 255
216 233 255
216 233 255
216 233 255
216 233 255
216 233 255
216 233 255
216 233 255
216 233 255
216 233 255
216 233 255
216 233 255
216 233 255
216 233 255
216 233 255
216 233 255
216 233 255
216 233 255
216 233 255
216 233 255
216 233 255
216 233 255
216 233 255
216 233 255
216 233 255
216 233 255
216 233 255
216 233 255
216 233 255
216 233 255
216 233 255
216 233 255
216 233 255
216 233 255
216 233 255
216 233 255
216 233 255
216 233 255
216 233 255
216 233 255
216 233 255
216 233 255
216 233 255
216 233 255
216 233 255
216 233 255
216 233 255
216 233 255
216 233 255
216 233 255
216 233 255
216 233 255
216 233 255
216 233 255
216 233 255
216 233 255
216 233 255
216 233 255
216 233 255
216 233 255
216 233 255
216 233 255
216 233 255
216 233 255
216 233 255
216 233 255
216 233 255
216 233 255
216 233 255
216 233 255
216 233 255
216 233 255
216 233 255
216 233 255
216 233 255
216 233 255
216 233 255
216 233 255
216 233 255
216 233 255
216 233 255
216 233 255
216 233 255
216 233 255
216 233 255
216 233 255
216 233 255
216 233 255
216 233 255
216 233 255
216 233 255
216 233 255
216 233 255
216 233 255
216 233 255
216 233 255
216 233 255
216 233 255
216 233 255
216 233 255
216 233 255
216 233 255
216 233 255
216 233 255
216 233 255
216 233 255
216 233 255
216 233 255
216 233 255
216 233 255
216 233 255
216 233 255
216 233 255
216 233 255
216 233 255
216 233 255
216 233 255
216 233 255
216 233 255
216 233 255
216 233 255
216 233 255
216 233 255
216 233 255
207 223 246
114 124 144
0 3 55
0 0 52
0 0 50
0 0 50
0 0 51
0 0 53
0 0 53
0 0 52
0 0 53
0 0 57
0 10 49
0 1 54
4 12 50
31 49 31
102 125 117
85 102 87
51 62 42
35 44 11
34 46 8
28 41 9
19 38 0
30 48 16
40 58 25
53 69 39
39 50 16
45 56 23
56 70 32
83 88 51
94 94 61
95 95 66
101 98 71
103 101 73
96 95 66
95 98 66
85 92 59
84 90 55
76 87 47
62 79 34
55 75 28
55 75 30
46 68 20
46 70 19
46 71 19
47 74 21
43 69 16
43 68 19
39 67 15
47 72 15
40 60 4
32 50 0
24 37 6
23 38 3
22 39 4
24 38 4
22 38 0
22 38 0
21 34 0
23 40 2
17 30 22
17 31 17
23 40 0
24 43 0
23 41 0
22 41 0
25 44 0
21 42 0
24 43 0
24 43 0
26 45 0
22 40 0
28 43 0
28 45 0
27 44 0
25 44 0
25 43 0
26 44 0
23 40 0
23 39 0
27 40 3
26 43 0
24 42 0
22 38 0
20 35 0
23 37 6
18 30 0
18 33 0
16 35 8
17 34 20
18 35 10
19 36 0
21 37 0
17 31 0
20 37 0
19 34 0
22 35 6
12 25 37
16 27 45
15 29 37
0 8 59
0 1 64
0 0 63
0 0 56
0 0 54
0 0 59
0 0 61
0 0 58
0 0 59
0 0 59
0 0 57
0 0 61
0 3 66
0 0 57
0 0 58
0 1 62
112 121 144
198 213 236
216 233 255
216 233 255
216 233 255
216 233 255
216 233 255
216 233 255
216 233 255
216 233 255
216 233 255
216 233 255
216 233 255
216 233 255
216 233 255
216 233 255
216 233 255
216 233 255
216 233 255
216 233 255
216 233 255
216 233 255
216 233 255
216 233 255
216 233 255
216 233 255
216 233 255
216 233 255
216 233 255
216 233 255
216 233 255
216 233 255
216 233 255
216 233 255
216 233 255
216 233 255
216 233 255
216 233 255
216 233 255
216 233 255
216 233 255
216 233 255
216 233 255
216 233 255
216 233 255
216 233 255
216 233 255
216 233 255
216 233 255
216 233 255
216 233 255
216 233 255
216 233 255
216 233 255
216 233 255
216 233 255
216 233 255
216 233 255
216 233 255
216 233 255
216 233 255
216 233 255
216 233 255
216 233 255
216 233 255
216 233 255
216 233 255
216 233 255
216 233 255
216 233 255
216 233 255
216 233 255
216 233 255
216 233 255
216 233 255
216 233 255
216 233 255
216 233 255
216 233 255
216 233 255
216 233 255
216 233 255
216 233 255
216 233 255
216 233 255
216 233 255
216 233 255
216 233 255
216 233 255
216 233 255
216 233 255
216 233 255
216 233 255
216 233 255
216 233 255
216 233 255
216 233 255
216 233 255
216 233 255
216 233 255
216 233 255
216 233 255
216 233 255
216 233 255
216 233 255
216 233 255
216 233 255
216 233 255
216 233 255
216 233 255
216 233 255
216 233 255
216 233 255
216 233 255
216 233 255
216 233 255
216 233 255
216 233 255
216 233 255
216 233 255
216 233 255
216 233 255
216 233 255
216 233 255
216 233 255
216 233 255
216 233 255
216 233 255
216 233 255
216 233 255
216 233 255
216 233 255
216 233 255
216 233 255
216 233 255
216 233 255
216 233 255
216 233 255
216 233 255
216 233 255
216 233 255
216 233 255
216 233 255
216 233 255
216 233 255
216 233 255
216 233 255
216 233 255
216 233 255
216 233 255
216 233 255
216 233 255
216 233 255
216 233 255
216 233 255
216 233 255
216 233 255
216 233 255
216 233 255
216 233 255
216 233 255
216 233 255
216 233 255
216 233 255
216 233 255
216 233 255
216 233 255
216 233 255
216 233 255
216 233 255
216 233 255
216 233 255
216 233 255
216 233 255
216 233 255
216 233 255
216 233 255
216 233 255
216 233 255
216 233 255
216 233 255
216 233 255
216 233 255
216 233 255
216 233 255
216 233 255
216 233 255
216 233 255
216 233 255
216 233 255
216 233 255
216 233 255
216 233 255
216 233 255
216 233 255
216 233 255
216 233 255
216 233 255
216 233 255
216 233 255
216 233 255
216 233 255
216 233 255
216 233 255
216 233 255
216 233 255
216 233 255
216 233 255
216 233 255
216 233 255
216 233 255
216 233 255
216 233 255
216 233 255
216 233 255
216 233 255
216 233 255
216 233 255
216 233 255
216 233 255
216 233 255
216 233 255
216 233 255
216 233 255
216 233 255
216 233 255
216 233 255
216 233 255
216 233 255
216 233 255
216 233 255
216 233 255
216 233 255
216 233 255
216 233 255
216 233 255
216 233 255
216 233 255
216 233 255
216 233 255
216 233 255
216 233 255
216 233 255
216 233 255
216 233 255
216 233 255
216 233 255
216 233 255
216 233 255
216 233 255
216 233 255
216 233 255
216 233 255
216 233 255
216 233 255
216 233 255
216 233 255
216 233 255
216 233 255
216 233 255
216 233 255
216 233 255
216 233 255
216 233 255
216 233 255
216 233 255
216 233 255
216 233 255
216 233 255
216 233 255
216 233 255
216 233 255
216 233 255
216 233 255
216 233 255
216 233 255
216 233 255
216 233 255
216 233 255
216 233 255
216 233 255
216 233 255
214 230 253
165 178 198
21 23 61
0 0 51
0 0 50
0 0 50
0 0 50
0 0 52
0 0 53
0 0 53
0 0 52
0 0 49
0 0 52
0 0 53
0 0 53
6 14 51
9 25 31
25 42 26
44 61 45
92 115 106
82 98 82
39 50 18
35 45 9
33 45 11
23 41 5
24 41 6
31 45 10
41 52 21
38 49 12
45 55 18
79 87 50
88 94 58
103 102 69
103 101 73
96 94 63
98 96 67
99 99 69
92 94 64
88 92 61
78 84 52
74 83 47
71 82 43
62 78 34
56 74 29
49 72 23
52 77 27
49 74 25
46 70 18
48 73 24
47 73 24
46 71 23
45 67 21
40 59 13
34 52 14
22 36 17
30 50 6
22 39 8
24 40 0
22 37 0
24 38 0
22 38 0
23 44 0
25 49 12
18 38 18
17 32 34
20 38 29
24 44 10
24 42 0
25 42 0
26 47 0
28 49 0
26 46 0
25 47 0
29 49 0
29 47 0
31 51 0
27 48 0
28 50 0
26 46 0
27 44 0
24 41 0
21 37 0
25 43 0
24 44 0
24 46 0
21 43 0
19 37 0
22 40 6
24 44 8
15 36 20
10 37 42
0 23 81
0 18 80
2 19 77
10 27 50
12 22 44
12 24 46
11 21 44
11 20 47
2 4 59
1 3 56
24 43 13
5 14 49
0 6 67
0 0 63
0 0 63
0 0 59
0 0 54
0 0 60
0 0 64
0 0 59
0 0 61
0 0 58
0 0 61
0 0 65
0 2 66
0 0 61
0 0 62
0 0 65
57 61 92
148 159 181
216 233 255
216 233 255
216 233 255
216 233 255
216 233 255
216 233 255
216 233 255
216 233 255
216 233 255
216 233 255
216 233 255
216 233 255
216 233 255
216 233 255
216 233 255
216 233 255
216 233 255
216 233 255
216 233 255
216 233 255
216 233 255
216 233 255
216 233 255
216 233 255
216 233 255
216 233 255
216 233 255
216 233 255
216 233 255
216 233 255
216 233 255
216 233 255
216 233 255
216 233 255
216 233 255
216 233 255
216 233 255
216 233 255
216 233 255
216 233 255
216 233 255
216 233 255
216 233 255
216 233 255
216 233 255
216 233 255
216 233 255
216 233 255
216 233 255
216 233 255
216 233 255
216 233 255
216 233 255
216 233 255
216 233 255
216 233 255
216 233 255
216 233 255
216 233 255
216 233 255
216 233 255
216 233 255
216 233 255
216 233 255
216 233 255
216 233 255
216 233 255
216 233 255
216 233 255
216 233 255
216 233 255
216 233 255
216 233 255
216 233 255
216 233 255
216 233 255
216 233 255
216 233 255
216 233 255
216 233 255
216 233 255
216 233 255
216 233 255
216 233 255
216 233 255
216 233 255
216 233 255
216 233 255
216 233 255
216 233 255
216 233 255
216 233 255
216 233 255
216 233 255
216 233 255
216 233 255
216 233 255
216 233 255
216 233 255
216 233 255
216 233 255
216 233 255
216 233 255
216 233 255
216 233 255
216 233 255
216 233 255
216 233 255
216 233 255
216 233 255
216 233 255
216 233 255
216 233 255
216 233 255
216 233 255
216 233 255
216 233 255
216 233 255
216 233 255
216 233 255
216 233 255
216 233 255
216 233 255
216 233 255
216 233 255
216 233 255
216 233 255
216 233 255
216 233 255
216 233 255
216 233 255
216 233 255
216 233 255
216 233 255
216 233 255
216 233 255
216 233 255
216 233 255
216 233 255
216 233 255
216 233 255
216 233 255
216 233 255
216 233 255
216 233 255
216 233 255
216 233 255
216 233 255
216 233 255
216 233 255
216 233 255
216 233 255
216 233 255
216 233 255
216 233 255
216 233 255
216 233 255
216 233 255
216 233 255
216 233 255
216 233 255
216 233 255
216 233 255
216 233 255
216 233 255
216 233 255
216 233 255
216 233 255
216 233 255
216 233 255
216 233 255
216 233 255
216 233 255
216 233 255
216 233 255
216 233 255
216 233 255
216 233 255
216 233 255
216 233 255
216 233 255
216 233 255
216 233 255
216 233 255
216 233 255
216 233 255
216 233 255
216 233 255
216 233 255
216 233 255
216 233 255
216 233 255
216 233 255
216 233 255
216 233 255
216 233 255
216 233 255
216 233 255
216 233 255
216 233 255
216 233 255
216 233 255
216 233 255
216 233 255
216 233 255
216 233 255
216 233 255
216 233 255
216 233 255
216 233 255
216 233 255
216 233 255
216 233 255
216 233 255
216 233 255
216 233 255
216 233 255
216 233 255
216 233 255
216 233 255
216 233 255
216 233 255
216 233 255
216 233 255
216 233 255
216 233 255
216 233 255
216 233 255
216 233 255
216 233 255
216 233 255
216 233 255
216 233 255
216 233 255
216 233 255
216 233 255
216 233 255
216 233 255
216 233 255
216 233 255
216 233 255
216 233 255
216 233 255
216 233 255
216 233 255
216 233 255
216 233 255
216 233 255
216 233 255
216 233 255
216 233 255
216 233 255
216 233 255
216 233 255
216 233 255
216 233 255
216 233 255
216 233 255
216 233 255
216 233 255
216 233 255
216 233 255
216 233 255
216 233 255
216 233 255
216 233 255
216 233 255
216 233 255
216 233 255
216 233 255
216 233 255
216 233 255
216 233 255
216 233 255
216 233 255
216 233 255
216 233 255
216 233 255
201 217 240
96 104 124
0 0 51
0 0 49
0 0 49
0 0 50
0 0 50
0 0 52
0 0 53
0 0 52
0 0 50
0 0 51
0 0 52
0 0 50
0 0 51
0 0 53
5 16 39
14 35 10
11 33 22
7 29 54
32 56 43
35 53 25
20 39 1
32 42 7
37 48 12
27 43 0
23 41 0
27 44 5
29 43 3
30 45 5
41 57 19
81 85 52
108 106 75
119 113 81
119 116 86
102 102 71
97 96 65
92 93 65
89 91 62
80 86 56
76 84 50
68 78 42
68 78 40
65 79 38
56 74 31
50 74 24
48 74 19
49 73 22
50 73 25
44 67 21
45 70 24
48 72 30
48 69 27
46 67 17
36 57 11
26 45 12
27 49 0
29 52 0
27 46 5
21 39 0
21 40 0
21 39 17
24 43 32
8 16 55
0 0 60
0 0 59
0 1 63
9 23 46
19 36 36
22 42 13
21 41 0
23 43 0
24 44 0
24 45 0
26 47 0
30 51 0
29 50 0
28 48 0
29 50 0
23 44 0
24 43 0
20 39 0
21 37 0
21 39 0
23 43 0
25 45 6
23 41 11
26 47 0
22 43 0
21 51 41
10 58 91
14 43 72
20 45 38
22 43 24
19 43 28
9 34 51
10 20 62
13 26 47
4 11 55
0 0 57
0 0 57
1 4 61
20 38 26
20 40 8
16 31 38
3 9 55
5 11 54
0 2 57
0 0 57
0 0 55
0 0 59
0 0 64
0 0 65
0 1 64
0 2 60
0 0 59
0 3 64
0 1 69
0 3 69
0 3 67
0 4 69
0 0 62
99 106 128
208 224 247
216 233 255
216 233 255
216 233 255
216 233 255
216 233 255
216 233 255
216 233 255
216 233 255
216 233 255
216 233 255
216 233 255
216 233 255
216 233 255
216 233 255
216 233 255
216 233 255
216 233 255
216 233 255
216 233 255
216 233 255
216 233 255
216 233 255
216 233 255
216 233 255
216 233 255
216 233 255
216 233 255
216 233 255
216 233 255
216 233 255
216 233 255
216 233 255
216 233 255
216 233 255
216 233 255
216 233 255
216 233 255
216 233 255
216 233 255
216 233 255
216 233 255
216 233 255
216 233 255
216 233 255
216 233 255
216 233 255
216 233 255
216 233 255
216 233 255
216 233 255
216 233 255
216 233 255
216 233 255
216 233 255
216 233 255
216 233 255
216 233 255
216 233 255
216 233 255
216 233 255
216 233 255
216 233 255
216 233 255
216 233 255
216 233 255
216 233 255
216 233 255
216 233 255
216 233 255
216 233 255
216 233 255
216 233 255
216 233 255
216 233 255
216 233 255
216 233 255
216 233 255
216 233 255
216 233 255
216 233 255
216 233 255
216 233 255
216 233 255
216 233 255
216 233 255
216 233 255
216 233 255
216 233 255
216 233 255
216 233 255
216 233 255
216 233 255
216 233 255
216 233 255
216 233 255
216 233 255
216 233 255
216 233 255
216 233 255
216 233 255
216 233 255
216 233 255
216 233 255
216 233 255
216 233 255
216 233 255
216 233 255
216 233 255
216 233 255
216 233 255
216 233 255
216 233 255
216 233 255
216 233 255
216 233 255
216 233 255
216 233 255
216 233 255
216 233 255
216 233 255
216 233 255
216 233 255
216 233 255
216 233 255
216 233 255
216 233 255
216 233 255
216 233 255
216 233 255
216 233 255
216 233 255
216 233 255
216 233 255
216 233 255
216 233 255
216 233 255
216 233 255
216 233 255
216 233 255
216 233 255
216 233 255
216 233 255
216 233 255
216 233 255
216 233 255
216 233 255
216 233 255
216 233 255
216 233 255
216 233 255
216 233 255
216 233 255
216 233 255
216 233 255
216 233 255
216 233 255
216 233 255
216 233 255
216 233 255
216 233 255
216 233 255
216 233 255
216 233 255
216 233 255
216 233 255
216 233 255
216 233 255
216 233 255
216 233 255
216 233 255
216 233 255
216 233 255
216 233 255
216 233 255
216 233 255
216 233 255
216 233 255
216 233 255
216 233 255
216 233 255
216 233 255
216 233 255
216 233 255
216 233 255
216 233 255
216 233 255
216 233 255
216 233 255
216 233 255
216 233 255
216 233 255
216 233 255
216 233 255
216 233 255
216 233 255
216 233 255
216 233 255
216 233 255
216 233 255
216 233 255
216 233 255
216 233 255
216 233 255
216 233 255
216 233 255
216 233 255
216 233 255
216 233 255
216 233 255
216 233 255
216 233 255
216 233 255
216 233 255
216 233 255
216 233 255
216 233 255
216 233 255
216 233 255
216 233 255
216 233 255
216 233 255
216 233 255
216 233 255
216 233 255
216 233 255
216 233 255
216 233 255
216 233 255
216 233 255
216 233 255
216 233 255
216 233 255
216 233 255
216 233 255
216 233 255
216 233 255
216 233 255
216 233 255
216 233 255
216 233 255
216 233 255
216 233 255
216 233 255
216 233 255
216 233 255
216 233 255
216 233 255
216 233 255
216 233 255
216 233 255
216 233 255
216 233 255
216 233 255
216 233 255
216 233 255
216 233 255
216 233 255
216 233 255
216 233 255
216 233 255
216 233 255
216 233 255
216 233 255
216 233 255
216 233 255
216 233 255
216 233 255
216 233 255
216 233 255
216 233 255
216 233 255
216 233 255
216 233 255
216 233 255
216 233 255
173 186 207
53 57 81
0 0 50
0 0 49
0 0 48
0 0 49
0 0 51
0 0 51
0 0 52
0 0 53
0 0 51
0 0 51
0 0 52
0 0 52
0 0 51
0 0 55
0 0 53
0 9 66
7 26 59
7 34 20
8 42 75
21 58 47
31 51 16
42 50 22
62 66 39
43 52 18
39 53 15
25 42 7
24 41 2
37 50 11
38 51 16
35 46 9
81 85 51
110 107 73
111 108 74
107 104 71
87 88 53
87 87 55
94 95 64
90 94 63
85 90 60
83 89 55
76 85 47
72 83 44
66 78 38
55 70 30
53 72 30
51 72 25
50 72 21
48 72 19
45 70 18
46 72 21
45 70 27
44 70 22
41 65 13
34 56 1
26 48 3
27 49 0
31 53 0
31 53 5
23 45 35
11 31 54
0 11 65
5 10 64
11 33 66
7 31 43
0 6 67
0 0 62
0 0 62
1 7 67
14 35 43
24 47 3
21 42 0
20 40 0
22 42 0
23 42 0
21 41 0
27 51 0
23 45 6
21 42 0
20 41 0
18 39 0
18 40 0
22 45 0
19 41 0
23 44 0
21 42 0
20 44 0
19 39 0
22 46 19
18 69 60
23 57 38
22 50 0
25 48 0
23 54 12
16 56 54
12 40 48
0 14 79
0 4 65
0 6 73
0 5 68
0 4 61
0 3 60
19 35 36
29 46 0
28 43 7
28 45 6
24 41 8
9 19 42
0 0 58
0 0 58
0 0 57
0 9 67
0 14 77
0 8 72
0 11 71
0 1 65
0 0 61
0 4 61
0 5 67
0 4 68
0 1 66
0 0 63
0 0 59
57 61 87
169 182 203
216 233 255
216 233 255
216 233 255
216 233 255
216 233 255
216 233 255
216 233 255
216 233 255
216 233 255
216 233 255
216 233 255
216 233 255
216 233 255
216 233 255
216 233 255
216 233 255
216 233 255
216 233 255
216 233 255
216 233 255
216 233 255
216 233 255
216 233 255
216 233 255
216 233 255
216 233 255
216 233 255
216 233 255
216 233 255
216 233 255
216 233 255
216 233 255
216 233 255
216 233 255
216 233 255
216 233 255
216 233 255
216 233 255
216 233 255
216 233 255
216 233 255
216 233 255
216 233 255
216 233 255
216 233 255
216 233 255
216 233 255
216 233 255
216 233 255
216 233 255
216 233 255
216 233 255
216 233 255
216 233 255
216 233 255
216 233 255
216 233 255
216 233 255
216 233 255
216 233 255
216 233 255
216 233 255
216 233 255
216 233 255
216 233 255
216 233 255
216 233 255
216 233 255
216 233 255
216 233 255
216 233 255
216 233 255
216 233 255
216 233 255
216 233 255
216 233 255
216 233 255
216 233 255
216 233 255
216 233 255
216 233 255
216 233 255
216 233 255
216 233 255
216 233 255
216 233 255
216 233 255
216 233 255
216 233 255
216 233 255
216 233 255
216 233 255
216 233 255
216 233 255
216 233 255
216 233 255
216 233 255
216 233 255
216 233 255
216 233 255
216 233 255
216 233 255
216 233 255
216 233 255
216 233 255
216 233 255
216 233 255
216 233 255
216 233 255
216 233 255
216 233 255
216 233 255
216 233 255
216 233 255
216 233 255
216 233 255
216 233 255
216 233 255
216 233 255
216 233 255
216 233 255
216 233 255
216 233 255
216 233 255
216 233 255
216 233 255
216 233 255
216 233 255
216 233 255
216 233 255
216 233 255
216 233 255
216 233 255
216 233 255
216 233 255
216 233 255
216 233 255
216 233 255
216 233 255
216 233 255
216 233 255
216 233 255
216 233 255
216 233 255
216 233 255
216 233 255
216 233 255
216 233 255
216 233 255
216 233 255
216 233 255
216 233 255
216 233 255
216 233 255
216 233 255
216 233 255
216 233 255
216 233 255
216 233 255
216 233 255
216 233 255
216 233 255
216 233 255
216 233 255
216 233 255
216 233 255
216 233 255
216 233 255
216 233 255
216 233 255
216 233 255
216 233 255
216 233 255
216 233 255
216 233 255
216 233 255
216 233 255
216 233 255
216 233 255
216 233 255
216 233 255
216 233 255
216 233 255
216 233 255
216 233 255
216 233 255
216 233 255
216 233 255
216 233 255
216 233 255
216 233 255
216 233 255
216 233 255
216 233 255
216 233 255
216 233 255
216 233 255
216 233 255
216 233 255
216 233 255
216 233 255
216 233 255
216 233 255
216 233 255
216 233 255
216 233 255
216 233 255
216 233 255
216 233 255
216 233 255
216 233 255
216 233 255
216 233 255
216 233 255
216 233 255
216 233 255
216 233 255
216 233 255
216 233 255
216 233 255
216 233 255
216 233 255
216 233 255
216 233 255
216 233 255
216 233 255
216 233 255
216 233 255
216 233 255
216 233 255
216 233 255
216 233 255
216 233 255
216 233 255
216 233 255
216 233 255
216 233 255
216 233 255
216 233 255
216 233 255
216 233 255
216 233 255
216 233 255
216 233 255
216 233 255
216 233 255
216 233 255
216 233 255
216 233 255
216 233 255
216 233 255
216 233 255
216 233 255
216 233 255
216 233 255
216 233 255
216 233 255
216 233 255
216 233 255
216 233 255
216 233 255
216 233 255
216 233 255
216 233 255
216 233 255
216 233 255
216 233 255
216 233 255
216 233 255
216 233 255
216 233 255
216 233 255
208 224 247
131 141 161
0 0 49
0 0 49
0 0 48
0 0 50
0 0 51
0 0 52
0 0 53
0 0 53
0 0 51
0 0 53
0 0 52
0 0 53
0 0 52
0 0 48
0 0 58
0 0 57
0 0 57
0 8 61
4 28 56
11 35 18
19 43 39
22 44 9
44 53 23
89 88 60
95 95 67
79 83 52
53 65 30
26 43 4
26 43 0
43 54 17
42 54 16
42 52 16
69 75 41
72 76 44
63 67 34
86 91 58
81 86 54
99 101 70
104 105 74
110 111 81
107 107 79
94 96 66
84 91 58
78 84 48
60 74 33
56 72 30
63 77 34
59 76 34
55 74 28
51 72 22
50 73 26
46 70 17
46 69 22
45 68 20
38 62 13
44 65 19
38 58 14
29 50 2
33 56 4
30 53 8
28 56 30
24 55 13
24 50 32
24 51 14
25 54 5
27 49 11
23 47 22
20 36 40
25 45 26
22 44 18
19 45 54
25 58 25
18 45 30
18 41 21
21 43 14
26 49 0
24 47 0
20 40 9
23 46 0
21 46 0
20 45 0
20 44 0
22 47 0
24 49 0
24 48 0
23 47 0
24 46 0
27 51 0
27 52 0
28 62 28
23 59 31
25 50 3
26 55 0
30 56 2
24 50 1
23 46 5
22 51 27
8 36 80
0 16 61
0 0 65
0 0 62
0 3 63
0 0 64
14 29 48
29 46 34
28 39 28
30 42 20
30 45 13
31 47 10
8 20 43
1 5 58
0 0 64
0 0 63
0 9 67
0 10 71
0 4 69
0 4 70
0 9 70
0 1 59
0 0 57
0 0 61
0 0 61
0 0 60
0 0 59
0 0 57
0 0 57
128 137 159
212 228 251
216 233 255
216 233 255
216 233 255
216 233 255
216 233 255
216 233 255
216 233 255
216 233 255
216 233 255
216 233 255
216 233 255
216 233 255
216 233 255
216 233 255
216 233 255
216 233 255
216 233 255
216 233 255
216 233 255
216 233 255
216 233 255
216 233 255
216 233 255
216 233 255
216 233 255
216 233 255
216 233 255
216 233 255
216 233 255
216 233 255
216 233 255
216 233 255
216 233 255
216 233 255
216 233 255
216 233 255
216 233 255
216 233 255
216 233 255
216 233 255
216 233 255
216 233 255
216 233 255
216 233 255
216 233 255
216 233 255
216 233 255
216 233 255
216 233 255
216 233 255
216 233 255
216 233 255
216 233 255
216 233 255
216 233 255
216 233 255
216 233 255
216 233 255
216 233 255
216 233 255
216 233 255
216 233 255
216 233 255
216 233 255
216 233 255
216 233 255
216 233 255
216 233 255
216 233 255
216 233 255
216 233 255
216 233 255
216 233 255
216 233 255
216 233 255
216 233 255
216 233 255
216 233 255
216 233 255
216 233 255
216 233 255
216 233 255
216 233 255
216 233 255
216 233 255
216 233 255
216 233 255
216 233 255
216 233 255
216 233 255
216 233 255
216 233 255
216 233 255
216 233 255
216 233 255
216 233 255
216 233 255
216 233 255
216 233 255
216 233 255
216 233 255
216 233 255
216 233 255
216 233 255
216 233 255
216 233 255
216 233 255
216 233 255
216 233 255
216 233 255
216 233 255
216 233 255
216 233 255
216 233 255
216 233 255
216 233 255
216 233 255
216 233 255
216 233 255
216 233 255
216 233 255
216 233 255
216 233 255
216 233 255
216 233 255
216 233 255
216 233 255
216 233 255
216 233 255
216 233 255
216 233 255
216 233 255
216 233 255
216 233 255
216 233 255
216 233 255
216 233 255
216 233 255
216 233 255
216 233 255
216 233 255
216 233 255
216 233 255
216 233 255
216 233 255
216 233 255
216 233 255
216 233 255
216 233 255
216 233 255
216 233 255
216 233 255
216 233 255
216 233 255
216 233 255
216 233 255
216 233 255
216 233 255
216 233 255
216 233 255
216 233 255
216 233 255
216 233 255
216 233 255
216 233 255
216 233 255
216 233 255
216 233 255
216 233 255
216 233 255
216 233 255
216 233 255
216 233 255
216 233 255
216 233 255
216 233 255
216 233 255
216 233 255
216 233 255
216 233 255
216 233 255
216 233 255
216 233 255
216 233 255
216 233 255
216 233 255
216 233 255
216 233 255
216 233 255
216 233 255
216 233 255
216 233 255
216 233 255
216 233 255
216 233 255
216 233 255
216 233 255
216 233 255
216 233 255
216 233 255
216 233 255
216 233 255
216 233 255
216 233 255
216 233 255
216 233 255
216 233 255
216 233 255
216 233 255
216 233 255
216 233 255
216 233 255
216 233 255
216 233 255
216 233 255
216 233 255
216 233 255
216 233 255
216 233 255
216 233 255
216 233 255
216 233 255
216 233 255
216 233 255
216 233 255
216 233 255
216 233 255
216 233 255
216 233 255
216 233 255
216 233 255
216 233 255
216 233 255
216 233 255
216 233 255
216 233 255
216 233 255
216 233 255
216 233 255
216 233 255
216 233 255
216 233 255
216 233 255
216 233 255
216 233 255
216 233 255
216 233 255
216 233 255
216 233 255
216 233 255
216 233 255
216 233 255
216 233 255
216 233 255
216 233 255
216 233 255
216 233 255
216 233 255
216 233 255
216 233 255
216 233 255
216 233 255
216 233 255
216 233 255
216 233 255
216 233 255
216 233 255
216 233 255
216 233 255
193 208 230
71 77 96
0 0 50
0 0 51
0 0 50
0 0 50
0 0 51
0 0 53
0 0 53
0 0 53
0 0 51
0 0 53
0 0 53
0 0 52
0 0 52
0 0 51
0 0 50
0 0 53
0 0 52
0 0 52
0 13 65
14 43 30
20 43 5
26 46 11
56 59 34
83 87 56
75 82 48
86 89 57
71 78 40
51 67 25
25 47 0
32 49 10
49 58 24
46 56 20
58 66 30
70 76 43
68 77 42
74 80 47
102 101 74
102 102 73
100 101 69
93 96 62
93 94 63
94 95 63
86 92 57
78 86 49
71 81 46
68 79 44
68 79 43
69 80 43
60 74 35
56 72 28
54 73 26
50 71 25
45 67 19
47 70 23
45 67 24
41 65 16
44 67 20
46 67 25
44 64 21
40 61 15
35 58 5
32 58 7
30 57 0
32 57 0
31 50 5
27 53 0
31 51 9
27 54 24
15 43 61
6 23 71
3 14 62
15 39 43
17 40 51
8 22 59
4 24 59
8 32 49
6 22 69
14 32 56
24 48 16
26 49 0
21 46 0
22 46 0
30 55 0
31 55 0
29 53 0
30 53 3
31 54 7
38 62 7
35 62 12
35 60 7
32 55 3
30 53 7
26 51 1
24 52 0
26 55 3
29 53 5
28 50 0
26 47 3
26 56 46
17 62 69
17 37 62
15 25 51
3 5 58
16 36 39
7 17 59
0 0 59
0 0 65
2 3 59
5 11 59
18 32 36
11 24 50
20 36 28
2 5 62
0 1 66
0 9 67
0 11 71
0 3 63
0 8 70
0 19 81
0 13 75
0 0 62
0 0 59
0 0 59
0 0 60
0 0 61
0 0 64
0 0 60
0 0 58
81 87 112
198 213 235
216 233 255
216 233 255
216 233 255
216 233 255
216 233 255
216 233 255
216 233 255
216 233 255
216 233 255
216 233 255
216 233 255
216 233 255
216 233 255
216 233 255
216 233 255
216 233 255
216 233 255
216 233 255
216 233 255
216 233 255
216 233 255
216 233 255
216 233 255
216 233 255
216 233 255
216 233 255
216 233 255
216 233 255
216 233 255
216 233 255
216 233 255
216 233 255
216 233 255
216 233 255
216 233 255
216 233 255
216 233 255
216 233 255
216 233 255
216 233 255
216 233 255
216 233 255
216 233 255
216 233 255
216 233 255
216 233 255
216 233 255
216 233 255
216 233 255
216 233 255
216 233 255
216 233 255
216 233 255
216 233 255
216 233 255
216 233 255
216 233 255
216 233 255
216 233 255
216 233 255
216 233 255
216 233 255
216 233 255
216 233 255
216 233 255
216 233 255
216 233 255
216 233 255
216 233 255
216 233 255
216 233 255
216 233 255
216 233 255
216 233 255
216 233 255
216 233 255
216 233 255
216 233 255
216 233 255
216 233 255
216 233 255
216 233 255
216 233 255
216 233 255
216 233 255
216 233 255
216 233 255
216 233 255
216 233 255
216 233 255
216 233 255
216 233 255
216 233 255
216 233 255
216 233 255
216 233 255
216 233 255
216 233 255
216 233 255
216 233 255
216 233 255
216 233 255
216 233 255
216 233 255
216 233 255
216 233 255
216 233 255
216 233 255
216 233 255
216 233 255
216 233 255
216 233 255
216 233 255
216 233 255
216 233 255
216 233 255
216 233 255
216 233 255
216 233 255
216 233 255
216 233 255
216 233 255
216 233 255
216 233 255
216 233 255
216 233 255
216 233 255
216 233 255
216 233 255
216 233 255
216 233 255
216 233 255
216 233 255
216 233 255
216 233 255
216 233 255
216 233 255
216 233 255
216 233 255
216 233 255
216 233 255
216 233 255
216 233 255
216 233 255
216 233 255
216 233 255
216 233 255
216 233 255
216 233 255
216 233 255
216 233 255
216 233 255
216 233 255
216 233 255
216 233 255
216 233 255
216 233 255
216 233 255
216 233 255
216 233 255
216 233 255
216 233 255
216 233 255
216 233 255
216 233 255
216 233 255
216 233 255
216 233 255
216 233 255
216 233 255
216 233 255
216 233 255
216 233 255
216 233 255
216 233 255
216 233 255
216 233 255
216 233 255
216 233 255
216 233 255
216 233 255
216 233 255
216 233 255
216 233 255
216 233 255
216 233 255
216 233 255
216 233 255
216 233 255
216 233 255
216 233 255
216 233 255
216 233 255
216 233 255
216 233 255
216 233 255
216 233 255
216 233 255
216 233 255
216 233 255
216 233 255
216 233 255
216 233 255
216 233 255
216 233 255
216 233 255
216 233 255
216 233 255
216 233 255
216 233 255
216 233 255
216 233 255
216 233 255
216 233 255
216 233 255
216 233 255
216 233 255
216 233 255
216 233 255
216 233 255
216 233 255
216 233 255
216 233 255
216 233 255
216 233 255
216 233 255
216 233 255
216 233 255
216 233 255
216 233 255
216 233 255
216 233 255
216 233 255
216 233 255
216 233 255
216 233 255
216 233 255
216 233 255
216 233 255
216 233 255
216 233 255
216 233 255
216 233 255
216 233 255
216 233 255
216 233 255
216 233 255
216 233 255
216 233 255
216 233 255
216 233 255
216 233 255
216 233 255
216 233 255
216 233 255
216 233 255
216 233 255
216 233 255
216 233 255
216 233 255
216 233 255
216 233 255
216 233 255
216 233 255
216 233 255
216 233 255
216 233 255
159 171 191
43 46 70
0 0 51
0 0 52
0 0 52
0 0 50
0 0 50
0 0 52
0 0 53
0 0 52
0 0 50
0 0 52
0 0 54
0 0 53
0 0 52
0 0 52
0 0 53
0 0 52
0 0 52
0 0 49
0 1 56
7 34 62
23 49 10
19 42 0
41 48 21
87 84 57
89 89 58
67 76 42
46 57 22
60 65 27
47 57 18
30 43 8
40 48 16
47 55 22
70 74 42
70 76 41
65 71 38
51 59 26
65 68 38
101 103 71
95 96 63
81 86 54
87 91 61
91 91 60
96 97 64
83 87 48
83 91 50
81 89 51
79 84 49
79 84 49
70 78 43
61 73 36
61 78 39
56 74 30
55 74 32
50 71 26
49 71 27
46 69 27
41 66 17
39 65 17
40 62 16
44 64 20
44 65 20
41 66 13
39 65 12
38 63 6
40 66 10
39 60 12
33 61 6
40 62 19
27 71 57
7 26 68
11 25 72
26 44 39
34 57 16
34 58 0
32 52 24
0 9 70
0 0 63
4 17 58
13 27 51
10 24 64
27 51 19
27 49 3
26 51 0
29 51 0
30 53 0
40 65 12
43 67 14
38 61 10
39 63 14
37 62 5
31 56 0
27 53 0
24 50 3
30 50 0
26 52 0
26 51 0
22 48 0
25 52 8
23 50 18
26 51 41
21 58 54
24 54 43
25 48 49
17 36 49
18 42 33
14 37 29
2 11 53
0 0 62
0 0 62
0 0 64
0 0 63
0 6 69
7 20 59
2 8 62
0 0 66
0 0 60
0 6 66
0 11 71
0 6 68
0 18 79
0 13 76
0 10 72
0 0 62
0 0 59
0 0 56
0 0 59
0 0 61
0 0 65
0 0 60
0 0 57
21 23 67
170 183 205
216 233 255
216 233 255
216 233 255
216 233 255
216 233 255
216 233 255
216 233 255
216 233 255
216 233 255
216 233 255
216 233 255
216 233 255
216 233 255
216 233 255
216 233 255
216 233 255
216 233 255
216 233 255
216 233 255
216 233 255
216 233 255
216 233 255
216 233 255
216 233 255
216 233 255
216 233 255
216 233 255
216 233 255
216 233 255
216 233 255
216 233 255
216 233 255
216 233 255
216 233 255
216 233 255
216 233 255
216 233 255
216 233 255
216 233 255
216 233 255
216 233 255
216 233 255
216 233 255
216 233 255
216 233 255
216 233 255
216 233 255
216 233 255
216 233 255
216 233 255
216 233 255
216 233 255
216 233 255
216 233 255
216 233 255
216 233 255
216 233 255
216 233 255
216 233 255
216 233 255
216 233 255
216 233 255
216 233 255
216 233 255
216 233 255
216 233 255
216 233 255
216 233 255
216 233 255
216 233 255
216 233 255
216 233 255
216 233 255
216 233 255
216 233 255
216 233 255
216 233 255
216 233 255
216 233 255
216 233 255
216 233 255
216 233 255
216 233 255
216 233 255
216 233 255
216 233 255
216 233 255
216 233 255
216 233 255
216 233 255
216 233 255
216 233 255
216 233 255
216 233 255
216 233 255
216 233 255
216 233 255
216 233 255
216 233 255
216 233 255
216 233 255
216 233 255
216 233 255
216 233 255
216 233 255
216 233 255
216 233 255
216 233 255
216 233 255
216 233 255
216 233 255
216 233 255
216 233 255
216 233 255
216 233 255
216 233 255
216 233 255
216 233 255
216 233 255
216 233 255
216 233 255
216 233 255
216 233 255
216 233 255
216 233 255
216 233 255
216 233 255
216 233 255
216 233 255
216 233 255
216 233 255
216 233 255
216 233 255
217 233 255
217 233 255
217 233 255
217 233 255
217 233 255
217 233 255
217 233 255
217 233 255
217 233 255
217 233 255
217 233 255
217 233 255
217 233 255
217 233 255
217 233 255
217 233 255
217 233 255
217 233 255
217 233 255
217 233 255
217 233 255
217 233 255
217 233 255
217 233 255
217 233 255
216 233 255
216 233 255
216 233 255
216 233 255
216 233 255
216 233 255
216 233 255
216 233 255
216 233 255
216 233 255
216 233 255
216 233 255
216 233 255
216 233 255
216 233 255
216 233 255
216 233 255
216 233 255
216 233 255
216 233 255
216 233 255
216 233 255
216 233 255
216 233 255
216 233 255
216 233 255
216 233 255
216 233 255
216 233 255
216 233 255
216 233 255
216 233 255
216 233 255
216 233 255
216 233 255
216 233 255
216 233 255
216 233 255
216 233 255
216 233 255
216 233 255
216 233 255
216 233 255
216 233 255
216 233 255
216 233 255
216 233 255
216 233 255
216 233 255
216 233 255
216 233 255
216 233 255
216 233 255
216 233 255
216 233 255
216 233 255
216 233 255
216 233 255
216 233 255
216 233 255
216 233 255
216 233 255
216 233 255
216 233 255
216 233 255
216 233 255
216 233 255
216 233 255
216 233 255
216 233 255
216 233 255
216 233 255
216 233 255
216 233 255
216 233 255
216 233 255
216 233 255
216 233 255
216 233 255
216 233 255
216 233 255
216 233 255
216 233 255
216 233 255
216 233 255
216 233 255
216 233 255
216 233 255
216 233 255
216 233 255
216 233 255
216 233 255
216 233 255
216 233 255
216 233 255
216 233 255
216 233 255
216 233 255
216 233 255
216 233 255
216 233 255
216 233 255
216 233 255
216 233 255
216 233 255
216 233 255
215 232 254
137 147 166
0 0 51
0 0 50
0 0 50
0 0 49
0 0 48
0 0 48
0 0 49
0 0 52
0 0 52
0 0 51
0 0 52
0 0 54
0 0 54
0 0 53
0 0 51
0 0 51
0 0 53
0 0 51
0 0 52
0 0 48
5 16 53
30 50 20
33 52 11
43 51 24
86 83 59
81 80 56
62 66 33
54 60 29
54 62 27
49 58 21
47 53 20
52 56 26
68 69 41
73 75 44
79 81 50
57 64 30
49 55 25
47 51 26
70 70 41
132 129 96
137 134 103
78 77 47
97 99 65
107 105 72
95 95 60
69 75 37
51 59 24
76 82 45
79 85 48
74 82 46
69 79 42
65 78 38
62 78 37
61 77 35
58 75 33
52 72 31
46 69 28
43 68 23
38 64 16
38 62 16
36 60 16
39 62 16
42 65 18
42 65 17
39 62 12
38 61 11
38 62 7
38 61 11
42 62 18
44 65 16
29 56 51
0 17 79
22 48 53
36 53 0
39 61 8
40 57 0
25 71 61
27 44 72
10 13 67
23 39 54
43 67 22
41 62 23
40 61 17
40 62 19
38 60 24
35 56 26
35 57 24
32 54 27
37 60 8
26 49 0
24 48 2
27 50 5
27 52 0
26 52 0
28 51 6
27 55 7
29 54 0
28 55 9
22 50 21
18 41 48
10 43 87
7 32 82
23 50 49
24 54 32
26 49 24
27 45 18
16 33 35
3 11 54
0 0 59
0 0 57
0 0 60
0 0 66
0 0 67
0 0 65
0 1 62
0 0 56
0 0 56
0 0 58
0 0 60
0 0 63
0 0 67
0 10 71
0 13 79
0 13 76
0 7 69
0 0 58
0 0 54
0 0 53
0 0 55
0 0 58
0 3 63
0 0 58
0 0 56
0 4 66
133 144 167
213 229 252
216 233 255
216 233 255
216 233 255
216 233 255
216 233 255
216 233 255
216 233 255
216 233 255
216 233 255
216 233 255
216 233 255
216 233 255
216 233 255
216 233 255
216 233 255
216 233 255
216 233 255
216 233 255
216 233 255
216 233 255
216 233 255
216 233 255
216 233 255
216 233 255
216 233 255
216 233 255
216 233 255
216 233 255
216 233 255
216 233 255
216 233 255
216 233 255
216 233 255
216 233 255
216 233 255
216 233 255
216 233 255
216 233 255
216 233 255
216 233 255
216 233 255
216 233 255
216 233 255
216 233 255
216 233 255
216 233 255
216 233 255
216 233 255
216 233 255
216 233 255
216 233 255
216 233 255
216 233 255
216 233 255
216 233 255
216 233 255
216 233 255
216 233 255
216 233 255
216 233 255
216 233 255
216 233 255
216 233 255
216 233 255
216 233 255
216 233 255
216 233 255
216 233 255
216 233 255
216 233 255
216 233 255
216 233 255
216 233 255
216 233 255
216 233 255
216 233 255
216 233 255
216 233 255
216 233 255
216 233 255
216 233 255
216 233 255
216 233 255
216 233 255
216 233 255
216 233 255
216 233 255
216 233 255
216 233 255
216 233 255
216 233 255
216 233 255
216 233 255
216 233 255
216 233 255
216 233 255
216 233 255
216 233 255
216 233 255
216 233 255
216 233 255
216 233 255
216 233 255
216 233 255
216 233 255
216 233 255
216 233 255
216 233 255
217 233 255
217 233 255
217 233 255
217 233 255
217 233 255
217 233 255
217 233 255
217 233 255
217 233 255
217 233 255
217 233 255
217 233 255
217 233 255
217 233 255
217 233 255
217 233 255
217 233 255
217 233 255
217 233 255
217 233 255
217 233 255
217 233 255
217 233 255
217 233 255
217 233 255
217 233 255
217 233 255
217 233 255
217 233 255
217 233 255
217 233 255
217 233 255
217 233 255
217 233 255
217 233 255
217 233 255
217 233 255
217 233 255
217 233 255
217 233 255
217 233 255
217 233 255
217 233 255
217 233 255
217 233 255
217 233 255
217 233 255
217 233 255
217 233 255
217 233 255
217 233 255
217 233 255
217 233 255
217 233 255
217 233 255
217 233 255
217 233 255
217 233 255
217 233 255
217 233 255
217 233 255
217 233 255
217 233 255
217 233 255
217 233 255
217 233 255
217 233 255
217 233 255
217 233 255
217 233 255
217 233 255
217 233 255
217 233 255
217 233 255
217 233 255
217 233 255
217 233 255
217 233 255
217 233 255
217 233 255
216 233 255
216 233 255
216 233 255
216 233 255
216 233 255
216 233 255
216 233 255
216 233 255
216 233 255
216 233 255
216 233 255
216 233 255
216 233 255
216 233 255
216 233 255
216 233 255
216 233 255
216 233 255
216 233 255
216 233 255
216 233 255
216 233 255
216 233 255
216 233 255
216 233 255
216 233 255
216 233 255
216 233 255
216 233 255
216 233 255
216 233 255
216 233 255
216 233 255
216 233 255
216 233 255
216 233 255
216 233 255
216 233 255
216 233 255
216 233 255
216 233 255
216 233 255
216 233 255
216 233 255
216 233 255
216 233 255
216 233 255
216 233 255
216 233 255
216 233 255
216 233 255
216 233 255
216 233 255
216 233 255
216 233 255
216 233 255
216 233 255
216 233 255
216 233 255
216 233 255
216 233 255
216 233 255
216 233 255
216 233 255
216 233 255
216 233 255
216 233 255
216 233 255
216 233 255
216 233 255
216 233 255
216 233 255
216 233 255
208 223 245
101 109 128
0 0 51
0 0 50
0 0 51
0 0 49
0 0 48
0 0 48
0 0 50
0 0 52
0 0 53
0 0 53
0 0 53
0 0 53
0 0 54
0 0 54
0 0 51
0 0 50
0 0 53
0 0 50
0 0 49
0 0 47
3 13 55
24 43 28
30 52 12
36 44 16
77 75 50
69 68 43
61 63 35
61 63 36
86 84 59
83 86 55
57 65 31
58 64 31
65 67 41
86 84 59
94 92 63
81 88 53
63 71 36
51 58 28
62 65 39
96 92 67
123 117 85
124 122 90
92 94 60
113 111 74
105 104 69
102 102 64
90 95 56
65 73 35
81 90 52
81 91 50
74 86 45
66 81 37
63 80 35
57 77 34
51 72 29
53 71 31
48 68 29
44 67 25
38 63 17
38 62 16
39 62 16
35 59 16
38 63 16
39 64 17
44 67 20
41 64 15
38 60 6
37 61 7
40 59 10
43 66 18
45 67 16
22 43 71
0 24 89
19 48 64
41 61 6
41 66 10
45 66 22
50 71 44
50 68 28
27 44 56
34 51 53
51 70 20
52 72 26
45 69 36
26 41 71
15 34 63
21 37 59
12 25 65
18 43 54
27 54 4
27 50 0
25 48 0
28 53 3
29 53 1
25 53 0
26 51 0
29 55 2
21 45 36
14 34 53
0 22 76
1 16 78
0 3 63
12 26 61
27 47 10
15 38 31
0 8 62
0 4 61
0 0 64
0 0 58
0 0 59
0 0 57
0 0 57
0 0 59
0 0 63
0 0 70
0 0 59
0 0 54
0 0 57
0 0 55
0 0 55
0 0 62
0 0 69
0 0 64
0 8 68
0 11 72
0 9 66
0 0 54
0 0 52
0 0 50
0 0 53
0 0 52
0 0 60
0 0 60
0 0 57
0 0 58
0 16 77
106 115 142
211 227 249
216 233 255
216 233 255
216 233 255
216 233 255
216 233 255
216 233 255
216 233 255
216 233 255
216 233 255
216 233 255
216 233 255
216 233 255
216 233 255
216 233 255
216 233 255
216 233 255
216 233 255
216 233 255
216 233 255
216 233 255
216 233 255
216 233 255
216 233 255
216 233 255
216 233 255
216 233 255
216 233 255
216 233 255
216 233 255
216 233 255
216 233 255
216 233 255
216 233 255
216 233 255
216 233 255
216 233 255
216 233 255
216 233 255
216 233 255
216 233 255
216 233 255
216 233 255
216 233 255
216 233 255
216 233 255
216 233 255
216 233 255
216 233 255
216 233 255
216 233 255
216 233 255
216 233 255
216 233 255
216 233 255
216 233 255
216 233 255
216 233 255
216 233 255
216 233 255
216 233 255
216 233 255
216 233 255
216 233 255
216 233 255
216 233 255
216 233 255
216 233 255
216 233 255
216 233 255
216 233 255
216 233 255
216 233 255
216 233 255
216 233 255
217 233 255
217 233 255
217 233 255
217 233 255
217 233 255
217 233 255
217 233 255
217 233 255
217 233 255
217 233 255
217 233 255
217 233 255
217 233 255
217 233 255
217 233 255
217 233 255
217 233 255
217 233 255
217 233 255
217 233 255
217 233 255
217 233 255
217 233 255
217 233 255
217 233 255
217 233 255
217 233 255
217 233 255
217 233 255
217 233 255
217 233 255
217 233 255
217 233 255
217 233 255
217 233 255
217 233 255
217 233 255
217 233 255
217 233 255
217 233 255
217 233 255
217 233 255
217 233 255
217 233 255
217 233 255
217 233 255
217 233 255
217 233 255
217 233 255
217 233 255
217 233 255
217 233 255
217 233 255
217 233 255
217 233 255
217 233 255
217 233 255
217 233 255
217 233 255
217 233 255
217 233 255
217 233 255
217 233 255
217 233 255
217 233 255
217 233 255
217 233 255
217 233 255
217 233 255
217 233 255
217 233 255
217 233 255
217 233 255
217 233 255
217 233 255
217 233 255
217 233 255
217 233 255
217 233 255
217 233 255
217 233 255
217 233 255
217 233 255
217 233 255
217 233 255
217 233 255
217 233 255
217 233 255
217 233 255
217 233 255
217 233 255
217 233 255
217 233 255
217 233 255
217 233 255
217 233 255
217 233 255
217 233 255
217 233 255
217 233 255
217 233 255
217 233 255
217 233 255
217 233 255
217 233 255
217 233 255
217 233 255
217 233 255
217 233 255
217 233 255
217 233 255
217 233 255
217 233 255
217 233 255
217 233 255
217 233 255
217 233 255
217 233 255
217 233 255
217 233 255
217 233 255
217 233 255
217 233 255
217 233 255
217 233 255
217 233 255
217 233 255
217 233 255
217 233 255
217 233 255
217 233 255
217 233 255
217 233 255
217 233 255
217 233 255
217 233 255
217 233 255
217 233 255
217 233 255
217 233 255
217 233 255
217 233 255
217 233 255
217 233 255
217 233 255
217 233 255
217 233 255
217 233 255
217 233 255
217 233 255
217 233 255
217 233 255
217 233 255
217 233 255
216 233 255
216 233 255
216 233 255
216 233 255
216 233 255
216 233 255
216 233 255
216 233 255
216 233 255
216 233 255
216 233 255
216 233 255
216 233 255
216 233 255
216 233 255
216 233 255
216 233 255
216 233 255
216 233 255
216 233 255
216 233 255
216 233 255
216 233 255
216 233 255
216 233 255
216 233 255
216 233 255
216 233 255
216 233 255
216 233 255
216 233 255
202 217 239
65 70 92
0 0 51
0 0 50
0 0 50
0 0 48
0 0 48
0 0 50
0 0 50
0 0 53
0 0 53
0 0 54
0 0 54
0 0 53
0 0 53
0 0 52
0 0 51
0 0 49
0 0 50
0 0 51
0 0 52
0 0 48
0 5 56
10 35 43
24 47 6
28 39 13
61 61 37
91 87 64
89 84 62
84 82 60
91 88 62
93 89 61
98 96 68
84 84 55
82 84 54
85 86 59
87 86 58
89 88 57
67 77 41
52 61 27
67 71 41
82 82 55
105 104 77
127 124 95
130 124 94
118 113 79
99 97 61
98 100 68
96 98 64
87 92 55
78 85 47
74 81 43
80 89 55
81 91 56
75 87 50
70 82 45
61 77 37
55 75 33
52 73 31
48 68 26
44 66 21
41 66 16
39 65 16
38 63 16
36 60 16
38 62 16
39 65 16
39 64 15
39 64 14
41 66 15
42 67 15
43 66 18
44 66 13
42 63 16
28 42 59
0 26 91
6 31 77
43 66 10
39 62 9
45 64 16
42 65 12
53 69 20
38 62 46
45 65 36
33 54 62
39 61 60
27 45 72
29 50 57
35 63 15
39 65 6
39 64 12
37 61 13
31 56 0
34 60 0
35 60 0
34 60 0
30 57 0
24 52 0
30 54 0
29 55 13
9 23 62
0 0 60
0 0 59
0 0 62
0 0 64
0 5 69
5 18 64
5 14 59
0 0 60
0 0 59
0 0 60
0 0 58
0 0 57
0 0 57
0 0 57
0 0 60
0 0 59
0 0 65
0 0 66
0 0 61
0 0 62
0 0 61
0 0 57
0 0 56
0 0 60
0 0 68
0 0 64
0 11 72
0 2 69
0 0 63
0 0 59
0 0 50
0 0 52
0 0 55
0 0 55
0 0 61
0 0 62
0 0 60
0 3 62
0 19 80
81 88 120
197 212 234
216 233 255
216 233 255
216 233 255
216 233 255
216 233 255
216 233 255
216 233 255
216 233 255
216 233 255
216 233 255
216 233 255
216 233 255
216 233 255
216 233 255
216 233 255
216 233 255
216 233 255
216 233 255
216 233 255
216 233 255
216 233 255
216 233 255
216 233 255
216 233 255
216 233 255
216 233 255
216 233 255
216 233 255
216 233 255
216 233 255
217 233 255
217 233 255
217 233 255
217 233 255
217 233 255
217 233 255
217 233 255
217 233 255
217 233 255
217 233 255
217 233 255
217 233 255
217 233 255
217 233 255
217 233 255
217 233 255
217 233 255
217 233 255
217 233 255
217 233 255
217 233 255
217 233 255
217 233 255
217 233 255
217 233 255
217 233 255
217 233 255
217 233 255
217 233 255
217 233 255
217 233 255
217 233 255
217 233 255
217 233 255
217 233 255
217 233 255
217 233 255
217 233 255
217 233 255
217 233 255
217 233 255
217 233 255
217 233 255
217 233 255
217 233 255
217 233 255
217 233 255
217 233 255
217 233 255
217 233 255
217 233 255
217 233 255
217 233 255
217 233 255
217 233 255
217 233 255
217 233 255
217 233 255
217 233 255
217 233 255
217 233 255
217 233 255
217 233 255
217 233 255
217 233 255
217 233 255
217 233 255
217 233 255
217 233 255
217 233 255
217 233 255
217 233 255
217 233 255
217 233 255
217 233 255
217 233 255
217 233 255
217 233 255
217 233 255
217 233 255
217 233 255
217 233 255
217 233 255
217 233 255
217 233 255
217 233 255
217 233 255
217 233 255
217 233 255
217 233 255
217 233 255
217 233 255
217 233 255
217 233 255
217 233 255
217 233 255
217 233 255
217 233 255
217 233 255
217 233 255
217 233 255
217 233 255
217 233 255
217 233 255
217 233 255
217 233 255
217 233 255
217 233 255
217 233 255
217 233 255
217 233 255
217 233 255
217 233 255
217 233 255
217 233 255
217 233 255
217 233 255
217 233 255
217 233 255
217 233 255
217 233 255
217 233 255
217 233 255
217 233 255
217 233 255
217 233 255
217 233 255
217 233 255
217 233 255
217 233 255
217 233 255
217 233 255
217 233 255
217 233 255
217 233 255
217 233 255
217 233 255
217 233 255
217 233 255
217 233 255
217 233 255
217 233 255
217 233 255
217 233 255
217 233 255
217 233 255
217 233 255
217 233 255
217 233 255
217 233 255
217 233 255
217 233 255
217 233 255
217 233 255
217 233 255
217 233 255
217 233 255
217 233 255
217 233 255
217 233 255
217 233 255
217 233 255
217 233 255
217 233 255
217 233 255
217 233 255
217 233 255
217 233 255
217 233 255
217 233 255
217 233 255
217 233 255
217 233 255
217 233 255
217 233 255
217 233 255
217 233 255
217 233 255
217 233 255
217 233 255
217 233 255
217 233 255
217 233 255
217 233 255
217 233 255
217 233 255
217 233 255
217 233 255
217 233 255
217 233 255
217 233 255
217 233 255
217 233 255
217 233 255
217 233 255
217 233 255
217 233 255
217 233 255
217 233 255
217 233 255
217 233 255
217 233 255
217 233 255
217 233 255
217 233 255
217 233 255
217 233 255
217 233 255
217 233 255
217 233 255
217 233 255
217 233 255
217 233 255
217 233 255
217 233 255
217 233 255
217 233 255
217 233 255
217 233 255
217 233 255
217 233 255
217 233 255
217 233 255
217 233 255
217 233 255
217 233 255
217 233 255
186 200 222
68 73 94
0 0 50
0 0 49
0 0 49
0 0 48
0 0 48
0 0 50
0 0 52
0 0 52
0 0 53
0 0 51
0 0 51
0 0 53
0 0 53
0 0 53
0 0 52
0 0 52
0 0 52
0 0 52
0 0 52
0 0 53
0 4 56
12 32 41
21 43 3
22 34 3
52 55 31
80 77 54
96 90 68
100 92 68
96 89 65
99 94 69
89 84 59
103 97 74
106 101 73
89 91 55
89 93 57
89 90 60
77 83 53
66 74 45
73 74 47
126 121 96
119 114 91
127 123 92
133 130 95
123 124 86
109 108 73
102 101 63
84 86 53
93 99 62
87 95 57
85 92 56
86 93 61
88 95 64
85 91 60
81 86 55
77 85 54
73 82 47
64 77 39
49 69 28
45 66 24
44 66 20
41 64 16
43 64 21
43 63 19
42 63 19
42 65 17
42 65 16
42 65 16
42 64 16
42 65 15
39 63 1
38 60 12
36 62 11
47 66 10
46 62 44
14 31 77
27 50 45
42 66 12
40 63 15
42 63 13
46 66 22
40 72 51
17 53 91
10 37 98
10 43 89
19 52 70
25 54 42
28 52 21
27 51 5
29 55 0
31 59 0
33 59 0
32 60 0
32 59 0
30 55 0
29 54 3
28 56 0
29 55 7
30 51 2
34 55 12
16 32 59
0 6 60
0 0 60
0 0 63
0 4 62
0 3 65
0 0 62
0 0 58
0 0 57
0 0 61
0 0 55
0 0 60
0 0 59
0 0 58
0 0 58
0 0 58
0 0 57
0 0 58
0 0 64
0 0 64
0 0 63
0 0 63
0 0 61
0 0 57
0 0 56
0 0 61
0 0 65
0 4 69
0 10 72
0 0 62
0 0 57
0 0 54
0 0 52
0 0 54
0 0 61
0 0 60
0 0 61
0 0 63
0 0 64
0 2 63
0 14 75
43 49 94
181 195 217
217 233 255
217 233 255
217 233 255
217 233 255
217 233 255
217 233 255
217 233 255
217 233 255
217 233 255
217 233 255
217 233 255
217 233 255
217 233 255
217 233 255
217 233 255
217 233 255
217 233 255
217 233 255
217 233 255
217 233 255
217 233 255
217 233 255
217 233 255
217 233 255
217 233 255
217 233 255
217 233 255
217 233 255
217 233 255
217 233 255
217 233 255
217 233 255
217 233 255
217 233 255
217 233 255
217 233 255
217 233 255
217 233 255
217 233 255
217 233 255
217 233 255
217 233 255
217 233 255
217 233 255
217 233 255
217 233 255
217 233 255
217 233 255
217 233 255
217 233 255
217 233 255
217 233 255
217 233 255
217 233 255
217 233 255
217 233 255
217 233 255
217 233 255
217 233 255
217 233 255
217 233 255
217 233 255
217 233 255
217 233 255
217 233 255
217 233 255
217 233 255
217 233 255
217 233 255
217 233 255
217 233 255
217 233 255
217 233 255
217 233 255
217 233 255
217 233 255
217 233 255
217 233 255
217 233 255
217 233 255
217 233 255
217 233 255
217 233 255
217 233 255
217 233 255
217 233 255
217 233 255
217 233 255
217 233 255
217 233 255
217 233 255
217 233 255
217 233 255
217 233 255
217 233 255
217 233 255
217 233 255
217 233 255
217 233 255
217 233 255
217 233 255
217 233 255
217 233 255
217 233 255
217 233 255
217 233 255
217 233 255
217 233 255
217 233 255
217 233 255
217 233 255
217 233 255
217 233 255
217 233 255
217 233 255
217 233 255
217 233 255
217 233 255
217 233 255
217 233 255
217 233 255
217 233 255
217 233 255
217 233 255
217 233 255
217 233 255
217 233 255
217 233 255
217 233 255
217 233 255
217 233 255
217 233 255
217 233 255
217 233 255
217 233 255
217 233 255
217 233 255
217 233 255
217 233 255
217 233 255
217 233 255
217 233 255
217 233 255
217 233 255
217 233 255
217 233 255
217 233 255
217 233 255
217 233 255
217 233 255
217 233 255
217 233 255
217 233 255
217 233 255
217 233 255
217 233 255
217 233 255
217 233 255
217 233 255
217 233 255
217 233 255
217 233 255
217 233 255
217 233 255
217 233 255
217 233 255
217 233 255
217 233 255
217 233 255
217 233 255
217 233 255
217 233 255
217 233 255
217 233 255
217 233 255
217 233 255
217 233 255
217 233 255
217 233 255
217 233 255
217 233 255
217 233 255
217 233 255
217 233 255
217 233 255
217 233 255
217 233 255
217 233 255
217 233 255
217 233 255
217 233 255
217 233 255
217 233 255
217 233 255
217 233 255
217 233 255
217 233 255
217 233 255
217 233 255
217 233 255
217 233 255
217 233 255
217 233 255
217 233 255
217 233 255
217 233 255
217 233 255
217 233 255
217 233 255
217 233 255
217 233 255
217 233 255
217 233 255
217 233 255
217 233 255
217 233 255
217 233 255
217 233 255
217 233 255
217 233 255
217 233 255
217 233 255
217 233 255
217 233 255
217 233 255
217 233 255
217 233 255
217 233 255
217 233 255
217 233 255
217 233 255
217 233 255
217 233 255
217 233 255
217 233 255
217 233 255
217 233 255
217 233 255
217 233 255
217 233 255
217 233 255
217 233 255
217 233 255
217 233 255
217 233 255
217 233 255
217 233 255
217 233 255
217 233 255
217 233 255
217 233 255
217 233 255
217 233 255
217 233 255
217 233 255
175 188 208
43 46 72
0 0 48
0 0 48
0 0 49
0 0 48
0 0 48
0 0 49
0 0 52
0 0 53
0 0 53
0 0 52
0 0 50
0 0 51
0 0 51
0 0 52
0 0 51
0 0 52
0 0 53
0 0 52
0 0 52
0 0 51
0 0 56
7 17 56
18 37 1
37 50 18
51 56 30
67 67 44
73 70 44
97 92 67
101 96 71
103 95 68
105 97 71
96 91 64
88 86 60
101 92 65
96 93 65
110 110 82
109 104 72
72 80 48
82 85 55
123 116 88
143 141 107
128 126 93
137 138 100
126 121 86
104 102 74
75 74 44
97 99 65
91 95 67
92 99 67
90 98 68
86 92 64
87 93 65
83 91 62
80 88 54
69 79 44
60 74 38
59 76 37
56 74 32
47 66 27
46 65 26
50 68 28
50 67 24
42 62 18
46 69 22
45 68 21
44 67 20
42 65 16
44 66 16
42 65 16
39 62 12
38 61 0
37 60 12
33 59 0
37 59 0
41 63 2
38 65 9
41 62 3
39 62 6
41 66 14
46 70 16
50 70 24
48 68 28
38 60 47
37 62 40
39 67 24
38 62 11
36 59 6
30 53 0
29 53 7
29 53 0
29 54 0
35 57 0
32 58 0
32 57 1
32 52 3
33 52 6
33 53 5
29 57 25
28 54 30
24 47 40
15 41 43
4 30 72
0 11 68
0 4 71
0 15 79
0 13 76
0 0 68
0 0 63
0 0 58
0 0 55
0 0 58
0 0 63
0 0 64
0 0 59
0 0 60
0 0 61
0 0 56
0 0 52
0 0 54
0 0 61
0 0 63
0 0 61
0 0 60
0 0 60
0 0 56
0 0 60
0 0 63
0 0 66
0 3 69
0 0 59
0 0 51
0 0 50
0 0 50
0 0 52
0 0 54
0 0 57
0 0 62
0 0 57
0 0 60
0 0 63
0 0 61
0 5 68
0 11 73
173 186 208
217 233 255
217 233 255
217 233 255
217 233 255
217 233 255
217 233 255
217 233 255
217 233 255
217 233 255
217 233 255
217 233 255
217 233 255
217 233 255
217 233 255
217 233 255
217 233 255
217 233 255
217 233 255
217 233 255
217 233 255
217 233 255
217 233 255
217 233 255
217 233 255
217 233 255
217 233 255
217 233 255
217 233 255
217 233 255
217 233 255
217 233 255
217 233 255
217 233 255
217 233 255
217 233 255
217 233 255
217 233 255
217 233 255
217 233 255
217 233 255
217 233 255
217 233 255
217 233 255
217 233 255
217 233 255
217 233 255
217 233 255
217 233 255
217 233 255
217 233 255
217 233 255
217 233 255
217 233 255
217 233 255
217 233 255
217 233 255
217 233 255
217 233 255
217 233 255
217 233 255
217 233 255
217 233 255
217 233 255
217 233 255
217 233 255
217 233 255
217 233 255
217 233 255
217 233 255
217 233 255
217 233 255
217 233 255
217 233 255
217 233 255
217 233 255
217 233 255
217 233 255
217 233 255
217 233 255
217 233 255
217 233 255
217 233 255
217 233 255
217 233 255
217 233 255
217 233 255
217 233 255
217 233 255
217 233 255
217 233 255
217 233 255
217 233 255
217 233 255
217 233 255
217 233 255
217 233 255
217 233 255
217 233 255
217 233 255
217 233 255
217 233 255
217 233 255
217 233 255
217 233 255
217 233 255
217 233 255
217 233 255
217 233 255
217 233 255
217 233 255
217 233 255
217 233 255
217 233 255
217 233 255
217 233 255
217 233 255
217 233 255
217 233 255
217 233 255
217 233 255
217 233 255
217 233 255
217 233 255
217 233 255
217 233 255
217 233 255
217 233 255
217 233 255
217 233 255
217 233 255
217 233 255
217 233 255
217 233 255
217 233 255
217 233 255
217 233 255
217 233 255
217 233 255
217 233 255
217 233 255
217 233 255
217 233 255
217 233 255
217 233 255
217 233 255
217 233 255
217 233 255
217 233 255
217 233 255
217 233 255
217 233 255
217 233 255
217 233 255
217 233 255
217 233 255
217 233 255
217 233 255
217 233 255
217 233 255
217 233 255
217 233 255
217 233 255
217 233 255
217 233 255
217 233 255
217 233 255
217 233 255
217 233 255
217 233 255
217 233 255
217 233 255
217 233 255
217 233 255
217 233 255
217 233 255
217 233 255
217 233 255
217 233 255
217 233 255
217 233 255
217 233 255
217 233 255
217 233 255
217 233 255
217 233 255
217 233 255
217 233 255
217 233 255
217 233 255
217 233 255
217 233 255
217 233 255
217 233 255
217 233 255
217 233 255
217 233 255
217 233 255
217 233 255
217 233 255
217 233 255
217 233 255
217 233 255
217 233 255
217 233 255
217 233 255
217 233 255
217 233 255
217 233 255
217 233 255
217 233 255
217 233 255
217 233 255
217 233 255
217 233 255
217 233 255
217 233 255
217 233 255
217 233 255
217 233 255
217 233 255
217 233 255
217 233 255
217 233 255
217 233 255
217 233 255
217 233 255
217 233 255
217 233 255
217 233 255
217 233 255
217 233 255
217 233 255
217 233 255
217 233 255
217 233 255
217 233 255
217 233 255
217 233 255
217 233 255
217 233 255
217 233 255
217 233 255
217 233 255
217 233 255
217 233 255
217 233 255
217 233 255
217 233 255
217 233 255
217 233 255
217 233 255
217 233 255
217 233 255
169 182 202
0 0 51
0 0 49
0 0 49
0 0 50
0 0 47
0 0 49
0 0 51
0 0 52
0 0 53
0 0 53
0 0 53
0 0 51
0 0 51
0 0 50
0 0 51
0 0 49
0 0 48
0 0 50
0 0 52
0 0 51
0 0 50
0 0 54
0 4 60
12 32 45
35 43 12
59 61 34
66 65 41
78 74 50
101 94 71
118 115 92
123 116 92
111 102 73
105 96 66
96 93 66
98 98 72
112 109 81
156 158 154
144 149 136
64 79 46
67 75 42
68 71 41
81 81 51
98 95 68
111 106 78
125 120 91
78 85 47
44 55 16
61 68 36
60 65 34
86 92 61
88 95 66
84 92 63
86 92 64
82 89 58
77 86 52
76 88 50
66 79 39
56 72 29
50 68 24
50 71 29
46 65 22
49 68 29
50 70 28
45 66 21
42 65 17
45 69 22
44 67 17
43 68 16
43 66 16
43 66 16
42 65 16
40 63 8
40 63 0
39 65 11
36 61 8
38 64 5
37 63 15
37 63 14
36 65 10
36 62 0
38 65 5
43 64 11
46 64 17
42 64 16
42 65 9
37 64 3
40 63 12
37 60 7
36 58 5
37 59 0
32 56 0
31 54 0
32 56 0
38 57 0
35 56 4
32 57 7
32 59 9
31 56 10
38 76 59
17 66 77
4 45 76
2 22 72
0 8 77
0 15 76
0 14 75
0 8 73
0 12 76
0 9 72
0 0 68
0 0 66
0 0 65
0 0 65
0 0 65
0 0 65
0 0 64
0 0 59
0 0 55
0 0 55
0 0 55
0 0 53
0 0 51
0 0 55
0 0 58
0 0 60
0 0 56
0 0 58
0 0 58
0 0 59
0 0 62
0 0 62
0 0 65
0 0 59
0 0 50
0 0 46
0 0 46
0 0 52
0 0 53
0 0 53
0 0 57
0 0 58
0 0 58
0 0 61
0 0 62
0 0 61
0 2 66
0 4 66
168 180 202
217 233 255
217 233 255
217 233 255
217 233 255
217 233 255
217 233 255
217 233 255
217 233 255
217 233 255
217 233 255
217 233 255
217 233 255
217 233 255
217 233 255
217 233 255
217 233 255
217 233 255
217 233 255
217 233 255
217 233 255
217 233 255
217 233 255
217 233 255
217 233 255
217 233 255
217 233 255
217 233 255
217 233 255
217 233 255
217 233 255
217 233 255
217 233 255
217 233 255
217 233 255
217 233 255
217 233 255
217 233 255
217 233 255
217 233 255
217 233 255
217 233 255
217 233 255
217 233 255
217 233 255
217 233 255
217 233 255
217 233 255
217 233 255
217 233 255
217 233 255
217 233 255
217 233 255
217 233 255
217 233 255
217 233 255
217 233 255
217 233 255
217 233 255
217 233 255
217 233 255
217 233 255
217 233 255
217 233 255
217 233 255
217 233 255
217 233 255
217 233 255
217 233 255
217 233 255
217 233 255
217 233 255
217 233 255
217 233 255
217 233 255
217 233 255
217 233 255
217 233 255
217 233 255
217 233 255
217 233 255
217 233 255
217 233 255
217 233 255
217 233 255
217 233 255
217 233 255
217 233 255
217 233 255
217 233 255
217 233 255
217 233 255
217 233 255
217 233 255
217 233 255
217 233 255
217 233 255
217 233 255
217 233 255
217 233 255
217 233 255
217 233 255
217 233 255
217 233 255
217 233 255
217 233 255
217 233 255
217 233 255
217 233 255
217 233 255
217 233 255
217 233 255
217 233 255
217 233 255
217 233 255
217 233 255
217 233 255
217 233 255
217 233 255
217 233 255
217 233 255
217 233 255
217 233 255
217 233 255
217 233 255
217 233 255
217 233 255
217 233 255
217 233 255
217 233 255
217 233 255
217 233 255
217 233 255
217 233 255
217 233 255
217 233 255
217 233 255
217 233 255
217 233 255
217 233 255
217 233 255
217 233 255
217 233 255
217 233 255
217 233 255
217 233 255
217 233 255
217 233 255
217 233 255
217 233 255
217 233 255
217 233 255
217 233 255
217 233 255
217 233 255
217 233 255
217 233 255
217 233 255
217 233 255
217 233 255
217 233 255
217 233 255
217 233 255
217 233 255
217 233 255
217 233 255
217 233 255
217 233 255
217 233 255
217 233 255
217 233 255
217 233 255
217 233 255
217 233 255
217 233 255
217 233 255
217 233 255
217 233 255
217 233 255
217 233 255
217 233 255
217 233 255
217 233 255
217 233 255
217 233 255
217 233 255
217 233 255
217 233 255
217 233 255
217 233 255
217 233 255
217 233 255
217 233 255
217 233 255
217 233 255
217 233 255
217 233 255
217 233 255
217 233 255
217 233 255
217 233 255
217 233 255
217 233 255
217 233 255
217 233 255
217 233 255
217 233 255
217 233 255
217 233 255
217 233 255
217 233 255
217 233 255
217 233 255
217 233 255
217 233 255
217 233 255
217 233 255
217 233 255
217 233 255
217 233 255
217 233 255
217 233 255
217 233 255
217 233 255
217 233 255
217 233 255
217 233 255
217 233 255
217 233 255
217 233 255
217 233 255
217 233 255
217 233 255
217 233 255
217 233 255
217 233 255
217 233 255
217 233 255
217 233 255
217 233 255
217 233 255
217 233 255
217 233 255
217 233 255
217 233 255
217 233 255
217 233 255
217 233 255
217 233 255
217 233 255
217 233 255
217 233 255
156 168 188
0 0 51
0 0 51
0 0 52
0 0 50
0 0 48
0 0 49
0 0 53
0 0 53
0 0 52
0 0 53
0 0 55
0 0 54
0 0 51
0 0 50
0 0 49
0 0 50
0 0 48
0 0 45
0 0 47
0 0 50
0 0 52
0 0 54
0 0 64
5 22 62
20 37 11
37 48 12
38 45 16
64 64 41
87 82 60
122 114 92
135 133 110
119 111 83
117 108 80
108 102 74
104 100 71
118 109 79
139 140 112
191 204 202
127 118 89
92 95 65
60 69 35
84 87 58
111 104 81
134 126 98
95 98 66
73 79 49
51 62 30
51 59 22
45 52 18
60 69 34
85 93 59
90 97 66
84 91 59
85 91 60
86 93 61
83 91 57
81 91 52
76 88 47
74 86 42
71 84 41
68 82 42
64 76 38
60 74 36
52 70 28
45 68 23
42 65 17
44 68 18
44 69 18
42 68 16
43 67 16
43 67 16
42 66 14
40 63 6
40 63 0
38 63 11
36 60 7
35 61 10
35 62 2
36 60 10
40 65 4
45 68 0
38 64 0
37 63 5
41 67 9
37 63 13
48 67 22
33 61 2
33 58 3
30 56 0
33 58 0
33 58 0
31 55 0
30 53 0
32 56 2
41 61 10
40 62 13
40 65 12
42 63 20
41 56 12
19 46 60
0 12 78
0 4 66
0 3 67
0 7 68
0 8 72
0 4 65
0 6 67
0 0 64
0 0 56
0 0 58
0 0 63
0 0 65
0 0 64
0 0 66
0 0 65
0 0 60
0 0 55
0 0 51
0 0 51
0 0 49
0 0 52
0 0 52
0 0 49
0 0 53
0 0 54
0 0 52
0 0 51
0 0 54
0 0 54
0 0 55
0 0 56
0 0 60
0 0 61
0 0 53
0 0 49
0 0 46
0 0 49
0 0 51
0 0 53
0 0 55
0 0 58
0 0 56
0 0 58
0 0 62
0 0 60
0 0 62
0 1 67
0 0 60
161 173 194
217 233 255
217 233 255
217 233 255
217 233 255
217 233 255
217 233 255
217 233 255
217 233 255
217 233 255
217 233 255
217 233 255
217 233 255
217 233 255
217 233 255
217 233 255
217 233 255
217 233 255
217 233 255
217 233 255
217 233 255
217 233 255
217 233 255
217 233 255
217 233 255
217 233 255
217 233 255
217 233 255
217 233 255
217 233 255
217 233 255
217 233 255
217 233 255
217 233 255
217 233 255
217 233 255
217 233 255
217 233 255
217 233 255
217 233 255
217 233 255
217 233 255
217 233 255
217 233 255
217 233 255
217 233 255
217 233 255
217 233 255
217 233 255
217 233 255
217 233 255
217 233 255
217 233 255
217 233 255
217 233 255
217 233 255
217 233 255
217 233 255
217 233 255
217 233 255
217 233 255
217 233 255
217 233 255
217 233 255
217 233 255
217 233 255
217 233 255
217 233 255
217 233 255
217 233 255
217 233 255
217 233 255
217 233 255
217 233 255
217 233 255
217 233 255
217 233 255
217 233 255
217 233 255
217 233 255
217 233 255
217 233 255
217 233 255
217 233 255
217 233 255
217 233 255
217 233 255
217 233 255
217 233 255
217 233 255
217 233 255
217 233 255
217 233 255
217 233 255
217 233 255
217 233 255
217 233 255
217 233 255
217 233 255
217 233 255
217 233 255
217 233 255
217 233 255
217 233 255
217 233 255
217 233 255
217 233 255
217 233 255
217 233 255
217 233 255
217 233 255
217 233 255
217 233 255
217 233 255
217 233 255
217 233 255
217 233 255
217 233 255
217 233 255
217 233 255
217 233 255
217 233 255
217 233 255
217 233 255
217 233 255
217 233 255
217 233 255
217 233 255
217 233 255
217 233 255
217 233 255
217 233 255
217 233 255
217 233 255
217 233 255
217 233 255
217 233 255
217 233 255
217 233 255
217 233 255
217 233 255
217 233 255
217 233 255
217 233 255
217 233 255
217 233 255
217 233 255
217 233 255
217 233 255
217 233 255
217 233 255
217 233 255
217 233 255
217 233 255
217 233 255
217 233 255
217 233 255
217 233 255
217 233 255
217 233 255
217 233 255
217 233 255
217 233 255
217 233 255
217 233 255
217 233 255
217 233 255
217 233 255
217 233 255
217 233 255
217 233 255
217 233 255
217 233 255
217 233 255
217 233 255
217 233 255
217 233 255
217 233 255
217 233 255
217 233 255
217 233 255
217 233 255
217 233 255
217 233 255
217 233 255
217 233 255
217 233 255
217 233 255
217 233 255
217 233 255
217 233 255
217 233 255
217 233 255
217 233 255
217 233 255
217 233 255
217 233 255
217 233 255
217 233 255
217 233 255
217 233 255
217 233 255
217 233 255
217 233 255
217 233 255
217 233 255
217 233 255
217 233 255
217 233 255
217 233 255
217 233 255
217 233 255
217 233 255
217 233 255
217 233 255
217 233 255
217 233 255
217 233 255
217 233 255
217 233 255
217 233 255
217 233 255
217 233 255
217 233 255
217 233 255
217 233 255
217 233 255
217 233 255
217 233 255
217 233 255
217 233 255
217 233 255
217 233 255
217 233 255
217 233 255
217 233 255
217 233 255
217 233 255
217 233 255
217 233 255
217 233 255
217 233 255
217 233 255
217 233 255
217 233 255
217 233 255
217 233 255
217 233 255
217 233 255
217 233 255
158 170 189
0 0 50
0 0 51
0 0 51
0 0 49
0 0 49
0 0 49
0 0 55
0 0 57
0 0 54
0 0 54
0 0 56
0 0 54
0 0 51
0 0 48
0 0 48
0 0 48
0 0 47
0 0 43
0 0 45
0 0 49
0 0 50
0 0 53
0 0 56
1 9 70
24 41 19
47 49 19
77 76 44
41 45 12
66 66 41
108 101 79
131 125 100
129 124 96
121 114 86
112 104 77
112 107 78
101 100 73
111 105 78
138 129 98
149 149 125
125 117 90
87 90 59
88 90 64
108 103 78
109 107 79
109 103 79
82 84 53
57 64 31
49 60 22
55 59 29
61 63 36
55 60 31
82 90 60
85 92 58
87 92 59
88 93 63
88 93 62
86 93 59
81 89 51
82 88 49
78 88 46
73 85 42
69 82 40
66 82 39
62 78 35
54 72 28
48 68 23
47 67 22
47 70 19
42 66 16
44 68 20
41 66 12
41 67 12
40 65 10
40 63 3
41 63 12
40 63 10
41 64 14
40 63 15
40 65 9
38 64 8
37 62 2
35 60 0
35 61 0
38 64 3
40 63 7
38 62 4
33 56 5
31 57 0
31 56 0
31 55 0
29 56 0
30 56 0
30 54 0
31 55 0
38 59 8
38 62 10
39 59 20
28 80 50
34 67 41
26 64 47
6 31 80
0 10 69
0 0 64
0 0 68
0 0 61
0 0 55
0 0 50
0 0 49
0 0 49
0 0 47
0 0 43
0 0 48
0 0 55
0 0 57
0 0 57
0 0 57
0 0 53
0 0 51
0 0 51
0 0 51
0 0 47
0 0 45
0 0 47
0 0 48
0 0 51
0 0 54
0 0 50
0 0 49
0 0 50
0 0 52
0 0 54
0 0 53
0 0 54
0 0 58
0 0 56
0 0 52
0 0 51
0 0 48
0 0 50
0 0 52
0 0 53
0 0 55
0 0 56
0 0 56
0 0 57
0 0 60
0 0 58
0 0 61
0 0 62
0 0 57
158 170 191
217 233 255
217 233 255
217 233 255
217 233 255
217 233 255
217 233 255
217 233 255
217 233 255
217 233 255
217 233 255
217 233 255
217 233 255
217 233 255
217 233 255
217 233 255
217 233 255
217 233 255
217 233 255
217 233 255
217 233 255
217 233 255
217 233 255
217 233 255
217 233 255
217 233 255
217 233 255
217 233 255
217 233 255
217 233 255
217 233 255
217 233 255
217 233 255
217 233 255
217 233 255
217 233 255
217 233 255
217 233 255
217 233 255
217 233 255
217 233 255
217 233 255
217 233 255
217 233 255
217 233 255
217 233 255
217 233 255
217 233 255
217 233 255
217 233 255
217 233 255
217 233 255
217 233 255
217 233 255
217 233 255
217 233 255
217 233 255
217 233 255
217 233 255
217 233 255
217 233 255
217 233 255
217 233 255
217 233 255
217 233 255
217 233 255
217 233 255
217 233 255
217 233 255
217 233 255
217 233 255
217 233 255
217 233 255
217 233 255
217 233 255
217 233 255
217 233 255
217 233 255
217 233 255
217 233 255
217 233 255
217 233 255
217 233 255
217 233 255
217 233 255
217 233 255
217 233 255
217 233 255
217 233 255
217 233 255
217 233 255
217 233 255
217 233 255
217 233 255
217 233 255
217 233 255
217 233 255
217 233 255
217 233 255
217 233 255
217 233 255
217 233 255
217 233 255
217 233 255
217 233 255
217 233 255
217 233 255
217 233 255
217 233 255
217 233 255
217 233 255
217 233 255
217 233 255
217 233 255
217 233 255
217 233 255
217 233 255
217 233 255
217 233 255
217 233 255
217 233 255
217 233 255
217 233 255
217 233 255
217 233 255
217 233 255
217 233 255
217 233 255
217 233 255
217 233 255
217 233 255
217 233 255
217 233 255
217 233 255
217 233 255
217 233 255
217 233 255
217 233 255
217 233 255
217 233 255
217 233 255
217 233 255
217 233 255
217 233 255
217 233 255
217 233 255
217 233 255
217 233 255
217 233 255
217 233 255
217 233 255
217 233 255
217 233 255
217 233 255
217 233 255
217 233 255
217 233 255
217 233 255
217 233 255
217 233 255
217 233 255
217 233 255
217 233 255
217 233 255
217 233 255
217 233 255
217 233 255
217 233 255
217 233 255
217 233 255
217 233 255
217 233 255
217 233 255
217 233 255
217 233 255
217 233 255
217 233 255
217 233 255
217 233 255
217 233 255
217 233 255
217 233 255
217 233 255
217 233 255
217 233 255
217 233 255
217 233 255
217 233 255
217 233 255
217 233 255
217 233 255
217 233 255
217 233 255
217 233 255
217 233 255
217 233 255
217 233 255
217 233 255
217 233 255
217 233 255
217 233 255
217 233 255
217 233 255
217 233 255
217 233 255
217 233 255
217 233 255
217 233 255
217 233 255
217 233 255
217 233 255
217 233 255
217 233 255
217 233 255
217 233 255
217 233 255
217 233 255
217 233 255
217 233 255
217 233 255
217 233 255
217 233 255
217 233 255
217 233 255
217 233 255
217 233 255
217 233 255
217 233 255
217 233 255
217 233 255
217 233 255
217 233 255
217 233 255
217 233 255
217 233 255
217 233 255
217 233 255
217 233 255
217 233 255
217 233 255
217 233 255
217 233 255
217 233 255
217 233 255
217 233 255
217 233 255
217 233 255
217 233 255
152 163 182
0 0 49
0 0 50
0 0 49
0 0 49
0 0 50
0 0 50
0 0 57
0 0 58
0 0 53
0 0 52
0 0 55
0 0 53
0 0 50
0 0 46
0 0 46
0 0 47
0 0 46
0 0 45
0 0 45
0 0 48
0 0 50
0 0 52
0 0 55
0 6 65
4 13 67
36 48 16
66 68 35
74 77 37
35 46 11
67 66 42
115 106 83
140 134 107
117 111 86
111 106 80
109 102 75
117 110 82
101 97 71
117 109 80
145 139 116
149 140 112
95 92 61
102 97 71
153 139 111
158 137 113
133 119 99
93 88 64
87 88 58
56 62 26
53 63 28
62 65 33
71 73 46
75 80 54
95 101 71
96 101 65
95 101 66
96 103 65
91 97 61
85 91 54
86 93 57
88 94 57
84 90 53
78 85 47
75 84 44
69 82 41
63 79 36
52 73 28
52 72 27
49 68 23
46 68 20
44 67 18
41 64 13
39 61 4
41 62 0
40 60 0
39 58 3
44 63 10
42 66 14
42 65 13
44 68 16
41 65 14
39 64 5
35 60 0
35 60 0
38 63 0
35 61 0
39 67 0
36 63 0
28 52 0
33 57 0
31 55 0
32 57 0
30 56 0
28 53 0
28 53 0
33 57 0
33 60 0
31 59 10
33 58 22
27 103 70
33 64 24
15 53 74
0 16 78
0 1 60
0 0 68
0 0 66
0 0 59
0 0 50
0 0 46
0 0 47
0 0 47
0 0 45
0 0 42
0 0 42
0 0 45
0 0 50
0 0 53
0 0 51
0 0 49
0 0 47
0 0 46
0 0 47
0 0 45
0 0 46
0 0 45
0 0 45
0 0 48
0 0 51
0 0 49
0 0 46
0 0 46
0 0 49
0 0 56
0 0 56
0 0 50
0 0 52
0 0 55
0 0 53
0 0 53
0 0 52
0 0 50
0 0 52
0 0 51
0 0 50
0 0 54
0 0 56
0 0 53
0 0 53
0 0 53
0 0 54
0 0 59
0 0 57
0 0 57
161 173 194
217 233 255
217 233 255
217 233 255
217 233 255
217 233 255
217 233 255
217 233 255
217 233 255
217 233 255
217 233 255
217 233 255
217 233 255
217 233 255
217 233 255
217 233 255
217 233 255
217 233 255
217 233 255
217 233 255
217 233 255
217 233 255
217 233 255
217 233 255
217 233 255
217 233 255
217 233 255
217 233 255
217 233 255
217 233 255
217 233 255
217 233 255
217 233 255
217 233 255
217 233 255
217 233 255
217 233 255
217 233 255
217 233 255
217 233 255
217 233 255
217 233 255
217 233 255
217 233 255
217 233 255
217 233 255
217 233 255
217 233 255
217 233 255
217 233 255
217 233 255
217 233 255
217 233 255
217 233 255
217 233 255
217 233 255
217 233 255
217 233 255
217 233 255
217 233 255
217 233 255
217 233 255
217 233 255
217 233 255
217 233 255
217 233 255
217 233 255
217 233 255
217 233 255
217 233 255
217 233 255
217 233 255
217 233 255
217 233 255
217 233 255
217 233 255
217 233 255
217 233 255
217 233 255
217 233 255
217 233 255
217 233 255
217 233 255
217 233 255
217 233 255
217 233 255
217 233 255
217 233 255
217 233 255
217 233 255
217 233 255
217 233 255
217 233 255
217 233 255
217 233 255
217 233 255
217 233 255
217 233 255
217 233 255
217 233 255
217 233 255
217 233 255
217 233 255
217 233 255
217 233 255
217 233 255
217 233 255
217 233 255
217 233 255
217 233 255
217 233 255
217 233 255
217 233 255
217 233 255
217 233 255
217 233 255
217 233 255
217 233 255
217 233 255
217 233 255
217 233 255
217 233 255
217 233 255
217 233 255
217 233 255
217 233 255
217 233 255
217 233 255
217 233 255
217 233 255
217 233 255
217 233 255
217 233 255
217 233 255
217 233 255
217 233 255
217 233 255
217 233 255
217 233 255
217 233 255
217 233 255
217 233 255
217 233 255
217 233 255
217 233 255
217 233 255
217 233 255
217 233 255
217 233 255
217 233 255
217 233 255
217 233 255
217 233 255
217 233 255
217 233 255
217 233 255
217 233 255
217 233 255
217 233 255
217 233 255
217 233 255
217 233 255
217 233 255
217 233 255
217 233 255
217 233 255
217 233 255
217 233 255
217 233 255
217 233 255
217 233 255
217 233 255
217 233 255
217 233 255
217 233 255
217 233 255
217 233 255
217 233 255
217 233 255
217 233 255
217 233 255
217 233 255
217 233 255
217 233 255
217 233 255
217 233 255
217 233 255
217 233 255
217 233 255
217 233 255
217 233 255
217 233 255
217 233 255
217 233 255
217 233 255
217 233 255
217 233 255
217 233 255
217 233 255
217 233 255
217 233 255
217 233 255
217 233 255
217 233 255
217 233 255
217 233 255
217 233 255
217 233 255
217 233 255
217 233 255
217 233 255
217 233 255
217 233 255
217 233 255
217 233 255
217 233 255
217 233 255
217 233 255
217 233 255
217 233 255
217 233 255
217 233 255
217 233 255
217 233 255
217 233 255
217 233 255
217 233 255
217 233 255
217 233 255
217 233 255
217 233 255
217 233 255
217 233 255
217 233 255
217 233 255
217 233 255
217 233 255
217 233 255
217 233 255
217 233 255
217 233 255
217 233 255
217 233 255
217 233 255
217 233 255
217 233 255
165 177 197
0 0 48
0 0 51
0 0 50
0 0 49
0 0 49
0 0 50
0 0 55
0 0 53
0 0 51
0 0 49
0 0 53
0 0 54
0 0 51
0 0 47
0 0 45
0 0 45
0 0 45
0 0 45
0 0 46
0 0 49
0 0 52
0 0 52
0 0 51
0 0 56
0 1 60
10 20 55
48 57 23
80 81 42
78 82 39
42 51 17
64 65 44
115 112 85
129 123 100
117 111 85
115 109 81
126 121 94
123 117 91
103 100 72
111 104 74
127 117 89
87 82 58
74 73 48
121 110 83
165 137 111
149 122 98
113 95 78
83 83 61
56 63 30
51 58 24
57 61 31
75 79 51
62 66 39
92 95 68
105 107 75
96 99 61
95 100 59
91 97 54
86 93 50
77 85 46
80 89 52
88 96 57
80 88 49
79 86 47
82 85 45
77 84 42
59 78 31
53 76 27
56 75 29
51 72 26
47 69 19
43 65 15
37 60 8
42 63 8
40 62 4
34 56 0
31 54 0
36 58 0
40 65 5
38 62 3
42 65 6
42 65 9
41 66 4
37 62 0
38 63 0
39 65 0
39 67 4
43 73 8
34 61 0
32 58 0
31 56 0
32 56 0
30 56 0
31 57 0
30 55 0
31 55 0
32 56 0
34 58 0
34 55 1
30 66 16
21 99 88
23 106 101
15 44 78
0 14 73
0 0 66
0 0 60
0 0 57
0 0 53
0 0 49
0 0 45
0 0 43
0 0 43
0 0 43
0 0 42
0 0 43
0 0 46
0 0 48
0 0 50
0 0 48
0 0 47
0 0 45
0 0 45
0 0 45
0 0 44
0 0 44
0 0 45
0 0 46
0 0 46
0 0 45
0 0 45
0 0 46
0 0 46
0 0 46
0 0 49
0 0 57
0 0 54
0 0 49
0 0 51
0 0 53
0 0 53
0 0 55
0 0 52
0 0 51
0 0 52
0 0 48
0 0 48
0 0 50
0 0 53
0 0 49
0 0 48
0 0 49
0 0 53
0 0 56
0 0 54
0 0 58
158 170 190
217 233 255
217 233 255
217 233 255
217 233 255
217 233 255
217 233 255
217 233 255
217 233 255
217 233 255
217 233 255
217 233 255
217 233 255
217 233 255
217 233 255
217 233 255
217 233 255
217 233 255
217 233 255
217 233 255
217 233 255
217 233 255
217 233 255
217 233 255
217 233 255
217 233 255
217 233 255
217 233 255
217 233 255
217 233 255
217 233 255
217 233 255
217 233 255
217 233 255
217 233 255
217 233 255
217 233 255
217 233 255
217 233 255
217 233 255
217 233 255
217 233 255
217 233 255
217 233 255
217 233 255
217 233 255
217 233 255
217 233 255
217 233 255
217 233 255
217 233 255
217 233 255
217 233 255
217 233 255
217 233 255
217 233 255
217 233 255
217 233 255
217 233 255
217 233 255
217 233 255
217 233 255
217 233 255
217 233 255
217 233 255
217 233 255
217 233 255
217 233 255
217 233 255
217 233 255
217 233 255
217 233 255
217 233 255
217 233 255
217 233 255
217 233 255
217 233 255
217 233 255
217 233 255
217 233 255
217 233 255
217 233 255
217 233 255
217 233 255
217 233 255
217 233 255
217 233 255
217 233 255
217 233 255
217 233 255
217 233 255
217 233 255
217 233 255
217 233 255
217 233 255
217 233 255
217 233 255
217 233 255
217 233 255
217 233 255
217 233 255
217 233 255
217 233 255
217 233 255
217 233 255
217 233 255
217 233 255
217 233 255
217 233 255
217 233 255
217 233 255
217 233 255
217 233 255
217 233 255
217 233 255
217 233 255
217 233 255
217 233 255
217 233 255
217 233 255
217 233 255
217 233 255
217 233 255
217 233 255
217 233 255
217 233 255
217 233 255
217 233 255
217 233 255
217 233 255
217 233 255
217 233 255
217 233 255
217 233 255
217 233 255
217 233 255
217 233 255
217 233 255
217 233 255
217 233 255
217 233 255
217 233 255
217 233 255
217 233 255
217 233 255
217 233 255
217 233 255
217 233 255
217 233 255
217 233 255
217 233 255
217 233 255
217 233 255
217 233 255
217 233 255
217 233 255
217 233 255
217 233 255
217 233 255
217 233 255
217 233 255
217 233 255
217 233 255
217 233 255
217 233 255
217 233 255
217 233 255
217 233 255
217 233 255
217 233 255
217 233 255
217 233 255
217 233 255
217 233 255
217 233 255
217 233 255
217 233 255
217 233 255
217 233 255
217 233 255
217 233 255
217 233 255
217 233 255
217 233 255
217 233 255
217 233 255
217 233 255
217 233 255
217 233 255
217 233 255
217 233 255
217 233 255
217 233 255
217 233 255
217 233 255
217 233 255
217 233 255
217 233 255
217 233 255
217 233 255
217 233 255
217 233 255
217 233 255
217 233 255
217 233 255
217 233 255
217 233 255
217 233 255
217 233 255
217 233 255
217 233 255
217 233 255
217 233 255
217 233 255
217 233 255
217 233 255
217 233 255
217 233 255
217 233 255
217 233 255
217 233 255
217 233 255
217 233 255
217 233 255
217 233 255
217 233 255
217 233 255
217 233 255
217 233 255
217 233 255
217 233 255
217 233 255
217 233 255
217 233 255
217 233 255
217 233 255
217 233 255
217 233 255
217 233 255
217 233 255
217 233 255
217 233 255
217 233 255
217 233 255
171 183 203
0 0 48
0 0 47
0 0 48
0 0 50
0 0 48
0 0 50
0 0 51
0 0 46
0 0 46
0 0 46
0 0 49
0 0 51
0 0 50
0 0 45
0 0 45
0 0 46
0 0 46
0 0 45
0 0 46
0 0 48
0 0 50
0 0 51
0 0 52
0 0 51
0 0 56
0 0 63
17 28 70
65 71 37
86 83 48
88 83 46
49 54 21
82 82 58
101 100 77
128 123 98
140 133 106
131 122 94
125 118 91
121 109 84
103 99 77
100 92 65
95 90 65
84 82 59
107 103 72
157 127 109
155 122 108
128 110 87
123 108 86
68 70 41
49 57 22
46 53 20
49 55 23
87 90 62
63 65 39
80 83 56
102 105 74
88 91 56
93 98 59
93 97 55
83 86 46
81 86 47
85 91 50
86 94 49
82 89 44
79 86 42
83 87 42
77 85 39
59 82 30
54 79 28
59 77 27
56 76 26
47 70 22
48 71 23
42 64 14
44 65 14
42 63 10
34 57 0
30 53 0
33 58 7
44 70 16
41 66 10
40 64 10
36 59 0
40 64 6
40 64 6
40 65 0
39 66 0
37 65 0
38 67 0
34 62 0
34 62 0
33 61 0
33 60 0
29 56 0
31 59 0
32 56 0
32 57 0
33 58 0
29 55 0
31 55 5
32 57 6
25 74 47
13 98 113
3 30 80
0 6 60
0 0 57
0 0 54
0 0 50
0 0 46
0 0 44
0 0 43
0 0 42
0 0 42
0 0 42
0 0 42
0 0 44
0 0 47
0 0 48
0 0 47
0 0 45
0 0 43
0 0 42
0 0 43
0 0 45
0 0 45
0 0 44
0 0 45
0 0 48
0 0 50
0 0 50
0 0 48
0 0 47
0 0 47
0 0 47
0 0 48
0 0 51
0 0 53
0 0 51
0 0 50
0 0 50
0 0 49
0 0 50
0 0 52
0 0 52
0 0 50
0 0 47
0 0 46
0 0 45
0 0 45
0 0 47
0 0 48
0 0 46
0 0 48
0 0 51
0 0 52
0 0 53
0 0 55
168 180 201
217 233 255
217 233 255
217 233 255
217 233 255
217 233 255
217 233 255
217 233 255
217 233 255
217 233 255
217 233 255
217 233 255
217 233 255
217 233 255
217 233 255
217 233 255
217 233 255
217 233 255
217 233 255
217 233 255
217 233 255
217 233 255
217 233 255
217 233 255
217 233 255
217 233 255
217 233 255
217 233 255
217 233 255
217 233 255
217 233 255
217 233 255
217 233 255
217 233 255
217 233 255
217 233 255
217 233 255
217 233 255
217 233 255
217 233 255
217 233 255
217 233 255
217 233 255
217 233 255
217 233 255
217 233 255
217 233 255
217 233 255
217 233 255
217 233 255
217 233 255
217 233 255
217 233 255
217 233 255
217 233 255
217 233 255
217 233 255
217 233 255
217 233 255
217 233 255
217 233 255
217 233 255
217 233 255
217 233 255
217 233 255
217 233 255
217 233 255
217 233 255
217 233 255
217 233 255
217 233 255
217 233 255
217 233 255
217 233 255
217 233 255
217 233 255
217 233 255
217 233 255
217 233 255
217 233 255
217 233 255
217 233 255
217 233 255
217 233 255
217 233 255
217 233 255
217 233 255
217 233 255
217 233 255
217 233 255
217 233 255
217 233 255
217 233 255
217 233 255
217 233 255
217 233 255
217 233 255
217 233 255
217 233 255
217 233 255
217 233 255
217 233 255
217 233 255
217 233 255
217 233 255
217 233 255
217 233 255
217 233 255
217 233 255
217 233 255
217 233 255
217 233 255
217 233 255
217 233 255
217 233 255
217 233 255
217 233 255
217 233 255
217 233 255
217 233 255
217 233 255
217 233 255
217 233 255
217 233 255
217 233 255
217 233 255
217 233 255
217 233 255
217 233 255
217 233 255
217 233 255
217 233 255
217 233 255
217 233 255
217 233 255
217 233 255
217 233 255
217 233 255
217 233 255
217 233 255
217 233 255
217 233 255
217 233 255
217 233 255
217 233 255
217 233 255
217 233 255
217 233 255
217 233 255
217 233 255
217 233 255
217 233 255
217 233 255
217 233 255
217 233 255
217 233 255
217 233 255
217 233 255
217 233 255
217 233 255
217 233 255
217 233 255
217 233 255
217 233 255
217 233 255
217 233 255
217 233 255
217 233 255
217 233 255
217 233 255
217 233 255
217 233 255
217 233 255
217 233 255
217 233 255
217 233 255
217 233 255
217 233 255
217 233 255
217 233 255
217 233 255
217 233 255
217 233 255
217 233 255
217 233 255
217 233 255
217 233 255
217 233 255
217 233 255
217 233 255
217 233 255
217 233 255
217 233 255
217 233 255
217 233 255
217 233 255
217 233 255
217 233 255
217 233 255
217 233 255
217 233 255
217 233 255
217 233 255
217 233 255
217 233 255
217 233 255
217 233 255
217 233 255
217 233 255
217 233 255
217 233 255
217 233 255
217 233 255
217 233 255
217 233 255
217 233 255
217 233 255
217 233 255
217 233 255
217 233 255
217 233 255
217 233 255
217 233 255
217 233 255
217 233 255
217 233 255
217 233 255
217 233 255
217 233 255
217 233 255
217 233 255
217 233 255
217 233 255
217 233 255
217 233 255
217 233 255
217 233 255
217 233 255
217 233 255
217 233 255
217 233 255
217 233 255
187 200 221
0 0 48
0 0 47
0 0 47
0 0 48
0 0 46
0 0 47
0 0 47
0 0 42
0 0 45
0 0 46
0 0 48
0 0 50
0 0 48
0 0 45
0 0 45
0 0 45
0 0 45
0 0 45
0 0 45
0 0 47
0 0 47
0 0 48
0 0 49
0 0 51
0 0 55
0 3 59
0 18 74
3 47 100
64 72 47
90 87 53
92 91 52
69 64 33
77 76 50
115 110 86
122 115 88
128 116 89
124 112 84
130 121 96
125 111 86
125 112 87
127 110 90
121 104 81
127 106 82
164 135 111
144 116 94
173 132 111
174 136 113
165 149 125
123 115 88
94 95 67
65 69 42
60 65 33
79 79 53
55 57 31
74 78 53
91 92 64
93 96 64
91 97 60
91 95 57
88 91 54
94 96 60
90 94 55
86 91 46
84 91 42
82 87 35
81 86 34
74 84 33
60 80 28
52 75 21
53 73 22
48 69 19
43 65 11
38 60 9
39 61 0
40 59 0
43 64 15
40 61 10
40 62 13
49 75 23
49 75 26
41 64 13
41 66 12
31 56 0
38 64 9
41 67 10
39 65 2
38 64 0
33 59 0
30 57 0
35 60 0
35 63 0
39 68 0
35 65 0
31 59 0
35 62 0
34 59 0
34 58 0
34 58 0
32 57 0
30 58 0
36 60 0
32 63 22
29 67 56
0 25 72
0 0 60
0 0 56
0 0 50
0 0 44
0 0 42
0 0 42
0 0 41
0 0 39
0 0 41
0 0 44
0 0 45
0 0 45
0 0 46
0 0 45
0 0 43
0 0 43
0 0 42
0 0 44
0 0 44
0 0 45
0 0 45
0 0 44
0 0 45
0 0 46
0 0 52
0 0 53
0 0 49
0 0 47
0 0 48
0 0 49
0 0 50
0 0 51
0 0 52
0 0 50
0 0 49
0 0 49
0 0 49
0 0 48
0 0 49
0 0 50
0 0 50
0 0 47
0 0 45
0 0 43
0 0 43
0 0 44
0 0 46
0 0 47
0 0 44
0 0 46
0 0 49
0 0 52
0 0 51
0 0 53
175 188 209
217 233 255
217 233 255
217 233 255
217 233 255
217 233 255
217 233 255
217 233 255
217 233 255
217 233 255
217 233 255
217 233 255
217 233 255
217 233 255
217 233 255
217 233 255
217 233 255
217 233 255
217 233 255
217 233 255
217 233 255
217 233 255
217 233 255
217 233 255
217 233 255
217 233 255
217 233 255
217 233 255
217 233 255
217 233 255
217 233 255
217 233 255
217 233 255
217 233 255
217 233 255
217 233 255
217 233 255
217 233 255
217 233 255
217 233 255
217 233 255
217 233 255
217 233 255
217 233 255
217 233 255
217 233 255
217 233 255
217 233 255
217 233 255
217 233 255
217 233 255
217 233 255
217 233 255
217 233 255
217 233 255
217 233 255
217 233 255
217 233 255
217 233 255
217 233 255
217 233 255
217 233 255
217 233 255
217 233 255
217 233 255
217 233 255
217 233 255
217 233 255
217 233 255
217 233 255
217 233 255
217 233 255
217 233 255
217 233 255
217 233 255
217 233 255
217 233 255
217 233 255
217 233 255
217 233 255
217 233 255
217 233 255
217 233 255
217 233 255
217 233 255
217 233 255
217 233 255
217 233 255
217 233 255
217 233 255
217 233 255
217 233 255
217 233 255
217 233 255
217 233 255
217 233 255
217 233 255
217 233 255
217 233 255
217 233 255
217 233 255
217 233 255
217 233 255
217 233 255
217 233 255
217 233 255
217 233 255
217 233 255
217 233 255
217 233 255
217 233 255
217 233 255
217 233 255
217 233 255
217 233 255
217 233 255
217 233 255
217 233 255
217 233 255
217 233 255
217 233 255
217 233 255
217 233 255
217 233 255
217 233 255
217 233 255
217 233 255
217 233 255
217 233 255
217 233 255
217 233 255
217 233 255
217 233 255
217 233 255
217 233 255
217 233 255
217 233 255
217 233 255
217 233 255
217 233 255
217 233 255
217 233 255
217 233 255
217 233 255
217 233 255
217 233 255
217 233 255
217 233 255
217 233 255
217 233 255
217 233 255
217 233 255
217 233 255
217 233 255
217 233 255
217 233 255
217 233 255
217 233 255
217 233 255
217 233 255
217 233 255
217 233 255
217 233 255
217 233 255
217 233 255
217 233 255
217 233 255
217 233 255
217 233 255
217 233 255
217 233 255
217 233 255
217 233 255
217 233 255
217 233 255
217 233 255
217 233 255
217 233 255
217 233 255
217 233 255
217 233 255
217 233 255
217 233 255
217 233 255
217 233 255
217 233 255
217 233 255
217 233 255
217 233 255
217 233 255
217 233 255
217 233 255
217 233 255
217 233 255
217 233 255
217 233 255
217 233 255
217 233 255
217 233 255
217 233 255
217 233 255
217 233 255
217 233 255
217 233 255
217 233 255
217 233 255
217 233 255
217 233 255
217 233 255
217 233 255
217 233 255
217 233 255
217 233 255
217 233 255
217 233 255
217 233 255
217 233 255
217 233 255
217 233 255
217 233 255
217 233 255
217 233 255
217 233 255
217 233 255
217 233 255
217 233 255
217 233 255
217 233 255
217 233 255
217 233 255
217 233 255
217 233 255
217 233 255
217 233 255
217 233 255
217 233 255
217 233 255
217 233 255
217 233 255
217 233 255
180 194 214
21 23 53
0 0 46
0 0 48
0 0 46
0 0 45
0 0 44
0 0 42
0 0 42
0 0 44
0 0 45
0 0 50
0 0 51
0 0 48
0 0 45
0 0 46
0 0 46
0 0 45
0 0 45
0 0 45
0 0 45
0 0 45
0 0 47
0 0 49
0 0 49
0 0 51
0 0 56
0 7 62
0 14 73
3 21 77
54 62 51
96 89 57
88 95 55
89 88 60
67 70 39
120 118 92
133 124 100
141 129 106
128 118 94
130 121 96
143 131 104
126 110 83
124 106 85
116 100 78
119 103 76
179 141 117
148 129 102
132 116 92
141 113 99
149 141 110
151 144 111
126 116 90
74 76 50
84 82 57
57 58 32
71 75 49
94 93 71
106 103 78
98 99 65
88 91 53
88 94 54
88 92 52
86 92 53
84 89 49
80 86 41
77 84 34
81 87 35
79 87 37
63 76 29
53 70 23
52 73 20
53 73 24
42 61 0
42 62 11
35 55 0
35 55 0
36 56 0
36 55 3
46 66 17
52 75 27
53 77 27
51 74 22
49 72 20
42 65 6
30 54 0
34 60 0
37 64 0
40 66 0
37 62 0
33 59 0
34 60 0
35 63 0
32 61 0
32 60 0
29 55 0
33 57 0
37 60 0
40 64 0
40 64 0
35 57 0
38 58 0
36 66 5
39 67 9
35 63 12
29 83 56
10 59 80
0 11 60
0 0 52
0 0 44
0 0 40
0 0 42
0 0 42
0 0 42
0 0 42
0 0 44
0 0 45
0 0 45
0 0 45
0 0 43
0 0 42
0 0 41
0 0 41
0 0 43
0 0 46
0 0 46
0 0 47
0 0 45
0 0 45
0 0 44
0 0 45
0 0 48
0 0 50
0 0 47
0 0 46
0 0 48
0 0 50
0 0 51
0 0 52
0 0 54
0 0 51
0 0 48
0 0 48
0 0 48
0 0 48
0 0 49
0 0 48
0 0 49
0 0 47
0 0 45
0 0 44
0 0 42
0 0 43
0 0 45
0 0 47
0 0 46
0 0 45
0 0 46
0 0 49
0 0 50
0 0 47
21 23 57
184 198 219
217 233 255
217 233 255
217 233 255
217 233 255
217 233 255
217 233 255
217 233 255
217 233 255
217 233 255
217 233 255
217 233 255
217 233 255
217 233 255
217 233 255
217 233 255
217 233 255
217 233 255
217 233 255
217 233 255
217 233 255
217 233 255
217 233 255
217 233 255
217 233 255
217 233 255
217 233 255
217 233 255
217 233 255
217 233 255
217 233 255
217 233 255
217 233 255
217 233 255
217 233 255
217 233 255
217 233 255
217 233 255
217 233 255
217 233 255
217 233 255
217 233 255
217 233 255
217 233 255
217 233 255
217 233 255
217 233 255
217 233 255
217 233 255
217 233 255
217 233 255
217 233 255
217 233 255
217 233 255
217 233 255
217 233 255
217 233 255
217 233 255
217 233 255
217 233 255
217 233 255
217 233 255
217 233 255
217 233 255
217 233 255
217 233 255
217 233 255
217 233 255
217 233 255
217 233 255
217 233 255
217 233 255
217 233 255
217 233 255
217 233 255
217 233 255
217 233 255
217 233 255
217 233 255
217 233 255
217 233 255
217 233 255
217 233 255
217 233 255
217 233 255
217 233 255
217 233 255
217 233 255
217 233 255
217 233 255
217 233 255
217 233 255
217 233 255
217 233 255
217 233 255
217 233 255
217 233 255
217 233 255
217 233 255
217 233 255
217 233 255
217 233 255
217 233 255
217 233 255
217 233 255
217 233 255
217 233 255
217 233 255
217 233 255
217 233 255
217 233 255
217 233 255
217 233 255
217 233 255
217 233 255
217 233 255
217 233 255
217 233 255
217 233 255
217 233 255
217 233 255
217 233 255
217 233 255
217 233 255
217 233 255
217 233 255
217 233 255
217 233 255
217 233 255
217 233 255
217 233 255
217 233 255
217 233 255
217 233 255
217 233 255
217 233 255
217 233 255
217 233 255
217 233 255
217 233 255
217 233 255
217 233 255
217 233 255
217 233 255
217 233 255
217 233 255
217 233 255
217 233 255
217 233 255
217 233 255
217 233 255
217 233 255
217 233 255
217 233 255
217 233 255
217 233 255
217 233 255
217 233 255
217 233 255
217 233 255
217 233 255
217 233 255
217 233 255
217 233 255
217 233 255
217 233 255
217 233 255
217 233 255
217 233 255
217 233 255
217 233 255
217 233 255
217 233 255
217 233 255
217 233 255
217 233 255
217 233 255
217 233 255
217 233 255
217 233 255
217 233 255
217 233 255
217 233 255
217 233 255
217 233 255
217 233 255
217 233 255
217 233 255
217 233 255
217 233 255
217 233 255
217 233 255
217 233 255
217 233 255
217 233 255
217 233 255
217 233 255
217 233 255
217 233 255
217 233 255
217 233 255
217 233 255
217 233 255
217 233 255
217 233 255
217 233 255
217 233 255
217 233 255
217 233 255
217 233 255
217 233 255
217 233 255
217 233 255
217 233 255
217 233 255
217 233 255
217 233 255
217 233 255
217 233 255
217 233 255
217 233 255
217 233 255
217 233 255
217 233 255
217 233 255
217 233 255
217 233 255
217 233 255
217 233 255
217 233 255
217 233 255
217 233 255
217 233 255
217 233 255
217 233 255
217 233 255
217 233 255
217 233 255
190 205 225
43 46 70
0 0 47
0 0 49
0 0 45
0 0 42
0 0 42
0 0 42
0 0 42
0 0 42
0 0 44
0 0 46
0 0 47
0 0 47
0 0 45
0 0 45
0 0 46
0 0 45
0 0 45
0 0 45
0 0 45
0 0 44
0 0 47
0 0 49
0 0 50
0 0 47
0 0 48
0 0 53
0 0 64
0 7 70
8 13 61
67 69 45
96 88 60
94 99 64
89 97 58
71 69 46
143 134 103
136 125 98
142 133 107
134 127 101
132 118 91
131 118 91
112 99 75
107 96 74
111 101 83
108 96 73
171 139 118
151 133 107
130 111 91
97 91 68
116 111 86
132 124 96
126 121 90
111 109 83
97 93 70
74 71 47
87 86 64
101 94 76
109 104 82
106 106 73
93 97 57
92 98 54
85 88 45
86 90 50
84 89 46
81 86 41
82 86 38
78 84 36
77 88 40
59 74 26
54 73 24
51 70 18
48 67 16
51 71 19
49 69 16
40 60 5
39 60 8
41 61 8
47 68 18
50 71 22
49 71 19
50 72 19
49 70 16
43 63 9
36 58 0
33 57 0
38 63 7
41 68 0
37 63 0
35 61 0
36 61 0
34 60 0
28 57 0
29 58 0
29 56 0
34 56 0
41 62 0
42 62 3
43 64 10
35 56 0
37 58 5
41 66 14
46 70 18
40 68 11
30 57 8
23 100 76
12 105 118
0 24 62
0 0 44
0 0 42
0 0 40
0 0 42
0 0 42
0 0 42
0 0 42
0 0 42
0 0 43
0 0 43
0 0 43
0 0 43
0 0 42
0 0 42
0 0 42
0 0 42
0 0 47
0 0 46
0 0 48
0 0 47
0 0 47
0 0 47
0 0 47
0 0 48
0 0 47
0 0 48
0 0 47
0 0 46
0 0 49
0 0 49
0 0 49
0 0 53
0 0 53
0 0 48
0 0 47
0 0 48
0 0 48
0 0 48
0 0 48
0 0 47
0 0 46
0 0 45
0 0 45
0 0 43
0 0 43
0 0 43
0 0 45
0 0 45
0 0 42
0 0 44
0 0 46
0 0 44
0 0 49
0 0 45
37 40 66
183 196 217
217 233 255
217 233 255
217 233 255
217 233 255
217 233 255
217 233 255
217 233 255
217 233 255
217 233 255
217 233 255
217 233 255
217 233 255
217 233 255
217 233 255
217 233 255
217 233 255
217 233 255
217 233 255
217 233 255
217 233 255
217 233 255
217 233 255
217 233 255
217 233 255
217 233 255
217 233 255
217 233 255
217 233 255
217 233 255
217 233 255
217 233 255
217 233 255
217 233 255
217 233 255
217 233 255
217 233 255
217 233 255
217 233 255
217 233 255
217 233 255
217 233 255
217 233 255
217 233 255
217 233 255
217 233 255
217 233 255
217 233 255
217 233 255
217 233 255
217 233 255
217 233 255
217 233 255
217 233 255
217 233 255
217 233 255
217 233 255
217 233 255
217 233 255
217 233 255
217 233 255
217 233 255
217 233 255
217 233 255
217 233 255
217 233 255
217 233 255
217 233 255
217 233 255
217 233 255
217 233 255
217 233 255
217 233 255
217 233 255
217 233 255
217 233 255
217 233 255
217 233 255
217 233 255
217 233 255
217 233 255
217 233 255
217 233 255
217 233 255
217 233 255
217 233 255
217 233 255
217 233 255
217 233 255
217 233 255
217 233 255
217 233 255
217 233 255
217 233 255
217 233 255
217 233 255
217 233 255
217 233 255
217 233 255
217 233 255
217 233 255
217 233 255
217 233 255
217 233 255
217 233 255
217 233 255
217 233 255
217 233 255
217 233 255
217 233 255
217 233 255
217 233 255
217 233 255
217 233 255
217 233 255
217 233 255
217 233 255
217 233 255
217 233 255
217 233 255
217 233 255
217 233 255
217 233 255
217 233 255
217 233 255
217 233 255
217 233 255
217 233 255
217 233 255
217 233 255
217 233 255
217 233 255
217 233 255
217 233 255
217 233 255
217 233 255
217 233 255
217 233 255
217 233 255
217 233 255
217 233 255
217 233 255
217 233 255
217 233 255
217 233 255
217 233 255
217 233 255
217 233 255
217 233 255
217 233 255
217 233 255
217 233 255
217 233 255
217 233 255
217 233 255
217 233 255
217 233 255
217 233 255
217 233 255
217 233 255
217 233 255
217 233 255
217 233 255
217 233 255
217 233 255
217 233 255
217 233 255
217 233 255
217 233 255
217 233 255
217 233 255
217 233 255
217 233 255
217 233 255
217 233 255
217 233 255
217 233 255
217 233 255
217 233 255
217 233 255
217 233 255
217 233 255
217 233 255
217 233 255
217 233 255
217 233 255
217 233 255
217 233 255
217 233 255
217 233 255
217 233 255
217 233 255
217 233 255
217 233 255
217 233 255
217 233 255
217 233 255
217 233 255
217 233 255
217 233 255
217 233 255
217 233 255
217 233 255
217 233 255
217 233 255
217 233 255
217 233 255
217 233 255
217 233 255
217 233 255
217 233 255
217 233 255
217 233 255
217 233 255
217 233 255
217 233 255
217 233 255
217 233 255
217 233 255
217 233 255
217 233 255
217 233 255
217 233 255
217 233 255
217 233 255
217 233 255
217 233 255
217 233 255
217 233 255
217 233 255
217 233 255
217 233 255
217 233 255
217 233 255
217 233 255
217 233 255
203 218 239
53 57 80
0 0 49
0 0 48
0 0 44
0 0 41
0 0 42
0 0 42
0 0 42
0 0 42
0 0 42
0 0 42
0 0 42
0 0 45
0 0 45
0 0 46
0 0 45
0 0 45
0 0 45
0 0 45
0 0 45
0 0 45
0 0 45
0 0 48
0 0 48
0 0 48
0 0 45
0 0 45
0 0 50
0 0 59
0 0 60
0 4 64
50 56 54
102 93 57
120 109 81
105 100 71
133 121 92
166 150 116
164 148 119
163 151 122
142 131 102
136 122 94
125 114 89
110 100 75
102 93 72
82 74 52
75 69 48
155 128 107
155 128 112
153 127 112
119 106 83
89 86 62
109 98 76
134 118 97
113 103 80
113 108 87
103 96 77
107 99 82
106 98 78
102 98 74
92 93 60
86 90 52
85 90 50
84 84 47
88 88 51
88 88 49
89 89 47
87 87 45
83 87 41
72 82 34
61 78 27
55 74 20
49 68 16
43 60 10
40 58 7
38 57 3
36 55 0
33 54 0
38 57 3
46 69 18
45 68 16
47 71 18
46 70 16
43 64 12
38 60 3
37 59 0
35 59 0
41 66 10
41 68 0
39 65 0
38 62 0
39 62 0
33 56 0
33 58 0
32 57 0
34 59 0
42 64 10
37 57 0
38 57 0
41 61 6
39 61 3
43 67 11
41 67 8
35 60 0
34 60 0
23 45 27
17 51 61
0 22 48
0 0 43
0 0 40
0 0 40
0 0 41
0 0 41
0 0 42
0 0 42
0 0 42
0 0 42
0 0 42
0 0 42
0 0 42
0 0 42
0 0 42
0 0 42
0 0 42
0 0 42
0 0 44
0 0 45
0 0 45
0 0 46
0 0 45
0 0 45
0 0 45
0 0 45
0 0 46
0 0 47
0 0 48
0 0 47
0 0 50
0 0 50
0 0 50
0 0 51
0 0 52
0 0 49
0 0 48
0 0 48
0 0 48
0 0 48
0 0 48
0 0 46
0 0 46
0 0 45
0 0 45
0 0 43
0 0 42
0 0 42
0 0 42
0 0 45
0 0 43
0 0 42
0 0 42
0 0 43
0 0 43
0 0 45
0 0 45
65 70 89
201 216 238
217 233 255
217 233 255
217 233 255
217 233 255
217 233 255
217 233 255
217 233 255
217 233 255
217 233 255
217 233 255
217 233 255
217 233 255
217 233 255
217 233 255
217 233 255
217 233 255
217 233 255
217 233 255
217 233 255
217 233 255
217 233 255
217 233 255
217 233 255
217 233 255
217 233 255
217 233 255
217 233 255
217 233 255
217 233 255
217 233 255
217 233 255
217 233 255
217 233 255
217 233 255
217 233 255
217 233 255
217 233 255
217 233 255
217 233 255
217 233 255
217 233 255
217 233 255
217 233 255
217 233 255
217 233 255
217 233 255
217 233 255
217 233 255
217 233 255
217 233 255
217 233 255
217 233 255
217 233 255
217 233 255
217 233 255
217 233 255
217 233 255
217 233 255
217 233 255
217 233 255
217 233 255
217 233 255
217 233 255
217 233 255
217 233 255
217 233 255
217 233 255
217 233 255
217 233 255
217 233 255
217 233 255
217 233 255
217 233 255
217 233 255
217 233 255
217 233 255
217 233 255
217 233 255
217 233 255
217 233 255
217 233 255
217 233 255
217 233 255
217 233 255
217 233 255
217 233 255
217 233 255
217 233 255
217 233 255
217 233 255
217 233 255
217 233 255
217 233 255
217 233 255
217 233 255
217 233 255
217 233 255
217 233 255
217 233 255
217 233 255
217 233 255
217 233 255
217 233 255
217 233 255
217 233 255
217 233 255
217 233 255
217 233 255
217 233 255
217 233 255
217 233 255
217 233 255
217 233 255
217 233 255
217 233 255
217 233 255
217 233 255
217 233 255
217 233 255
217 233 255
217 233 255
217 233 255
217 233 255
217 233 255
217 233 255
217 233 255
217 233 255
217 233 255
217 233 255
217 233 255
217 233 255
217 233 255
217 233 255
217 233 255
217 233 255
217 233 255
217 233 255
217 233 255
217 233 255
217 233 255
217 233 255
217 233 255
217 233 255
217 233 255
217 233 255
217 233 255
217 233 255
217 233 255
217 233 255
217 233 255
217 233 255
217 233 255
217 233 255
217 233 255
217 233 255
217 233 255
217 233 255
217 233 255
217 233 255
217 233 255
217 233 255
217 233 255
217 233 255
217 233 255
217 233 255
217 233 255
217 233 255
217 233 255
217 233 255
217 233 255
217 233 255
217 233 255
217 233 255
217 233 255
217 233 255
217 233 255
217 233 255
217 233 255
217 233 255
217 233 255
217 233 255
217 233 255
217 233 255
217 233 255
217 233 255
217 233 255
217 233 255
217 233 255
217 233 255
217 233 255
217 233 255
217 233 255
217 233 255
217 233 255
217 233 255
217 233 255
217 233 255
217 233 255
217 233 255
217 233 255
217 233 255
217 233 255
217 233 255
217 233 255
217 233 255
217 233 255
217 233 255
217 233 255
217 233 255
217 233 255
217 233 255
217 233 255
217 233 255
217 233 255
217 233 255
217 233 255
217 233 255
217 233 255
217 233 255
217 233 255
217 233 255
217 233 255
217 233 255
217 233 255
217 233 255
217 233 255
217 233 255
217 233 255
217 233 255
217 233 255
217 233 255
217 233 255
217 233 255
215 231 253
75 80 100
0 0 49
0 0 47
0 0 43
0 0 42
0 0 42
0 0 42
0 0 42
0 0 42
0 0 42
0 0 42
0 0 42
0 0 45
0 0 45
0 0 47
0 0 47
0 0 45
0 0 45
0 0 45
0 0 45
0 0 45
0 0 44
0 0 46
0 0 47
0 0 47
0 0 45
0 0 44
0 0 44
0 0 50
0 0 55
0 0 51
0 8 69
35 46 83
73 72 41
96 95 62
106 99 68
173 158 122
169 154 123
166 150 121
163 149 120
160 152 127
140 129 101
135 122 95
113 101 75
92 82 57
82 84 58
65 67 39
86 74 53
107 95 75
124 107 84
107 103 78
94 92 68
105 99 78
127 110 91
115 104 81
105 98 78
118 107 88
122 112 88
114 105 84
108 100 77
101 97 70
97 93 65
98 94 69
95 91 66
95 92 64
96 94 60
100 96 61
99 95 60
90 90 53
74 82 41
57 74 26
55 74 25
51 71 23
45 66 12
40 60 5
37 57 1
38 58 0
32 54 0
31 49 0
39 60 11
40 66 12
42 70 10
45 72 17
36 60 0
39 63 0
39 65 2
38 62 1
39 63 0
39 66 0
39 65 0
39 63 0
36 59 0
39 61 0
42 61 0
39 60 0
37 57 0
31 53 0
34 56 0
38 58 0
39 60 3
45 68 13
39 64 3
41 65 0
30 50 26
14 29 43
0 4 42
0 1 43
0 0 41
0 0 44
0 0 40
0 0 43
0 0 43
0 0 40
0 0 42
0 0 42
0 0 42
0 0 42
0 0 42
0 0 42
0 0 42
0 0 42
0 0 42
0 0 42
0 0 42
0 0 42
0 0 43
0 0 44
0 0 45
0 0 45
0 0 43
0 0 45
0 0 45
0 0 45
0 0 45
0 0 45
0 0 46
0 0 47
0 0 49
0 0 50
0 0 50
0 0 50
0 0 52
0 0 50
0 0 47
0 0 46
0 0 47
0 0 47
0 0 47
0 0 47
0 0 47
0 0 46
0 0 45
0 0 43
0 0 42
0 0 42
0 0 42
0 0 43
0 0 43
0 0 42
0 0 40
0 0 41
0 0 42
0 0 45
0 3 46
0 0 45
87 93 110
212 227 249
217 233 255
217 233 255
217 233 255
217 233 255
217 233 255
217 233 255
217 233 255
217 233 255
217 233 255
217 233 255
217 233 255
217 233 255
217 233 255
217 233 255
217 233 255
217 233 255
217 233 255
217 233 255
217 233 255
217 233 255
217 233 255
217 233 255
217 233 255
217 233 255
217 233 255
217 233 255
217 233 255
217 233 255
217 233 255
217 233 255
217 233 255
217 233 255
217 233 255
217 233 255
217 233 255
217 233 255
217 233 255
217 233 255
217 233 255
217 233 255
217 233 255
217 233 255
217 233 255
217 233 255
217 233 255
217 233 255
217 233 255
217 233 255
217 233 255
217 233 255
217 233 255
217 233 255
217 233 255
217 233 255
217 233 255
217 233 255
217 233 255
217 233 255
217 233 255
217 233 255
217 233 255
217 233 255
217 233 255
217 233 255
217 233 255
217 233 255
217 233 255
217 233 255
217 233 255
217 233 255
217 233 255
217 233 255
217 233 255
217 233 255
217 233 255
217 233 255
217 233 255
217 233 255
217 233 255
217 233 255
217 233 255
217 233 255
217 233 255
217 233 255
217 233 255
217 233 255
217 233 255
217 233 255
217 233 255
217 233 255
217 233 255
217 233 255
217 233 255
217 233 255
217 233 255
217 233 255
217 233 255
217 233 255
217 233 255
217 233 255
217 233 255
217 233 255
217 233 255
217 233 255
217 233 255
217 233 255
217 233 255
217 233 255
217 233 255
217 233 255
217 233 255
217 233 255
217 233 255
217 233 255
217 233 255
217 233 255
217 233 255
217 233 255
217 233 255
217 233 255
217 233 255
217 233 255
217 233 255
217 233 255
217 233 255
217 233 255
217 233 255
217 233 255
217 233 255
217 233 255
217 233 255
217 233 255
217 233 255
217 233 255
217 233 255
217 233 255
217 233 255
217 233 255
217 233 255
217 233 255
217 233 255
217 233 255
217 233 255
217 233 255
217 233 255
217 233 255
217 233 255
217 233 255
217 233 255
217 233 255
217 233 255
217 233 255
217 233 255
217 233 255
217 233 255
217 233 255
217 233 255
217 233 255
217 233 255
217 233 255
217 233 255
217 233 255
217 233 255
217 233 255
217 233 255
217 233 255
217 233 255
217 233 255
217 233 255
217 233 255
217 233 255
217 233 255
217 233 255
217 233 255
217 233 255
217 233 255
217 233 255
217 233 255
217 233 255
217 233 255
217 233 255
217 233 255
217 233 255
217 233 255
217 233 255
217 233 255
217 233 255
217 233 255
217 233 255
217 233 255
217 233 255
217 233 255
217 233 255
217 233 255
217 233 255
217 233 255
217 233 255
217 233 255
217 233 255
217 233 255
217 233 255
217 233 255
217 233 255
217 233 255
217 233 255
217 233 255
217 233 255
217 233 255
217 233 255
217 233 255
217 233 255
217 233 255
217 233 255
217 233 255
217 233 255
217 233 255
217 233 255
217 233 255
217 233 255
217 233 255
217 233 255
217 233 255
217 233 255
217 233 255
217 233 255
217 233 255
217 233 255
217 233 255
217 233 255
217 233 255
217 233 255
217 233 255
117 125 143
0 0 48
0 0 45
0 0 43
0 0 42
0 0 42
0 0 42
0 0 42
0 0 42
0 0 42
0 0 42
0 0 42
0 0 44
0 0 45
0 0 45
0 0 46
0 0 45
0 0 45
0 0 45
0 0 45
0 0 45
0 0 43
0 0 43
0 0 45
0 0 45
0 0 45
0 0 42
0 0 42
0 0 44
0 0 47
0 0 50
0 0 58
0 11 65
17 24 74
31 32 57
55 61 47
73 79 54
90 88 56
102 94 63
154 148 121
168 164 137
173 167 141
151 141 114
148 132 105
142 125 99
118 105 79
102 94 64
80 77 49
72 71 48
56 57 28
52 58 28
62 64 36
93 90 66
104 96 70
132 115 93
116 106 81
90 88 62
121 110 90
125 113 90
115 106 84
111 101 81
112 100 79
116 102 79
113 100 80
104 96 71
100 91 66
106 97 67
96 93 53
90 91 49
76 85 39
74 85 38
70 84 36
65 81 33
57 74 27
49 70 16
45 65 6
42 62 7
39 60 10
28 48 0
27 47 0
30 50 7
43 67 14
45 73 8
41 71 9
37 60 0
35 60 0
40 66 10
35 60 7
32 57 0
38 61 0
36 60 0
34 60 0
36 59 0
39 60 0
41 61 0
36 56 0
31 51 0
37 58 0
42 62 0
44 63 12
41 62 13
35 56 3
37 59 4
23 47 46
7 17 49
2 6 48
0 0 43
0 0 40
0 0 41
0 0 43
0 0 40
0 0 41
0 0 43
0 0 42
0 0 42
0 0 42
0 0 42
0 0 42
0 0 42
0 0 42
0 0 42
0 0 42
0 0 42
0 0 42
0 0 42
0 0 42
0 0 42
0 0 42
0 0 42
0 0 42
0 0 42
0 0 44
0 0 45
0 0 45
0 0 45
0 0 45
0 0 43
0 0 43
0 0 45
0 0 49
0 0 48
0 0 48
0 0 49
0 0 50
0 0 47
0 0 45
0 0 44
0 0 44
0 0 44
0 0 45
0 0 45
0 0 45
0 0 44
0 0 43
0 0 42
0 0 42
0 0 42
0 0 42
0 0 42
0 0 42
0 0 42
0 0 41
0 0 41
0 0 41
0 0 43
0 0 43
0 0 44
117 125 142
217 233 255
217 233 255
217 233 255
217 233 255
217 233 255
217 233 255
217 233 255
217 233 255
217 233 255
217 233 255
217 233 255
217 233 255
217 233 255
217 233 255
217 233 255
217 233 255
217 233 255
217 233 255
217 233 255
217 233 255
217 233 255
217 233 255
217 233 255
217 233 255
217 233 255
217 233 255
217 233 255
217 233 255
217 233 255
217 233 255
217 233 255
217 233 255
217 233 255
217 233 255
217 233 255
217 233 255
217 233 255
217 233 255
217 233 255
217 233 255
217 233 255
217 233 255
217 233 255
217 233 255
217 233 255
217 233 255
217 233 255
217 233 255
217 233 255
217 233 255
217 233 255
217 233 255
217 233 255
217 233 255
217 233 255
217 233 255
217 233 255
217 233 255
217 233 255
217 233 255
217 233 255
217 233 255
217 233 255
217 233 255
217 233 255
217 233 255
217 233 255
217 233 255
217 233 255
217 233 255
217 233 255
217 233 255
217 233 255
217 233 255
217 233 255
217 233 255
217 233 255
217 233 255
217 233 255
217 233 255
217 233 255
217 233 255
217 233 255
217 233 255
217 233 255
217 233 255
217 233 255
217 233 255
217 233 255
217 233 255
217 233 255
217 233 255
217 233 255
217 233 255
217 233 255
217 233 255
217 233 255
217 233 255
217 233 255
217 233 255
217 233 255
217 233 255
217 233 255
217 233 255
217 233 255
217 233 255
217 233 255
217 233 255
217 233 255
217 233 255
217 233 255
217 233 255
217 233 255
217 233 255
217 233 255
217 233 255
217 233 255
217 233 255
217 233 255
217 233 255
217 233 255
217 233 255
217 233 255
217 233 255
217 233 255
217 233 255
217 233 255
217 233 255
217 233 255
217 233 255
217 233 255
217 233 255
217 233 255
217 233 255
217 233 255
217 233 255
217 233 255
217 233 255
217 233 255
217 233 255
217 233 255
217 233 255
217 233 255
217 233 255
217 233 255
217 233 255
217 233 255
217 233 255
217 233 255
217 233 255
217 233 255
217 233 255
217 233 255
217 233 255
217 233 255
217 233 255
217 233 255
217 233 255
217 233 255
217 233 255
217 233 255
217 233 255
217 233 255
217 233 255
217 233 255
217 233 255
217 233 255
217 233 255
217 233 255
217 233 255
217 233 255
217 233 255
217 233 255
217 233 255
217 233 255
217 233 255
217 233 255
217 233 255
217 233 255
217 233 255
217 233 255
217 233 255
217 233 255
217 233 255
217 233 255
217 233 255
217 233 255
217 233 255
217 233 255
217 233 255
217 233 255
217 233 255
217 233 255
217 233 255
217 233 255
217 233 255
217 233 255
217 233 255
217 233 255
217 233 255
217 233 255
217 233 255
217 233 255
217 233 255
217 233 255
217 233 255
217 233 255
217 233 255
217 233 255
217 233 255
217 233 255
217 233 255
217 233 255
217 233 255
217 233 255
217 233 255
217 233 255
217 233 255
217 233 255
217 233 255
217 233 255
217 233 255
217 233 255
217 233 255
217 233 255
217 233 255
217 233 255
217 233 255
217 233 255
217 233 255
217 233 255
150 162 180
0 0 45
0 0 43
0 0 42
0 0 42
0 0 42
0 0 42
0 0 42
0 0 42
0 0 42
0 0 42
0 0 41
0 0 43
0 0 45
0 0 45
0 0 45
0 0 45
0 0 45
0 0 45
0 0 45
0 0 45
0 0 43
0 0 43
0 0 45
0 0 45
0 0 45
0 0 43
0 0 41
0 0 42
0 0 47
0 0 45
0 0 48
0 0 52
0 0 58
0 7 60
0 4 53
6 3 48
41 44 57
79 76 49
93 93 64
130 126 110
146 141 114
145 134 112
142 124 105
145 129 102
147 132 101
142 130 95
129 116 86
99 90 60
94 90 63
89 83 58
85 80 54
68 70 42
73 70 41
131 114 91
142 131 112
139 131 113
75 72 47
134 123 100
138 121 97
125 112 89
118 106 85
122 106 84
123 106 83
115 101 80
106 97 77
102 92 70
105 98 67
88 89 47
77 82 37
74 83 40
79 89 43
80 93 45
69 84 37
56 72 27
46 65 18
39 57 7
34 51 0
36 54 8
28 49 0
29 50 0
40 61 10
46 70 15
38 64 3
39 65 8
37 59 0
35 58 0
35 60 0
30 54 1
34 59 0
36 58 0
39 63 0
33 57 0
37 60 0
37 56 0
39 57 2
39 57 4
39 59 0
42 62 4
43 62 12
39 57 7
33 55 4
33 53 12
27 49 36
8 16 57
0 0 48
0 0 43
0 0 42
0 0 42
0 0 42
0 0 42
0 0 42
0 0 42
0 0 42
0 0 42
0 0 42
0 0 42
0 0 42
0 0 42
0 0 42
0 0 42
0 0 42
0 0 42
0 0 42
0 0 42
0 0 42
0 0 42
0 0 42
0 0 42
0 0 42
0 0 42
0 0 42
0 0 42
0 0 43
0 0 43
0 0 43
0 0 43
0 0 42
0 0 42
0 0 42
0 0 43
0 0 44
0 0 45
0 0 46
0 0 48
0 0 48
0 0 44
0 0 43
0 0 42
0 0 42
0 0 42
0 0 43
0 0 43
0 0 42
0 0 42
0 0 42
0 0 42
0 0 42
0 0 42
0 0 42
0 0 42
0 0 42
0 0 42
0 0 42
0 0 42
0 0 42
0 0 42
0 0 42
0 0 42
155 167 185
217 233 255
217 233 255
217 233 255
217 233 255
217 233 255
217 233 255
217 233 255
217 233 255
217 233 255
217 233 255
217 233 255
217 233 255
217 233 255
217 233 255
217 233 255
217 233 255
217 233 255
217 233 255
217 233 255
217 233 255
217 233 255
217 233 255
217 233 255
217 233 255
217 233 255
217 233 255
217 233 255
217 233 255
217 233 255
217 233 255
217 233 255
217 233 255
217 233 255
217 233 255
217 233 255
217 233 255
217 233 255
217 233 255
217 233 255
217 233 255
217 233 255
217 233 255
217 233 255
217 233 255
217 233 255
217 233 255
217 233 255
217 233 255
217 233 255
217 233 255
217 233 255
217 233 255
217 233 255
217 233 255
217 233 255
217 233 255
217 233 255
217 233 255
217 233 255
217 233 255
217 233 255
217 233 255
217 233 255
217 233 255
217 233 255
217 233 255
217 233 255
217 233 255
217 233 255
217 233 255
217 233 255
217 233 255
217 233 255
217 233 255
217 233 255
217 233 255
217 233 255
217 233 255
217 233 255
217 233 255
217 233 255
217 233 255
217 233 255
217 233 255
217 233 255
217 233 255
217 233 255
217 233 255
217 233 255
217 233 255
217 233 255
217 233 255
217 233 255
217 233 255
217 233 255
217 233 255
217 233 255
217 233 255
217 233 255
217 233 255
217 233 255
217 233 255
217 233 255
217 233 255
217 233 255
217 233 255
217 233 255
217 233 255
217 233 255
217 233 255
217 233 255
217 233 255
217 233 255
217 233 255
217 233 255
218 233 255
218 233 255
218 233 255
218 233 255
218 233 255
218 233 255
218 233 255
218 233 255
218 233 255
218 233 255
218 233 255
218 233 255
218 233 255
218 233 255
218 233 255
218 233 255
218 233 255
218 233 255
218 233 255
218 233 255
218 233 255
218 233 255
218 233 255
218 233 255
218 233 255
218 233 255
218 233 255
217 233 255
217 233 255
217 233 255
217 233 255
217 233 255
217 233 255
217 233 255
217 233 255
217 233 255
217 233 255
217 233 255
217 233 255
217 233 255
217 233 255
217 233 255
217 233 255
217 233 255
217 233 255
217 233 255
217 233 255
217 233 255
217 233 255
217 233 255
217 233 255
217 233 255
217 233 255
217 233 255
217 233 255
217 233 255
217 233 255
217 233 255
217 233 255
217 233 255
217 233 255
217 233 255
217 233 255
217 233 255
217 233 255
217 233 255
217 233 255
217 233 255
217 233 255
217 233 255
217 233 255
217 233 255
217 233 255
217 233 255
217 233 255
217 233 255
217 233 255
217 233 255
217 233 255
217 233 255
217 233 255
217 233 255
217 233 255
217 233 255
217 233 255
217 233 255
217 233 255
217 233 255
217 233 255
217 233 255
217 233 255
217 233 255
217 233 255
217 233 255
217 233 255
217 233 255
217 233 255
217 233 255
217 233 255
217 233 255
217 233 255
217 233 255
217 233 255
217 233 255
217 233 255
217 233 255
217 233 255
217 233 255
217 233 255
217 233 255
217 233 255
217 233 255
217 233 255
217 233 255
179 192 212
30 33 58
0 0 43
0 0 42
0 0 42
0 0 42
0 0 42
0 0 42
0 0 42
0 0 42
0 0 42
0 0 42
0 0 42
0 0 45
0 0 45
0 0 45
0 0 45
0 0 45
0 0 44
0 0 45
0 0 45
0 0 44
0 0 44
0 0 42
0 0 43
0 0 42
0 0 42
0 0 42
0 0 42
0 0 44
0 0 45
0 0 44
0 0 46
0 0 54
0 0 53
0 0 52
0 0 56
0 0 47
6 2 45
66 64 60
108 108 83
163 167 137
157 150 114
159 148 118
175 157 126
177 149 126
143 129 97
149 130 102
139 125 97
101 92 63
98 90 62
117 106 80
124 109 85
126 110 87
121 107 81
143 125 99
155 136 112
151 132 110
136 127 98
135 124 91
152 131 103
133 115 93
128 110 89
127 107 84
126 108 87
114 100 82
112 100 80
102 93 71
92 91 58
84 90 49
81 89 47
80 87 46
75 85 38
74 86 37
59 74 27
51 68 22
46 64 14
40 57 7
35 53 3
39 58 11
28 48 0
27 47 0
41 64 15
41 65 15
32 54 2
37 59 7
31 53 0
30 52 0
29 53 0
27 50 0
34 59 0
39 63 0
41 66 0
37 60 0
37 59 0
39 59 1
43 61 11
49 69 17
43 63 5
38 58 0
46 63 12
37 57 9
32 53 28
11 27 60
0 10 50
0 0 43
0 0 42
0 0 39
0 0 42
0 0 42
0 0 42
0 0 42
0 0 42
0 0 42
0 0 42
0 0 42
0 0 42
0 0 42
0 0 42
0 0 42
0 0 42
0 0 42
0 0 42
0 0 42
0 0 42
0 0 42
0 0 42
0 0 42
0 0 42
0 0 42
0 0 42
0 0 42
0 0 42
0 0 42
0 0 42
0 0 42
0 0 42
0 0 42
0 0 42
0 0 42
0 0 42
0 0 42
0 0 42
0 0 42
0 0 42
0 0 42
0 0 43
0 0 42
0 0 42
0 0 42
0 0 42
0 0 42
0 0 42
0 0 42
0 0 42
0 0 42
0 0 42
0 0 42
0 0 42
0 0 42
0 0 42
0 0 42
0 0 42
0 0 42
0 0 42
0 0 42
0 0 42
0 0 42
0 0 42
0 0 42
21 23 49
178 191 210
217 233 255
217 233 255
217 233 255
217 233 255
217 233 255
217 233 255
217 233 255
217 233 255
217 233 255
217 233 255
217 233 255
217 233 255
217 233 255
217 233 255
217 233 255
217 233 255
217 233 255
217 233 255
217 233 255
217 233 255
217 233 255
217 233 255
217 233 255
217 233 255
217 233 255
217 233 255
217 233 255
217 233 255
217 233 255
217 233 255
217 233 255
217 233 255
217 233 255
217 233 255
217 233 255
217 233 255
217 233 255
217 233 255
217 233 255
217 233 255
217 233 255
217 233 255
217 233 255
217 233 255
217 233 255
217 233 255
217 233 255
217 233 255
217 233 255
217 233 255
217 233 255
217 233 255
217 233 255
217 233 255
217 233 255
217 233 255
217 233 255
217 233 255
217 233 255
217 233 255
217 233 255
217 233 255
217 233 255
217 233 255
217 233 255
217 233 255
217 233 255
217 233 255
217 233 255
217 233 255
217 233 255
217 233 255
217 233 255
217 233 255
217 233 255
217 233 255
217 233 255
217 233 255
217 233 255
217 233 255
217 233 255
217 233 255
217 233 255
217 233 255
217 233 255
217 233 255
217 233 255
218 233 255
218 233 255
218 233 255
218 233 255
218 233 255
218 233 255
218 233 255
218 233 255
218 233 255
218 233 255
218 233 255
218 233 255
218 233 255
218 233 255
218 233 255
218 233 255
218 233 255
218 233 255
218 233 255
218 233 255
218 233 255
218 233 255
218 233 255
218 233 255
218 233 255
218 233 255
218 233 255
218 233 255
218 233 255
218 233 255
218 233 255
218 233 255
218 233 255
218 233 255
218 233 255
218 233 255
218 233 255
218 233 255
218 233 255
218 233 255
218 233 255
218 233 255
218 233 255
218 233 255
218 233 255
218 233 255
218 233 255
218 233 255
218 233 255
218 233 255
218 233 255
218 233 255
218 233 255
218 233 255
218 233 255
218 233 255
218 233 255
218 233 255
218 233 255
218 233 255
218 233 255
218 233 255
218 233 255
218 233 255
218 233 255
218 233 255
218 233 255
218 233 255
218 233 255
218 233 255
218 233 255
218 233 255
218 233 255
218 233 255
218 233 255
218 233 255
218 233 255
218 233 255
218 233 255
218 233 255
218 233 255
218 233 255
218 233 255
218 233 255
218 233 255
218 233 255
218 233 255
218 233 255
218 233 255
218 233 255
218 233 255
218 233 255
218 233 255
218 233 255
218 233 255
218 233 255
217 233 255
217 233 255
217 233 255
217 233 255
217 233 255
217 233 255
217 233 255
217 233 255
217 233 255
217 233 255
217 233 255
217 233 255
217 233 255
217 233 255
217 233 255
217 233 255
217 233 255
217 233 255
217 233 255
217 233 255
217 233 255
217 233 255
217 233 255
217 233 255
217 233 255
217 233 255
217 233 255
217 233 255
217 233 255
217 233 255
217 233 255
217 233 255
217 233 255
217 233 255
217 233 255
217 233 255
217 233 255
217 233 255
217 233 255
217 233 255
217 233 255
217 233 255
217 233 255
217 233 255
210 225 247
43 46 67
0 0 42
0 0 42
0 0 42
0 0 42
0 0 42
0 0 42
0 0 42
0 0 42
0 0 42
0 0 42
0 0 42
0 0 43
0 0 45
0 0 45
0 0 45
0 0 45
0 0 45
0 0 44
0 0 45
0 0 45
0 0 45
0 0 44
0 0 42
0 0 42
0 0 42
0 0 42
0 0 42
0 0 43
0 0 45
0 0 42
0 0 43
0 0 49
0 0 51
0 0 47
0 0 52
0 0 55
0 0 47
5 4 48
74 70 59
104 99 76
162 154 133
152 144 111
191 187 152
174 167 135
161 139 116
149 131 106
131 114 89
123 115 89
103 99 70
117 107 79
106 97 68
136 123 99
142 124 98
156 136 113
170 142 119
167 141 112
160 138 112
163 149 118
145 132 95
176 155 125
161 139 113
148 128 104
151 130 102
149 132 107
124 112 86
110 101 76
103 100 75
87 91 55
76 85 45
84 92 52
80 87 45
74 81 33
73 84 32
56 71 20
46 64 13
37 55 0
35 52 0
28 47 0
23 44 0
30 51 0
28 48 0
35 59 0
31 55 0
27 50 0
28 50 0
31 52 0
31 52 0
27 50 0
25 48 0
31 55 0
34 57 0
36 59 0
40 62 5
42 62 11
44 63 12
46 65 14
50 71 16
47 67 8
42 63 0
39 59 0
30 53 15
12 32 69
0 6 60
0 0 45
0 0 39
0 0 44
0 0 40
0 0 42
0 0 42
0 0 42
0 0 42
0 0 42
0 0 42
0 0 42
0 0 42
0 0 42
0 0 42
0 0 42
0 0 42
0 0 42
0 0 42
0 0 42
0 0 42
0 0 42
0 0 42
0 0 42
0 0 42
0 0 42
0 0 42
0 0 42
0 0 42
0 0 42
0 0 42
0 0 42
0 0 42
0 0 42
0 0 42
0 0 42
0 0 42
0 0 42
0 0 42
0 0 42
0 0 42
0 0 42
0 0 42
0 0 42
0 0 42
0 0 42
0 0 42
0 0 42
0 0 42
0 0 42
0 0 42
0 0 42
0 0 42
0 0 42
0 0 42
0 0 42
0 0 42
0 0 42
0 0 42
0 0 42
0 0 42
0 0 42
0 0 42
0 0 42
0 0 42
0 0 42
0 0 42
0 0 42
53 57 74
202 216 237
217 233 255
217 233 255
217 233 255
217 233 255
217 233 255
217 233 255
217 233 255
217 233 255
217 233 255
217 233 255
217 233 255
217 233 255
217 233 255
217 233 255
217 233 255
217 233 255
217 233 255
217 233 255
217 233 255
217 233 255
217 233 255
217 233 255
217 233 255
217 233 255
217 233 255
217 233 255
217 233 255
217 233 255
217 233 255
217 233 255
217 233 255
217 233 255
217 233 255
217 233 255
217 233 255
217 233 255
217 233 255
217 233 255
217 233 255
217 233 255
217 233 255
217 233 255
217 233 255
217 233 255
218 233 255
218 233 255
218 233 255
218 233 255
218 233 255
218 233 255
218 233 255
218 233 255
218 233 255
218 233 255
218 233 255
218 233 255
218 233 255
218 233 255
218 233 255
218 233 255
218 233 255
218 233 255
218 233 255
218 233 255
218 233 255
218 233 255
218 233 255
218 233 255
218 233 255
218 233 255
218 233 255
218 233 255
218 233 255
218 233 255
218 233 255
218 233 255
218 233 255
218 233 255
218 233 255
218 233 255
218 233 255
218 233 255
218 233 255
218 233 255
218 233 255
218 233 255
218 233 255
218 233 255
218 233 255
218 233 255
218 233 255
218 233 255
218 233 255
218 233 255
218 233 255
218 233 255
218 233 255
218 233 255
218 233 255
218 233 255
218 233 255
218 233 255
218 233 255
218 233 255
218 233 255
218 233 255
218 233 255
218 233 255
218 233 255
218 233 255
218 233 255
218 233 255
218 233 255
218 234 255
218 234 255
218 234 255
218 234 255
218 234 255
218 234 255
218 234 255
218 234 255
218 234 255
218 234 255
218 234 255
218 234 255
218 234 255
218 234 255
218 234 255
218 234 255
218 234 255
218 234 255
218 234 255
218 234 255
218 234 255
218 234 255
218 234 255
218 234 255
218 234 255
218 234 255
218 234 255
218 234 255
218 234 255
218 234 255
218 234 255
218 234 255
218 233 255
218 233 255
218 233 255
218 233 255
218 233 255
218 233 255
218 233 255
218 233 255
218 233 255
218 233 255
218 233 255
218 233 255
218 233 255
218 233 255
218 233 255
218 233 255
218 233 255
218 233 255
218 233 255
218 233 255
218 233 255
218 233 255
218 233 255
218 233 255
218 233 255
218 233 255
218 233 255
218 233 255
218 233 255
218 233 255
218 233 255
218 233 255
218 233 255
218 233 255
218 233 255
218 233 255
218 233 255
218 233 255
218 233 255
218 233 255
218 233 255
218 233 255
218 233 255
218 233 255
218 233 255
218 233 255
218 233 255
218 233 255
218 233 255
218 233 255
218 233 255
218 233 255
218 233 255
218 233 255
218 233 255
218 233 255
218 233 255
218 233 255
218 233 255
218 233 255
218 233 255
218 233 255
218 233 255
218 233 255
218 233 255
218 233 255
218 233 255
218 233 255
218 233 255
218 233 255
218 233 255
218 233 255
218 233 255
218 233 255
218 233 255
218 233 255
218 233 255
218 233 255
218 233 255
218 233 255
214 230 252
106 114 130
0 0 42
0 0 42
0 0 42
0 0 42
0 0 42
0 0 42
0 0 42
0 0 42
0 0 42
0 0 42
0 0 42
0 0 42
0 0 45
0 0 45
0 0 45
0 0 45
0 0 45
0 0 45
0 0 45
0 0 45
0 0 44
0 0 44
0 0 42
0 0 42
0 0 42
0 0 42
0 0 42
0 0 42
0 0 42
0 0 42
0 0 40
0 0 44
0 0 45
0 0 44
0 0 43
0 0 48
0 0 50
0 0 46
0 0 47
48 47 53
101 93 68
151 137 113
109 110 114
141 153 132
151 146 124
168 150 116
138 121 96
117 106 82
85 84 55
84 83 52
110 104 75
101 95 69
119 109 84
138 125 98
157 143 116
199 180 154
160 152 119
151 133 104
160 138 113
158 141 111
165 145 110
175 156 123
167 149 115
162 145 111
152 137 100
117 110 76
105 101 70
98 97 67
85 89 52
76 81 44
76 83 44
81 87 45
77 87 39
67 80 28
55 68 20
45 65 13
34 52 6
29 48 0
26 43 0
30 48 0
25 49 0
34 57 0
38 64 0
31 56 0
28 53 0
35 57 0
31 52 0
34 53 0
32 51 0
30 53 5
33 59 0
33 58 2
40 62 8
45 66 13
50 70 19
49 69 16
45 66 9
46 68 12
41 64 7
35 57 0
35 56 0
27 55 37
7 28 73
0 0 43
0 0 47
0 0 46
0 0 40
0 0 41
0 0 43
0 0 42
0 0 42
0 0 40
0 0 42
0 0 42
0 0 42
0 0 42
0 0 42
0 0 42
0 0 42
0 0 42
0 0 42
0 0 42
0 0 42
0 0 42
0 0 42
0 0 42
0 0 42
0 0 42
0 0 42
0 0 42
0 0 42
0 0 42
0 0 42
0 0 42
0 0 42
0 0 42
0 0 42
0 0 42
0 0 42
0 0 42
0 0 42
0 0 42
0 0 42
0 0 42
0 0 42
0 0 42
0 0 42
0 0 42
0 0 42
0 0 42
0 0 42
0 0 42
0 0 42
0 0 42
0 0 42
0 0 42
0 0 42
0 0 42
0 0 42
0 0 42
0 0 42
0 0 42
0 0 42
0 0 42
0 0 42
0 0 42
0 0 42
0 0 42
0 0 42
0 0 42
0 0 42
0 0 42
95 101 117
215 231 253
218 233 255
218 233 255
218 233 255
218 233 255
218 233 255
218 233 255
218 233 255
218 233 255
218 233 255
218 233 255
218 233 255
218 233 255
218 233 255
218 233 255
218 233 255
218 233 255
218 233 255
218 233 255
218 233 255
218 233 255
218 233 255
218 233 255
218 233 255
218 233 255
218 233 255
218 233 255
218 233 255
218 233 255
218 233 255
218 233 255
218 233 255
218 233 255
218 233 255
218 233 255
218 233 255
218 233 255
218 233 255
218 233 255
218 233 255
218 233 255
218 233 255
218 233 255
218 233 255
218 233 255
218 233 255
218 233 255
218 233 255
218 233 255
218 233 255
218 233 255
218 233 255
218 233 255
218 233 255
218 233 255
218 233 255
218 233 255
218 233 255
218 233 255
218 233 255
218 233 255
218 233 255
218 233 255
218 233 255
218 233 255
218 233 255
218 233 255
218 233 255
218 233 255
218 233 255
218 233 255
218 233 255
218 233 255
218 233 255
218 233 255
218 233 255
218 233 255
218 233 255
218 233 255
218 233 255
218 233 255
218 234 255
218 234 255
218 234 255
218 234 255
218 234 255
218 234 255
218 234 255
218 234 255
218 234 255
218 234 255
218 234 255
218 234 255
218 234 255
218 234 255
218 234 255
218 234 255
218 234 255
218 234 255
218 234 255
218 234 255
218 234 255
218 234 255
218 234 255
218 234 255
218 234 255
218 234 255
218 234 255
218 234 255
218 234 255
218 234 255
218 234 255
218 234 255
218 234 255
218 234 255
218 234 255
218 234 255
218 234 255
218 234 255
218 234 255
218 234 255
218 234 255
218 234 255
218 234 255
218 234 255
218 234 255
218 234 255
218 234 255
218 234 255
218 234 255
218 234 255
218 234 255
218 234 255
218 234 255
218 234 255
218 234 255
218 234 255
218 234 255
218 234 255
218 234 255
218 234 255
218 234 255
218 234 255
218 234 255
218 234 255
218 234 255
218 234 255
218 234 255
218 234 255
218 234 255
218 234 255
218 234 255
218 234 255
218 234 255
218 234 255
218 234 255
218 234 255
218 234 255
218 234 255
218 234 255
218 234 255
218 234 255
218 234 255
218 234 255
218 234 255
218 234 255
218 234 255
218 234 255
218 234 255
218 234 255
218 234 255
218 234 255
218 234 255
218 234 255
218 234 255
218 234 255
218 234 255
218 234 255
218 234 255
218 234 255
218 234 255
218 234 255
218 234 255
218 234 255
218 234 255
218 234 255
218 234 255
218 234 255
218 234 255
218 234 255
218 234 255
218 233 255
218 233 255
218 234 255
218 233 255
218 233 255
218 233 255
218 233 255
218 233 255
218 233 255
218 233 255
218 233 255
218 233 255
218 233 255
218 233 255
218 233 255
218 233 255
218 233 255
218 233 255
218 233 255
218 233 255
218 233 255
218 233 255
218 233 255
218 233 255
218 233 255
218 233 255
218 233 255
218 233 255
218 233 255
218 233 255
218 233 255
218 233 255
218 233 255
218 233 255
132 142 159
0 0 42
0 0 42
0 0 42
0 0 42
0 0 42
0 0 42
0 0 42
0 0 42
0 0 42
0 0 42
0 0 42
0 0 42
0 0 42
0 0 44
0 0 43
0 0 43
0 0 44
0 0 45
0 0 45
0 0 43
0 0 42
0 0 42
0 0 42
0 0 42
0 0 42
0 0 42
0 0 42
0 0 42
0 0 42
0 0 42
0 0 40
0 0 42
0 0 42
0 0 42
0 0 42
0 0 42
0 0 45
0 0 44
0 0 44
0 0 53
43 42 60
96 88 66
148 143 119
46 48 86
5 6 50
78 71 86
151 135 113
126 113 89
105 96 73
80 88 59
77 81 44
93 96 65
89 86 58
111 104 78
123 111 84
144 129 104
170 159 129
151 133 106
137 122 98
135 122 99
133 118 94
107 95 71
137 125 94
144 131 96
133 122 87
111 108 75
101 99 65
98 94 61
88 87 55
78 80 47
74 79 42
71 78 36
73 79 39
67 83 33
63 76 19
56 69 23
35 57 0
36 51 10
31 50 0
30 53 2
33 53 0
42 68 10
51 75 19
45 68 4
38 65 13
35 63 3
28 77 43
31 63 23
29 89 61
27 76 62
33 101 74
37 73 37
32 52 33
33 50 43
38 56 22
42 63 5
39 60 9
34 59 0
38 59 8
40 61 9
33 52 2
37 56 0
35 57 33
7 23 60
0 0 45
0 0 43
0 0 41
0 0 42
0 0 42
0 0 42
0 0 42
0 0 42
0 0 42
0 0 42
0 0 42
0 0 42
0 0 42
0 0 42
0 0 42
0 0 42
0 0 42
0 0 42
0 0 42
0 0 42
0 0 42
0 0 42
0 0 42
0 0 42
0 0 42
0 0 42
0 0 42
0 0 42
0 0 42
0 0 42
0 0 42
0 0 42
0 0 42
0 0 42
0 0 42
0 0 42
0 0 42
0 0 42
0 0 42
0 0 42
0 0 42
0 0 42
0 0 42
0 0 42
0 0 42
0 0 42
0 0 42
0 0 42
0 0 42
0 0 42
0 0 42
0 0 42
0 0 42
0 0 42
0 0 42
0 0 42
0 0 42
0 0 42
0 0 42
0 0 42
0 0 42
0 0 42
0 0 42
0 0 42
0 0 42
0 0 42
0 0 42
0 0 42
0 0 42
0 0 42
137 147 165
218 233 255
218 233 255
218 233 255
218 233 255
218 233 255
218 233 255
218 233 255
218 233 255
218 233 255
218 233 255
218 233 255
218 233 255
218 233 255
218 233 255
218 233 255
218 233 255
218 233 255
218 233 255
218 233 255
218 233 255
218 233 255
218 233 255
218 233 255
218 233 255
218 233 255
218 233 255
218 233 255
218 233 255
218 233 255
218 233 255
218 233 255
218 233 255
218 234 255
218 233 255
218 234 255
218 234 255
218 234 255
218 234 255
218 234 255
218 234 255
218 234 255
218 234 255
218 234 255
218 234 255
218 234 255
218 234 255
218 234 255
218 234 255
218 234 255
218 234 255
218 234 255
218 234 255
218 234 255
218 234 255
218 234 255
218 234 255
218 234 255
218 234 255
218 234 255
218 234 255
218 234 255
218 234 255
218 234 255
218 234 255
218 234 255
218 234 255
218 234 255
218 234 255
218 234 255
218 234 255
218 234 255
218 234 255
218 234 255
218 234 255
218 234 255
218 234 255
218 234 255
218 234 255
218 234 255
218 234 255
218 234 255
218 234 255
218 234 255
218 234 255
218 234 255
218 234 255
218 234 255
218 234 255
218 234 255
218 234 255
218 234 255
218 234 255
218 234 255
218 234 255
218 234 255
218 234 255
218 234 255
218 234 255
218 234 255
218 234 255
218 234 255
218 234 255
218 234 255
218 234 255
218 234 255
218 234 255
218 234 255
218 234 255
218 234 255
218 234 255
218 234 255
218 234 255
218 234 255
218 234 255
218 234 255
218 234 255
218 234 255
218 234 255
218 234 255
218 234 255
218 234 255
218 234 255
218 234 255
218 234 255
218 234 255
218 234 255
218 234 255
218 234 255
218 234 255
218 234 255
218 234 255
218 234 255
218 234 255
218 234 255
218 234 255
218 234 255
218 234 255
218 234 255
218 234 255
218 234 255
218 234 255
218 234 255
218 234 255
218 234 255
218 234 255
218 234 255
218 234 255
218 234 255
218 234 255
218 234 255
218 234 255
218 234 255
218 234 255
218 234 255
218 234 255
218 234 255
218 234 255
218 234 255
218 234 255
218 234 255
218 234 255
218 234 255
218 234 255
218 234 255
218 234 255
218 234 255
218 234 255
218 234 255
218 234 255
218 234 255
218 234 255
218 234 255
218 234 255
218 234 255
218 234 255
218 234 255
218 234 255
218 234 255
218 234 255
218 234 255
218 234 255
218 234 255
218 234 255
218 234 255
218 234 255
218 234 255
218 234 255
218 234 255
218 234 255
218 234 255
218 234 255
218 234 255
218 234 255
218 234 255
218 234 255
218 234 255
218 234 255
218 234 255
218 234 255
218 234 255
218 234 255
218 234 255
218 234 255
218 234 255
218 234 255
218 234 255
218 234 255
218 234 255
218 234 255
218 234 255
218 234 255
218 234 255
218 234 255
218 234 255
218 234 255
218 234 255
218 234 255
218 234 255
218 234 255
218 234 255
218 234 255
218 234 255
218 234 255
179 192 212
0 0 42
0 0 42
0 0 42
0 0 42
0 0 42
0 0 42
0 0 42
0 0 42
0 0 42
0 0 42
0 0 42
0 0 42
0 0 42
0 0 42
0 0 42
0 0 42
0 0 42
0 0 45
0 0 45
0 0 44
0 0 42
0 0 42
0 0 42
0 0 42
0 0 42
0 0 42
0 0 42
0 0 42
0 0 42
0 0 42
0 0 42
0 0 42
0 0 42
0 0 42
0 0 42
0 0 44
0 0 45
0 0 43
0 0 46
0 0 51
0 0 44
26 25 56
99 90 67
127 119 102
31 30 67
0 0 55
42 42 71
138 129 101
119 112 85
112 111 76
83 87 53
65 79 30
70 78 39
65 69 34
70 70 40
113 105 81
132 116 94
131 115 89
130 117 90
152 136 111
131 124 95
121 109 83
123 111 87
127 117 85
130 119 84
131 122 90
120 112 77
97 95 64
90 92 60
77 85 49
68 77 37
69 78 38
70 79 35
67 80 25
59 73 23
62 72 25
58 71 21
63 80 27
47 65 21
42 63 16
37 74 47
32 70 60
44 70 37
45 72 24
37 78 44
42 60 17
34 62 7
36 88 65
27 93 68
11 143 160
0 72 123
0 31 81
0 8 60
0 0 53
0 0 44
3 7 56
17 34 47
22 48 36
13 44 59
20 51 65
42 61 26
46 70 20
40 63 6
42 56 16
14 29 49
0 0 46
0 0 42
0 0 42
0 0 40
0 0 42
0 0 42
0 0 42
0 0 42
0 0 42
0 0 42
0 0 42
0 0 42
0 0 42
0 0 42
0 0 42
0 0 42
0 0 42
0 0 42
0 0 42
0 0 42
0 0 42
0 0 42
0 0 42
0 0 42
0 0 42
0 0 42
0 0 42
0 0 42
0 0 42
0 0 42
0 0 42
0 0 42
0 0 42
0 0 42
0 0 42
0 0 42
0 0 42
0 0 42
0 0 42
0 0 42
0 0 42
0 0 42
0 0 42
0 0 42
0 0 42
0 0 42
0 0 42
0 0 42
0 0 42
0 0 42
0 0 42
0 0 42
0 0 42
0 0 42
0 0 42
0 0 42
0 0 42
0 0 42
0 0 42
0 0 42
0 0 42
0 0 42
0 0 42
0 0 42
0 0 42
0 0 42
0 0 42
0 0 42
0 0 42
0 0 42
0 0 42
188 202 222
218 234 255
218 234 255
218 234 255
218 234 255
218 234 255
218 234 255
218 234 255
218 234 255
218 234 255
218 234 255
218 234 255
218 234 255
218 234 255
218 234 255
218 234 255
218 234 255
218 234 255
218 234 255
218 234 255
218 234 255
218 234 255
218 234 255
218 234 255
218 234 255
218 234 255
218 234 255
218 234 255
218 234 255
218 234 255
218 234 255
218 234 255
218 234 255
218 234 255
218 234 255
218 234 255
218 234 255
218 234 255
218 234 255
218 234 255
218 234 255
218 234 255
218 234 255
218 234 255
218 234 255
218 234 255
218 234 255
218 234 255
218 234 255
218 234 255
218 234 255
218 234 255
218 234 255
218 234 255
218 234 255
218 234 255
218 234 255
218 234 255
218 234 255
218 234 255
218 234 255
218 234 255
218 234 255
218 234 255
218 234 255
218 234 255
218 234 255
218 234 255
218 234 255
218 234 255
218 234 255
218 234 255
218 234 255
218 234 255
218 234 255
218 234 255
218 234 255
218 234 255
218 234 255
218 234 255
218 234 255
218 234 255
218 234 255
218 234 255
218 234 255
218 234 255
218 234 255
218 234 255
218 234 255
218 234 255
218 234 255
218 234 255
218 234 255
218 234 255
218 234 255
218 234 255
218 234 255
218 234 255
218 234 255
218 234 255
218 234 255
218 234 255
218 234 255
218 234 255
218 234 255
218 234 255
218 234 255
218 234 255
218 234 255
218 234 255
218 234 255
218 234 255
218 234 255
218 234 255
218 234 255
218 234 255
218 234 255
218 234 255
218 234 255
218 234 255
218 234 255
218 234 255
218 234 255
218 234 255
218 234 255
218 234 255
218 234 255
218 234 255
218 234 255
218 234 255
218 234 255
218 234 255
218 234 255
218 234 255
218 234 255
218 234 255
218 234 255
218 234 255
218 234 255
218 234 255
218 234 255
218 234 255
218 234 255
218 234 255
218 234 255
218 234 255
218 234 255
218 234 255
218 234 255
218 234 255
218 234 255
218 234 255
218 234 255
218 234 255
218 234 255
218 234 255
218 234 255
218 234 255
218 234 255
218 234 255
218 234 255
218 234 255
218 234 255
218 234 255
218 234 255
218 234 255
218 234 255
218 234 255
218 234 255
218 234 255
218 234 255
218 234 255
218 234 255
218 234 255
218 234 255
218 234 255
218 234 255
218 234 255
218 234 255
218 234 255
218 234 255
218 234 255
218 234 255
218 234 255
218 234 255
218 234 255
218 234 255
218 234 255
218 234 255
218 234 255
218 234 255
218 234 255
218 234 255
218 234 255
218 234 255
218 234 255
218 234 255
218 234 255
218 234 255
218 234 255
218 234 255
218 234 255
218 234 255
218 234 255
218 234 255
218 234 255
218 234 255
218 234 255
218 234 255
218 234 255
218 234 255
218 234 255
218 234 255
218 234 255
218 234 255
218 234 255
218 234 255
218 234 255
218 234 255
218 234 255
218 234 255
218 234 255
212 228 249
72 77 93
0 0 42
0 0 42
0 0 42
0 0 42
0 0 42
0 0 42
0 0 42
0 0 42
0 0 42
0 0 42
0 0 42
0 0 42
0 0 42
0 0 42
0 0 42
0 0 43
0 0 43
0 0 45
0 0 45
0 0 42
0 0 42
0 0 42
0 0 42
0 0 42
0 0 42
0 0 42
0 0 42
0 0 42
0 0 42
0 0 42
0 0 42
0 0 42
0 0 42
0 0 42
0 0 41
0 0 41
0 0 43
0 0 41
0 0 43
0 0 49
0 0 49
18 14 63
106 101 79
130 115 93
54 54 78
0 9 60
28 34 76
128 120 101
121 115 89
108 102 73
77 86 44
62 80 38
61 74 31
51 64 23
50 56 24
81 78 53
96 86 63
108 96 75
133 121 94
132 119 85
130 121 89
128 116 89
139 126 98
130 122 89
113 107 75
119 113 82
122 116 84
105 103 74
84 88 56
70 80 41
65 76 34
72 81 38
76 86 39
73 78 31
70 76 41
56 75 24
53 73 12
56 72 21
40 72 64
19 54 86
10 51 90
3 45 84
9 43 98
16 96 118
16 121 134
18 94 107
29 69 60
23 67 65
21 91 92
19 123 128
0 62 109
0 3 60
0 0 49
0 0 53
0 0 47
0 0 39
3 9 46
5 15 52
0 8 49
1 14 56
15 53 78
40 62 41
50 69 19
35 55 9
26 41 29
8 12 43
0 0 41
0 0 43
0 0 39
0 0 42
0 0 42
0 0 42
0 0 42
0 0 42
0 0 42
0 0 42
0 0 42
0 0 42
0 0 42
0 0 42
0 0 42
0 0 42
0 0 42
0 0 42
0 0 42
0 0 42
0 0 42
0 0 42
0 0 42
0 0 42
0 0 42
0 0 42
0 0 42
0 0 42
0 0 42
0 0 42
0 0 42
0 0 42
0 0 42
0 0 42
0 0 42
0 0 42
0 0 42
0 0 42
0 0 42
0 0 42
0 0 42
0 0 42
0 0 42
0 0 42
0 0 42
0 0 42
0 0 42
0 0 42
0 0 42
0 0 42
0 0 42
0 0 42
0 0 42
0 0 42
0 0 42
0 0 42
0 0 42
0 0 42
0 0 42
0 0 42
0 0 42
0 0 42
0 0 42
0 0 42
0 0 42
0 0 42
0 0 42
0 0 42
0 0 42
0 0 42
81 87 103
210 225 247
218 234 255
218 234 255
218 234 255
218 234 255
218 234 255
218 234 255
218 234 255
218 234 255
218 234 255
218 234 255
218 234 255
218 234 255
218 234 255
218 234 255
218 234 255
218 234 255
218 234 255
218 234 255
218 234 255
218 234 255
218 234 255
218 234 255
218 234 255
218 234 255
218 234 255
218 234 255
218 234 255
218 234 255
218 234 255
218 234 255
218 234 255
218 234 255
218 234 255
218 234 255
218 234 255
218 234 255
218 234 255
218 234 255
218 234 255
218 234 255
218 234 255
218 234 255
218 234 255
218 234 255
218 234 255
218 234 255
218 234 255
218 234 255
218 234 255
218 234 255
218 234 255
218 234 255
218 234 255
218 234 255
218 234 255
218 234 255
218 234 255
218 234 255
218 234 255
218 234 255
218 234 255
218 234 255
218 234 255
218 234 255
218 234 255
218 234 255
218 234 255
218 234 255
218 234 255
218 234 255
218 234 255
218 234 255
218 234 255
218 234 255
218 234 255
218 234 255
218 234 255
218 234 255
218 234 255
218 234 255
218 234 255
218 234 255
218 234 255
218 234 255
218 234 255
218 234 255
218 234 255
218 234 255
218 234 255
218 234 255
218 234 255
218 234 255
218 234 255
218 234 255
218 234 255
218 234 255
218 234 255
218 234 255
218 234 255
218 234 255
218 234 255
218 234 255
218 234 255
218 234 255
218 234 255
218 234 255
218 234 255
218 234 255
218 234 255
218 234 255
218 234 255
218 234 255
218 234 255
218 234 255
218 234 255
218 234 255
218 234 255
218 234 255
218 234 255
218 234 255
218 234 255
218 234 255
218 234 255
218 234 255
218 234 255
218 234 255
218 234 255
218 234 255
218 234 255
218 234 255
218 234 255
218 234 255
218 234 255
218 234 255
218 234 255
218 234 255
218 234 255
218 234 255
218 234 255
218 234 255
218 234 255
218 234 255
218 234 255
218 234 255
218 234 255
218 234 255
218 234 255
218 234 255
218 234 255
218 234 255
218 234 255
218 234 255
218 234 255
218 234 255
218 234 255
218 234 255
218 234 255
218 234 255
218 234 255
218 234 255
218 234 255
218 234 255
218 234 255
218 234 255
218 234 255
218 234 255
218 234 255
218 234 255
218 234 255
218 234 255
218 234 255
218 234 255
218 234 255
218 234 255
218 234 255
218 234 255
218 234 255
218 234 255
218 234 255
218 234 255
218 234 255
218 234 255
218 234 255
218 234 255
218 234 255
218 234 255
218 234 255
218 234 255
218 234 255
218 234 255
218 234 255
218 234 255
218 234 255
218 234 255
218 234 255
218 234 255
218 234 255
218 234 255
218 234 255
218 234 255
218 234 255
218 234 255
218 234 255
218 234 255
218 234 255
218 234 255
218 234 255
218 234 255
218 234 255
218 234 255
218 234 255
218 234 255
218 234 255
218 234 255
218 234 255
218 234 255
218 234 255
218 234 255
218 234 255
218 234 255
132 142 159
0 0 42
0 0 42
0 0 42
0 0 42
0 0 42
0 0 42
0 0 42
0 0 42
0 0 42
0 0 42
0 0 42
0 0 41
0 0 42
0 0 42
0 0 42
0 0 44
0 0 45
0 0 45
0 0 44
0 0 42
0 0 42
0 0 42
0 0 42
0 0 42
0 0 42
0 0 42
0 0 42
0 0 42
0 0 42
0 0 42
0 0 42
0 0 42
0 0 42
0 0 42
0 0 42
0 0 41
0 0 40
0 0 40
0 0 42
0 0 43
0 0 41
0 0 44
4 0 57
49 51 80
103 102 87
129 113 94
43 48 85
19 47 104
117 116 110
159 145 119
121 116 83
90 101 54
53 74 25
51 71 21
50 65 24
55 62 31
74 75 47
83 81 55
98 87 64
139 126 98
130 120 89
144 128 102
117 104 79
125 111 82
127 120 86
101 96 64
82 78 51
90 87 57
107 105 74
100 102 69
92 96 60
82 86 47
86 91 51
84 90 52
71 85 40
63 76 31
57 82 42
44 73 51
31 66 73
7 42 78
0 14 73
0 0 54
0 0 51
0 0 39
0 9 54
0 49 86
0 73 106
4 66 101
4 56 97
0 66 101
6 68 102
1 44 89
0 6 48
0 0 45
0 0 40
0 0 40
0 0 38
0 0 40
0 0 47
0 0 46
0 0 57
0 18 65
13 59 89
57 73 29
51 69 25
47 63 10
23 35 41
0 0 41
0 0 43
0 0 41
0 0 42
0 0 42
0 0 42
0 0 42
0 0 42
0 0 42
0 0 42
0 0 42
0 0 42
0 0 42
0 0 42
0 0 42
0 0 42
0 0 42
0 0 42
0 0 42
0 0 42
0 0 42
0 0 42
0 0 42
0 0 42
0 0 42
0 0 42
0 0 42
0 0 42
0 0 42
0 0 42
0 0 42
0 0 42
0 0 42
0 0 42
0 0 42
0 0 42
0 0 42
0 0 42
0 0 42
0 0 42
0 0 42
0 0 42
0 0 42
0 0 42
0 0 42
0 0 42
0 0 42
0 0 42
0 0 42
0 0 42
0 0 42
0 0 42
0 0 42
0 0 42
0 0 42
0 0 42
0 0 42
0 0 42
0 0 42
0 0 42
0 0 42
0 0 42
0 0 42
0 0 42
0 0 42
0 0 42
0 0 42
0 0 42
0 0 42
0 0 42
0 0 42
119 128 144
218 234 255
218 234 255
218 234 255
218 234 255
218 234 255
218 234 255
218 234 255
218 234 255
218 234 255
218 234 255
218 234 255
218 234 255
218 234 255
218 234 255
218 234 255
218 234 255
218 234 255
218 234 255
218 234 255
218 234 255
218 234 255
218 234 255
218 234 255
218 234 255
218 234 255
218 234 255
218 234 255
218 234 255
218 234 255
218 234 255
218 234 255
218 234 255
218 234 255
218 234 255
218 234 255
218 234 255
218 234 255
218 234 255
218 234 255
218 234 255
218 234 255
218 234 255
218 234 255
218 234 255
218 234 255
218 234 255
218 234 255
218 234 255
218 234 255
218 234 255
218 234 255
218 234 255
218 234 255
218 234 255
218 234 255
218 234 255
218 234 255
218 234 255
218 234 255
218 234 255
218 234 255
218 234 255
218 234 255
218 234 255
218 234 255
218 234 255
218 234 255
218 234 255
218 234 255
218 234 255
218 234 255
218 234 255
218 234 255
218 234 255
218 234 255
218 234 255
218 234 255
218 234 255
218 234 255
218 234 255
218 234 255
218 234 255
218 234 255
218 234 255
218 234 255
218 234 255
218 234 255
218 234 255
218 234 255
218 234 255
218 234 255
218 234 255
218 234 255
218 234 255
218 234 255
218 234 255
218 234 255
218 234 255
218 234 255
218 234 255
218 234 255
218 234 255
218 234 255
218 234 255
218 234 255
218 234 255
218 234 255
218 234 255
218 234 255
218 234 255
218 234 255
218 234 255
218 234 255
218 234 255
218 234 255
218 234 255
218 234 255
218 234 255
218 234 255
218 234 255
218 234 255
218 234 255
218 234 255
218 234 255
218 234 255
218 234 255
218 234 255
218 234 255
218 234 255
218 234 255
218 234 255
218 234 255
218 234 255
218 234 255
218 234 255
218 234 255
218 234 255
218 234 255
218 234 255
218 234 255
218 234 255
218 234 255
218 234 255
218 234 255
218 234 255
218 234 255
218 234 255
218 234 255
218 234 255
218 234 255
218 234 255
218 234 255
218 234 255
218 234 255
218 234 255
218 234 255
218 234 255
218 234 255
218 234 255
218 234 255
218 234 255
218 234 255
218 234 255
218 234 255
218 234 255
218 234 255
218 234 255
218 234 255
218 234 255
218 234 255
218 234 255
218 234 255
218 234 255
218 234 255
218 234 255
218 234 255
218 234 255
218 234 255
218 234 255
218 234 255
218 234 255
218 234 255
218 234 255
218 234 255
218 234 255
218 234 255
218 234 255
218 234 255
218 234 255
218 234 255
218 234 255
218 234 255
218 234 255
218 234 255
218 234 255
218 234 255
218 234 255
218 234 255
218 234 255
218 234 255
218 234 255
218 234 255
218 234 255
218 234 255
218 234 255
218 234 255
218 234 255
218 234 255
218 234 255
218 234 255
218 234 255
218 234 255
218 234 255
218 234 255
218 234 255
218 234 255
218 234 255
218 234 255
218 234 255
180 193 212
21 23 49
0 0 42
0 0 42
0 0 42
0 0 42
0 0 42
0 0 42
0 0 42
0 0 42
0 0 42
0 0 42
0 0 42
0 0 42
0 0 42
0 0 42
0 0 42
0 0 44
0 0 45
0 0 44
0 0 42
0 0 42
0 0 42
0 0 42
0 0 42
0 0 42
0 0 42
0 0 42
0 0 42
0 0 42
0 0 42
0 0 42
0 0 42
0 0 42
0 0 42
0 0 42
0 0 40
0 0 40
0 0 40
0 0 42
0 0 47
0 0 39
0 0 41
0 0 44
0 0 59
0 13 74
59 58 76
117 103 87
79 84 88
11 35 81
67 69 91
143 135 109
126 114 89
86 94 53
49 72 17
48 68 15
50 58 18
56 58 29
73 75 45
78 79 48
91 87 56
124 110 82
127 111 84
130 114 88
132 112 89
123 109 81
125 118 86
101 99 69
77 78 52
92 94 67
116 113 80
116 112 80
110 106 73
95 94 59
89 92 57
84 90 56
74 83 40
55 75 53
30 63 67
12 34 81
4 22 69
0 4 51
0 0 41
0 0 46
0 0 43
0 0 43
0 0 44
0 0 39
0 0 46
0 0 46
0 0 37
0 2 42
0 8 44
0 2 47
0 3 43
0 0 44
0 0 42
0 0 44
0 0 43
0 0 41
0 0 41
0 0 36
0 0 41
0 0 48
9 44 74
55 79 46
54 71 14
54 71 17
34 55 33
5 10 50
0 0 41
0 0 45
0 0 40
0 0 42
0 0 42
0 0 42
0 0 42
0 0 42
0 0 42
0 0 42
0 0 42
0 0 42
0 0 42
0 0 42
0 0 42
0 0 42
0 0 42
0 0 42
0 0 42
0 0 42
0 0 42
0 0 42
0 0 42
0 0 42
0 0 42
0 0 42
0 0 42
0 0 42
0 0 42
0 0 42
0 0 42
0 0 42
0 0 42
0 0 42
0 0 42
0 0 42
0 0 42
0 0 42
0 0 42
0 0 42
0 0 42
0 0 42
0 0 42
0 0 42
0 0 42
0 0 42
0 0 42
0 0 42
0 0 42
0 0 42
0 0 42
0 0 42
0 0 42
0 0 42
0 0 42
0 0 42
0 0 42
0 0 42
0 0 42
0 0 42
0 0 42
0 0 42
0 0 42
0 0 42
0 0 42
0 0 42
0 0 42
0 0 42
0 0 42
0 0 42
21 23 48
164 176 195
218 234 255
218 234 255
218 234 255
218 234 255
218 234 255
218 234 255
218 234 255
218 234 255
218 234 255
218 234 255
218 234 255
218 234 255
218 234 255
218 234 255
218 234 255
218 234 255
218 234 255
218 234 255
218 234 255
218 234 255
218 234 255
218 234 255
218 234 255
218 234 255
218 234 255
218 234 255
218 234 255
218 234 255
218 234 255
218 234 255
218 234 255
218 234 255
218 234 255
218 234 255
218 234 255
218 234 255
218 234 255
218 234 255
218 234 255
218 234 255
218 234 255
218 234 255
218 234 255
218 234 255
218 234 255
218 234 255
218 234 255
218 234 255
218 234 255
218 234 255
218 234 255
218 234 255
218 234 255
218 234 255
218 234 255
218 234 255
218 234 255
218 234 255
218 234 255
218 234 255
218 234 255
218 234 255
218 234 255
218 234 255
218 234 255
218 234 255
218 234 255
218 234 255
218 234 255
218 234 255
218 234 255
218 234 255
218 234 255
218 234 255
218 234 255
218 234 255
218 234 255
218 234 255
218 234 255
218 234 255
218 234 255
218 234 255
218 234 255
218 234 255
218 234 255
218 234 255
218 234 255
218 234 255
218 234 255
218 234 255
218 234 255
218 234 255
218 234 255
218 234 255
218 234 255
218 234 255
218 234 255
218 234 255
218 234 255
218 234 255
218 234 255
218 234 255
218 234 255
218 234 255
218 234 255
218 234 255
218 234 255
218 234 255
218 234 255
218 234 255
218 234 255
218 234 255
218 234 255
218 234 255
218 234 255
218 234 255
218 234 255
218 234 255
218 234 255
218 234 255
218 234 255
218 234 255
218 234 255
218 234 255
218 234 255
218 234 255
218 234 255
218 234 255
218 234 255
218 234 255
218 234 255
218 234 255
218 234 255
218 234 255
218 234 255
218 234 255
218 234 255
218 234 255
218 234 255
218 234 255
218 234 255
218 234 255
218 234 255
218 234 255
218 234 255
218 234 255
218 234 255
218 234 255
218 234 255
218 234 255
218 234 255
218 234 255
218 234 255
218 234 255
218 234 255
218 234 255
218 234 255
218 234 255
218 234 255
218 234 255
218 234 255
218 234 255
218 234 255
218 234 255
218 234 255
218 234 255
218 234 255
218 234 255
218 234 255
218 234 255
218 234 255
218 234 255
218 234 255
218 234 255
218 234 255
218 234 255
218 234 255
218 234 255
218 234 255
218 234 255
218 234 255
218 234 255
218 234 255
218 234 255
218 234 255
218 234 255
218 234 255
218 234 255
218 234 255
218 234 255
218 234 255
218 234 255
218 234 255
218 234 255
218 234 255
218 234 255
218 234 255
218 234 255
218 234 255
218 234 255
218 234 255
218 234 255
218 234 255
218 234 255
218 234 255
218 234 255
218 234 255
218 234 255
218 234 255
218 234 255
218 234 255
218 234 255
218 234 255
218 234 255
218 234 255
218 234 255
218 234 255
213 229 250
75 81 97
0 0 42
0 0 42
0 0 42
0 0 42
0 0 42
0 0 42
0 0 42
0 0 42
0 0 42
0 0 42
0 0 42
0 0 42
0 0 42
0 0 42
0 0 42
0 0 42
0 0 42
0 0 42
0 0 42
0 0 42
0 0 42
0 0 42
0 0 42
0 0 42
0 0 42
0 0 42
0 0 42
0 0 42
0 0 42
0 0 42
0 0 42
0 0 42
0 0 42
0 0 42
0 0 42
0 0 41
0 0 42
0 0 41
0 0 40
0 0 42
0 0 39
0 0 48
0 0 51
0 5 55
8 12 60
62 62 88
143 128 104
122 105 88
18 19 78
10 14 66
53 54 82
106 104 86
80 87 49
52 73 24
45 63 8
49 60 21
56 55 26
65 66 37
84 81 54
97 92 64
115 106 78
124 114 87
120 107 79
130 117 84
147 136 111
147 138 105
114 109 78
90 85 58
115 110 77
119 112 79
116 113 81
114 109 75
108 104 71
98 98 68
88 92 56
76 88 55
28 60 83
0 13 63
0 0 46
0 0 47
0 0 47
0 0 46
0 0 44
0 0 42
0 0 41
0 0 42
0 0 42
0 0 42
0 0 42
0 0 42
0 0 42
0 0 42
0 0 42
0 0 42
0 0 42
0 0 42
0 0 42
0 0 42
0 0 42
0 0 42
0 0 41
0 0 41
0 0 46
11 30 57
51 73 54
60 76 24
53 69 21
43 70 14
22 33 44
0 0 45
0 0 37
0 0 44
0 0 42
0 0 45
0 0 40
0 0 42
0 0 42
0 0 42
0 0 42
0 0 42
0 0 42
0 0 42
0 0 42
0 0 42
0 0 42
0 0 42
0 0 42
0 0 42
0 0 42
0 0 42
0 0 42
0 0 42
0 0 42
0 0 42
0 0 42
0 0 42
0 0 42
0 0 42
0 0 42
0 0 42
0 0 42
0 0 42
0 0 42
0 0 42
0 0 42
0 0 42
0 0 42
0 0 42
0 0 42
0 0 42
0 0 42
0 0 42
0 0 42
0 0 42
0 0 42
0 0 42
0 0 42
0 0 42
0 0 42
0 0 42
0 0 42
0 0 42
0 0 42
0 0 42
0 0 42
0 0 42
0 0 42
0 0 42
0 0 42
0 0 42
0 0 42
0 0 42
0 0 42
0 0 42
0 0 42
0 0 42
0 0 42
0 0 42
0 0 42
0 0 42
72 77 93
212 228 249
218 234 255
218 234 255
218 234 255
218 234 255
218 234 255
218 234 255
218 234 255
218 234 255
218 234 255
218 234 255
218 234 255
218 234 255
218 234 255
218 234 255
218 234 255
218 234 255
218 234 255
218 234 255
218 234 255
218 234 255
218 234 255
218 234 255
218 234 255
218 234 255
218 234 255
218 234 255
218 234 255
218 234 255
218 234 255
218 234 255
218 234 255
218 234 255
218 234 255
218 234 255
218 234 255
218 234 255
218 234 255
218 234 255
218 234 255
218 234 255
218 234 255
218 234 255
218 234 255
218 234 255
218 234 255
218 234 255
218 234 255
218 234 255
218 234 255
218 234 255
218 234 255
218 234 255
218 234 255
218 234 255
218 234 255
218 234 255
218 234 255
218 234 255
218 234 255
218 234 255
218 234 255
218 234 255
218 234 255
218 234 255
218 234 255
218 234 255
218 234 255
218 234 255
218 234 255
218 234 255
218 234 255
218 234 255
218 234 255
218 234 255
218 234 255
218 234 255
218 234 255
218 234 255
218 234 255
218 234 255
218 234 255
218 234 255
218 234 255
218 234 255
218 234 255
218 234 255
218 234 255
218 234 255
218 234 255
218 234 255
218 234 255
218 234 255
218 234 255
218 234 255
218 234 255
218 234 255
218 234 255
218 234 255
218 234 255
218 234 255
218 234 255
218 234 255
218 234 255
218 234 255
218 234 255
218 234 255
218 234 255
218 234 255
218 234 255
218 234 255
218 234 255
218 234 255
218 234 255
218 234 255
218 234 255
218 234 255
218 234 255
218 234 255
218 234 255
218 234 255
218 234 255
218 234 255
218 234 255
218 234 255
218 234 255
218 234 255
218 234 255
218 234 255
218 234 255
218 234 255
218 234 255
218 234 255
218 234 255
218 234 255
218 234 255
218 234 255
218 234 255
218 234 255
218 234 255
218 234 255
218 234 255
218 234 255
218 234 255
218 234 255
218 234 255
218 234 255
218 234 255
218 234 255
218 234 255
218 234 255
218 234 255
218 234 255
218 234 255
218 234 255
218 234 255
218 234 255
218 234 255
218 234 255
218 234 255
218 234 255
218 234 255
218 234 255
218 234 255
218 234 255
218 234 255
218 234 255
218 234 255
218 234 255
218 234 255
218 234 255
218 234 255
218 234 255
218 234 255
218 234 255
218 234 255
218 234 255
218 234 255
218 234 255
218 234 255
218 234 255
218 234 255
218 234 255
218 234 255
218 234 255
218 234 255
218 234 255
218 234 255
218 234 255
218 234 255
218 234 255
218 234 255
218 234 255
218 234 255
218 234 255
218 234 255
218 234 255
218 234 255
218 234 255
218 234 255
218 234 255
218 234 255
218 234 255
218 234 255
218 234 255
218 234 255
218 234 255
218 234 255
218 234 255
218 234 255
218 234 255
218 234 255
218 234 255
218 234 255
218 234 255
218 234 255
218 234 255
138 148 165
0 0 42
0 0 42
0 0 42
0 0 42
0 0 42
0 0 42
0 0 42
0 0 42
0 0 42
0 0 42
0 0 42
0 0 42
0 0 42
0 0 42
0 0 42
0 0 42
0 0 42
0 0 42
0 0 42
0 0 42
0 0 42
0 0 42
0 0 42
0 0 42
0 0 42
0 0 42
0 0 42
0 0 42
0 0 42
0 0 42
0 0 42
0 0 42
0 0 42
0 0 42
0 0 42
0 0 41
0 0 40
0 0 42
0 0 42
0 0 42
0 0 42
0 0 43
0 0 48
0 0 55
0 4 60
65 75 84
132 138 126
180 167 139
113 97 85
53 53 78
0 10 65
11 17 77
53 81 99
113 108 75
63 82 39
43 67 15
42 61 14
58 58 32
64 66 37
83 81 54
97 93 66
113 106 77
127 117 88
123 110 80
149 131 93
152 138 109
136 126 90
123 117 81
114 113 74
130 128 87
118 115 79
119 117 83
130 124 90
127 117 84
117 109 80
98 96 64
66 75 66
3 17 64
0 0 53
0 0 54
0 0 47
0 0 47
0 0 47
0 0 45
0 0 41
0 0 41
0 0 42
0 0 42
0 0 42
0 0 42
0 0 42
0 0 42
0 0 42
0 0 42
0 0 42
0 0 42
0 0 42
0 0 42
0 0 42
0 0 42
0 0 42
0 0 41
0 0 40
0 0 43
0 5 50
32 49 46
55 73 17
55 71 20
48 68 17
40 58 30
6 6 38
0 0 43
0 1 49
0 6 55
0 0 46
0 0 43
0 0 37
0 0 44
0 0 42
0 0 42
0 0 42
0 0 42
0 0 42
0 0 42
0 0 42
0 0 42
0 0 42
0 0 42
0 0 42
0 0 42
0 0 42
0 0 42
0 0 42
0 0 42
0 0 42
0 0 42
0 0 42
0 0 42
0 0 42
0 0 42
0 0 42
0 0 42
0 0 42
0 0 42
0 0 42
0 0 42
0 0 42
0 0 42
0 0 42
0 0 42
0 0 42
0 0 42
0 0 42
0 0 42
0 0 42
0 0 42
0 0 42
0 0 42
0 0 42
0 0 42
0 0 42
0 0 42
0 0 42
0 0 42
0 0 42
0 0 42
0 0 42
0 0 42
0 0 42
0 0 42
0 0 42
0 0 42
0 0 42
0 0 42
0 0 42
0 0 42
0 0 42
0 0 42
0 0 42
0 0 42
0 0 42
0 0 42
144 155 172
218 234 255
218 234 255
218 234 255
218 234 255
218 234 255
218 234 255
218 234 255
218 234 255
218 234 255
218 234 255
218 234 255
218 234 255
218 234 255
218 234 255
218 234 255
218 234 255
218 234 255
218 234 255
218 234 255
218 234 255
218 234 255
218 234 255
218 234 255
218 234 255
218 234 255
218 234 255
218 234 255
218 234 255
218 234 255
218 234 255
218 234 255
218 234 255
218 234 255
218 234 255
218 234 255
218 234 255
218 234 255
218 234 255
218 234 255
218 234 255
218 234 255
218 234 255
218 234 255
218 234 255
218 234 255
218 234 255
218 234 255
218 234 255
218 234 255
218 234 255
218 234 255
218 234 255
218 234 255
218 234 255
218 234 255
218 234 255
218 234 255
218 234 255
218 234 255
218 234 255
218 234 255
218 234 255
218 234 255
218 234 255
218 234 255
218 234 255
218 234 255
218 234 255
218 234 255
218 234 255
218 234 255
218 234 255
218 234 255
218 234 255
218 234 255
218 234 255
218 234 255
218 234 255
218 234 255
218 234 255
218 234 255
218 234 255
218 234 255
218 234 255
218 234 255
218 234 255
218 234 255
218 234 255
218 234 255
218 234 255
218 234 255
218 234 255
218 234 255
218 234 255
218 234 255
218 234 255
218 234 255
218 234 255
218 234 255
218 234 255
218 234 255
218 234 255
218 234 255
218 234 255
218 234 255
218 234 255
218 234 255
218 234 255
218 234 255
218 234 255
218 234 255
218 234 255
218 234 255
218 234 255
218 234 255
218 234 255
218 234 255
218 234 255
218 234 255
218 234 255
218 234 255
218 234 255
218 234 255
218 234 255
218 234 255
218 234 255
218 234 255
218 234 255
218 234 255
218 234 255
218 234 255
218 234 255
218 234 255
218 234 255
218 234 255
218 234 255
218 234 255
218 234 255
218 234 255
218 234 255
218 234 255
218 234 255
218 234 255
218 234 255
218 234 255
218 234 255
218 234 255
218 234 255
218 234 255
218 234 255
218 234 255
218 234 255
218 234 255
218 234 255
218 234 255
218 234 255
218 234 255
218 234 255
218 234 255
218 234 255
218 234 255
218 234 255
218 234 255
218 234 255
218 234 255
218 234 255
218 234 255
218 234 255
218 234 255
218 234 255
218 234 255
218 234 255
218 234 255
218 234 255
218 234 255
218 234 255
218 234 255
218 234 255
218 234 255
218 234 255
218 234 255
218 234 255
218 234 255
218 234 255
218 234 255
218 234 255
218 234 255
218 234 255
218 234 255
218 234 255
218 234 255
218 234 255
218 234 255
218 234 255
218 234 255
218 234 255
218 234 255
218 234 255
218 234 255
218 234 255
218 234 255
218 234 255
218 234 255
218 234 255
218 234 255
218 234 255
218 234 255
218 234 255
218 234 255
218 234 255
218 234 255
218 234 255
218 234 255
218 234 255
218 234 255
201 215 236
30 33 55
0 0 42
0 0 42
0 0 42
0 0 42
0 0 42
0 0 42
0 0 42
0 0 42
0 0 42
0 0 42
0 0 42
0 0 42
0 0 42
0 0 42
0 0 41
0 0 42
0 0 42
0 0 42
0 0 42
0 0 42
0 0 42
0 0 42
0 0 42
0 0 42
0 0 42
0 0 42
0 0 42
0 0 42
0 0 42
0 0 42
0 0 42
0 0 42
0 0 42
0 0 42
0 0 42
0 0 41
0 0 42
0 0 42
0 0 42
0 0 42
0 0 42
0 0 44
0 0 47
0 0 47
0 3 55
27 39 82
131 128 120
158 154 125
119 104 87
78 75 71
20 23 70
0 5 58
25 68 108
81 114 113
90 97 63
43 69 10
41 62 5
47 56 19
55 59 30
72 74 49
85 83 56
104 98 66
126 116 84
146 134 102
174 161 122
160 147 112
125 114 83
128 122 89
114 109 69
129 121 82
122 117 83
103 100 67
129 124 89
129 122 89
114 110 74
104 101 61
67 85 69
0 16 63
0 0 60
0 0 53
0 0 44
0 0 45
0 0 47
0 0 45
0 0 43
0 0 42
0 0 42
0 0 42
0 0 42
0 0 42
0 0 42
0 0 42
0 0 42
0 0 42
0 0 42
0 0 42
0 0 42
0 0 42
0 0 42
0 0 42
0 0 42
0 0 42
0 0 41
0 0 42
0 0 41
3 9 54
38 66 50
56 75 17
41 59 21
52 63 15
24 21 47
0 0 44
3 11 53
5 14 55
0 0 53
10 11 53
2 3 40
0 0 42
0 0 42
0 0 42
0 0 42
0 0 42
0 0 42
0 0 42
0 0 42
0 0 42
0 0 42
0 0 42
0 0 42
0 0 42
0 0 42
0 0 42
0 0 42
0 0 42
0 0 42
0 0 42
0 0 42
0 0 42
0 0 42
0 0 42
0 0 42
0 0 42
0 0 42
0 0 42
0 0 42
0 0 42
0 0 42
0 0 42
0 0 42
0 0 42
0 0 42
0 0 42
0 0 42
0 0 42
0 0 42
0 0 42
0 0 42
0 0 42
0 0 42
0 0 42
0 0 42
0 0 42
0 0 42
0 0 42
0 0 42
0 0 42
0 0 42
0 0 42
0 0 42
0 0 42
0 0 42
0 0 42
0 0 42
0 0 42
0 0 42
0 0 42
0 0 42
0 0 42
0 0 42
0 0 42
0 0 42
0 0 42
37 40 60
202 217 237
218 234 255
218 234 255
218 234 255
218 234 255
218 234 255
218 234 255
218 234 255
218 234 255
218 234 255
218 234 255
218 234 255
218 234 255
218 234 255
218 234 255
218 234 255
218 234 255
218 234 255
218 234 255
218 234 255
218 234 255
218 234 255
218 234 255
218 234 255
218 234 255
218 234 255
218 234 255
218 234 255
218 234 255
218 234 255
218 234 255
218 234 255
218 234 255
218 234 255
218 234 255
218 234 255
218 234 255
218 234 255
218 234 255
218 234 255
218 234 255
218 234 255
218 234 255
218 234 255
218 234 255
218 234 255
218 234 255
218 234 255
218 234 255
218 234 255
218 234 255
218 234 255
218 234 255
218 234 255
218 234 255
218 234 255
218 234 255
218 234 255
218 234 255
218 234 255
218 234 255
218 234 255
218 234 255
218 234 255
218 234 255
218 234 255
218 234 255
218 234 255
218 234 255
218 234 255
218 234 255
218 234 255
218 234 255
218 234 255
218 234 255
218 234 255
218 234 255
218 234 255
218 234 255
218 234 255
218 234 255
218 234 255
218 234 255
218 234 255
218 234 255
218 234 255
218 234 255
218 234 255
218 234 255
218 234 255
218 234 255
218 234 255
218 234 255
218 234 255
218 234 255
218 234 255
218 234 255
218 234 255
218 234 255
218 234 255
218 234 255
218 234 255
218 234 255
218 234 255
218 234 255
218 234 255
218 234 255
218 234 255
218 234 255
218 234 255
218 234 255
218 234 255
218 234 255
218 234 255
218 234 255
218 234 255
218 234 255
218 234 255
218 234 255
218 234 255
218 234 255
218 234 255
218 234 255
218 234 255
218 234 255
218 234 255
218 234 255
218 234 255
218 234 255
218 234 255
218 234 255
218 234 255
218 234 255
218 234 255
218 234 255
218 234 255
218 234 255
218 234 255
218 234 255
218 234 255
218 234 255
218 234 255
218 234 255
218 234 255
218 234 255
218 234 255
218 234 255
218 234 255
218 234 255
218 234 255
218 234 255
218 234 255
218 234 255
218 234 255
218 234 255
218 234 255
218 234 255
218 234 255
218 234 255
218 234 255
218 234 255
218 234 255
218 234 255
218 234 255
218 234 255
218 234 255
218 234 255
218 234 255
218 234 255
218 234 255
218 234 255
218 234 255
218 234 255
218 234 255
218 234 255
218 234 255
218 234 255
218 234 255
218 234 255
218 234 255
218 234 255
218 234 255
218 234 255
218 234 255
218 234 255
218 234 255
218 234 255
218 234 255
218 234 255
218 234 255
218 234 255
218 234 255
218 234 255
218 234 255
218 234 255
218 234 255
218 234 255
218 234 255
218 234 255
218 234 255
218 234 255
218 234 255
218 234 255
218 234 255
218 234 255
218 234 255
218 234 255
218 234 255
218 234 255
218 234 255
218 234 255
218 234 255
218 234 255
218 234 255
218 234 255
107 114 130
0 0 42
0 0 42
0 0 42
0 0 42
0 0 42
0 0 42
0 0 42
0 0 42
0 0 42
0 0 42
0 0 42
0 0 42
0 0 42
0 0 42
0 0 42
0 0 42
0 0 42
0 0 42
0 0 42
0 0 42
0 0 42
0 0 42
0 0 42
0 0 42
0 0 42
0 0 42
0 0 42
0 0 42
0 0 42
0 0 42
0 0 42
0 0 42
0 0 42
0 0 42
0 0 42
0 0 42
0 0 42
0 0 42
0 0 42
0 0 42
0 0 42
0 0 42
0 0 43
0 0 44
0 0 44
0 0 44
0 4 48
24 31 69
66 94 113
97 103 101
99 84 63
67 60 77
2 4 63
0 0 62
22 94 121
78 133 107
52 71 28
40 63 10
43 58 12
49 54 19
51 54 24
80 79 52
100 96 64
121 112 79
155 146 113
182 169 130
159 150 115
138 130 107
134 127 99
124 115 87
146 136 107
123 118 88
91 90 58
114 114 79
132 130 93
116 116 78
97 103 59
74 91 72
25 35 66
0 0 55
0 0 44
0 0 42
0 0 44
0 0 45
0 0 44
0 0 42
0 0 40
0 0 42
0 0 42
0 0 42
0 0 42
0 0 42
0 0 42
0 0 42
0 0 42
0 0 42
0 0 42
0 0 42
0 0 42
0 0 42
0 0 42
0 0 42
0 0 42
0 0 43
0 0 37
0 0 45
0 0 59
17 42 73
34 63 46
40 58 8
60 69 24
29 29 44
0 0 45
3 5 45
4 6 38
0 0 44
10 14 54
4 6 43
0 0 44
0 0 42
0 0 42
0 0 42
0 0 42
0 0 42
0 0 42
0 0 42
0 0 42
0 0 42
0 0 42
0 0 42
0 0 42
0 0 42
0 0 42
0 0 42
0 0 42
0 0 42
0 0 42
0 0 42
0 0 42
0 0 42
0 0 42
0 0 42
0 0 42
0 0 42
0 0 42
0 0 42
0 0 42
0 0 42
0 0 42
0 0 42
0 0 42
0 0 42
0 0 42
0 0 42
0 0 42
0 0 42
0 0 42
0 0 42
0 0 42
0 0 42
0 0 42
0 0 42
0 0 42
0 0 42
0 0 42
0 0 42
0 0 42
0 0 42
0 0 42
0 0 42
0 0 42
0 0 42
0 0 42
0 0 42
0 0 42
0 0 42
0 0 42
0 0 42
0 0 42
0 0 42
0 0 42
0 0 42
0 0 42
0 0 42
109 117 133
218 234 255
218 234 255
218 234 255
218 234 255
218 234 255
218 234 255
218 234 255
218 234 255
218 234 255
218 234 255
218 234 255
218 234 255
218 234 255
218 234 255
218 234 255
218 234 255
218 234 255
218 234 255
218 234 255
218 234 255
218 234 255
218 234 255
218 234 255
218 234 255
218 234 255
218 234 255
218 234 255
218 234 255
218 234 255
218 234 255
218 234 255
218 234 255
218 234 255
218 234 255
218 234 255
218 234 255
218 234 255
218 234 255
218 234 255
218 234 255
218 234 255
218 234 255
218 234 255
218 234 255
218 234 255
218 234 255
218 234 255
218 234 255
218 234 255
218 234 255
218 234 255
218 234 255
218 234 255
218 234 255
218 234 255
218 234 255
218 234 255
218 234 255
218 234 255
218 234 255
218 234 255
218 234 255
218 234 255
218 234 255
218 234 255
218 234 255
218 234 255
218 234 255
218 234 255
218 234 255
218 234 255
218 234 255
218 234 255
218 234 255
218 234 255
218 234 255
218 234 255
218 234 255
218 234 255
218 234 255
218 234 255
218 234 255
218 234 255
218 234 255
218 234 255
218 234 255
218 234 255
218 234 255
218 234 255
218 234 255
218 234 255
218 234 255
218 234 255
218 234 255
218 234 255
218 234 255
218 234 255
218 234 255
218 234 255
218 234 255
218 234 255
218 234 255
218 234 255
218 234 255
218 234 255
218 234 255
218 234 255
218 234 255
218 234 255
218 234 255
218 234 255
218 234 255
218 234 255
218 234 255
218 234 255
218 234 255
218 234 255
218 234 255
218 234 255
218 234 255
218 234 255
218 234 255
218 234 255
218 234 255
218 234 255
218 234 255
218 234 255
218 234 255
218 234 255
218 234 255
218 234 255
218 234 255
218 234 255
218 234 255
218 234 255
218 234 255
218 234 255
218 234 255
218 234 255
218 234 255
218 234 255
218 234 255
218 234 255
218 234 255
218 234 255
218 234 255
218 234 255
218 234 255
218 234 255
218 234 255
218 234 255
218 234 255
218 234 255
218 234 255
218 234 255
218 234 255
218 234 255
218 234 255
218 234 255
218 234 255
218 234 255
218 234 255
218 234 255
218 234 255
218 234 255
218 234 255
218 234 255
218 234 255
218 234 255
218 234 255
218 234 255
218 234 255
218 234 255
218 234 255
218 234 255
218 234 255
218 234 255
218 234 255
218 234 255
218 234 255
218 234 255
218 234 255
218 234 255
218 234 255
218 234 255
218 234 255
218 234 255
218 234 255
218 234 255
218 234 255
218 234 255
218 234 255
218 234 255
218 234 255
218 234 255
218 234 255
218 234 255
218 234 255
218 234 255
218 234 255
218 234 255
218 234 255
218 234 255
218 234 255
218 234 255
218 234 255
218 234 255
218 234 255
218 234 255
218 234 255
218 234 255
218 234 255
218 234 255
178 191 210
0 0 42
0 0 42
0 0 42
0 0 42
0 0 42
0 0 42
0 0 42
0 0 42
0 0 42
0 0 42
0 0 42
0 0 42
0 0 42
0 0 42
0 0 42
0 0 42
0 0 42
0 0 42
0 0 42
0 0 42
0 0 42
0 0 42
0 0 42
0 0 42
0 0 42
0 0 42
0 0 42
0 0 42
0 0 42
0 0 42
0 0 42
0 0 42
0 0 42
0 0 42
0 0 42
0 0 42
0 0 42
0 0 42
0 0 42
0 0 42
0 0 42
0 0 41
0 0 42
0 0 43
0 0 45
0 0 46
0 0 43
0 0 47
0 0 59
3 25 85
34 67 116
104 109 89
64 65 71
4 7 75
0 0 54
11 76 100
83 105 79
85 87 44
55 80 16
36 61 11
44 54 13
48 55 21
70 73 43
93 91 61
102 96 65
115 107 74
132 123 89
153 150 120
172 171 152
159 155 125
136 127 100
121 116 88
82 83 54
87 93 62
109 112 76
126 124 89
112 109 77
102 106 65
85 88 67
22 25 52
0 0 43
0 0 44
0 0 41
0 0 43
0 0 43
0 0 42
0 0 42
0 0 42
0 0 42
0 0 42
0 0 42
0 0 42
0 0 42
0 0 42
0 0 42
0 0 42
0 0 42
0 0 42
0 0 42
0 0 42
0 0 42
0 0 42
0 0 42
0 0 42
0 0 41
0 0 41
0 0 44
0 0 40
0 9 56
11 32 71
34 46 32
63 76 41
30 40 53
0 0 43
0 0 55
0 0 56
0 0 53
0 0 41
0 0 40
0 0 39
0 0 42
0 0 42
0 0 42
0 0 42
0 0 42
0 0 42
0 0 42
0 0 42
0 0 42
0 0 42
0 0 42
0 0 42
0 0 42
0 0 42
0 0 42
0 0 42
0 0 42
0 0 42
0 0 42
0 0 42
0 0 42
0 0 42
0 0 42
0 0 42
0 0 42
0 0 42
0 0 42
0 0 42
0 0 42
0 0 42
0 0 42
0 0 42
0 0 42
0 0 42
0 0 42
0 0 42
0 0 42
0 0 42
0 0 42
0 0 42
0 0 42
0 0 42
0 0 42
0 0 42
0 0 42
0 0 42
0 0 42
0 0 42
0 0 42
0 0 42
0 0 42
0 0 42
0 0 42
0 0 42
0 0 42
0 0 42
0 0 42
0 0 42
0 0 42
0 0 42
0 0 42
0 0 42
0 0 42
0 0 42
0 0 42
0 0 42
185 198 218
218 234 255
218 234 255
218 234 255
218 234 255
218 234 255
218 234 255
218 234 255
218 234 255
218 234 255
218 234 255
218 234 255
218 234 255
218 234 255
218 234 255
218 234 255
218 234 255
218 234 255
218 234 255
218 234 255
218 234 255
218 234 255
218 234 255
218 234 255
218 234 255
218 234 255
218 234 255
218 234 255
218 234 255
218 234 255
218 234 255
218 234 255
218 234 255
218 234 255
218 234 255
218 234 255
218 234 255
218 234 255
218 234 255
218 234 255
218 234 255
218 234 255
218 234 255
218 234 255
218 234 255
218 234 255
218 234 255
218 234 255
218 234 255
218 234 255
218 234 255
218 234 255
218 234 255
218 234 255
218 234 255
218 234 255
218 234 255
218 234 255
218 234 255
218 234 255
218 234 255
218 234 255
218 234 255
218 234 255
218 234 255
218 234 255
218 234 255
218 234 255
218 234 255
218 234 255
218 234 255
218 234 255
218 234 255
218 234 255
218 234 255
218 234 255
218 234 255
218 234 255
218 234 255
218 234 255
218 234 255
218 234 255
218 234 255
218 234 255
218 234 255
218 234 255
218 234 255
218 234 255
218 234 255
218 234 255
218 234 255
218 234 255
218 234 255
218 234 255
218 234 255
218 234 255
218 234 255
218 234 255
218 234 255
218 234 255
218 234 255
218 234 255
218 234 255
218 234 255
218 234 255
218 234 255
218 234 255
218 234 255
218 234 255
218 234 255
218 234 255
218 234 255
218 234 255
218 234 255
218 234 255
218 234 255
218 234 255
218 234 255
218 234 255
218 234 255
218 234 255
218 234 255
218 234 255
218 234 255
218 234 255
218 234 255
218 234 255
218 234 255
218 234 255
218 234 255
218 234 255
218 234 255
218 234 255
218 234 255
218 234 255
218 234 255
218 234 255
218 234 255
218 234 255
218 234 255
218 234 255
218 234 255
218 234 255
218 234 255
218 234 255
218 234 255
218 234 255
218 234 255
218 234 255
218 234 255
218 234 255
218 234 255
218 234 255
218 234 255
218 234 255
218 234 255
218 234 255
218 234 255
218 234 255
218 234 255
218 234 255
218 234 255
218 234 255
218 234 255
218 234 255
218 234 255
218 234 255
218 234 255
218 234 255
218 234 255
218 234 255
218 234 255
218 234 255
218 234 255
218 234 255
218 234 255
218 234 255
218 234 255
218 234 255
218 234 255
218 234 255
218 234 255
218 234 255
218 234 255
218 234 255
218 234 255
218 234 255
218 234 255
218 234 255
218 234 255
218 234 255
218 234 255
218 234 255
218 234 255
218 234 255
218 234 255
218 234 255
218 234 255
218 234 255
218 234 255
218 234 255
218 234 255
218 234 255
218 234 255
218 234 255
218 234 255
218 234 255
218 234 255
218 234 255
218 234 255
218 234 255
218 234 255
215 230 252
65 70 86
0 0 42
0 0 42
0 0 42
0 0 42
0 0 42
0 0 42
0 0 42
0 0 42
0 0 42
0 0 42
0 0 42
0 0 42
0 0 42
0 0 42
0 0 42
0 0 42
0 0 42
0 0 42
0 0 42
0 0 42
0 0 42
0 0 42
0 0 42
0 0 42
0 0 42
0 0 42
0 0 42
0 0 42
0 0 42
0 0 42
0 0 42
0 0 42
0 0 42
0 0 42
0 0 42
0 0 42
0 0 42
0 0 42
0 0 42
0 0 42
0 0 42
0 0 39
0 0 42
0 0 44
0 0 45
0 0 48
0 0 38
0 0 45
0 0 53
0 3 63
41 58 101
136 129 111
88 77 70
22 31 71
0 0 48
3 32 75
38 128 131
70 107 100
59 79 33
37 63 0
40 65 9
44 49 16
69 76 40
80 86 52
97 90 63
111 101 76
115 105 77
132 124 95
139 132 104
114 106 73
112 104 73
109 108 75
88 83 54
61 70 37
87 96 65
101 104 72
98 98 68
87 93 69
14 15 56
0 0 52
0 0 41
0 0 43
0 0 42
0 0 42
0 0 42
0 0 42
0 0 42
0 0 42
0 0 42
0 0 42
0 0 42
0 0 42
0 0 42
0 0 42
0 0 42
0 0 42
0 0 42
0 0 42
0 0 42
0 0 42
0 0 42
0 0 42
0 0 42
0 0 42
0 0 41
0 0 41
0 0 44
0 0 45
0 0 48
0 6 56
12 37 70
23 41 59
9 14 48
0 0 36
0 0 58
8 11 58
12 18 48
2 4 44
0 0 46
0 0 44
0 0 40
0 0 42
0 0 40
0 0 40
0 0 42
0 0 41
0 0 42
0 0 42
0 0 42
0 0 42
0 0 42
0 0 42
0 0 42
0 0 42
0 0 42
0 0 42
0 0 42
0 0 42
0 0 42
0 0 42
0 0 42
0 0 42
0 0 42
0 0 42
0 0 42
0 0 42
0 0 42
0 0 42
0 0 42
0 0 42
0 0 42
0 0 42
0 0 42
0 0 42
0 0 42
0 0 42
0 0 42
0 0 42
0 0 42
0 0 42
0 0 42
0 0 42
0 0 42
0 0 42
0 0 42
0 0 42
0 0 42
0 0 42
0 0 42
0 0 42
0 0 42
0 0 42
0 0 42
0 0 42
0 0 42
0 0 42
0 0 42
0 0 42
0 0 42
0 0 42
0 0 42
0 0 42
0 0 42
0 0 42
0 0 42
0 0 42
50 53 70
216 231 253
218 234 255
218 234 255
218 234 255
218 234 255
218 234 255
218 234 255
218 234 255
218 234 255
218 234 255
218 234 255
218 234 255
218 234 255
218 234 255
218 234 255
218 234 255
218 234 255
218 234 255
218 234 255
218 234 255
218 234 255
218 234 255
218 234 255
218 234 255
218 234 255
218 234 255
218 234 255
218 234 255
218 234 255
218 234 255
218 234 255
218 234 255
218 234 255
218 234 255
218 234 255
218 234 255
218 234 255
218 234 255
218 234 255
218 234 255
218 234 255
218 234 255
218 234 255
218 234 255
218 234 255
218 234 255
218 234 255
218 234 255
218 234 255
218 234 255
218 234 255
218 234 255
218 234 255
218 234 255
218 234 255
218 234 255
218 234 255
218 234 255
218 234 255
218 234 255
218 234 255
218 234 255
218 234 255
218 234 255
218 234 255
218 234 255
218 234 255
218 234 255
218 234 255
218 234 255
218 234 255
218 234 255
218 234 255
218 234 255
218 234 255
218 234 255
218 234 255
218 234 255
218 234 255
218 234 255
218 234 255
218 234 255
218 234 255
218 234 255
218 234 255
218 234 255
218 234 255
218 234 255
218 234 255
218 234 255
218 234 255
218 234 255
218 234 255
218 234 255
218 234 255
218 234 255
218 234 255
218 234 255
218 234 255
218 234 255
218 234 255
218 234 255
218 234 255
218 234 255
218 234 255
218 234 255
218 234 255
218 234 255
218 234 255
218 234 255
218 234 255
218 234 255
218 234 255
218 234 255
218 234 255
218 234 255
218 234 255
218 234 255
218 234 255
218 234 255
218 234 255
218 234 255
218 234 255
218 234 255
218 234 255
218 234 255
218 234 255
218 234 255
218 234 255
218 234 255
218 234 255
218 234 255
218 234 255
218 234 255
218 234 255
218 234 255
218 234 255
218 234 255
218 234 255
218 234 255
218 234 255
218 234 255
218 234 255
218 234 255
218 234 255
218 234 255
218 234 255
218 234 255
218 234 255
218 234 255
218 234 255
218 234 255
218 234 255
218 234 255
218 234 255
218 234 255
218 234 255
218 234 255
218 234 255
218 234 255
218 234 255
218 234 255
218 234 255
218 234 255
218 234 255
218 234 255
218 234 255
218 234 255
218 234 255
218 234 255
218 234 255
218 234 255
218 234 255
218 234 255
218 234 255
218 234 255
218 234 255
218 234 255
218 234 255
218 234 255
218 234 255
218 234 255
218 234 255
218 234 255
218 234 255
218 234 255
218 234 255
218 234 255
218 234 255
218 234 255
218 234 255
218 234 255
218 234 255
218 234 255
218 234 255
218 234 255
218 234 255
218 234 255
218 234 255
218 234 255
218 234 255
218 234 255
218 234 255
218 234 255
218 234 255
218 234 255
218 234 255
218 234 255
218 234 255
218 234 255
218 234 255
162 173 191
0 0 42
0 0 42
0 0 42
0 0 42
0 0 42
0 0 42
0 0 42
0 0 42
0 0 42
0 0 42
0 0 42
0 0 42
0 0 42
0 0 42
0 0 42
0 0 42
0 0 42
0 0 42
0 0 42
0 0 42
0 0 42
0 0 42
0 0 42
0 0 42
0 0 42
0 0 42
0 0 42
0 0 42
0 0 42
0 0 42
0 0 42
0 0 42
0 0 42
0 0 42
0 0 42
0 0 42
0 0 42
0 0 42
0 0 42
0 0 42
0 0 42
0 0 42
0 0 42
0 0 42
0 0 42
0 0 42
0 0 42
0 0 43
0 0 48
0 0 56
0 0 62
57 83 109
155 147 127
121 108 80
25 30 68
0 3 58
0 6 47
0 45 75
20 84 114
63 109 95
55 76 24
36 60 0
42 52 0
55 55 23
68 75 47
87 90 56
98 87 60
115 101 75
129 116 87
143 131 102
121 110 81
124 115 85
131 120 86
128 121 90
67 76 38
75 87 50
66 76 36
82 91 55
57 68 48
6 7 51
0 0 48
0 0 38
0 0 44
0 0 42
0 0 42
0 0 42
0 0 42
0 0 42
0 0 42
0 0 42
0 0 42
0 0 42
0 0 42
0 0 42
0 0 42
0 0 42
0 0 42
0 0 42
0 0 42
0 0 42
0 0 42
0 0 42
0 0 42
0 0 42
0 0 42
0 0 39
0 0 38
0 0 41
0 0 43
0 0 48
0 6 55
0 12 60
0 2 50
0 0 39
0 0 42
0 0 55
20 29 52
42 64 47
17 27 47
0 0 56
0 0 49
0 0 42
0 0 44
0 0 39
0 0 41
0 0 41
0 0 41
0 0 42
0 0 42
0 0 42
0 0 42
0 0 42
0 0 42
0 0 42
0 0 42
0 0 42
0 0 42
0 0 42
0 0 42
0 0 42
0 0 42
0 0 42
0 0 42
0 0 42
0 0 42
0 0 42
0 0 42
0 0 42
0 0 42
0 0 42
0 0 42
0 0 42
0 0 42
0 0 42
0 0 42
0 0 42
0 0 42
0 0 42
0 0 42
0 0 42
0 0 42
0 0 42
0 0 42
0 0 42
0 0 42
0 0 42
0 0 42
0 0 42
0 0 42
0 0 42
0 0 42
0 0 42
0 0 42
0 0 42
0 0 42
0 0 42
0 0 42
0 0 42
0 0 42
0 0 42
0 0 42
0 0 42
0 0 42
0 0 42
0 0 42
0 0 42
0 0 42
6 6 42
158 168 186
218 234 255
218 234 255
218 234 255
218 234 255
218 234 255
218 234 255
218 234 255
218 234 255
218 234 255
218 234 255
218 234 255
218 234 255
218 234 255
218 234 255
218 234 255
218 234 255
218 234 255
218 234 255
218 234 255
218 234 255
218 234 255
218 234 255
218 234 255
218 234 255
218 234 255
218 234 255
218 234 255
218 234 255
218 234 255
218 234 255
218 234 255
218 234 255
218 234 255
218 234 255
218 234 255
218 234 255
218 234 255
218 234 255
218 234 255
218 234 255
218 234 255
218 234 255
218 234 255
218 234 255
218 234 255
218 234 255
218 234 255
218 234 255
218 234 255
218 234 255
218 234 255
218 234 255
218 234 255
218 234 255
218 234 255
218 234 255
218 234 255
218 234 255
218 234 255
218 234 255
218 234 255
218 234 255
218 234 255
218 234 255
218 234 255
218 234 255
218 234 255
218 234 255
218 234 255
218 234 255
218 234 255
218 234 255
218 234 255
218 234 255
218 234 255
218 234 255
218 234 255
218 234 255
218 234 255
218 234 255
218 234 255
218 234 255
218 234 255
218 234 255
218 234 255
218 234 255
218 234 255
218 234 255
218 234 255
218 234 255
218 234 255
218 234 255
218 234 255
218 234 255
218 234 255
218 234 255
218 234 255
218 234 255
218 234 255
218 234 255
218 234 255
218 234 255
218 234 255
218 234 255
218 234 255
218 234 255
218 234 255
218 234 255
218 234 255
218 234 255
218 234 255
218 234 255
218 234 255
218 234 255
218 234 255
218 234 255
218 234 255
218 234 255
218 234 255
218 234 255
218 234 255
218 234 255
218 234 255
218 234 255
218 234 255
218 234 255
218 234 255
218 234 255
218 234 255
218 234 255
218 234 255
218 234 255
218 234 255
218 234 255
218 234 255
218 234 255
218 234 255
218 234 255
218 234 255
218 234 255
218 234 255
218 234 255
218 234 255
218 234 255
218 234 255
218 234 255
218 234 255
218 234 255
218 234 255
218 234 255
218 234 255
218 234 255
218 234 255
218 234 255
218 234 255
218 234 255
218 234 255
218 234 255
218 234 255
218 234 255
218 234 255
218 234 255
218 234 255
218 234 255
218 234 255
218 234 255
218 234 255
218 234 255
218 234 255
218 234 255
218 234 255
218 234 255
218 234 255
218 234 255
218 234 255
218 234 255
218 234 255
218 234 255
218 234 255
218 234 255
218 234 255
218 234 255
218 234 255
218 234 255
218 234 255
218 234 255
218 234 255
218 234 255
218 234 255
218 234 255
218 234 255
218 234 255
218 234 255
218 234 255
218 234 255
218 234 255
218 234 255
218 234 255
218 234 255
218 234 255
218 234 255
218 234 255
218 234 255
218 234 255
218 234 255
218 234 255
218 234 255
218 234 255
218 234 255
207 222 243
48 52 70
0 0 42
0 0 42
0 0 42
0 0 42
0 0 42
0 0 42
0 0 42
0 0 42
0 0 42
0 0 42
0 0 42
0 0 42
0 0 42
0 0 42
0 0 42
0 0 42
0 0 42
0 0 42
0 0 42
0 0 42
0 0 42
0 0 42
0 0 42
0 0 42
0 0 42
0 0 42
0 0 42
0 0 42
0 0 42
0 0 42
0 0 42
0 0 42
0 0 42
0 0 42
0 0 42
0 0 42
0 0 42
0 0 42
0 0 42
0 0 42
0 0 42
0 0 42
0 0 42
0 0 42
0 0 42
0 0 42
0 0 42
0 0 44
0 0 46
0 0 52
0 2 60
0 28 73
74 81 102
135 118 101
75 74 88
34 38 61
0 0 49
0 0 43
0 68 100
29 147 158
56 112 93
41 64 8
34 57 8
51 54 17
68 69 40
82 88 57
99 87 60
114 96 72
124 105 79
136 118 90
136 121 94
133 119 89
135 123 90
121 117 84
73 78 44
66 80 39
78 94 53
70 88 46
50 66 47
0 0 47
0 0 46
0 0 40
0 0 41
0 0 42
0 0 42
0 0 42
0 0 42
0 0 42
0 0 42
0 0 42
0 0 42
0 0 42
0 0 42
0 0 42
0 0 42
0 0 42
0 0 42
0 0 42
0 0 42
0 0 42
0 0 42
0 0 42
0 0 42
0 0 42
0 0 42
0 0 45
0 0 45
0 0 43
0 0 38
0 0 39
0 0 42
0 0 41
0 0 39
0 0 40
0 0 45
0 0 45
6 10 47
31 49 61
27 47 52
0 0 65
0 0 59
0 0 47
0 0 44
0 0 41
0 0 44
0 0 40
0 0 43
0 0 42
0 0 42
0 0 42
0 0 42
0 0 42
0 0 42
0 0 42
0 0 42
0 0 42
0 0 42
0 0 42
0 0 42
0 0 42
0 0 42
0 0 42
0 0 42
0 0 42
0 0 42
0 0 42
0 0 42
0 0 42
0 0 42
0 0 42
0 0 42
0 0 42
0 0 42
0 0 42
0 0 42
0 0 42
0 0 42
0 0 42
0 0 42
0 0 42
0 0 42
0 0 42
0 0 42
0 0 42
0 0 42
0 0 42
0 0 42
0 0 42
0 0 42
0 0 42
0 0 42
0 0 42
0 0 42
0 0 42
0 0 42
0 0 42
0 0 42
0 0 42
0 0 42
0 0 42
0 0 42
0 0 42
0 0 42
0 0 42
0 0 42
0 0 42
0 0 42
0 0 42
55 57 67
210 226 247
218 234 255
218 234 255
218 234 255
218 234 255
218 234 255
218 234 255
218 234 255
218 234 255
218 234 255
218 234 255
218 234 255
218 234 255
218 234 255
218 234 255
218 234 255
218 234 255
218 234 255
218 234 255
218 234 255
218 234 255
218 234 255
218 234 255
218 234 255
218 234 255
218 234 255
218 234 255
218 234 255
218 234 255
218 234 255
218 234 255
218 234 255
218 234 255
218 234 255
218 234 255
218 234 255
218 234 255
218 234 255
218 234 255
218 234 255
218 234 255
218 234 255
218 234 255
218 234 255
218 234 255
218 234 255
218 234 255
218 234 255
218 234 255
218 234 255
218 234 255
218 234 255
218 234 255
218 234 255
218 234 255
218 234 255
218 234 255
218 234 255
218 234 255
218 234 255
218 234 255
218 234 255
218 234 255
218 234 255
218 234 255
218 234 255
218 234 255
218 234 255
218 234 255
218 234 255
218 234 255
218 234 255
218 234 255
218 234 255
218 234 255
218 234 255
218 234 255
218 234 255
218 234 255
218 234 255
218 234 255
218 234 255
218 234 255
218 234 255
218 234 255
218 234 255
218 234 255
218 234 255
218 234 255
218 234 255
218 234 255
218 234 255
218 234 255
218 234 255
218 234 255
218 234 255
218 234 255
218 234 255
218 234 255
218 234 255
218 234 255
218 234 255
218 234 255
218 234 255
218 234 255
218 234 255
218 234 255
218 234 255
218 234 255
218 234 255
218 234 255
218 234 255
218 234 255
218 234 255
218 234 255
218 234 255
218 234 255
218 234 255
218 234 255
218 234 255
218 234 255
218 234 255
218 234 255
218 234 255
218 234 255
218 234 255
218 234 255
218 234 255
218 234 255
218 234 255
218 234 255
218 234 255
218 234 255
218 234 255
218 234 255
218 234 255
218 234 255
218 234 255
218 234 255
218 234 255
218 234 255
218 234 255
218 234 255
218 234 255
218 234 255
218 234 255
218 234 255
218 234 255
218 234 255
218 234 255
218 234 255
218 234 255
218 234 255
218 234 255
218 234 255
218 234 255
218 234 255
218 234 255
218 234 255
218 234 255
218 234 255
218 234 255
218 234 255
218 234 255
218 234 255
218 234 255
218 234 255
218 234 255
218 234 255
218 234 255
218 234 255
218 234 255
218 234 255
218 234 255
218 234 255
218 234 255
218 234 255
218 234 255
218 234 255
218 234 255
218 234 255
218 234 255
218 234 255
218 234 255
218 234 255
218 234 255
218 234 255
218 234 255
218 234 255
218 234 255
218 234 255
218 234 255
218 234 255
218 234 255
218 234 255
218 234 255
218 234 255
218 234 255
218 234 255
218 234 255
218 234 255
218 234 255
218 234 255
218 234 255
218 234 255
218 234 255
218 234 255
218 234 255
218 234 255
143 153 170
0 0 42
0 0 42
0 0 42
0 0 42
0 0 42
0 0 42
0 0 42
0 0 42
0 0 42
0 0 42
0 0 42
0 0 42
0 0 42
0 0 42
0 0 42
0 0 42
0 0 42
0 0 42
0 0 42
0 0 42
0 0 42
0 0 42
0 0 42
0 0 42
0 0 42
0 0 42
0 0 42
0 0 42
0 0 42
0 0 42
0 0 42
0 0 42
0 0 42
0 0 42
0 0 42
0 0 42
0 0 42
0 0 42
0 0 42
0 0 42
0 0 42
0 0 42
0 0 42
0 0 42
0 0 42
0 0 42
0 0 42
0 0 40
0 0 41
0 0 45
0 0 48
0 0 58
0 0 55
0 23 82
52 59 95
111 102 90
71 77 61
13 16 49
0 0 47
0 4 40
7 54 80
15 77 103
32 74 58
38 63 8
42 58 16
53 55 26
79 79 50
95 87 61
114 100 76
125 107 85
128 108 83
132 115 88
138 125 97
112 106 75
100 100 71
69 73 41
57 72 32
66 79 39
53 71 28
43 58 48
0 0 46
0 0 43
0 0 42
0 0 42
0 0 42
0 0 42
0 0 42
0 0 42
0 0 42
0 0 42
0 0 42
0 0 42
0 0 42
0 0 42
0 0 42
0 0 42
0 0 42
0 0 42
0 0 42
0 0 42
0 0 42
0 0 42
0 0 42
0 0 42
0 0 42
0 0 42
0 0 38
0 0 41
0 0 45
0 0 45
0 0 45
0 0 45
0 0 44
0 0 45
0 0 47
0 0 41
0 0 47
0 0 56
5 12 55
10 22 52
2 5 50
0 0 45
0 0 48
0 0 47
0 0 43
0 0 42
0 0 41
0 0 40
0 0 42
0 0 42
0 0 42
0 0 42
0 0 42
0 0 42
0 0 42
0 0 42
0 0 42
0 0 42
0 0 42
0 0 42
0 0 42
0 0 42
0 0 42
0 0 42
0 0 42
0 0 42
0 0 42
0 0 42
0 0 42
0 0 42
0 0 42
0 0 42
0 0 42
0 0 42
0 0 42
0 0 42
0 0 42
0 0 42
0 0 42
0 0 42
0 0 42
0 0 42
0 0 42
0 0 42
0 0 42
0 0 42
0 0 42
0 0 42
0 0 42
0 0 42
0 0 42
0 0 42
0 0 42
0 0 42
0 0 42
0 0 42
0 0 42
0 0 42
0 0 42
0 0 42
0 0 42
0 0 42
0 0 42
0 0 42
0 0 42
0 0 42
0 0 42
0 0 42
0 0 42
0 0 42
165 174 188
218 234 255
218 234 255
218 234 255
218 234 255
218 234 255
218 234 255
218 234 255
218 234 255
218 234 255
218 234 255
218 234 255
218 234 255
218 234 255
218 234 255
218 234 255
218 234 255
218 234 255
218 234 255
218 234 255
218 234 255
218 234 255
218 234 255
218 234 255
218 234 255
218 234 255
218 234 255
218 234 255
218 234 255
218 234 255
218 234 255
218 234 255
218 234 255
218 234 255
218 234 255
218 234 255
218 234 255
218 234 255
218 234 255
218 234 255
218 234 255
218 234 255
218 234 255
218 234 255
218 234 255
218 234 255
218 234 255
218 234 255
218 234 255
218 234 255
218 234 255
218 234 255
218 234 255
218 234 255
218 234 255
218 234 255
218 234 255
218 234 255
218 234 255
218 234 255
218 234 255
218 234 255
218 234 255
218 234 255
218 234 255
218 234 255
218 234 255
218 234 255
218 234 255
218 234 255
218 234 255
218 234 255
218 234 255
218 234 255
218 234 255
218 234 255
218 234 255
218 234 255
218 234 255
218 234 255
218 234 255
218 234 255
218 234 255
218 234 255
218 234 255
218 234 255
218 234 255
218 234 255
218 234 255
218 234 255
218 234 255
218 234 255
218 234 255
218 234 255
218 234 255
218 234 255
218 234 255
218 234 255
218 234 255
218 234 255
218 234 255
218 234 255
218 234 255
218 234 255
218 234 255
218 234 255
218 234 255
218 234 255
218 234 255
218 234 255
218 234 255
218 234 255
218 234 255
218 234 255
218 234 255
218 234 255
218 234 255
218 234 255
218 234 255
218 234 255
218 234 255
218 234 255
218 234 255
218 234 255
218 234 255
218 234 255
218 234 255
218 234 255
218 234 255
218 234 255
218 234 255
218 234 255
218 234 255
218 234 255
218 234 255
218 234 255
218 234 255
218 234 255
218 234 255
218 234 255
218 234 255
218 234 255
218 234 255
218 234 255
218 234 255
218 234 255
218 234 255
218 234 255
218 234 255
218 234 255
218 234 255
218 234 255
218 234 255
218 234 255
218 234 255
218 234 255
218 234 255
218 234 255
218 234 255
218 234 255
218 234 255
218 234 255
218 234 255
218 234 255
218 234 255
218 234 255
218 234 255
218 234 255
218 234 255
218 234 255
218 234 255
218 234 255
218 234 255
218 234 255
218 234 255
218 234 255
218 234 255
218 234 255
218 234 255
218 234 255
218 234 255
218 234 255
218 234 255
218 234 255
218 234 255
218 234 255
218 234 255
218 234 255
218 234 255
218 234 255
218 234 255
218 234 255
218 234 255
218 234 255
218 234 255
218 234 255
218 234 255
218 234 255
218 234 255
218 234 255
218 234 255
218 234 255
218 234 255
218 234 255
218 234 255
218 234 255
218 234 255
218 234 255
213 228 249
21 23 49
0 0 42
0 0 42
0 0 42
0 0 42
0 0 42
0 0 42
0 0 42
0 0 42
0 0 42
0 0 42
0 0 42
0 0 42
0 0 42
0 0 42
0 0 42
0 0 42
0 0 42
0 0 42
0 0 42
0 0 42
0 0 42
0 0 42
0 0 42
0 0 42
0 0 42
0 0 42
0 0 42
0 0 42
0 0 42
0 0 42
0 0 42
0 0 42
0 0 42
0 0 42
0 0 42
0 0 42
0 0 42
0 0 42
0 0 42
0 0 42
0 0 42
0 0 42
0 0 42
0 0 42
0 0 42
0 0 42
0 0 42
0 0 40
0 0 40
0 0 42
0 0 44
0 0 52
0 0 49
0 2 49
0 21 85
44 59 89
91 79 67
34 30 51
0 0 40
0 0 44
0 0 54
4 20 56
27 59 91
44 74 31
36 60 0
47 61 16
66 64 45
76 75 47
97 90 63
120 102 78
130 111 88
143 125 99
127 115 89
99 96 71
91 94 65
77 84 50
43 64 18
62 79 29
62 75 28
34 44 45
0 0 44
0 0 40
0 0 40
0 0 44
0 0 42
0 0 42
0 0 42
0 0 42
0 0 42
0 0 42
0 0 42
0 0 42
0 0 42
0 0 42
0 0 42
0 0 45
0 0 45
0 0 45
0 0 45
0 0 45
0 0 44
0 0 42
0 0 42
0 0 42
0 0 42
0 0 42
0 0 41
13 21 46
17 32 41
29 47 32
42 63 37
40 66 33
33 57 34
31 53 45
25 41 38
12 23 48
2 9 45
0 0 45
0 0 55
0 0 54
0 0 55
0 0 54
0 0 53
0 0 49
0 0 50
0 0 40
0 0 39
0 0 40
0 0 42
0 0 42
0 0 42
0 0 42
0 0 42
0 0 42
0 0 42
0 0 42
0 0 42
0 0 42
0 0 42
0 0 42
0 0 42
0 0 42
0 0 42
0 0 42
0 0 42
0 0 42
0 0 42
0 0 42
0 0 42
0 0 42
0 0 42
0 0 42
0 0 42
0 0 42
0 0 42
0 0 42
0 0 42
0 0 42
0 0 42
0 0 42
0 0 42
0 0 42
0 0 42
0 0 42
0 0 42
0 0 42
0 0 42
0 0 42
0 0 42
0 0 42
0 0 42
0 0 42
0 0 42
0 0 42
0 0 42
0 0 42
0 0 42
0 0 42
0 0 42
0 0 42
0 0 42
0 0 42
0 0 42
0 0 42
0 0 42
0 0 42
0 0 42
0 0 42
0 0 42
0 0 42
57 59 71
214 228 247
218 234 255
218 234 255
218 234 255
218 234 255
218 234 255
218 234 255
218 234 255
218 234 255
218 234 255
218 234 255
218 234 255
218 234 255
218 234 255
218 234 255
218 234 255
218 234 255
218 234 255
218 234 255
218 234 255
218 234 255
218 234 255
218 234 255
218 234 255
218 234 255
218 234 255
218 234 255
218 234 255
218 234 255
218 234 255
218 234 255
218 234 255
218 234 255
218 234 255
218 234 255
218 234 255
218 234 255
218 234 255
218 234 255
218 234 255
218 234 255
218 234 255
218 234 255
218 234 255
218 234 255
218 234 255
218 234 255
218 234 255
218 234 255
218 234 255
218 234 255
218 234 255
218 234 255
218 234 255
218 234 255
218 234 255
218 234 255
218 234 255
218 234 255
218 234 255
218 234 255
218 234 255
218 234 255
218 234 255
218 234 255
218 234 255
218 234 255
218 234 255
218 234 255
218 234 255
218 234 255
218 234 255
218 234 255
218 234 255
218 234 255
218 234 255
218 234 255
218 234 255
218 234 255
218 234 255
218 234 255
218 234 255
218 234 255
218 234 255
218 234 255
218 234 255
218 234 255
218 234 255
218 234 255
218 234 255
218 234 255
218 234 255
218 234 255
218 234 255
218 234 255
218 234 255
218 234 255
218 234 255
218 234 255
218 234 255
218 234 255
218 234 255
218 234 255
218 234 255
219 234 255
219 234 255
219 234 255
219 234 255
219 234 255
219 234 255
219 234 255
219 234 255
219 234 255
219 234 255
219 234 255
219 234 255
219 234 255
219 234 255
219 234 255
219 234 255
219 234 255
219 234 255
219 234 255
219 234 255
219 234 255
219 234 255
219 234 255
219 234 255
219 234 255
219 234 255
219 234 255
219 234 255
219 234 255
219 234 255
219 234 255
219 234 255
219 234 255
219 234 255
219 234 255
218 234 255
218 234 255
218 234 255
218 234 255
218 234 255
218 234 255
218 234 255
218 234 255
218 234 255
218 234 255
218 234 255
218 234 255
218 234 255
218 234 255
218 234 255
218 234 255
218 234 255
218 234 255
218 234 255
218 234 255
218 234 255
218 234 255
218 234 255
218 234 255
218 234 255
218 234 255
218 234 255
218 234 255
218 234 255
218 234 255
218 234 255
218 234 255
218 234 255
218 234 255
218 234 255
218 234 255
218 234 255
218 234 255
218 234 255
218 234 255
218 234 255
218 234 255
218 234 255
218 234 255
218 234 255
218 234 255
218 234 255
218 234 255
218 234 255
218 234 255
218 234 255
218 234 255
218 234 255
218 234 255
218 234 255
218 234 255
218 234 255
218 234 255
218 234 255
218 234 255
218 234 255
218 234 255
218 234 255
218 234 255
218 234 255
218 234 255
218 234 255
218 234 255
143 153 170
0 0 42
0 0 42
0 0 42
0 0 42
0 0 42
0 0 42
0 0 42
0 0 42
0 0 42
0 0 42
0 0 42
0 0 42
0 0 42
0 0 42
0 0 42
0 0 42
0 0 42
0 0 42
0 0 42
0 0 42
0 0 42
0 0 42
0 0 42
0 0 42
0 0 42
0 0 42
0 0 42
0 0 42
0 0 42
0 0 42
0 0 42
0 0 42
0 0 42
0 0 42
0 0 42
0 0 42
0 0 42
0 0 42
0 0 42
0 0 42
0 0 42
0 0 42
0 0 42
0 0 42
0 0 42
0 0 42
0 0 42
0 0 41
0 0 42
0 0 40
0 0 40
0 0 43
0 0 49
0 0 45
0 0 49
0 11 66
20 27 71
28 28 60
0 0 46
0 0 48
0 0 47
0 0 44
0 0 49
6 21 77
23 55 67
44 67 19
50 60 21
55 68 24
71 79 46
81 80 50
106 95 70
125 110 85
134 117 93
120 105 81
91 91 61
83 88 54
79 86 48
45 68 19
74 88 37
73 83 38
31 36 39
0 0 41
0 0 43
0 0 40
0 0 47
0 0 42
0 0 42
0 0 42
0 0 42
0 0 42
0 0 40
0 0 39
0 0 43
0 0 42
0 0 45
0 0 40
0 0 43
0 0 42
0 0 43
0 0 47
0 0 46
0 0 44
0 0 41
0 0 46
0 0 43
0 0 42
0 0 42
24 35 39
40 66 21
39 68 36
26 55 56
23 62 82
24 77 58
47 63 11
51 73 19
57 84 14
46 77 35
30 51 55
22 39 60
13 34 52
0 7 45
0 0 46
0 0 43
0 0 55
0 0 47
0 0 42
0 0 37
0 9 48
0 3 42
0 0 40
0 0 41
0 0 43
0 0 42
0 0 42
0 0 42
0 0 42
0 0 42
0 0 42
0 0 42
0 0 42
0 0 42
0 0 42
0 0 42
0 0 42
0 0 42
0 0 42
0 0 42
0 0 42
0 0 42
0 0 42
0 0 42
0 0 42
0 0 42
0 0 42
0 0 42
0 0 42
0 0 42
0 0 42
0 0 42
0 0 42
0 0 42
0 0 42
0 0 42
0 0 42
0 0 42
0 0 42
0 0 42
0 0 42
0 0 42
0 0 42
0 0 42
0 0 42
0 0 42
0 0 42
0 0 42
0 0 42
0 0 42
0 0 42
0 0 42
0 0 42
0 0 42
0 0 42
0 0 42
0 0 42
0 0 42
0 0 42
0 0 42
0 0 42
0 0 42
0 0 42
0 0 42
0 0 41
176 184 189
218 234 255
218 234 255
218 234 255
218 234 255
218 234 255
218 234 255
218 234 255
218 234 255
218 234 255
218 234 255
218 234 255
218 234 255
218 234 255
218 234 255
218 234 255
218 234 255
218 234 255
218 234 255
218 234 255
218 234 255
218 234 255
218 234 255
218 234 255
218 234 255
218 234 255
218 234 255
218 234 255
218 234 255
218 234 255
218 234 255
218 234 255
218 234 255
218 234 255
218 234 255
218 234 255
218 234 255
218 234 255
218 234 255
218 234 255
218 234 255
218 234 255
218 234 255
218 234 255
218 234 255
218 234 255
218 234 255
218 234 255
218 234 255
218 234 255
218 234 255
218 234 255
218 234 255
218 234 255
218 234 255
218 234 255
218 234 255
218 234 255
218 234 255
218 234 255
218 234 255
218 234 255
218 234 255
218 234 255
218 234 255
218 234 255
218 234 255
218 234 255
219 234 255
219 234 255
219 234 255
219 234 255
219 234 255
219 234 255
219 234 255
219 234 255
219 234 255
219 234 255
219 234 255
219 234 255
219 234 255
219 234 255
219 234 255
219 234 255
219 234 255
219 234 255
219 234 255
219 234 255
219 234 255
219 234 255
219 234 255
219 234 255
219 234 255
219 234 255
219 234 255
219 234 255
219 234 255
219 234 255
219 234 255
219 234 255
219 234 255
219 234 255
219 234 255
219 234 255
219 234 255
219 234 255
219 234 255
219 234 255
219 234 255
219 234 255
219 234 255
219 234 255
219 234 255
219 234 255
219 234 255
219 234 255
219 234 255
219 234 255
219 234 255
219 234 255
219 234 255
219 234 255
219 234 255
219 234 255
219 234 255
219 234 255
219 234 255
219 234 255
219 234 255
219 234 255
219 234 255
219 234 255
219 234 255
219 234 255
219 234 255
219 234 255
219 234 255
219 234 255
219 234 255
219 234 255
219 234 255
219 234 255
219 234 255
219 234 255
219 234 255
219 234 255
219 234 255
219 234 255
219 234 255
219 234 255
219 234 255
219 234 255
219 234 255
219 234 255
219 234 255
219 234 255
219 234 255
219 234 255
219 234 255
219 234 255
219 234 255
219 234 255
219 234 255
219 234 255
219 234 255
219 234 255
219 234 255
219 234 255
219 234 255
219 234 255
219 234 255
219 234 255
219 234 255
219 234 255
219 234 255
219 234 255
219 234 255
219 234 255
219 234 255
219 234 255
219 234 255
219 234 255
219 234 255
219 234 255
219 234 255
219 234 255
219 234 255
219 234 255
219 234 255
219 234 255
219 234 255
219 234 255
219 234 255
219 234 255
219 234 255
219 234 255
219 234 255
219 234 255
219 234 255
219 234 255
219 234 255
219 234 255
219 234 255
219 234 255
219 234 255
219 234 255
204 218 239
37 40 60
0 0 42
0 0 42
0 0 42
0 0 42
0 0 42
0 0 42
0 0 42
0 0 42
0 0 42
0 0 42
0 0 42
0 0 42
0 0 42
0 0 42
0 0 42
0 0 42
0 0 42
0 0 42
0 0 42
0 0 42
0 0 42
0 0 42
0 0 42
0 0 42
0 0 42
0 0 42
0 0 42
0 0 42
0 0 42
0 0 42
0 0 42
0 0 42
0 0 42
0 0 42
0 0 42
0 0 42
0 0 42
0 0 42
0 0 42
0 0 42
0 0 42
0 0 42
0 0 42
0 0 42
0 0 42
0 0 42
0 0 42
0 0 42
0 0 42
0 0 42
0 0 42
0 0 42
0 0 47
0 0 46
0 0 50
0 0 52
0 0 50
0 0 53
0 0 51
0 0 45
0 0 47
0 0 49
0 0 50
0 0 72
11 37 59
42 70 16
43 58 15
49 65 19
62 73 32
64 75 35
75 80 44
105 102 69
127 113 84
122 106 83
75 80 48
77 80 45
71 80 39
42 68 10
70 86 31
67 81 29
32 45 50
0 0 44
0 0 41
0 0 41
0 0 41
0 0 42
0 0 42
0 0 42
0 0 42
0 0 42
0 0 44
0 0 45
0 0 43
0 0 45
0 0 42
0 0 47
0 0 52
0 0 53
2 6 55
7 15 57
3 12 57
0 7 49
0 5 46
0 0 45
0 0 36
0 0 39
0 0 43
23 31 36
21 34 49
11 19 66
17 31 57
3 13 70
5 23 66
13 19 37
20 30 32
32 51 19
41 66 13
49 79 18
47 78 30
40 67 43
35 53 63
0 12 49
0 0 40
0 0 45
0 0 46
0 0 42
0 0 43
0 0 44
0 0 46
0 0 43
0 0 38
0 0 45
0 0 45
0 0 39
0 0 41
0 0 42
0 0 42
0 0 42
0 0 42
0 0 42
0 0 42
0 0 42
0 0 42
0 0 42
0 0 42
0 0 42
0 0 42
0 0 42
0 0 42
0 0 42
0 0 42
0 0 42
0 0 42
0 0 42
0 0 42
0 0 42
0 0 42
0 0 42
0 0 42
0 0 42
0 0 42
0 0 42
0 0 42
0 0 42
0 0 42
0 0 42
0 0 42
0 0 42
0 0 42
0 0 42
0 0 42
0 0 42
0 0 42
0 0 42
0 0 42
0 0 42
0 0 42
0 0 42
0 0 42
0 0 42
0 0 42
0 0 42
0 0 42
0 0 42
0 0 42
0 0 42
0 0 42
0 0 42
0 0 42
0 0 42
0 0 42
0 0 42
90 96 99
217 231 250
219 234 255
219 234 255
219 234 255
219 234 255
219 234 255
219 234 255
219 234 255
219 234 255
219 234 255
219 234 255
219 234 255
219 234 255
219 234 255
219 234 255
219 234 255
219 234 255
219 234 255
219 234 255
219 234 255
219 234 255
219 234 255
219 234 255
219 234 255
219 234 255
219 234 255
219 234 255
219 234 255
219 234 255
219 234 255
219 234 255
219 234 255
219 234 255
219 234 255
219 234 255
219 234 255
219 234 255
219 234 255
219 234 255
219 234 255
219 234 255
219 234 255
219 234 255
219 234 255
219 234 255
219 234 255
219 234 255
219 234 255
219 234 255
219 234 255
219 234 255
219 234 255
219 234 255
219 234 255
219 234 255
219 234 255
219 234 255
219 234 255
219 234 255
219 234 255
219 234 255
219 234 255
219 234 255
219 234 255
219 234 255
219 234 255
219 234 255
219 234 255
219 234 255
219 234 255
219 234 255
219 234 255
219 234 255
219 234 255
219 234 255
219 234 255
219 234 255
219 234 255
219 234 255
219 234 255
219 234 255
219 234 255
219 234 255
219 234 255
219 234 255
219 234 255
219 234 255
219 234 255
219 234 255
219 234 255
219 234 255
219 234 255
219 234 255
219 234 255
219 234 255
219 234 255
219 234 255
219 234 255
219 234 255
219 234 255
219 234 255
219 234 255
219 234 255
219 234 255
219 234 255
219 234 255
219 234 255
219 234 255
219 234 255
219 234 255
219 234 255
219 234 255
219 234 255
219 234 255
219 234 255
219 234 255
219 234 255
219 234 255
219 234 255
219 234 255
219 234 255
219 234 255
219 234 255
219 234 255
219 234 255
219 234 255
219 234 255
219 234 255
219 234 255
219 234 255
219 234 255
219 234 255
219 234 255
219 234 255
219 234 255
219 234 255
219 234 255
219 234 255
219 234 255
219 234 255
219 234 255
219 234 255
219 234 255
219 234 255
219 234 255
219 234 255
219 234 255
219 234 255
219 234 255
219 234 255
219 234 255
219 234 255
219 234 255
219 234 255
219 234 255
219 234 255
219 234 255
219 234 255
219 234 255
219 234 255
219 234 255
219 234 255
219 234 255
219 234 255
219 234 255
219 234 255
219 234 255
219 234 255
219 234 255
219 234 255
219 234 255
219 234 255
219 234 255
219 234 255
219 234 255
219 234 255
219 234 255
219 234 255
219 234 255
219 234 255
219 234 255
219 234 255
219 234 255
219 234 255
219 234 255
219 234 255
219 234 255
219 234 255
219 234 255
219 234 255
219 234 255
219 234 255
219 234 255
219 234 255
219 234 255
219 234 255
219 234 255
219 234 255
219 234 255
219 234 255
219 234 255
219 234 255
219 234 255
219 234 255
219 234 255
154 165 183
0 0 42
0 0 42
0 0 42
0 0 42
0 0 42
0 0 42
0 0 42
0 0 42
0 0 42
0 0 42
0 0 42
0 0 42
0 0 42
0 0 42
0 0 42
0 0 42
0 0 42
0 0 42
0 0 42
0 0 42
0 0 42
0 0 42
0 0 42
0 0 42
0 0 42
0 0 42
0 0 42
0 0 42
0 0 42
0 0 42
0 0 42
0 0 42
0 0 42
0 0 42
0 0 42
0 0 42
0 0 42
0 0 42
0 0 42
0 0 42
0 0 42
0 0 42
0 0 42
0 0 42
0 0 42
0 0 42
0 0 42
0 0 42
0 0 42
0 0 42
0 0 42
0 0 42
0 0 42
0 0 45
0 0 43
0 0 47
0 0 48
0 0 48
0 0 49
0 0 47
0 0 45
0 0 48
0 0 52
0 8 55
0 4 60
2 27 86
29 64 34
35 65 9
49 67 17
52 70 25
55 73 22
65 80 29
79 88 45
90 93 55
102 93 67
92 94 65
75 74 44
54 65 23
37 68 4
46 74 6
51 78 14
40 66 40
0 0 47
0 0 40
0 0 42
0 0 39
0 0 42
0 0 42
0 0 42
0 0 42
0 0 42
0 0 40
0 0 41
0 0 39
0 0 47
0 0 49
0 0 56
18 32 45
19 35 45
25 47 44
33 63 35
26 53 48
22 46 48
15 27 42
0 0 44
0 0 40
0 0 41
0 0 36
0 0 40
0 0 45
0 6 41
23 37 32
3 11 48
0 0 52
0 0 44
0 0 46
0 0 44
7 11 38
20 29 39
26 38 41
46 66 22
44 70 14
41 65 30
25 38 38
9 14 48
0 0 41
0 0 43
0 0 42
0 0 41
0 0 45
9 11 36
0 0 39
7 7 44
10 11 48
1 1 36
0 0 40
0 0 42
0 0 42
0 0 42
0 0 42
0 0 42
0 0 42
0 0 42
0 0 42
0 0 42
0 0 42
0 0 42
0 0 42
0 0 42
0 0 42
0 0 42
0 0 42
0 0 42
0 0 42
0 0 42
0 0 42
0 0 42
0 0 42
0 0 42
0 0 42
0 0 42
0 0 42
0 0 42
0 0 42
0 0 42
0 0 42
0 0 42
0 0 42
0 0 42
0 0 42
0 0 42
0 0 42
0 0 42
0 0 42
0 0 42
0 0 42
0 0 42
0 0 42
0 0 42
0 0 42
0 0 42
0 0 42
0 0 42
0 0 42
0 0 42
0 0 42
0 0 42
0 0 42
0 0 42
0 0 42
0 0 42
0 0 42
0 0 42
0 0 43
189 198 205
219 234 255
219 234 255
219 234 255
219 234 255
219 234 255
219 234 255
219 234 255
219 234 255
219 234 255
219 234 255
219 234 255
219 234 255
219 234 255
219 234 255
219 234 255
219 234 255
219 234 255
219 234 255
219 234 255
219 234 255
219 234 255
219 234 255
219 234 255
219 234 255
219 234 255
219 234 255
219 234 255
219 234 255
219 234 255
219 234 255
219 234 255
219 234 255
219 234 255
219 234 255
219 234 255
219 234 255
219 234 255
219 234 255
219 234 255
219 234 255
219 234 255
219 234 255
219 234 255
219 234 255
219 234 255
219 234 255
219 234 255
219 234 255
219 234 255
219 234 255
219 234 255
219 234 255
219 234 255
219 234 255
219 234 255
219 234 255
219 234 255
219 234 255
219 234 255
219 234 255
219 234 255
219 234 255
219 234 255
219 234 255
219 234 255
219 234 255
219 234 255
219 234 255
219 234 255
219 234 255
219 234 255
219 234 255
219 234 255
219 234 255
219 234 255
219 234 255
219 234 255
219 234 255
219 234 255
219 234 255
219 234 255
219 234 255
219 234 255
219 234 255
219 234 255
219 234 255
219 234 255
219 234 255
219 234 255
219 234 255
219 234 255
219 234 255
219 234 255
219 234 255
219 234 255
219 234 255
219 234 255
219 234 255
219 234 255
219 234 255
219 234 255
219 234 255
219 234 255
219 234 255
219 234 255
219 234 255
219 234 255
219 234 255
219 234 255
219 234 255
219 234 255
219 234 255
219 234 255
219 234 255
219 234 255
219 234 255
219 234 255
219 234 255
219 234 255
219 234 255
219 234 255
219 234 255
219 234 255
219 234 255
219 234 255
219 234 255
219 234 255
219 234 255
219 234 255
219 234 255
219 234 255
219 234 255
219 234 255
219 234 255
219 234 255
219 234 255
219 234 255
219 234 255
219 234 255
219 234 255
219 234 255
219 234 255
219 234 255
219 234 255
219 234 255
219 234 255
219 234 255
219 234 255
219 234 255
219 234 255
219 234 255
219 234 255
219 234 255
219 234 255
219 234 255
219 234 255
219 234 255
219 234 255
219 234 255
219 234 255
219 234 255
219 234 255
219 234 255
219 234 255
219 234 255
219 234 255
219 234 255
219 234 255
219 234 255
219 234 255
219 234 255
219 234 255
219 234 255
219 234 255
219 234 255
219 234 255
219 234 255
219 234 255
219 234 255
219 234 255
219 234 255
219 234 255
219 234 255
219 234 255
219 234 255
219 234 255
219 234 255
219 234 255
219 234 255
219 234 255
219 234 255
219 234 255
219 234 255
219 234 255
219 234 255
219 234 255
219 234 255
219 234 255
219 234 255
219 234 255
219 234 255
219 234 255
219 234 255
211 226 247
48 52 70
0 0 42
0 0 42
0 0 42
0 0 42
0 0 42
0 0 42
0 0 42
0 0 42
0 0 42
0 0 42
0 0 42
0 0 42
0 0 42
0 0 42
0 0 42
0 0 42
0 0 42
0 0 42
0 0 42
0 0 42
0 0 42
0 0 42
0 0 42
0 0 42
0 0 42
0 0 42
0 0 42
0 0 42
0 0 42
0 0 42
0 0 42
0 0 42
0 0 42
0 0 42
0 0 42
0 0 42
0 0 42
0 0 42
0 0 42
0 0 42
0 0 42
0 0 42
0 0 42
0 0 42
0 0 42
0 0 42
0 0 42
0 0 42
0 0 42
0 0 42
0 0 42
0 0 42
0 0 42
0 0 40
0 0 43
0 0 44
0 0 45
0 0 45
0 0 44
0 0 45
0 0 47
0 0 53
0 0 57
0 0 63
0 14 71
8 30 93
25 53 38
42 65 17
46 66 18
50 72 19
48 71 14
52 75 14
60 78 27
67 80 35
88 89 52
86 89 56
83 81 53
71 76 44
47 63 19
44 65 12
43 73 6
45 75 14
13 21 40
0 0 48
0 0 47
0 0 40
0 0 42
0 0 42
0 0 42
0 0 42
0 0 42
0 0 45
0 0 43
0 0 44
0 0 45
0 14 61
26 43 36
41 66 15
38 66 16
38 67 12
36 67 0
34 66 0
32 61 7
23 39 32
0 0 40
0 0 48
0 0 47
0 0 38
0 0 42
0 0 37
0 0 39
0 0 40
0 0 37
0 0 44
0 0 43
0 0 42
0 0 38
0 0 37
0 0 44
2 4 50
25 41 39
46 73 7
53 80 12
53 76 18
56 73 27
39 55 33
7 12 46
0 0 39
0 0 44
6 6 44
22 27 38
0 0 43
0 0 41
0 0 45
0 0 42
0 0 42
0 0 42
0 0 42
0 0 42
0 0 42
0 0 42
0 0 42
0 0 42
0 0 42
0 0 42
0 0 42
0 0 42
0 0 42
0 0 42
0 0 42
0 0 42
0 0 42
0 0 42
0 0 42
0 0 42
0 0 42
0 0 42
0 0 42
0 0 42
0 0 42
0 0 42
0 0 42
0 0 42
0 0 42
0 0 42
0 0 42
0 0 42
0 0 42
0 0 42
0 0 42
0 0 42
0 0 42
0 0 42
0 0 42
0 0 42
0 0 42
0 0 42
0 0 42
0 0 42
0 0 42
0 0 42
0 0 42
0 0 42
0 0 42
0 0 42
0 0 42
0 0 42
0 0 42
0 0 42
0 0 42
0 0 42
0 0 42
0 0 41
0 0 43
134 140 131
218 233 253
219 234 255
219 234 255
219 234 255
219 234 255
219 234 255
219 234 255
219 234 255
219 234 255
219 234 255
219 234 255
219 234 255
219 234 255
219 234 255
219 234 255
219 234 255
219 234 255
219 234 255
219 234 255
219 234 255
219 234 255
219 234 255
219 234 255
219 234 255
219 234 255
219 234 255
219 234 255
219 234 255
219 234 255
219 234 255
219 234 255
219 234 255
219 234 255
219 234 255
219 234 255
219 234 255
219 234 255
219 234 255
219 234 255
219 234 255
219 234 255
219 234 255
219 234 255
219 234 255
219 234 255
219 234 255
219 234 255
219 234 255
219 234 255
219 234 255
219 234 255
219 234 255
219 234 255
219 234 255
219 234 255
219 234 255
219 234 255
219 234 255
219 234 255
219 234 255
219 234 255
219 234 255
219 234 255
219 234 255
219 234 255
219 234 255
219 234 255
219 234 255
219 234 255
219 234 255
219 234 255
219 234 255
219 234 255
219 234 255
219 234 255
219 234 255
219 234 255
219 234 255
219 234 255
219 234 255
219 234 255
219 234 255
219 234 255
219 234 255
219 234 255
219 234 255
219 234 255
219 234 255
219 234 255
219 234 255
219 234 255
219 234 255
219 234 255
219 234 255
219 234 255
219 234 255
219 234 255
219 234 255
219 234 255
219 234 255
219 234 255
219 234 255
219 234 255
219 234 255
219 234 255
219 234 255
219 234 255
219 234 255
219 234 255
219 234 255
219 234 255
219 234 255
219 234 255
219 234 255
219 234 255
219 234 255
219 234 255
219 234 255
219 234 255
219 234 255
219 234 255
219 234 255
219 234 255
219 234 255
219 234 255
219 234 255
219 234 255
219 234 255
219 234 255
219 234 255
219 234 255
219 234 255
219 234 255
219 234 255
219 234 255
219 234 255
219 234 255
219 234 255
219 234 255
219 234 255
219 234 255
219 234 255
219 234 255
219 234 255
219 234 255
219 234 255
219 234 255
219 234 255
219 234 255
219 234 255
219 234 255
219 234 255
219 234 255
219 234 255
219 234 255
219 234 255
219 234 255
219 234 255
219 234 255
219 234 255
219 234 255
219 234 255
219 234 255
219 234 255
219 234 255
219 234 255
219 234 255
219 234 255
219 234 255
219 234 255
219 234 255
219 234 255
219 234 255
219 234 255
219 234 255
219 234 255
219 234 255
219 234 255
219 234 255
219 234 255
219 234 255
219 234 255
219 234 255
219 234 255
219 234 255
219 234 255
219 234 255
219 234 255
219 234 255
219 234 255
219 234 255
219 234 255
219 234 255
219 234 255
219 234 255
219 234 255
219 234 255
219 234 255
219 234 255
219 234 255
219 234 255
219 234 255
219 234 255
151 162 179
0 0 42
0 0 42
0 0 42
0 0 42
0 0 42
0 0 42
0 0 42
0 0 42
0 0 42
0 0 42
0 0 42
0 0 42
0 0 42
0 0 42
0 0 42
0 0 42
0 0 42
0 0 42
0 0 42
0 0 42
0 0 42
0 0 42
0 0 42
0 0 42
0 0 42
0 0 42
0 0 42
0 0 42
0 0 42
0 0 42
0 0 42
0 0 42
0 0 42
0 0 42
0 0 42
0 0 42
0 0 42
0 0 42
0 0 42
0 0 42
0 0 42
0 0 42
0 0 42
0 0 42
0 0 42
0 0 42
0 0 42
0 0 42
0 0 42
0 0 42
0 0 42
0 0 42
0 0 42
0 0 40
0 0 40
0 0 42
0 0 43
0 0 45
0 0 43
0 0 44
0 0 46
0 0 49
0 0 54
0 0 59
0 0 59
0 24 85
13 46 76
34 53 15
43 63 8
43 66 13
52 75 18
50 75 17
44 68 3
51 73 14
49 71 15
60 75 24
63 74 29
78 82 47
86 91 58
78 84 50
59 69 29
46 68 8
51 76 13
34 50 25
9 15 37
0 0 47
0 0 42
0 0 42
0 0 42
0 0 42
0 0 42
0 0 42
0 0 42
0 0 41
0 0 45
0 0 48
5 35 77
40 68 34
36 60 0
35 61 0
33 62 0
30 58 0
32 60 0
21 41 20
7 12 36
0 0 37
0 0 33
0 0 41
0 0 45
0 0 39
0 0 45
0 0 46
0 0 43
0 0 37
0 0 44
0 0 46
0 0 46
0 0 45
0 0 44
0 0 42
0 0 41
2 6 48
6 16 42
17 29 52
43 66 29
60 78 26
52 72 17
33 54 23
26 40 20
11 18 35
4 5 43
15 17 45
0 0 44
0 0 34
0 0 39
0 0 48
0 0 44
0 0 42
0 0 42
0 0 42
0 0 42
0 0 42
0 0 42
0 0 42
0 0 42
0 0 42
0 0 42
0 0 42
0 0 42
0 0 42
0 0 42
0 0 42
0 0 42
0 0 42
0 0 42
0 0 42
0 0 42
0 0 42
0 0 42
0 0 42
0 0 42
0 0 42
0 0 42
0 0 42
0 0 42
0 0 42
0 0 42
0 0 42
0 0 42
0 0 42
0 0 42
0 0 42
0 0 42
0 0 42
0 0 42
0 0 42
0 0 42
0 0 42
0 0 42
0 0 42
0 0 42
0 0 42
0 0 42
0 0 42
0 0 42
0 0 42
0 0 42
0 0 42
0 0 42
0 0 42
0 0 42
0 0 42
0 0 42
0 0 42
0 0 41
35 45 72
207 217 220
219 234 255
219 234 255
219 234 255
219 234 255
219 234 255
219 234 255
219 234 255
219 234 255
219 234 255
219 234 255
219 234 255
219 234 255
219 234 255
219 234 255
219 234 255
219 234 255
219 234 255
219 234 255
219 234 255
219 234 255
219 234 255
219 234 255
219 234 255
219 234 255
219 234 255
219 234 255
219 234 255
219 234 255
219 234 255
219 234 255
219 234 255
219 234 255
219 234 255
219 234 255
219 234 255
219 234 255
219 234 255
219 234 255
219 234 255
219 234 255
219 234 255
219 234 255
219 234 255
219 234 255
219 234 255
219 234 255
219 234 255
219 234 255
219 234 255
219 234 255
219 234 255
219 234 255
219 234 255
219 234 255
219 234 255
219 234 255
219 234 255
219 234 255
219 234 255
219 234 255
219 234 255
219 234 255
219 234 255
219 234 255
219 234 255
219 234 255
219 234 255
219 234 255
219 234 255
219 234 255
219 234 255
219 234 255
219 234 255
219 234 255
219 234 255
219 234 255
219 234 255
219 234 255
219 234 255
219 234 255
219 234 255
219 234 255
219 234 255
219 234 255
219 234 255
219 234 255
219 234 255
219 234 255
219 234 255
219 234 255
219 234 255
219 234 255
219 234 255
219 234 255
219 234 255
219 234 255
219 234 255
219 234 255
219 234 255
219 234 255
219 234 255
219 234 255
219 234 255
219 234 255
219 234 255
219 234 255
219 234 255
219 234 255
219 234 255
219 234 255
219 234 255
219 234 255
219 234 255
219 234 255
219 234 255
219 234 255
219 234 255
219 234 255
219 234 255
219 234 255
219 234 255
219 234 255
219 234 255
219 234 255
219 234 255
219 234 255
219 234 255
219 234 255
219 234 255
219 234 255
219 234 255
219 234 255
219 234 255
219 234 255
219 234 255
219 234 255
219 234 255
219 234 255
219 234 255
219 234 255
219 234 255
219 234 255
219 234 255
219 234 255
219 234 255
219 234 255
219 234 255
219 234 255
219 234 255
219 234 255
219 234 255
219 234 255
219 234 255
219 234 255
219 234 255
219 234 255
219 234 255
219 234 255
219 234 255
219 234 255
219 234 255
219 234 255
219 234 255
219 234 255
219 234 255
219 234 255
219 234 255
219 234 255
219 234 255
219 234 255
219 234 255
219 234 255
219 234 255
219 234 255
219 234 255
219 234 255
219 234 255
219 234 255
219 234 255
219 234 255
219 234 255
219 234 255
219 234 255
219 234 255
219 234 255
219 234 255
219 234 255
219 234 255
219 234 255
219 234 255
219 234 255
219 234 255
219 234 255
219 234 255
219 234 255
219 234 255
219 234 255
219 234 255
219 234 255
219 234 255
219 234 255
217 232 253
84 90 106
2 5 42
0 0 40
0 0 42
0 0 42
0 0 42
0 0 42
0 0 42
0 0 42
0 0 42
0 0 42
0 0 42
0 0 42
0 0 42
0 0 42
0 0 42
0 0 42
0 0 42
0 0 42
0 0 42
0 0 42
0 0 42
0 0 42
0 0 42
0 0 42
0 0 42
0 0 42
0 0 42
0 0 42
0 0 42
0 0 42
0 0 42
0 0 42
0 0 42
0 0 42
0 0 42
0 0 42
0 0 42
0 0 42
0 0 42
0 0 42
0 0 42
0 0 42
0 0 42
0 0 42
0 0 42
0 0 42
0 0 42
0 0 42
0 0 42
0 0 42
0 0 42
0 0 42
0 0 42
0 0 40
0 0 42
0 0 42
0 0 43
0 0 45
0 0 45
0 0 45
0 0 45
0 0 47
0 0 53
0 0 55
0 0 59
2 15 74
22 53 61
39 62 18
42 66 9
48 70 13
48 70 13
45 67 12
44 67 4
43 64 0
44 67 9
46 68 0
51 69 13
56 70 22
64 73 29
83 90 50
73 83 42
57 70 29
46 65 10
44 69 15
19 35 35
0 0 46
0 0 39
0 0 42
0 0 42
0 0 42
0 0 42
0 0 42
0 0 43
0 0 48
0 0 46
0 6 48
11 46 72
34 67 43
31 59 0
33 62 0
32 62 0
31 59 0
33 59 10
9 22 33
0 0 41
0 0 46
0 0 38
0 0 43
0 0 37
0 0 45
0 0 45
0 0 36
0 0 39
0 0 43
0 0 43
0 0 41
0 0 38
0 0 40
0 0 43
0 0 42
0 0 39
0 0 42
0 0 43
16 27 40
32 53 22
35 53 19
39 57 27
41 62 18
37 53 32
22 35 31
0 0 40
9 9 37
30 38 35
10 12 39
6 10 42
13 19 38
12 17 40
0 0 41
0 0 42
0 0 42
0 0 42
0 0 42
0 0 42
0 0 42
0 0 42
0 0 42
0 0 42
0 0 42
0 0 42
0 0 42
0 0 42
0 0 42
0 0 42
0 0 42
0 0 42
0 0 42
0 0 42
0 0 42
0 0 42
0 0 42
0 0 42
0 0 42
0 0 42
0 0 42
0 0 42
0 0 42
0 0 42
0 0 42
0 0 42
0 0 42
0 0 42
0 0 42
0 0 42
0 0 42
0 0 42
0 0 42
0 0 42
0 0 42
0 0 42
0 0 42
0 0 42
0 0 42
0 0 42
0 0 42
0 0 42
0 0 42
0 0 42
0 0 42
0 0 42
0 0 42
0 0 42
0 0 42
0 0 42
0 0 42
0 0 42
0 0 49
172 171 157
219 233 253
219 234 255
219 234 255
219 234 255
219 234 255
219 234 255
219 234 255
219 234 255
219 234 255
219 234 255
219 234 255
219 234 255
219 234 255
219 234 255
219 234 255
219 234 255
219 234 255
219 234 255
219 234 255
219 234 255
219 234 255
219 234 255
219 234 255
219 234 255
219 234 255
219 234 255
219 234 255
219 234 255
219 234 255
219 234 255
219 234 255
219 234 255
219 234 255
219 234 255
219 234 255
219 234 255
219 234 255
219 234 255
219 234 255
219 234 255
219 234 255
219 234 255
219 234 255
219 234 255
219 234 255
219 234 255
219 234 255
219 234 255
219 234 255
219 234 255
219 234 255
219 234 255
219 234 255
219 234 255
219 234 255
219 234 255
219 234 255
219 234 255
219 234 255
219 234 255
219 234 255
219 234 255
219 234 255
219 234 255
219 234 255
219 234 255
219 234 255
219 234 255
219 234 255
219 234 255
219 234 255
219 234 255
219 234 255
219 234 255
219 234 255
219 234 255
219 234 255
219 234 255
219 234 255
219 234 255
219 234 255
219 234 255
219 234 255
219 234 255
219 234 255
219 234 255
219 234 255
219 234 255
219 234 255
219 234 255
219 234 255
219 234 255
219 234 255
219 234 255
219 234 255
219 234 255
219 234 255
219 234 255
219 234 255
219 234 255
219 234 255
219 234 255
219 234 255
219 234 255
219 234 255
219 234 255
219 234 255
219 234 255
219 234 255
219 234 255
219 234 255
219 234 255
219 234 255
219 234 255
219 234 255
219 234 255
219 234 255
219 234 255
219 234 255
219 234 255
219 234 255
219 234 255
219 234 255
219 234 255
219 234 255
219 234 255
219 234 255
219 234 255
219 234 255
219 234 255
219 234 255
219 234 255
219 234 255
219 234 255
219 234 255
219 234 255
219 234 255
219 234 255
219 234 255
219 234 255
219 234 255
219 234 255
219 234 255
219 234 255
219 234 255
219 234 255
219 234 255
219 234 255
219 234 255
219 234 255
219 234 255
219 234 255
219 234 255
219 234 255
219 234 255
219 234 255
219 234 255
219 234 255
219 234 255
219 234 255
219 234 255
219 234 255
219 234 255
219 234 255
219 234 255
219 234 255
219 234 255
219 234 255
219 234 255
219 234 255
219 234 255
219 234 255
219 234 255
219 234 255
219 234 255
219 234 255
219 234 255
219 234 255
219 234 255
219 234 255
219 234 255
219 234 255
219 234 255
219 234 255
219 234 255
219 234 255
219 234 255
219 234 255
219 234 255
219 234 255
219 234 255
219 234 255
219 234 255
219 234 255
219 234 255
219 234 255
219 234 255
219 234 255
219 234 255
219 234 255
219 234 255
175 187 206
0 0 43
8 11 43
0 0 42
0 0 40
0 0 42
0 0 42
0 0 42
0 0 42
0 0 42
0 0 42
0 0 42
0 0 42
0 0 42
0 0 42
0 0 42
0 0 42
0 0 42
0 0 42
0 0 42
0 0 42
0 0 42
0 0 42
0 0 42
0 0 42
0 0 42
0 0 42
0 0 42
0 0 42
0 0 42
0 0 42
0 0 42
0 0 42
0 0 42
0 0 42
0 0 42
0 0 42
0 0 42
0 0 42
0 0 42
0 0 42
0 0 42
0 0 42
0 0 42
0 0 42
0 0 42
0 0 42
0 0 42
0 0 42
0 0 42
0 0 42
0 0 42
0 0 42
0 0 42
0 0 42
0 0 41
0 0 43
0 0 44
0 0 44
0 0 43
0 0 43
0 0 44
0 0 45
0 0 46
0 0 48
0 0 47
0 0 48
0 3 58
16 30 62
34 62 37
43 74 9
47 71 17
46 68 5
45 65 7
43 62 11
41 59 0
48 70 13
39 62 0
41 61 5
48 64 13
52 64 15
76 89 45
60 75 29
62 73 32
79 85 50
55 72 25
36 60 33
9 17 44
0 0 40
0 0 46
0 0 45
0 0 44
0 0 43
0 0 39
0 0 48
0 0 46
0 0 45
4 13 60
23 51 47
37 64 6
34 60 0
33 59 0
31 60 0
33 65 0
36 60 26
13 21 35
0 0 42
0 0 42
0 0 42
0 0 42
0 0 42
0 0 42
0 0 42
0 0 42
0 0 42
0 0 42
0 0 42
0 0 43
0 0 42
0 0 41
0 0 42
0 0 42
0 0 42
0 0 43
0 0 40
7 11 39
7 12 41
0 6 41
0 4 41
10 15 38
10 11 45
0 0 40
0 0 38
10 13 43
37 46 45
49 63 32
42 59 29
45 64 29
50 69 23
29 48 24
9 21 36
0 0 42
0 0 44
0 0 43
0 0 39
0 0 43
0 0 41
0 0 43
0 0 42
0 0 42
0 0 42
0 0 42
0 0 42
0 0 42
0 0 42
0 0 42
0 0 42
0 0 42
0 0 42
0 0 42
0 0 42
0 0 42
0 0 42
0 0 42
0 0 42
0 0 42
0 0 42
0 0 42
0 0 42
0 0 42
0 0 42
0 0 42
0 0 42
0 0 42
0 0 42
0 0 42
0 0 42
0 0 42
0 0 42
0 0 42
0 0 42
0 0 42
0 0 42
0 0 42
0 0 42
0 0 42
0 0 42
0 0 42
0 0 42
0 0 42
0 0 42
0 0 42
0 0 42
0 0 42
0 0 42
0 0 42
0 0 42
0 0 45
120 121 117
217 224 232
219 234 255
219 234 255
219 234 255
219 234 255
219 234 255
219 234 255
219 234 255
219 234 255
219 234 255
219 234 255
219 234 255
219 234 255
219 234 255
219 234 255
219 234 255
219 234 255
219 234 255
219 234 255
219 234 255
219 234 255
219 234 255
219 234 255
219 234 255
219 234 255
219 234 255
219 234 255
219 234 255
219 234 255
219 234 255
219 234 255
219 234 255
219 234 255
219 234 255
219 234 255
219 234 255
219 234 255
219 234 255
219 234 255
219 234 255
219 234 255
219 234 255
219 234 255
219 234 255
219 234 255
219 234 255
219 234 255
219 234 255
219 234 255
219 234 255
219 234 255
219 234 255
219 234 255
219 234 255
219 234 255
219 234 255
219 234 255
219 234 255
219 234 255
219 234 255
219 234 255
219 234 255
219 234 255
219 234 255
219 234 255
219 234 255
219 234 255
219 234 255
219 234 255
219 234 255
219 234 255
219 234 255
219 234 255
219 234 255
219 234 255
219 234 255
219 234 255
219 234 255
219 234 255
219 234 255
219 234 255
219 234 255
219 234 255
219 234 255
219 234 255
219 234 255
219 234 255
219 234 255
219 234 255
219 234 255
219 234 255
219 234 255
219 234 255
219 234 255
219 234 255
219 234 255
219 234 255
219 234 255
219 234 255
219 234 255
219 234 255
219 234 255
219 234 255
219 234 255
219 234 255
219 234 255
219 234 255
219 234 255
219 234 255
219 234 255
219 234 255
219 234 255
219 234 255
219 234 255
219 234 255
219 234 255
219 234 255
219 234 255
219 234 255
219 234 255
219 234 255
219 234 255
219 234 255
219 234 255
219 234 255
219 234 255
219 234 255
219 234 255
219 234 255
219 234 255
219 234 255
219 234 255
219 234 255
219 234 255
219 234 255
219 234 255
219 234 255
219 234 255
219 234 255
219 234 255
219 234 255
219 234 255
219 234 255
219 234 255
219 234 255
219 234 255
219 234 255
219 234 255
219 234 255
219 234 255
219 234 255
219 234 255
219 234 255
219 234 255
219 234 255
219 234 255
219 234 255
219 234 255
219 234 255
219 234 255
219 234 255
219 234 255
219 234 255
219 234 255
219 234 255
219 234 255
219 234 255
219 234 255
219 234 255
219 234 255
219 234 255
219 234 255
219 234 255
219 234 255
219 234 255
219 234 255
219 234 255
219 234 255
219 234 255
219 234 255
219 234 255
219 234 255
219 234 255
219 234 255
219 234 255
219 234 255
219 234 255
219 234 255
219 234 255
219 234 255
219 234 255
219 234 255
219 234 255
219 234 255
219 234 255
219 234 255
219 234 255
219 234 255
219 234 255
219 234 255
219 234 255
102 110 125
0 0 43
10 13 43
5 6 41
0 0 42
0 0 42
0 0 42
0 0 42
0 0 42
0 0 42
0 0 42
0 0 42
0 0 42
0 0 42
0 0 42
0 0 42
0 0 42
0 0 42
0 0 42
0 0 42
0 0 42
0 0 42
0 0 42
0 0 42
0 0 42
0 0 42
0 0 42
0 0 42
0 0 42
0 0 42
0 0 42
0 0 42
0 0 42
0 0 42
0 0 42
0 0 42
0 0 42
0 0 42
0 0 42
0 0 42
0 0 42
0 0 42
0 0 42
0 0 42
0 0 42
0 0 42
0 0 42
0 0 42
0 0 42
0 0 42
0 0 42
0 0 42
0 0 42
0 0 42
0 0 42
0 0 42
0 0 44
0 0 45
0 0 44
0 0 42
0 0 42
0 0 43
0 0 45
0 0 45
0 0 45
0 0 45
0 0 50
0 0 44
0 0 48
9 24 84
29 50 57
38 67 32
42 74 15
46 72 27
48 72 10
47 67 15
45 67 3
39 68 0
38 62 2
41 62 8
41 60 9
47 67 14
52 68 24
69 78 36
73 78 33
49 63 13
42 72 21
24 45 30
5 9 42
0 0 43
0 0 42
0 0 46
0 0 55
0 0 58
0 13 70
0 10 57
0 14 63
17 41 42
37 64 16
37 66 0
30 62 0
32 61 0
30 64 2
34 67 19
29 55 20
9 18 43
0 0 42
0 0 42
0 0 42
0 0 42
0 0 42
0 0 42
0 0 42
0 0 42
0 0 42
0 0 42
0 0 42
0 0 42
0 0 42
0 0 42
0 0 42
0 0 42
0 0 42
0 0 40
0 0 43
0 0 45
0 0 42
0 0 41
0 0 43
0 0 43
0 0 40
0 0 40
0 0 47
0 1 41
9 11 42
49 62 34
61 78 31
49 67 13
46 64 18
49 72 15
40 67 18
20 32 41
14 20 41
0 0 40
0 0 45
0 0 40
0 0 38
0 0 43
0 0 43
0 0 42
0 0 42
0 0 42
0 0 42
0 0 42
0 0 42
0 0 43
0 0 41
0 0 41
0 0 42
0 0 42
0 0 42
0 0 42
0 0 42
0 0 42
0 0 42
0 0 42
0 0 42
0 0 42
0 0 42
0 0 42
0 0 42
0 0 42
0 0 42
0 0 42
0 0 42
0 0 42
0 0 42
0 0 42
0 0 42
0 0 42
0 0 42
0 0 42
0 0 42
0 0 42
0 0 42
0 0 42
0 0 42
0 0 42
0 0 42
0 0 42
0 0 42
0 0 42
0 0 42
0 0 42
0 0 42
0 0 42
0 0 42
0 0 43
43 50 76
202 201 183
219 234 255
219 234 255
219 234 255
219 234 255
219 234 255
219 234 255
219 234 255
219 234 255
219 234 255
219 234 255
219 234 255
219 234 255
219 234 255
219 234 255
219 234 255
219 234 255
219 234 255
219 234 255
219 234 255
219 234 255
219 234 255
219 234 255
219 234 255
219 234 255
219 234 255
219 234 255
219 234 255
219 234 255
219 234 255
219 234 255
219 234 255
219 234 255
219 234 255
219 234 255
219 234 255
219 234 255
219 234 255
219 234 255
219 234 255
219 234 255
219 234 255
219 234 255
219 234 255
219 234 255
219 234 255
219 234 255
219 234 255
219 234 255
219 234 255
219 234 255
219 234 255
219 234 255
219 234 255
219 234 255
219 234 255
219 234 255
219 234 255
219 234 255
219 234 255
219 234 255
219 234 255
219 234 255
219 234 255
219 234 255
219 234 255
219 234 255
219 234 255
219 234 255
219 234 255
219 234 255
219 234 255
219 234 255
219 234 255
219 234 255
219 234 255
219 234 255
219 234 255
219 234 255
219 234 255
219 234 255
219 234 255
219 234 255
219 234 255
219 234 255
219 234 255
219 234 255
219 234 255
219 234 255
219 234 255
219 234 255
219 234 255
219 234 255
219 234 255
219 234 255
219 234 255
219 234 255
219 234 255
219 234 255
219 234 255
219 234 255
219 234 255
219 234 255
219 234 255
219 234 255
219 234 255
219 234 255
219 234 255
219 234 255
219 234 255
219 234 255
219 234 255
219 234 255
219 234 255
219 234 255
219 234 255
219 234 255
219 234 255
219 234 255
219 234 255
219 234 255
219 234 255
219 234 255
219 234 255
219 234 255
219 234 255
219 234 255
219 234 255
219 234 255
219 234 255
219 234 255
219 234 255
219 234 255
219 234 255
219 234 255
219 234 255
219 234 255
219 234 255
219 234 255
219 234 255
219 234 255
219 234 255
219 234 255
219 234 255
219 234 255
219 234 255
219 234 255
219 234 255
219 234 255
219 234 255
219 234 255
219 234 255
219 234 255
219 234 255
219 234 255
219 234 255
219 234 255
219 234 255
219 234 255
219 234 255
219 234 255
219 234 255
219 234 255
219 234 255
219 234 255
219 234 255
219 234 255
219 234 255
219 234 255
219 234 255
219 234 255
219 234 255
219 234 255
219 234 255
219 234 255
219 234 255
219 234 255
219 234 255
219 234 255
219 234 255
219 234 255
219 234 255
219 234 255
219 234 255
219 234 255
219 234 255
219 234 255
219 234 255
219 234 255
219 234 255
219 234 255
219 234 255
219 234 255
219 234 255
219 234 255
219 234 255
219 234 255
219 234 255
219 234 255
219 234 255
197 211 231
0 0 42
0 0 41
10 11 42
0 0 43
0 0 42
0 0 42
0 0 42
0 0 42
0 0 42
0 0 42
0 0 42
0 0 42
0 0 42
0 0 42
0 0 42
0 0 42
0 0 42
0 0 42
0 0 42
0 0 42
0 0 42
0 0 42
0 0 42
0 0 42
0 0 42
0 0 42
0 0 42
0 0 42
0 0 42
0 0 42
0 0 42
0 0 42
0 0 42
0 0 42
0 0 42
0 0 42
0 0 42
0 0 42
0 0 42
0 0 42
0 0 42
0 0 42
0 0 42
0 0 42
0 0 42
0 0 42
0 0 42
0 0 42
0 0 42
0 0 42
0 0 42
0 0 42
0 0 42
0 0 42
0 0 42
0 0 42
0 0 42
0 0 42
0 0 42
0 0 42
0 0 42
0 0 44
0 0 45
0 0 45
0 0 45
0 0 47
0 0 48
0 0 45
0 0 47
0 0 56
0 6 71
19 37 53
38 66 17
43 70 11
44 64 0
50 68 17
51 70 17
45 75 0
44 72 0
43 69 1
43 67 3
44 68 9
55 72 23
76 82 43
82 88 51
52 70 17
41 72 9
40 71 18
45 70 22
33 54 19
13 24 37
11 19 51
15 29 39
21 41 40
25 55 35
28 58 21
26 52 52
32 65 28
37 69 0
32 62 0
33 66 0
35 67 0
38 71 8
35 65 31
19 38 36
4 12 40
0 0 42
0 0 42
0 0 42
0 0 42
0 0 42
0 0 42
0 0 42
0 0 42
0 0 42
0 0 42
0 0 42
0 0 42
0 0 42
0 0 41
0 0 40
0 0 42
0 0 42
0 1 39
9 18 33
18 28 29
11 17 33
0 0 40
0 0 44
0 0 44
0 0 42
9 12 38
29 41 39
32 45 31
19 29 34
33 45 33
65 81 31
63 77 28
59 76 29
46 65 12
43 69 13
50 74 23
55 77 25
24 31 34
0 0 43
7 11 43
13 21 37
12 18 39
8 11 40
0 0 44
0 0 42
0 0 42
0 0 42
0 0 42
0 0 42
0 0 40
0 0 41
0 0 42
0 0 42
0 0 42
0 0 42
0 0 42
0 0 42
0 0 42
0 0 42
0 0 42
0 0 42
0 0 42
0 0 42
0 0 42
0 0 42
0 0 42
0 0 42
0 0 42
0 0 42
0 0 42
0 0 42
0 0 42
0 0 42
0 0 42
0 0 42
0 0 42
0 0 42
0 0 42
0 0 42
0 0 42
0 0 42
0 0 42
0 0 42
0 0 42
0 0 42
0 0 42
0 0 42
0 0 42
0 0 42
0 0 42
0 0 42
0 0 44
0 2 57
159 163 146
216 229 243
219 234 255
219 234 255
219 234 255
219 234 255
219 234 255
219 234 255
219 234 255
219 234 255
219 234 255
219 234 255
219 234 255
219 234 255
219 234 255
219 234 255
219 234 255
219 234 255
219 234 255
219 234 255
219 234 255
219 234 255
219 234 255
219 234 255
219 234 255
219 234 255
219 234 255
219 234 255
219 234 255
219 234 255
219 234 255
219 234 255
219 234 255
219 234 255
219 234 255
219 234 255
219 234 255
219 234 255
219 234 255
219 234 255
219 234 255
219 234 255
219 234 255
219 234 255
219 234 255
219 234 255
219 234 255
219 234 255
219 234 255
219 234 255
219 234 255
219 234 255
219 234 255
219 234 255
219 234 255
219 234 255
219 234 255
219 234 255
219 234 255
219 234 255
219 234 255
219 234 255
219 234 255
219 234 255
219 234 255
219 234 255
219 234 255
219 234 255
219 234 255
219 234 255
219 234 255
219 234 255
219 234 255
219 234 255
219 234 255
219 234 255
219 234 255
219 234 255
219 234 255
219 234 255
219 234 255
219 234 255
219 234 255
219 234 255
219 234 255
219 234 255
219 234 255
219 234 255
219 234 255
219 234 255
219 234 255
219 234 255
219 234 255
219 234 255
219 234 255
219 234 255
219 234 255
219 234 255
219 234 255
219 234 255
219 234 255
219 234 255
219 234 255
219 234 255
219 234 255
219 234 255
219 234 255
219 234 255
219 234 255
219 234 255
219 234 255
219 234 255
219 234 255
219 234 255
219 234 255
219 234 255
219 234 255
219 234 255
219 234 255
219 234 255
219 234 255
219 234 255
219 234 255
219 234 255
219 234 255
219 234 255
219 234 255
219 234 255
219 234 255
219 234 255
219 234 255
219 234 255
219 234 255
219 234 255
219 234 255
219 234 255
219 234 255
219 234 255
219 234 255
219 234 255
219 234 255
219 234 255
219 234 255
219 234 255
219 234 255
219 234 255
219 234 255
219 234 255
219 234 255
219 234 255
219 234 255
219 234 255
219 234 255
219 234 255
219 234 255
219 234 255
219 234 255
219 234 255
219 234 255
219 234 255
219 234 255
219 234 255
219 234 255
219 234 255
219 234 255
219 234 255
219 234 255
219 234 255
219 234 255
219 234 255
219 234 255
219 234 255
219 234 255
219 234 255
219 234 255
219 234 255
219 234 255
219 234 255
219 234 255
219 234 255
219 234 255
219 234 255
219 234 255
219 234 255
219 234 255
219 234 255
219 234 255
219 234 255
219 234 255
219 234 255
219 234 255
219 234 255
219 234 255
219 234 255
219 234 255
219 234 255
219 234 255
219 234 255
219 234 255
219 234 255
140 150 167
0 0 42
0 0 42
19 25 39
0 0 43
0 0 42
0 0 42
0 0 42
0 0 42
0 0 42
0 0 42
0 0 42
0 0 42
0 0 42
0 0 42
0 0 42
0 0 42
0 0 42
0 0 42
0 0 42
0 0 42
0 0 42
0 0 42
0 0 42
0 0 42
0 0 42
0 0 42
0 0 42
0 0 42
0 0 42
0 0 42
0 0 42
0 0 42
0 0 42
0 0 42
0 0 42
0 0 42
0 0 42
0 0 42
0 0 42
0 0 42
0 0 42
0 0 42
0 0 42
0 0 42
0 0 42
0 0 42
0 0 42
0 0 42
0 0 42
0 0 42
0 0 42
0 0 42
0 0 42
0 0 42
0 0 42
0 0 42
0 0 42
0 0 42
0 0 42
0 0 42
0 0 42
0 0 44
0 0 45
0 0 45
0 0 45
0 0 51
0 0 42
0 0 42
0 0 46
0 0 47
0 0 53
3 5 59
5 13 60
21 35 39
34 51 40
38 61 33
41 68 0
40 65 0
41 65 5
44 66 14
49 71 19
47 69 13
51 68 15
71 81 34
79 88 49
59 74 29
36 64 5
39 72 8
49 78 19
49 79 16
42 72 17
40 70 15
42 73 0
44 76 12
51 70 11
42 71 9
46 73 11
48 71 14
37 67 7
34 59 0
35 64 0
38 64 0
42 70 10
33 60 26
10 21 44
0 0 41
0 0 42
0 0 42
0 0 42
0 0 42
0 0 42
0 0 42
0 0 42
0 0 42
0 0 42
0 0 42
0 0 42
0 0 42
0 0 42
0 0 40
0 0 41
0 0 42
0 0 42
0 0 40
10 19 36
32 51 23
41 63 24
28 45 25
11 17 36
0 0 40
0 0 44
0 0 38
17 24 33
20 28 35
14 25 34
20 28 40
35 44 35
55 66 32
46 57 36
26 36 40
24 36 33
19 26 46
34 46 33
20 26 41
0 0 45
12 18 40
39 57 17
41 61 21
24 36 34
0 3 46
0 0 41
0 0 42
0 0 42
0 0 42
0 0 42
0 0 40
0 0 40
0 0 42
0 0 41
0 0 42
0 0 42
0 0 42
0 0 42
0 0 42
0 0 42
0 0 42
0 0 42
0 0 42
0 0 42
0 0 42
0 0 42
0 0 42
0 0 42
0 0 42
0 0 42
0 0 42
0 0 42
0 0 42
0 0 42
0 0 42
0 0 42
0 0 42
0 0 42
0 0 42
0 0 42
0 0 42
0 0 42
0 0 42
0 0 42
0 0 42
0 0 42
0 0 42
0 0 42
0 0 42
0 0 42
0 0 42
0 0 42
0 0 42
0 0 56
57 75 102
207 213 204
219 234 255
219 234 255
219 234 255
219 234 255
219 234 255
219 234 255
219 234 255
219 234 255
219 234 255
219 234 255
219 234 255
219 234 255
219 234 255
219 234 255
219 234 255
219 234 255
219 234 255
219 234 255
219 234 255
219 234 255
219 234 255
219 234 255
219 234 255
219 234 255
219 234 255
219 234 255
219 234 255
219 234 255
219 234 255
219 234 255
219 234 255
219 234 255
219 234 255
219 234 255
219 234 255
219 234 255
219 234 255
219 234 255
219 234 255
219 234 255
219 234 255
219 234 255
219 234 255
219 234 255
219 234 255
219 234 255
219 234 255
219 234 255
219 234 255
219 234 255
219 234 255
219 234 255
219 234 255
219 234 255
219 234 255
219 234 255
219 234 255
219 234 255
219 234 255
219 234 255
219 234 255
219 234 255
219 234 255
219 234 255
219 234 255
219 234 255
219 234 255
219 234 255
219 234 255
219 234 255
219 234 255
219 234 255
219 234 255
219 234 255
219 234 255
219 234 255
219 234 255
219 234 255
219 234 255
219 234 255
219 234 255
219 234 255
219 234 255
219 234 255
219 234 255
219 234 255
219 234 255
219 234 255
219 234 255
219 234 255
219 234 255
219 234 255
219 234 255
219 234 255
219 234 255
219 234 255
219 234 255
219 234 255
219 234 255
219 234 255
219 234 255
219 234 255
219 234 255
219 234 255
219 234 255
219 234 255
219 234 255
219 234 255
219 234 255
219 234 255
219 234 255
219 234 255
219 234 255
219 234 255
219 234 255
219 234 255
219 234 255
219 234 255
219 234 255
219 234 255
219 234 255
219 234 255
219 234 255
219 234 255
219 234 255
219 234 255
219 234 255
219 234 255
219 234 255
219 234 255
219 234 255
219 234 255
219 234 255
219 234 255
219 234 255
219 234 255
219 234 255
219 234 255
219 234 255
219 234 255
219 234 255
219 234 255
219 234 255
219 234 255
219 234 255
219 234 255
219 234 255
219 234 255
219 234 255
219 234 255
219 234 255
219 234 255
219 234 255
219 234 255
219 234 255
219 234 255
219 234 255
219 234 255
219 234 255
219 234 255
219 234 255
219 234 255
219 234 255
219 234 255
219 234 255
219 234 255
219 234 255
219 234 255
219 234 255
219 234 255
219 234 255
219 234 255
219 234 255
219 234 255
219 234 255
219 234 255
219 234 255
219 234 255
219 234 255
219 234 255
219 234 255
219 234 255
219 234 255
219 234 255
219 234 255
219 234 255
219 234 255
219 234 255
219 234 255
219 234 255
219 234 255
219 234 255
219 234 255
219 234 255
219 234 255
219 234 255
219 234 255
218 233 254
58 62 79
0 0 41
0 0 42
28 34 31
0 0 42
0 0 42
0 0 42
0 0 42
0 0 42
0 0 42
0 0 42
0 0 42
0 0 42
0 0 42
0 0 42
0 0 42
0 0 42
0 0 42
0 0 42
0 0 42
0 0 42
0 0 42
0 0 42
0 0 42
0 0 42
0 0 42
0 0 42
0 0 42
0 0 42
0 0 42
0 0 42
0 0 42
0 0 42
0 0 42
0 0 42
0 0 42
0 0 42
0 0 42
0 0 42
0 0 42
0 0 42
0 0 42
0 0 42
0 0 42
0 0 42
0 0 42
0 0 42
0 0 42
0 0 42
0 0 42
0 0 42
0 0 42
0 0 42
0 0 42
0 0 42
0 0 42
0 0 42
0 0 42
0 0 42
0 0 42
0 0 42
0 0 42
0 0 44
0 0 45
0 0 45
0 0 45
0 0 45
0 0 43
0 0 45
0 0 46
0 0 47
0 0 48
0 0 49
0 0 51
0 0 62
0 6 58
11 26 53
31 55 34
38 60 11
39 61 0
39 60 8
44 65 10
50 69 16
50 68 13
61 74 28
72 83 34
62 75 28
31 51 0
37 63 0
42 71 10
44 76 16
46 80 9
45 79 0
39 69 0
39 67 6
42 67 3
34 66 6
40 70 10
41 71 11
35 69 5
30 63 0
33 61 0
35 61 0
39 66 0
31 55 28
0 5 53
0 0 38
0 0 42
0 0 42
0 0 42
0 0 42
0 0 42
0 0 42
0 0 42
0 0 42
0 0 42
0 0 42
0 0 42
0 0 42
0 0 42
0 0 42
0 0 42
0 0 42
0 0 42
0 0 43
0 0 41
0 7 38
0 9 46
0 0 46
0 0 43
0 0 41
0 0 38
0 0 42
0 0 43
0 0 45
0 0 49
0 0 46
0 0 38
18 22 39
5 11 43
0 0 37
0 0 47
0 0 46
0 0 42
0 0 47
0 0 36
0 0 40
18 26 40
25 36 46
15 22 41
0 3 41
0 0 44
0 0 42
0 0 40
0 0 42
0 0 42
0 0 40
0 0 39
0 0 42
0 0 41
0 0 41
0 0 42
0 0 42
0 0 42
0 0 42
0 0 42
0 0 42
0 0 42
0 0 42
0 0 42
0 0 42
0 0 42
0 0 42
0 0 42
0 0 42
0 0 42
0 0 42
0 0 42
0 0 42
0 0 42
0 0 42
0 0 42
0 0 42
0 0 42
0 0 42
0 0 42
0 0 42
0 0 42
0 0 42
0 0 42
0 0 42
0 0 42
0 0 42
0 0 42
0 0 42
0 0 42
0 0 42
0 0 42
0 0 43
0 0 50
0 29 86
174 176 160
219 234 255
219 234 255
219 234 255
219 234 255
219 234 255
219 234 255
219 234 255
219 234 255
219 234 255
219 234 255
219 234 255
219 234 255
219 234 255
219 234 255
219 234 255
219 234 255
219 234 255
219 234 255
219 234 255
219 234 255
219 234 255
219 234 255
219 234 255
219 234 255
219 234 255
219 234 255
219 234 255
219 234 255
219 234 255
219 234 255
219 234 255
219 234 255
219 234 255
219 234 255
219 234 255
219 234 255
219 234 255
219 234 255
219 234 255
219 234 255
219 234 255
219 234 255
219 234 255
219 234 255
219 234 255
219 234 255
219 234 255
219 234 255
219 234 255
219 234 255
219 234 255
219 234 255
219 234 255
219 234 255
219 234 255
219 234 255
219 234 255
219 234 255
219 234 255
219 234 255
219 234 255
219 234 255
219 234 255
219 234 255
219 234 255
219 234 255
219 234 255
219 234 255
219 234 255
219 234 255
219 234 255
219 234 255
219 234 255
219 234 255
219 234 255
219 234 255
219 234 255
219 234 255
219 234 255
219 234 255
219 234 255
219 234 255
219 234 255
219 234 255
219 234 255
219 234 255
219 234 255
219 234 255
219 234 255
219 234 255
219 234 255
219 234 255
219 234 255
219 234 255
219 234 255
219 234 255
219 234 255
219 234 255
219 234 255
219 234 255
219 234 255
219 234 255
219 234 255
219 234 255
219 234 255
219 234 255
219 234 255
219 234 255
219 234 255
219 234 255
219 234 255
219 234 255
219 234 255
219 234 255
219 234 255
219 234 255
219 234 255
219 234 255
219 234 255
219 234 255
219 234 255
219 234 255
219 234 255
219 234 255
219 234 255
219 234 255
219 234 255
219 234 255
219 234 255
219 234 255
219 234 255
219 234 255
219 234 255
219 234 255
219 234 255
219 234 255
219 234 255
219 234 255
219 234 255
219 234 255
219 234 255
219 234 255
219 234 255
219 234 255
219 234 255
219 234 255
219 234 255
219 234 255
219 234 255
219 234 255
219 234 255
219 234 255
219 234 255
219 234 255
219 234 255
219 234 255
219 234 255
219 234 255
219 234 255
219 234 255
219 234 255
219 234 255
219 234 255
219 234 255
219 234 255
219 234 255
219 234 255
219 234 255
219 234 255
219 234 255
219 234 255
219 234 255
219 234 255
219 234 255
219 234 255
219 234 255
219 234 255
219 234 255
219 234 255
219 234 255
219 234 255
219 234 255
219 234 255
219 234 255
219 234 255
219 234 255
219 234 255
219 234 255
219 234 255
219 234 255
219 234 255
219 234 255
219 234 255
219 234 255
219 234 255
219 234 255
219 234 255
175 187 206
0 0 42
0 0 42
4 3 42
9 9 40
0 0 42
0 0 42
0 0 42
0 0 42
0 0 42
0 0 42
0 0 42
0 0 42
0 0 42
0 0 42
0 0 42
0 0 42
0 0 42
0 0 42
0 0 42
0 0 42
0 0 42
0 0 42
0 0 42
0 0 42
0 0 42
0 0 42
0 0 42
0 0 42
0 0 42
0 0 42
0 0 42
0 0 42
0 0 42
0 0 42
0 0 42
0 0 42
0 0 42
0 0 42
0 0 42
0 0 42
0 0 42
0 0 42
0 0 42
0 0 42
0 0 42
0 0 42
0 0 42
0 0 42
0 0 42
0 0 42
0 0 42
0 0 42
0 0 42
0 0 42
0 0 42
0 0 42
0 0 42
0 0 42
0 0 42
0 0 42
0 0 42
0 0 42
0 0 45
0 0 45
0 0 45
0 0 44
0 0 37
0 0 43
0 0 42
0 0 38
0 0 44
0 0 46
0 0 41
0 0 47
0 0 43
0 0 48
0 4 52
11 17 50
17 31 50
25 44 28
39 63 17
42 64 13
43 62 13
42 61 14
48 65 11
58 70 21
63 73 29
55 71 25
41 61 8
32 59 2
36 63 7
30 59 3
31 59 5
39 65 11
41 66 9
39 65 6
34 58 0
29 58 0
32 56 0
48 68 0
43 73 0
37 67 0
34 62 0
35 63 3
26 48 31
0 0 48
0 0 46
0 0 40
0 0 42
0 0 41
0 0 42
0 0 42
0 0 42
0 0 41
0 0 41
0 0 42
0 0 42
0 0 41
0 0 42
0 0 42
0 0 42
0 0 42
0 0 42
0 0 42
0 0 42
0 0 42
0 0 42
0 0 41
0 0 38
0 0 40
0 0 41
0 0 43
0 0 40
0 0 39
0 0 43
0 0 38
0 0 39
0 0 44
0 0 40
0 0 48
0 0 41
0 0 40
0 0 36
0 0 43
0 0 41
0 0 39
0 0 40
0 0 40
0 0 39
0 0 46
0 0 45
0 0 38
0 0 40
0 0 39
0 0 41
0 0 42
0 0 43
0 0 40
0 0 41
0 0 43
0 0 40
0 0 41
0 0 42
0 0 42
0 0 42
0 0 42
0 0 42
0 0 42
0 0 42
0 0 42
0 0 42
0 0 42
0 0 42
0 0 42
0 0 42
0 0 42
0 0 42
0 0 42
0 0 42
0 0 42
0 0 42
0 0 42
0 0 42
0 0 42
0 0 42
0 0 42
0 0 42
0 0 42
0 0 42
0 0 42
0 0 42
0 0 42
0 0 42
0 0 42
0 0 42
0 0 42
0 0 42
0 0 42
0 0 41
0 0 44
0 11 68
122 122 124
216 224 233
219 234 255
219 234 255
219 234 255
219 234 255
219 234 255
219 234 255
219 234 255
219 234 255
219 234 255
219 234 255
219 234 255
219 234 255
219 234 255
219 234 255
219 234 255
219 234 255
219 234 255
219 234 255
219 234 255
219 234 255
219 234 255
219 234 255
219 234 255
219 234 255
219 234 255
219 234 255
219 234 255
219 234 255
219 234 255
219 234 255
219 234 255
219 234 255
219 234 255
219 234 255
219 234 255
219 234 255
219 234 255
219 234 255
219 234 255
219 234 255
219 234 255
219 234 255
219 234 255
219 234 255
219 234 255
219 234 255
219 234 255
219 234 255
219 234 255
219 234 255
219 234 255
219 234 255
219 234 255
219 234 255
219 234 255
219 234 255
219 234 255
219 234 255
219 234 255
219 234 255
219 234 255
219 234 255
219 234 255
219 234 255
219 234 255
219 234 255
219 234 255
219 234 255
219 234 255
219 234 255
219 234 255
219 234 255
219 234 255
219 234 255
219 234 255
219 234 255
219 234 255
219 234 255
219 234 255
219 234 255
219 234 255
219 234 255
219 234 255
219 234 255
219 234 255
219 234 255
219 234 255
219 234 255
219 234 255
219 234 255
219 234 255
219 234 255
219 234 255
219 234 255
219 234 255
219 234 255
219 234 255
219 234 255
219 234 255
219 234 255
219 234 255
219 234 255
219 234 255
219 234 255
219 234 255
219 234 255
219 234 255
219 234 255
219 234 255
219 234 255
219 234 255
219 234 255
219 234 255
219 234 255
219 234 255
219 234 255
219 234 255
219 234 255
219 234 255
219 234 255
219 234 255
219 234 255
219 234 255
219 234 255
219 234 255
219 234 255
219 234 255
219 234 255
219 234 255
219 234 255
219 234 255
219 234 255
219 234 255
219 234 255
219 234 255
219 234 255
219 234 255
219 234 255
219 234 255
219 234 255
219 234 255
219 234 255
219 234 255
219 234 255
219 234 255
219 234 255
219 234 255
219 234 255
219 234 255
219 234 255
219 234 255
219 234 255
219 234 255
219 234 255
219 234 255
219 234 255
219 234 255
219 234 255
219 234 255
219 234 255
219 234 255
219 234 255
219 234 255
219 234 255
219 234 255
219 234 255
219 234 255
219 234 255
219 234 255
219 234 255
219 234 255
219 234 255
219 234 255
219 234 255
219 234 255
219 234 255
219 234 255
219 234 255
219 234 255
219 234 255
219 234 255
219 234 255
219 234 255
219 234 255
219 234 255
219 234 255
219 234 255
219 234 255
219 234 255
219 234 255
219 234 255
219 234 255
219 234 255
219 234 255
219 234 255
219 234 255
129 138 155
0 0 42
0 0 42
0 0 39
0 0 42
0 0 42
0 0 42
0 0 42
0 0 42
0 0 42
0 0 42
0 0 42
0 0 42
0 0 42
0 0 42
0 0 42
0 0 42
0 0 42
0 0 42
0 0 42
0 0 42
0 0 42
0 0 42
0 0 42
0 0 42
0 0 42
0 0 42
0 0 42
0 0 42
0 0 42
0 0 42
0 0 42
0 0 42
0 0 42
0 0 42
0 0 42
0 0 42
0 0 42
0 0 42
0 0 42
0 0 42
0 0 42
0 0 42
0 0 42
0 0 42
0 0 42
0 0 42
0 0 42
0 0 42
0 0 42
0 0 42
0 0 43
0 0 44
0 0 43
0 0 42
0 0 42
0 0 42
0 0 42
0 0 42
0 0 42
0 0 42
0 0 42
0 0 42
0 0 42
0 0 42
0 0 42
0 0 42
0 0 42
0 0 42
0 0 42
0 0 42
0 0 42
0 0 43
0 0 44
0 0 45
0 0 45
0 0 45
0 0 46
0 0 45
0 0 47
0 0 50
12 23 56
22 40 41
32 57 43
39 67 32
42 70 0
42 63 0
58 72 28
68 80 37
49 65 19
46 70 12
48 73 32
40 67 19
46 72 7
48 70 19
49 72 20
46 65 12
40 59 13
31 53 9
27 54 0
35 64 0
40 70 0
41 71 0
39 69 0
34 61 5
20 31 35
0 0 48
0 0 38
0 0 41
0 0 43
0 0 43
0 0 44
0 0 44
0 0 44
0 0 41
0 0 36
0 0 45
0 0 41
0 0 41
0 0 40
0 0 42
0 0 42
0 0 42
0 0 42
0 0 42
0 0 42
0 0 42
0 0 42
0 0 42
0 0 42
0 0 42
0 0 42
0 0 42
0 0 42
0 0 42
0 0 42
0 0 42
0 0 41
0 0 42
0 0 42
0 0 42
0 0 42
0 0 42
0 0 41
0 0 43
0 0 41
0 0 42
0 0 43
0 0 44
0 0 41
0 0 41
0 0 41
0 0 41
0 0 41
0 0 41
0 0 42
0 0 44
0 0 42
0 0 42
0 0 42
0 0 44
0 0 41
0 0 40
0 0 42
0 0 42
0 0 42
0 0 42
0 0 42
0 0 42
0 0 42
0 0 42
0 0 42
0 0 42
0 0 42
0 0 42
0 0 42
0 0 42
0 0 42
0 0 42
0 0 42
0 0 42
0 0 42
0 0 42
0 0 42
0 0 42
0 0 42
0 0 42
0 0 42
0 0 42
0 0 42
0 0 42
0 0 42
0 0 42
0 0 42
0 0 42
0 0 42
0 0 42
0 0 42
0 0 41
0 0 41
0 0 42
0 0 56
30 49 93
195 199 187
219 234 255
219 234 255
219 234 255
219 234 255
219 234 255
219 234 255
219 234 255
219 234 255
219 234 255
219 234 255
219 234 255
219 234 255
219 234 255
219 234 255
219 234 255
219 234 255
219 234 255
219 234 255
219 234 255
219 234 255
219 234 255
219 234 255
219 234 255
219 234 255
219 234 255
219 234 255
219 234 255
219 234 255
219 234 255
219 234 255
219 234 255
219 234 255
219 234 255
219 234 255
219 234 255
219 234 255
219 234 255
219 234 255
219 234 255
219 234 255
219 234 255
219 234 255
219 234 255
219 234 255
219 234 255
219 234 255
219 234 255
219 234 255
219 234 255
219 234 255
219 234 255
219 234 255
219 234 255
219 234 255
219 234 255
219 234 255
219 234 255
219 234 255
219 234 255
219 234 255
219 234 255
219 234 255
219 234 255
219 234 255
219 234 255
219 234 255
219 234 255
219 234 255
219 234 255
219 234 255
219 234 255
219 234 255
219 234 255
219 234 255
219 234 255
219 234 255
219 234 255
219 234 255
219 234 255
219 234 255
219 234 255
219 234 255
219 234 255
219 234 255
219 234 255
219 234 255
219 234 255
219 234 255
219 234 255
219 234 255
219 234 255
219 234 255
219 234 255
219 234 255
219 234 255
219 234 255
219 234 255
219 234 255
219 234 255
219 234 255
219 234 255
219 234 255
219 234 255
219 234 255
219 234 255
219 234 255
219 234 255
219 234 255
219 234 255
219 234 255
219 234 255
219 234 255
219 234 255
219 234 255
219 234 255
219 234 255
219 234 255
219 234 255
219 234 255
219 234 255
219 234 255
219 234 255
219 234 255
219 234 255
219 234 255
219 234 255
219 234 255
219 234 255
219 234 255
219 234 255
219 234 255
219 234 255
219 234 255
219 234 255
219 234 255
219 234 255
219 234 255
219 234 255
219 234 255
219 234 255
219 234 255
219 234 255
219 234 255
219 234 255
219 234 255
219 234 255
219 234 255
219 234 255
219 234 255
219 234 255
219 234 255
219 234 255
219 234 255
219 234 255
219 234 255
219 234 255
219 234 255
219 234 255
219 234 255
219 234 255
219 234 255
219 234 255
219 234 255
219 234 255
219 234 255
219 234 255
219 234 255
219 234 255
219 234 255
219 234 255
219 234 255
219 234 255
219 234 255
219 234 255
219 234 255
219 234 255
219 234 255
219 234 255
219 234 255
219 234 255
219 234 255
219 234 255
219 234 255
219 234 255
219 234 255
219 234 255
219 234 255
219 234 255
219 234 255
219 234 255
219 234 255
219 234 255
219 234 255
219 234 255
219 234 255
216 231 252
53 57 74
0 0 42
0 0 42
0 0 40
0 0 42
0 0 42
0 0 42
0 0 42
0 0 42
0 0 42
0 0 42
0 0 42
0 0 42
0 0 42
0 0 42
0 0 42
0 0 42
0 0 42
0 0 42
0 0 42
0 0 42
0 0 42
0 0 42
0 0 42
0 0 42
0 0 42
0 0 42
0 0 42
0 0 42
0 0 42
0 0 42
0 0 42
0 0 42
0 0 42
0 0 42
0 0 42
0 0 42
0 0 42
0 0 42
0 0 42
0 0 42
0 0 42
0 0 42
0 0 42
0 0 42
0 0 42
0 0 42
0 0 42
0 0 42
0 0 42
0 0 42
0 0 45
0 0 45
0 0 44
0 0 42
0 0 42
0 0 42
0 0 42
0 0 42
0 0 42
0 0 42
0 0 42
0 0 42
0 0 42
0 0 42
0 0 42
0 0 42
0 0 42
0 0 42
0 0 42
0 0 42
0 0 42
0 0 42
0 0 42
0 0 43
0 0 44
0 0 45
0 0 45
0 0 45
0 0 47
0 0 48
0 0 50
0 0 46
9 14 52
21 35 65
27 51 30
34 57 10
46 65 20
45 66 14
35 59 20
24 56 55
26 49 77
21 37 65
29 52 24
36 61 7
37 63 10
41 65 8
44 68 21
39 60 13
29 52 0
32 61 0
39 71 0
39 70 11
35 68 0
21 42 30
4 10 45
8 13 41
2 5 44
5 8 44
2 5 38
6 15 40
0 11 34
0 10 37
0 5 39
0 0 54
0 0 33
0 0 52
0 0 45
0 0 42
0 0 39
0 0 42
0 0 42
0 0 42
0 0 42
0 0 42
0 0 42
0 0 42
0 0 42
0 0 42
0 0 42
0 0 42
0 0 42
0 0 42
0 0 42
0 0 42
0 0 42
0 0 42
0 0 42
0 0 42
0 0 42
0 0 42
0 0 42
0 0 42
0 0 42
0 0 42
0 0 42
0 0 42
0 0 42
0 0 42
0 0 42
0 0 42
0 0 42
0 0 42
0 0 42
0 0 42
0 0 42
0 0 42
1 2 42
11 19 37
5 8 46
0 0 44
0 0 38
0 0 39
0 0 42
0 0 42
0 0 40
0 0 42
0 0 41
0 0 40
0 0 42
0 0 42
0 0 42
0 0 42
0 0 42
0 0 42
0 0 42
0 0 42
0 0 42
0 0 42
0 0 42
0 0 42
0 0 42
0 0 42
0 0 42
0 0 42
0 0 42
0 0 42
0 0 42
0 0 42
0 0 42
0 0 42
0 0 42
0 0 42
0 0 42
0 0 42
0 0 42
0 0 42
0 0 42
0 0 42
0 0 42
0 0 44
0 0 51
0 15 66
160 160 136
219 233 254
219 234 255
219 234 255
219 234 255
219 234 255
219 234 255
219 234 255
219 234 255
219 234 255
219 234 255
219 234 255
219 234 255
219 234 255
219 234 255
219 234 255
219 234 255
219 234 255
219 234 255
219 234 255
219 234 255
219 234 255
219 234 255
219 234 255
219 234 255
219 234 255
219 234 255
219 234 255
219 234 255
219 234 255
219 234 255
219 234 255
219 234 255
219 234 255
219 234 255
219 234 255
219 234 255
219 234 255
219 234 255
219 234 255
219 234 255
219 234 255
219 234 255
219 234 255
219 234 255
219 234 255
219 234 255
219 234 255
219 234 255
219 234 255
219 234 255
219 234 255
219 234 255
219 234 255
219 234 255
219 234 255
219 234 255
219 234 255
219 234 255
219 234 255
219 234 255
219 234 255
219 234 255
219 234 255
219 234 255
219 234 255
219 234 255
219 234 255
219 234 255
219 234 255
219 234 255
219 234 255
219 234 255
219 234 255
219 234 255
219 234 255
219 234 255
219 234 255
219 234 255
219 234 255
219 234 255
219 234 255
219 234 255
219 234 255
219 234 255
219 234 255
219 234 255
219 234 255
219 234 255
219 234 255
219 234 255
219 234 255
219 234 255
219 234 255
219 234 255
219 234 255
219 234 255
219 234 255
219 234 255
219 234 255
219 234 255
219 234 255
219 234 255
219 234 255
219 234 255
219 234 255
219 234 255
219 234 255
219 234 255
219 234 255
219 234 255
219 234 255
219 234 255
219 234 255
219 234 255
219 234 255
219 234 255
219 234 255
219 234 255
219 234 255
219 234 255
219 234 255
219 234 255
219 234 255
219 234 255
219 234 255
219 234 255
219 234 255
219 234 255
219 234 255
219 234 255
219 234 255
219 234 255
219 234 255
219 234 255
219 234 255
219 234 255
219 234 255
219 234 255
219 234 255
219 234 255
219 234 255
219 234 255
219 234 255
219 234 255
219 234 255
219 234 255
219 234 255
219 234 255
219 234 255
219 234 255
219 234 255
219 234 255
219 234 255
219 234 255
219 234 255
219 234 255
219 234 255
219 234 255
219 234 255
219 234 255
219 234 255
219 234 255
219 234 255
219 234 255
219 234 255
219 234 255
219 234 255
219 234 255
219 234 255
219 234 255
219 234 255
219 234 255
219 234 255
219 234 255
219 234 255
219 234 255
219 234 255
219 234 255
219 234 255
219 234 255
219 234 255
219 234 255
219 234 255
219 234 255
219 234 255
219 234 255
219 234 255
219 234 255
219 234 255
219 234 255
219 234 255
219 234 255
219 234 255
219 234 255
219 234 255
167 178 196
0 0 42
0 0 42
0 0 42
0 0 42
0 0 42
0 0 42
0 0 42
0 0 42
0 0 42
0 0 42
0 0 42
0 0 42
0 0 42
0 0 42
0 0 42
0 0 42
0 0 42
0 0 42
0 0 42
0 0 42
0 0 42
0 0 42
0 0 42
0 0 42
0 0 42
0 0 42
0 0 42
0 0 42
0 0 42
0 0 42
0 0 42
0 0 42
0 0 42
0 0 42
0 0 42
0 0 42
0 0 42
0 0 42
0 0 42
0 0 42
0 0 42
0 0 42
0 0 42
0 0 42
0 0 42
0 0 42
0 0 42
0 0 42
0 0 42
0 0 42
0 0 42
0 0 45
0 0 45
0 0 43
0 0 42
0 0 42
0 0 42
0 0 42
0 0 42
0 0 42
0 0 42
0 0 42
0 0 42
0 0 42
0 0 42
0 0 42
0 0 42
0 0 42
0 0 42
0 0 42
0 0 42
0 0 42
0 0 42
0 0 42
0 0 42
0 0 42
0 0 43
0 0 45
0 0 46
0 0 44
0 0 43
0 0 45
0 0 46
0 0 48
0 2 43
2 7 53
6 10 65
14 22 54
12 23 40
3 15 61
0 24 94
0 24 84
0 10 63
0 0 59
11 23 44
33 60 22
33 58 0
38 59 8
45 63 6
46 63 9
37 59 6
40 66 0
35 63 0
28 54 0
33 58 11
33 59 0
40 65 11
34 58 6
37 56 17
36 58 9
39 65 0
35 61 0
31 58 0
34 59 5
24 38 31
11 15 47
4 5 41
0 0 40
0 0 45
0 0 46
0 0 42
0 0 42
0 0 42
0 0 42
0 0 42
0 0 42
0 0 42
0 0 42
0 0 42
0 0 42
0 0 42
0 0 42
0 0 42
0 0 42
0 0 42
0 0 42
0 0 42
0 0 42
0 0 42
0 0 42
0 0 42
0 0 42
0 0 42
0 0 42
0 0 42
0 0 42
0 0 42
0 0 42
0 0 42
0 0 42
0 0 42
0 0 42
0 0 42
0 0 42
0 0 42
0 0 42
0 0 42
0 0 42
0 10 39
0 0 36
0 0 37
0 0 40
0 0 41
0 0 42
0 0 42
0 0 42
0 0 42
0 0 42
0 0 42
0 0 42
0 0 42
0 0 42
0 0 42
0 0 42
0 0 42
0 0 42
0 0 42
0 0 42
0 0 42
0 0 42
0 0 42
0 0 42
0 0 42
0 0 42
0 0 42
0 0 42
0 0 42
0 0 42
0 0 42
0 0 42
0 0 42
0 0 42
0 0 42
0 0 42
0 0 42
0 0 42
0 0 42
0 0 42
0 0 42
0 0 42
6 6 42
0 0 46
0 0 51
89 99 108
217 221 228
219 234 255
219 234 255
219 234 255
219 234 255
219 234 255
219 234 255
219 234 255
219 234 255
219 234 255
219 234 255
219 234 255
219 234 255
219 234 255
219 234 255
219 234 255
219 234 255
219 234 255
219 234 255
219 234 255
219 234 255
219 234 255
219 234 255
219 234 255
219 234 255
219 234 255
219 234 255
219 234 255
219 234 255
219 234 255
219 234 255
219 234 255
219 234 255
219 234 255
219 234 255
219 234 255
219 234 255
219 234 255
219 234 255
219 234 255
219 234 255
219 234 255
219 234 255
219 234 255
219 234 255
219 234 255
219 234 255
219 234 255
219 234 255
219 234 255
219 234 255
219 234 255
219 234 255
219 234 255
219 234 255
219 234 255
219 234 255
219 234 255
219 234 255
219 234 255
219 234 255
219 234 255
219 234 255
219 234 255
219 234 255
219 234 255
219 234 255
219 234 255
219 234 255
219 234 255
219 234 255
219 234 255
219 234 255
219 234 255
219 234 255
219 234 255
219 234 255
219 234 255
219 234 255
219 234 255
219 234 255
219 234 255
219 234 255
219 234 255
219 234 255
219 234 255
219 234 255
219 234 255
219 234 255
219 234 255
219 234 255
219 234 255
219 234 255
219 234 255
219 234 255
219 234 255
219 234 255
219 234 255
219 234 255
219 234 255
219 234 255
219 234 255
219 234 255
219 234 255
219 234 255
219 234 255
219 234 255
219 234 255
219 234 255
219 234 255
219 234 255
219 234 255
219 234 255
219 234 255
219 234 255
219 234 255
219 234 255
219 234 255
219 234 255
219 234 255
219 234 255
219 234 255
219 234 255
219 234 255
219 234 255
219 234 255
219 234 255
219 234 255
219 234 255
219 234 255
219 234 255
219 234 255
219 234 255
219 234 255
219 234 255
219 234 255
219 234 255
219 234 255
219 234 255
219 234 255
219 234 255
219 234 255
219 234 255
219 234 255
219 234 255
219 234 255
219 234 255
219 234 255
219 234 255
219 234 255
219 234 255
219 234 255
219 234 255
219 234 255
219 234 255
219 234 255
219 234 255
219 234 255
219 234 255
219 234 255
219 234 255
219 234 255
219 234 255
219 234 255
219 234 255
219 234 255
219 234 255
219 234 255
219 234 255
219 234 255
219 234 255
219 234 255
219 234 255
219 234 255
219 234 255
219 234 255
219 234 255
219 234 255
219 234 255
219 234 255
219 234 255
219 234 255
219 234 255
219 234 255
219 234 255
219 234 255
219 234 255
219 234 255
219 234 255
219 234 255
219 234 255
219 234 255
219 234 255
219 234 255
219 234 255
126 134 151
0 0 42
0 0 42
0 0 41
0 0 41
0 0 42
0 0 42
0 0 42
0 0 42
0 0 42
0 0 42
0 0 42
0 0 42
0 0 42
0 0 42
0 0 42
0 0 42
0 0 42
0 0 42
0 0 42
0 0 42
0 0 42
0 0 42
0 0 42
0 0 42
0 0 42
0 0 42
0 0 42
0 0 42
0 0 42
0 0 42
0 0 42
0 0 42
0 0 42
0 0 42
0 0 42
0 0 42
0 0 42
0 0 42
0 0 42
0 0 42
0 0 42
0 0 42
0 0 42
0 0 42
0 0 42
0 0 42
0 0 42
0 0 42
0 0 42
0 0 42
0 0 43
0 0 45
0 0 45
0 0 43
0 0 42
0 0 42
0 0 42
0 0 42
0 0 42
0 0 42
0 0 42
0 0 42
0 0 42
0 0 42
0 0 42
0 0 42
0 0 42
0 0 42
0 0 42
0 0 42
0 0 42
0 0 42
0 0 42
0 0 42
0 0 42
0 0 42
0 0 42
0 0 42
0 0 40
0 0 43
0 0 46
0 0 47
0 0 43
0 0 43
0 0 45
0 0 46
0 0 44
0 0 46
0 0 53
0 0 61
0 13 68
0 9 64
0 4 58
0 0 55
0 0 47
6 17 41
32 52 21
38 57 9
44 60 0
43 58 9
43 60 7
42 62 0
45 68 12
44 66 9
44 68 10
42 65 10
40 63 0
44 64 0
46 64 0
45 65 7
45 67 15
42 66 16
33 57 0
38 62 0
42 63 17
40 57 32
18 27 47
0 0 52
0 0 46
0 0 41
0 0 42
0 0 42
0 0 42
0 0 42
0 0 42
0 0 42
0 0 42
0 0 42
0 0 42
0 0 42
0 0 42
0 0 42
0 0 42
0 0 42
0 0 42
0 0 42
0 0 42
0 0 42
0 0 42
0 0 42
0 0 42
0 0 42
0 0 42
0 0 42
0 0 42
0 0 42
0 0 42
0 0 42
0 0 42
0 0 42
0 0 42
0 0 42
0 0 42
0 0 42
0 0 42
0 0 41
0 0 41
0 0 42
2 2 41
6 7 47
0 0 42
0 0 44
0 0 39
0 0 42
0 0 43
0 0 46
0 0 43
0 0 40
0 0 42
0 0 42
0 0 42
0 0 42
0 0 42
0 0 42
0 0 42
0 0 42
0 0 42
0 0 42
0 0 42
0 0 42
0 0 42
0 0 42
0 0 42
0 0 42
0 0 42
0 0 42
0 0 42
0 0 42
0 0 42
0 0 42
0 0 42
0 0 42
0 0 42
0 0 42
0 0 42
0 0 42
0 0 42
0 0 42
0 0 42
0 0 42
11 11 46
0 0 43
0 0 48
16 41 78
197 188 179
219 234 255
219 234 255
219 234 255
219 234 255
219 234 255
219 234 255
219 234 255
219 234 255
219 234 255
219 234 255
219 234 255
219 234 255
219 234 255
219 234 255
219 234 255
219 234 255
219 234 255
219 234 255
219 234 255
219 234 255
219 234 255
219 234 255
219 234 255
219 234 255
219 234 255
219 234 255
219 234 255
219 234 255
219 234 255
219 234 255
219 234 255
219 234 255
219 234 255
219 234 255
219 234 255
219 234 255
219 234 255
219 234 255
219 234 255
219 234 255
219 234 255
219 234 255
219 234 255
219 234 255
219 234 255
219 234 255
219 234 255
219 234 255
219 234 255
219 234 255
219 234 255
219 234 255
219 234 255
219 234 255
219 234 255
219 234 255
219 234 255
219 234 255
219 234 255
219 234 255
219 234 255
219 234 255
219 234 255
219 234 255
219 234 255
219 234 255
219 234 255
219 234 255
219 234 255
219 234 255
219 234 255
219 234 255
219 234 255
219 234 255
219 234 255
219 234 255
219 234 255
219 234 255
219 234 255
219 234 255
219 234 255
219 234 255
219 234 255
219 234 255
219 234 255
219 234 255
219 234 255
219 234 255
219 234 255
219 234 255
219 234 255
219 234 255
219 234 255
219 234 255
219 234 255
219 234 255
219 234 255
219 235 255
219 235 255
219 235 255
219 235 255
219 235 255
219 235 255
219 235 255
219 235 255
219 235 255
219 235 255
219 235 255
219 235 255
219 235 255
219 235 255
219 235 255
219 235 255
219 235 255
219 235 255
219 235 255
219 235 255
219 235 255
219 235 255
219 235 255
219 235 255
219 235 255
219 235 255
219 235 255
219 235 255
219 235 255
219 235 255
219 235 255
219 235 255
219 235 255
219 235 255
219 235 255
219 235 255
219 235 255
219 235 255
219 235 255
219 235 255
219 235 255
219 235 255
219 235 255
219 235 255
219 235 255
219 235 255
219 235 255
219 235 255
219 235 255
219 235 255
219 235 255
219 235 255
219 234 255
219 235 255
219 234 255
219 234 255
219 234 255
219 234 255
219 234 255
219 234 255
219 234 255
219 234 255
219 234 255
219 234 255
219 234 255
219 234 255
219 234 255
219 234 255
219 234 255
219 234 255
219 234 255
219 234 255
219 234 255
219 234 255
219 234 255
219 234 255
219 234 255
219 234 255
219 234 255
219 234 255
219 234 255
219 234 255
219 234 255
219 234 255
219 234 255
219 234 255
219 234 255
219 234 255
219 234 255
219 234 255
219 234 255
219 234 255
219 234 255
219 234 255
219 234 255
219 234 255
218 233 254
31 33 55
0 0 42
0 0 42
0 0 42
0 0 42
0 0 42
0 0 42
0 0 42
0 0 42
0 0 42
0 0 42
0 0 42
0 0 42
0 0 42
0 0 42
0 0 42
0 0 42
0 0 42
0 0 42
0 0 42
0 0 42
0 0 42
0 0 43
0 0 43
0 0 42
0 0 42
0 0 42
0 0 42
0 0 42
0 0 42
0 0 42
0 0 42
0 0 42
0 0 42
0 0 42
0 0 42
0 0 42
0 0 42
0 0 42
0 0 42
0 0 42
0 0 42
0 0 42
0 0 42
0 0 42
0 0 42
0 0 42
0 0 42
0 0 42
0 0 42
0 0 42
0 0 43
0 0 45
0 0 45
0 0 42
0 0 42
0 0 42
0 0 42
0 0 42
0 0 42
0 0 42
0 0 42
0 0 42
0 0 42
0 0 42
0 0 42
0 0 42
0 0 42
0 0 42
0 0 42
0 0 42
0 0 42
0 0 42
0 0 42
0 0 42
0 0 42
0 0 42
0 0 42
0 0 42
0 0 39
0 0 41
0 0 45
0 0 43
0 0 42
0 0 43
0 0 50
0 0 41
0 0 42
0 0 47
0 0 45
0 0 45
0 0 49
0 0 58
0 0 51
0 0 51
0 0 54
0 0 40
15 23 47
35 54 22
43 65 6
34 55 0
42 63 0
43 64 0
51 72 15
48 68 14
44 64 9
42 60 10
44 59 14
49 65 7
54 69 17
52 72 11
51 75 14
43 71 9
33 59 0
36 60 11
47 69 9
51 72 16
25 37 42
0 0 49
0 0 48
0 0 38
0 0 42
0 0 42
0 0 42
0 0 42
0 0 42
0 0 42
0 0 42
0 0 42
0 0 42
0 0 42
0 0 42
0 0 42
0 0 42
0 0 42
0 0 42
0 0 42
0 0 42
0 0 42
0 0 42
0 0 42
0 0 42
0 0 42
0 0 42
0 0 42
0 0 42
0 0 42
0 0 42
0 0 42
0 0 42
0 0 42
0 0 42
0 0 42
0 0 42
0 0 42
0 0 42
0 0 42
0 0 42
0 0 42
0 0 33
3 3 40
3 4 39
0 0 40
0 0 40
0 0 42
0 0 45
0 0 48
0 0 44
0 0 41
0 0 42
0 0 42
0 0 41
0 0 39
0 0 41
0 0 42
0 0 42
0 0 42
0 0 42
0 0 42
0 0 42
0 0 42
0 0 42
0 0 42
0 0 42
0 0 42
0 0 42
0 0 42
0 0 42
0 0 42
0 0 42
0 0 42
0 0 42
0 0 42
0 0 42
0 0 42
0 0 42
0 0 42
0 0 42
0 0 42
0 0 42
0 0 42
0 0 42
0 0 45
6 6 49
0 7 63
149 138 125
218 233 253
219 234 255
219 234 255
219 234 255
219 234 255
219 234 255
219 234 255
219 234 255
219 234 255
219 234 255
219 234 255
219 234 255
219 234 255
219 234 255
219 234 255
219 234 255
219 234 255
219 234 255
219 234 255
219 234 255
219 234 255
219 234 255
219 234 255
219 234 255
219 234 255
219 234 255
219 234 255
219 234 255
219 234 255
219 234 255
219 234 255
219 234 255
219 234 255
219 234 255
219 234 255
219 234 255
219 234 255
219 234 255
219 234 255
219 235 255
219 234 255
219 235 255
219 235 255
219 234 255
219 235 255
219 235 255
219 235 255
219 235 255
219 235 255
219 235 255
219 235 255
219 235 255
219 235 255
219 235 255
219 235 255
219 235 255
219 235 255
219 235 255
219 235 255
219 235 255
219 235 255
219 235 255
219 235 255
219 235 255
219 235 255
219 235 255
219 235 255
219 235 255
219 235 255
219 235 255
219 235 255
219 235 255
219 235 255
219 235 255
219 235 255
219 235 255
219 235 255
219 235 255
219 235 255
219 235 255
219 235 255
219 235 255
219 235 255
219 235 255
219 235 255
219 235 255
219 235 255
219 235 255
219 235 255
219 235 255
219 235 255
219 235 255
219 235 255
219 235 255
219 235 255
219 235 255
219 235 255
219 235 255
219 235 255
219 235 255
219 235 255
219 235 255
219 235 255
219 235 255
219 235 255
219 235 255
219 235 255
219 235 255
219 235 255
219 235 255
219 235 255
219 235 255
219 235 255
219 235 255
219 235 255
219 235 255
219 235 255
219 235 255
219 235 255
219 235 255
219 235 255
219 235 255
219 235 255
219 235 255
219 235 255
219 235 255
219 235 255
219 235 255
219 235 255
219 235 255
219 235 255
219 235 255
219 235 255
219 235 255
219 235 255
219 235 255
219 235 255
219 235 255
219 235 255
219 235 255
219 235 255
219 235 255
219 235 255
219 235 255
219 235 255
219 235 255
219 235 255
219 235 255
219 235 255
219 235 255
219 235 255
219 235 255
219 235 255
219 235 255
219 235 255
219 235 255
219 235 255
219 235 255
219 235 255
219 235 255
219 235 255
219 235 255
219 235 255
219 235 255
219 235 255
219 235 255
219 235 255
219 235 255
219 235 255
219 235 255
219 235 255
219 235 255
219 235 255
219 235 255
219 235 255
219 235 255
219 235 255
219 235 255
219 235 255
219 235 255
219 235 255
219 235 255
219 235 255
219 235 255
219 235 255
219 235 255
219 235 255
219 235 255
219 235 255
219 235 255
219 235 255
219 235 255
219 235 255
186 199 218
0 0 42
0 0 42
0 0 42
0 0 42
0 0 42
0 0 42
0 0 42
0 0 42
0 0 42
0 0 42
0 0 42
0 0 42
0 0 42
0 0 42
0 0 42
0 0 42
0 0 42
0 0 42
0 0 42
0 0 42
0 0 42
0 0 42
0 0 45
0 0 44
0 0 42
0 0 42
0 0 42
0 0 42
0 0 42
0 0 42
0 0 42
0 0 42
0 0 42
0 0 42
0 0 42
0 0 42
0 0 42
0 0 42
0 0 42
0 0 42
0 0 42
0 0 42
0 0 42
0 0 42
0 0 42
0 0 42
0 0 42
0 0 42
0 0 42
0 0 42
0 0 42
0 0 44
0 0 45
0 0 45
0 0 42
0 0 42
0 0 42
0 0 42
0 0 42
0 0 42
0 0 42
0 0 42
0 0 42
0 0 42
0 0 42
0 0 42
0 0 42
0 0 42
0 0 42
0 0 42
0 0 42
0 0 42
0 0 42
0 0 42
0 0 42
0 0 42
0 0 42
0 0 42
0 0 42
0 0 46
0 0 42
0 0 40
0 0 40
0 0 42
0 0 44
0 0 48
0 0 38
0 0 45
0 0 50
0 0 43
0 0 46
0 0 54
0 0 59
0 0 54
0 0 49
0 0 49
0 0 48
0 0 45
8 18 47
31 52 35
36 62 24
37 62 14
40 66 13
46 67 16
42 65 0
39 63 0
40 62 0
45 61 9
52 65 20
55 71 15
51 71 17
49 77 13
41 73 9
37 68 6
39 69 0
42 63 9
46 67 18
24 37 33
0 2 48
0 0 38
0 0 44
0 0 42
0 0 42
0 0 42
0 0 42
0 0 42
0 0 42
0 0 42
0 0 42
0 0 42
0 0 42
0 0 42
0 0 42
0 0 42
0 0 42
0 0 42
0 0 42
0 0 42
0 0 42
0 0 42
0 0 42
0 0 42
0 0 42
0 0 42
0 0 42
0 0 42
0 0 42
0 0 42
0 0 42
0 0 42
0 0 42
0 0 42
0 0 42
0 0 42
0 0 42
0 0 42
0 0 42
0 0 42
0 0 42
0 0 42
9 11 41
12 15 37
0 0 41
0 0 46
0 0 42
0 0 47
0 0 52
0 0 46
0 0 43
0 0 44
0 0 44
0 0 42
0 0 41
0 0 41
0 0 42
0 0 42
0 0 42
0 0 42
0 0 42
0 0 42
0 0 42
0 0 42
0 0 42
0 0 42
0 0 42
0 0 42
0 0 42
0 0 42
0 0 42
0 0 42
0 0 42
0 0 42
0 0 42
0 0 42
0 0 42
0 0 42
0 0 42
0 0 42
0 0 42
0 0 42
0 0 42
0 0 42
0 0 41
11 12 50
0 3 56
101 113 112
206 213 223
219 235 255
219 235 255
219 235 255
219 235 255
219 235 255
219 235 255
219 235 255
219 235 255
219 235 255
219 235 255
219 235 255
219 235 255
219 235 255
219 235 255
219 235 255
219 235 255
219 235 255
219 235 255
219 235 255
219 235 255
219 235 255
219 235 255
219 235 255
219 235 255
219 235 255
219 235 255
219 235 255
219 235 255
219 235 255
219 235 255
219 235 255
219 235 255
219 235 255
219 235 255
219 235 255
219 235 255
219 235 255
219 235 255
219 235 255
219 235 255
219 235 255
219 235 255
219 235 255
219 235 255
219 235 255
219 235 255
219 235 255
219 235 255
219 235 255
219 235 255
219 235 255
219 235 255
219 235 255
219 235 255
219 235 255
219 235 255
219 235 255
219 235 255
219 235 255
219 235 255
219 235 255
219 235 255
219 235 255
219 235 255
219 235 255
219 235 255
219 235 255
219 235 255
219 235 255
219 235 255
219 235 255
219 235 255
219 235 255
219 235 255
219 235 255
219 235 255
219 235 255
219 235 255
219 235 255
219 235 255
219 235 255
219 235 255
219 235 255
219 235 255
219 235 255
219 235 255
219 235 255
219 235 255
219 235 255
219 235 255
219 235 255
219 235 255
219 235 255
219 235 255
219 235 255
219 235 255
220 235 255
220 235 255
220 235 255
220 235 255
220 235 255
220 235 255
220 235 255
220 235 255
220 235 255
220 235 255
220 235 255
220 235 255
220 235 255
220 235 255
220 235 255
220 235 255
220 235 255
220 235 255
220 235 255
220 235 255
220 235 255
220 235 255
220 235 255
220 235 255
220 235 255
220 235 255
220 235 255
220 235 255
220 235 255
220 235 255
220 235 255
220 235 255
220 235 255
220 235 255
220 235 255
220 235 255
220 235 255
220 235 255
220 235 255
220 235 255
220 235 255
220 235 255
220 235 255
220 235 255
220 235 255
220 235 255
220 235 255
220 235 255
220 235 255
220 235 255
220 235 255
220 235 255
220 235 255
220 235 255
219 235 255
220 235 255
220 235 255
220 235 255
220 235 255
219 235 255
220 235 255
220 235 255
219 235 255
219 235 255
220 235 255
219 235 255
219 235 255
219 235 255
219 235 255
219 235 255
219 235 255
219 235 255
219 235 255
219 235 255
219 235 255
219 235 255
219 235 255
219 235 255
219 235 255
219 235 255
219 235 255
219 235 255
219 235 255
219 235 255
219 235 255
219 235 255
219 235 255
219 235 255
219 235 255
219 235 255
219 235 255
219 235 255
219 235 255
219 235 255
219 235 255
219 235 255
160 171 188
0 0 42
0 0 42
0 0 42
0 0 42
0 0 42
0 0 42
0 0 42
0 0 42
0 0 42
0 0 42
0 0 42
0 0 42
0 0 42
0 0 42
0 0 42
0 0 42
0 0 42
0 0 42
0 0 42
0 0 42
0 0 42
0 0 43
0 0 45
0 0 44
0 0 42
0 0 42
0 0 42
0 0 42
0 0 42
0 0 42
0 0 42
0 0 42
0 0 42
0 0 42
0 0 42
0 0 42
0 0 42
0 0 43
0 0 43
0 0 42
0 0 42
0 0 42
0 0 43
0 0 43
0 0 42
0 0 42
0 0 42
0 0 42
0 0 42
0 0 42
0 0 42
0 0 44
0 0 45
0 0 44
0 0 42
0 0 42
0 0 43
0 0 45
0 0 45
0 0 43
0 0 42
0 0 42
0 0 42
0 0 42
0 0 41
0 0 39
0 0 39
0 0 40
0 0 42
0 0 42
0 0 42
0 0 42
0 0 42
0 0 42
0 0 42
0 0 42
0 0 42
0 0 42
0 0 42
0 0 40
0 0 42
0 0 42
0 0 44
0 0 43
0 0 42
0 0 45
0 0 45
0 0 45
0 0 45
0 0 45
0 0 45
0 0 50
0 0 54
0 0 53
0 0 51
0 0 49
0 0 47
0 0 44
0 0 46
2 3 50
8 15 52
11 24 44
17 31 48
30 48 26
35 61 8
37 67 0
37 73 7
44 70 21
44 69 18
56 72 23
53 73 21
48 75 11
47 80 19
44 78 14
50 82 12
46 71 3
38 60 20
10 18 38
0 0 48
0 0 44
0 0 38
0 0 42
0 0 42
0 0 42
0 0 42
0 0 42
0 0 42
0 0 42
0 0 42
0 0 42
0 0 42
0 0 42
0 0 42
0 0 44
0 0 42
0 0 42
0 0 42
0 0 41
0 0 38
0 0 42
0 0 38
0 0 42
0 0 42
0 0 41
0 0 43
0 0 45
0 0 42
0 0 37
0 0 44
0 0 45
0 0 44
0 0 42
0 0 42
0 0 42
0 0 42
0 0 42
0 0 42
0 0 40
0 0 41
0 0 43
0 1 42
0 9 43
0 0 41
0 0 44
0 0 42
0 0 46
0 0 50
0 0 47
0 0 44
0 0 47
0 0 47
0 0 45
0 0 44
0 0 41
0 0 42
0 0 42
0 0 42
0 0 42
0 0 42
0 0 42
0 0 42
0 0 42
0 0 42
0 0 42
0 0 42
0 0 42
0 0 42
0 0 42
0 0 42
0 0 42
0 0 42
0 0 42
0 0 42
0 0 42
0 0 42
0 0 42
0 0 42
0 0 42
0 0 42
0 0 42
0 0 42
0 0 42
0 0 43
6 8 47
0 0 52
62 69 92
191 195 194
219 235 255
219 235 255
219 235 255
219 235 255
219 235 255
219 235 255
219 235 255
219 235 255
219 235 255
219 235 255
219 235 255
219 235 255
219 235 255
219 235 255
219 235 255
219 235 255
219 235 255
219 235 255
219 235 255
219 235 255
219 235 255
219 235 255
219 235 255
219 235 255
219 235 255
219 235 255
219 235 255
219 235 255
219 235 255
219 235 255
219 235 255
219 235 255
219 235 255
219 235 255
220 235 255
220 235 255
220 235 255
219 235 255
220 235 255
220 235 255
220 235 255
220 235 255
220 235 255
220 235 255
220 235 255
220 235 255
220 235 255
220 235 255
220 235 255
220 235 255
220 235 255
220 235 255
220 235 255
220 235 255
220 235 255
220 235 255
220 235 255
220 235 255
220 235 255
220 235 255
220 235 255
220 235 255
220 235 255
220 235 255
220 235 255
220 235 255
220 235 255
220 235 255
220 235 255
220 235 255
220 235 255
220 235 255
220 235 255
220 235 255
220 235 255
220 235 255
220 235 255
220 235 255
220 235 255
220 235 255
220 235 255
220 235 255
220 235 255
220 235 255
220 235 255
220 235 255
220 235 255
220 235 255
220 235 255
220 235 255
220 235 255
220 235 255
220 235 255
220 235 255
220 235 255
220 235 255
220 235 255
220 235 255
220 235 255
220 235 255
220 235 255
220 235 255
220 235 255
220 235 255
220 235 255
220 235 255
220 235 255
220 235 255
220 235 255
220 235 255
220 235 255
220 235 255
220 235 255
220 235 255
220 235 255
220 235 255
220 235 255
220 235 255
220 235 255
220 235 255
220 235 255
220 235 255
220 235 255
220 235 255
220 235 255
220 235 255
220 235 255
220 235 255
220 235 255
220 235 255
220 235 255
220 235 255
220 235 255
220 235 255
220 235 255
220 235 255
220 235 255
220 235 255
220 235 255
220 235 255
220 235 255
220 235 255
220 235 255
220 235 255
220 235 255
220 235 255
220 235 255
220 235 255
220 235 255
220 235 255
220 235 255
220 235 255
220 235 255
220 235 255
220 235 255
220 235 255
220 235 255
220 235 255
220 235 255
220 235 255
220 235 255
220 235 255
220 235 255
220 235 255
220 235 255
220 235 255
220 235 255
220 235 255
220 235 255
220 235 255
220 235 255
220 235 255
220 235 255
220 235 255
220 235 255
220 235 255
220 235 255
220 235 255
220 235 255
220 235 255
220 235 255
220 235 255
220 235 255
220 235 255
220 235 255
220 235 255
220 235 255
220 235 255
220 235 255
220 235 255
220 235 255
220 235 255
62 66 83
0 0 42
0 0 42
0 0 42
0 0 42
0 0 42
0 0 42
0 0 42
0 0 42
0 0 42
0 0 42
0 0 42
0 0 42
0 0 42
0 0 42
0 0 42
0 0 42
0 0 42
0 0 42
0 0 42
0 0 42
0 0 42
0 0 42
0 0 43
0 0 42
0 0 42
0 0 42
0 0 44
0 0 45
0 0 45
0 0 45
0 0 43
0 0 42
0 0 42
0 0 42
0 0 42
0 0 42
0 0 43
0 0 45
0 0 45
0 0 42
0 0 42
0 0 42
0 0 45
0 0 44
0 0 42
0 0 42
0 0 42
0 0 42
0 0 42
0 0 42
0 0 42
0 0 44
0 0 44
0 0 42
0 0 42
0 0 42
0 0 44
0 0 45
0 0 45
0 0 42
0 0 42
0 0 42
0 0 42
0 0 42
0 0 42
0 0 41
0 0 39
0 0 41
0 0 42
0 0 42
0 0 42
0 0 42
0 0 42
0 0 42
0 0 42
0 0 42
0 0 42
0 0 42
0 0 42
0 0 41
0 0 42
0 0 42
0 0 42
0 0 42
0 0 42
0 0 45
0 0 45
0 0 45
0 0 45
0 0 45
0 0 45
0 0 51
0 0 53
0 0 50
0 0 48
0 0 48
0 0 47
0 0 42
0 0 43
0 0 47
0 0 49
0 0 49
0 0 49
6 15 49
11 23 50
18 29 45
20 42 26
18 42 52
26 65 50
51 71 20
53 71 17
53 74 25
50 81 13
57 93 22
56 90 19
49 78 2
37 59 18
2 9 36
0 0 44
0 0 43
0 0 40
0 0 42
0 0 42
0 0 42
0 0 42
0 0 42
0 0 42
0 0 42
0 0 42
0 0 42
0 0 42
0 0 42
0 0 42
0 0 42
0 0 42
0 0 42
0 0 41
0 0 40
0 0 43
0 0 42
0 0 41
0 0 42
0 0 39
0 0 45
0 0 40
0 0 38
0 0 42
0 0 45
0 0 40
0 0 42
0 0 44
0 0 43
0 0 42
0 0 42
0 0 42
0 0 42
0 0 42
0 0 42
0 0 42
0 0 43
0 0 45
0 4 39
0 0 38
0 0 46
0 0 43
0 0 45
0 0 45
0 0 45
0 0 45
0 0 46
0 0 49
0 0 50
0 0 50
0 0 43
0 0 42
0 0 42
0 0 42
0 0 42
0 0 42
0 0 42
0 0 42
0 0 42
0 0 42
0 0 42
0 0 42
0 0 42
0 0 42
0 0 42
0 0 42
0 0 42
0 0 42
0 0 42
0 0 42
0 0 42
0 0 42
0 0 42
0 0 42
0 0 42
0 0 42
0 0 42
0 0 42
0 0 42
0 0 42
9 12 46
0 0 51
22 37 77
147 151 127
220 235 255
220 235 255
220 235 255
220 235 255
220 235 255
220 235 255
220 235 255
220 235 255
220 235 255
220 235 255
220 235 255
220 235 255
220 235 255
220 235 255
220 235 255
220 235 255
220 235 255
220 235 255
220 235 255
220 235 255
220 235 255
220 235 255
220 235 255
220 235 255
220 235 255
220 235 255
220 235 255
220 235 255
220 235 255
220 235 255
220 235 255
220 235 255
220 235 255
220 235 255
220 235 255
220 235 255
220 235 255
220 235 255
220 235 255
220 235 255
220 235 255
220 235 255
220 235 255
220 235 255
220 235 255
220 235 255
220 235 255
220 235 255
220 235 255
220 235 255
220 235 255
220 235 255
220 235 255
220 235 255
220 235 255
220 235 255
220 235 255
220 235 255
220 235 255
220 235 255
220 235 255
220 235 255
220 235 255
220 235 255
220 235 255
220 235 255
220 235 255
220 235 255
220 235 255
220 235 255
220 235 255
220 235 255
220 235 255
220 235 255
220 235 255
220 235 255
220 235 255
220 235 255
220 235 255
220 235 255
220 235 255
220 235 255
220 235 255
220 235 255
220 235 255
220 235 255
220 235 255
220 235 255
220 235 255
220 235 255
220 235 255
220 235 255
220 235 255
220 235 255
220 235 255
220 235 255
220 235 255
220 235 255
220 235 255
220 235 255
220 235 255
220 235 255
220 235 255
220 235 255
220 235 255
220 235 255
220 235 255
220 235 255
220 235 255
220 235 255
220 235 255
220 235 255
220 235 255
220 235 255
220 235 255
220 235 255
220 235 255
220 235 255
220 235 255
220 235 255
220 235 255
220 235 255
220 235 255
220 235 255
220 235 255
220 235 255
220 235 255
220 235 255
220 235 255
220 235 255
220 235 255
220 235 255
220 235 255
220 235 255
220 235 255
220 235 255
220 235 255
220 235 255
220 235 255
220 235 255
220 235 255
220 235 255
220 235 255
220 235 255
220 235 255
220 235 255
220 235 255
220 235 255
220 235 255
220 235 255
220 235 255
220 235 255
220 235 255
220 235 255
220 235 255
220 235 255
220 235 255
220 235 255
220 235 255
220 235 255
220 235 255
220 235 255
220 235 255
220 235 255
220 235 255
220 235 255
220 235 255
220 235 255
220 235 255
220 235 255
220 235 255
220 235 255
220 235 255
220 235 255
220 235 255
220 235 255
220 235 255
220 235 255
220 235 255
220 235 255
220 235 255
220 235 255
220 235 255
220 235 255
220 235 255
220 235 255
220 235 255
220 235 255
220 235 255
220 235 255
220 235 255
211 225 245
0 0 42
0 0 42
0 0 42
0 0 42
0 0 42
0 0 42
0 0 42
0 0 42
0 0 42
0 0 42
0 0 42
0 0 45
0 0 43
0 0 42
0 0 42
0 0 42
0 0 42
0 0 42
0 0 42
0 0 42
0 0 42
0 0 42
0 0 42
0 0 42
0 0 42
0 0 42
0 0 42
0 0 45
0 0 45
0 0 45
0 0 45
0 0 42
0 0 42
0 0 42
0 0 42
0 0 42
0 0 42
0 0 44
0 0 45
0 0 44
0 0 42
0 0 42
0 0 43
0 0 45
0 0 44
0 0 42
0 0 42
0 0 42
0 0 42
0 0 42
0 0 42
0 0 42
0 0 42
0 0 42
0 0 42
0 0 42
0 0 44
0 0 45
0 0 45
0 0 45
0 0 42
0 0 42
0 0 42
0 0 42
0 0 42
0 0 42
0 0 42
0 0 41
0 0 42
0 0 42
0 0 42
0 0 42
0 0 42
0 0 42
0 0 42
0 0 42
0 0 42
0 0 42
0 0 42
0 0 42
0 0 42
0 0 42
0 0 42
0 0 42
0 0 42
0 0 43
0 0 45
0 0 45
0 0 45
0 0 45
0 0 45
0 0 45
0 0 48
0 0 48
0 0 45
0 0 46
0 0 47
0 0 48
0 0 46
0 0 45
0 0 46
0 0 47
0 0 50
0 0 52
0 0 48
0 0 55
0 0 56
0 0 45
0 8 52
17 41 41
47 71 17
61 80 29
54 72 22
58 86 18
63 99 26
63 98 35
56 91 23
40 66 31
8 16 40
0 0 44
0 0 41
0 0 41
0 0 42
0 0 42
0 0 42
0 0 42
0 0 42
0 0 42
0 0 42
0 0 42
0 0 42
0 0 42
0 0 42
0 0 42
0 0 41
0 0 42
0 0 42
0 0 42
0 0 41
0 0 40
0 0 38
0 2 44
5 6 50
5 5 39
0 0 44
0 0 41
0 0 41
0 0 42
0 0 46
0 0 44
0 0 39
0 0 45
0 0 45
0 0 43
0 0 43
0 0 44
0 0 43
0 0 41
0 0 40
0 0 42
0 0 41
0 0 45
0 0 44
0 0 41
0 0 49
0 0 43
0 0 47
0 0 45
0 0 45
0 0 45
0 0 46
0 0 48
0 0 48
0 0 48
0 0 43
0 0 42
0 0 42
0 0 42
0 0 42
0 0 42
0 0 42
0 0 42
0 0 42
0 0 42
0 0 42
0 0 42
0 0 42
0 0 42
0 0 42
0 0 42
0 0 42
0 0 42
0 0 42
0 0 42
0 0 42
0 0 42
0 0 42
0 0 42
0 0 42
0 0 42
0 0 42
0 0 42
0 0 42
0 0 42
0 0 42
0 0 49
0 4 55
101 115 76
211 226 243
220 235 255
220 235 255
220 235 255
220 235 255
220 235 255
220 235 255
220 235 255
220 235 255
220 235 255
220 235 255
220 235 255
220 235 255
220 235 255
220 235 255
220 235 255
220 235 255
220 235 255
220 235 255
220 235 255
220 235 255
220 235 255
220 235 255
220 235 255
220 235 255
220 235 255
220 235 255
220 235 255
220 235 255
220 235 255
220 235 255
220 235 255
220 235 255
220 235 255
220 235 255
220 235 255
220 235 255
220 235 255
220 235 255
220 235 255
220 235 255
220 235 255
220 235 255
220 235 255
220 235 255
220 235 255
220 235 255
220 235 255
220 235 255
220 235 255
220 235 255
220 235 255
220 235 255
220 235 255
220 235 255
220 235 255
220 235 255
220 235 255
220 235 255
220 235 255
220 235 255
220 235 255
220 235 255
220 235 255
220 235 255
220 235 255
220 235 255
220 235 255
220 235 255
220 235 255
220 235 255
220 235 255
220 235 255
220 235 255
220 235 255
220 235 255
220 235 255
220 235 255
220 235 255
220 235 255
220 235 255
220 235 255
220 235 255
220 235 255
220 235 255
220 235 255
220 235 255
220 235 255
220 235 255
220 235 255
220 235 255
220 235 255
220 235 255
220 235 255
220 235 255
220 235 255
220 235 255
220 235 255
220 235 255
220 235 255
220 235 255
220 235 255
220 235 255
220 235 255
220 235 255
220 235 255
220 235 255
220 235 255
220 235 255
220 235 255
220 235 255
220 235 255
220 235 255
220 235 255
220 235 255
220 235 255
220 235 255
220 235 255
220 235 255
220 235 255
220 235 255
220 235 255
220 235 255
220 235 255
220 235 255
220 235 255
220 235 255
220 235 255
220 235 255
220 235 255
220 235 255
220 235 255
220 235 255
220 235 255
220 235 255
220 235 255
220 235 255
220 235 255
220 235 255
220 235 255
220 235 255
220 235 255
220 235 255
220 235 255
220 235 255
220 235 255
220 235 255
220 235 255
220 235 255
220 235 255
220 235 255
220 235 255
220 235 255
220 235 255
220 235 255
220 235 255
220 235 255
220 235 255
220 235 255
220 235 255
220 235 255
220 235 255
220 235 255
220 235 255
220 235 255
220 235 255
220 235 255
220 235 255
220 235 255
220 235 255
220 235 255
220 235 255
220 235 255
220 235 255
220 235 255
220 235 255
220 235 255
220 235 255
220 235 255
220 235 255
220 235 255
220 235 255
220 235 255
220 235 255
220 235 255
220 235 255
220 235 255
220 235 255
220 235 255
220 235 255
220 235 255
174 186 204
0 0 42
0 0 42
0 0 42
0 0 42
0 0 42
0 0 42
0 0 42
0 0 42
0 0 42
0 0 42
0 0 43
0 0 45
0 0 42
0 0 42
0 0 42
0 0 42
0 0 42
0 0 42
0 0 42
0 0 42
0 0 42
0 0 42
0 0 42
0 0 42
0 0 42
0 0 42
0 0 43
0 0 45
0 0 45
0 0 45
0 0 44
0 0 42
0 0 42
0 0 42
0 0 42
0 0 43
0 0 43
0 0 44
0 0 45
0 0 44
0 0 42
0 0 42
0 0 43
0 0 45
0 0 43
0 0 42
0 0 42
0 0 42
0 0 42
0 0 42
0 0 42
0 0 42
0 0 42
0 0 42
0 0 42
0 0 42
0 0 42
0 0 42
0 0 42
0 0 42
0 0 45
0 0 45
0 0 44
0 0 42
0 0 42
0 0 42
0 0 42
0 0 42
0 0 42
0 0 42
0 0 42
0 0 42
0 0 42
0 0 42
0 0 42
0 0 42
0 0 42
0 0 42
0 0 42
0 0 42
0 0 42
0 0 42
0 0 42
0 0 42
0 0 43
0 0 45
0 0 45
0 0 45
0 0 45
0 0 45
0 0 45
0 0 45
0 0 45
0 0 46
0 0 45
0 0 45
0 0 46
0 0 46
0 0 50
0 0 48
0 0 45
0 0 47
0 0 51
0 0 52
0 4 57
0 22 72
0 12 57
0 0 50
0 0 51
0 0 42
31 43 41
62 82 37
55 78 23
53 82 19
65 101 30
66 102 35
61 96 28
41 65 42
5 10 41
0 0 40
0 0 42
0 0 41
0 0 41
0 0 42
0 0 42
0 0 42
0 0 42
0 0 42
0 0 42
0 0 42
0 0 42
0 0 42
0 0 42
0 0 42
0 0 40
0 0 40
0 0 41
0 0 41
0 0 42
0 0 42
0 0 49
39 35 57
78 73 66
60 56 52
0 0 41
18 19 56
8 7 40
0 0 40
0 5 41
0 0 48
0 0 45
0 0 43
0 0 45
0 0 43
0 0 42
0 0 44
0 0 46
0 0 44
0 0 44
0 0 44
0 0 41
0 0 41
0 0 39
0 0 46
0 0 45
0 0 39
0 0 45
0 0 44
0 0 43
0 0 45
0 0 45
0 0 47
0 0 46
0 0 45
0 0 44
0 0 42
0 0 42
0 0 42
0 0 42
0 0 42
0 0 42
0 0 42
0 0 42
0 0 42
0 0 42
0 0 42
0 0 42
0 0 42
0 0 42
0 0 42
0 0 42
0 0 42
0 0 42
0 0 42
0 0 42
0 0 42
0 0 42
0 0 42
0 0 42
0 0 42
0 0 42
0 0 42
0 0 42
0 0 42
0 0 42
0 0 47
0 0 48
70 83 67
177 193 198
220 235 255
220 235 255
220 235 255
220 235 255
220 235 255
220 235 255
220 235 255
220 235 255
220 235 255
220 235 255
220 235 255
220 235 255
220 235 255
220 235 255
220 235 255
220 235 255
220 235 255
220 235 255
220 235 255
220 235 255
220 235 255
220 235 255
220 235 255
220 235 255
220 235 255
220 235 255
220 235 255
220 235 255
220 235 255
220 235 255
220 235 255
220 235 255
220 235 255
220 235 255
220 235 255
220 235 255
220 235 255
220 235 255
220 235 255
220 235 255
220 235 255
220 235 255
220 235 255
220 235 255
220 235 255
220 235 255
220 235 255
220 235 255
220 235 255
220 235 255
220 235 255
220 235 255
220 235 255
220 235 255
220 235 255
220 235 255
220 235 255
220 235 255
220 235 255
220 235 255
220 235 255
220 235 255
220 235 255
220 235 255
220 235 255
220 235 255
220 235 255
220 235 255
220 235 255
220 235 255
220 235 255
220 235 255
220 235 255
220 235 255
220 235 255
220 235 255
220 235 255
220 235 255
220 235 255
220 235 255
220 235 255
220 235 255
220 235 255
220 235 255
220 235 255
220 235 255
220 235 255
220 235 255
220 235 255
220 235 255
220 235 255
220 235 255
220 235 255
220 235 255
220 235 255
220 235 255
220 235 255
220 235 255
220 235 255
220 235 255
220 235 255
220 235 255
220 235 255
220 235 255
220 235 255
220 235 255
220 235 255
220 235 255
220 235 255
220 235 255
220 235 255
220 235 255
220 235 255
220 235 255
220 235 255
220 235 255
220 235 255
220 235 255
220 235 255
220 235 255
220 235 255
220 235 255
220 235 255
220 235 255
220 235 255
220 235 255
220 235 255
220 235 255
220 235 255
220 235 255
220 235 255
220 235 255
220 235 255
220 235 255
220 235 255
220 235 255
220 235 255
220 235 255
220 235 255
220 235 255
220 235 255
220 235 255
220 235 255
220 235 255
220 235 255
220 235 255
220 235 255
220 235 255
220 235 255
220 235 255
220 235 255
220 235 255
220 235 255
220 235 255
220 235 255
220 235 255
220 235 255
220 235 255
220 235 255
220 235 255
220 235 255
220 235 255
220 235 255
220 235 255
220 235 255
220 235 255
220 235 255
220 235 255
220 235 255
220 235 255
220 235 255
220 235 255
220 235 255
220 235 255
220 235 255
220 235 255
220 235 255
220 235 255
220 235 255
220 235 255
220 235 255
220 235 255
220 235 255
220 235 255
220 235 255
220 235 255
220 235 255
220 235 255
220 235 255
220 235 255
130 139 155
0 0 42
0 0 42
0 0 42
0 0 42
0 0 42
0 0 42
0 0 42
0 0 42
0 0 42
0 0 42
0 0 44
0 0 44
0 0 42
0 0 42
0 0 42
0 0 42
0 0 42
0 0 42
0 0 42
0 0 42
0 0 42
0 0 44
0 0 45
0 0 45
0 0 44
0 0 42
0 0 43
0 0 45
0 0 45
0 0 45
0 0 44
0 0 42
0 0 42
0 0 42
0 0 43
0 0 45
0 0 45
0 0 45
0 0 45
0 0 43
0 0 42
0 0 42
0 0 44
0 0 45
0 0 43
0 0 42
0 0 42
0 0 42
0 0 42
0 0 42
0 0 42
0 0 42
0 0 42
0 0 42
0 0 42
0 0 42
0 0 42
0 0 42
0 0 42
0 0 42
0 0 45
0 0 45
0 0 44
0 0 42
0 0 42
0 0 42
0 0 42
0 0 42
0 0 42
0 0 42
0 0 42
0 0 42
0 0 42
0 0 42
0 0 42
0 0 42
0 0 42
0 0 42
0 0 42
0 0 42
0 0 42
0 0 42
0 0 42
0 0 42
0 0 44
0 0 45
0 0 45
0 0 45
0 0 45
0 0 45
0 0 45
0 0 45
0 0 44
0 0 45
0 0 45
0 0 45
0 0 46
0 0 45
0 0 46
0 0 46
0 0 47
0 0 53
0 0 55
0 0 58
0 9 63
0 34 90
0 25 83
0 0 49
0 0 50
0 0 46
9 12 51
33 47 56
42 67 19
25 48 14
47 81 21
61 97 31
58 93 24
38 57 41
0 0 39
0 0 43
0 0 40
0 0 43
0 0 42
0 0 42
0 0 42
0 0 42
0 0 42
0 0 42
0 0 42
0 0 42
0 0 42
0 0 42
0 0 42
0 0 42
0 0 45
0 0 43
0 0 41
0 0 40
0 0 41
0 0 44
20 22 51
81 80 63
128 117 85
88 83 86
2 2 52
63 66 66
47 48 49
0 0 44
0 7 43
0 0 41
0 0 45
0 0 43
0 0 46
0 0 45
0 0 45
0 0 45
0 0 49
0 0 50
0 0 48
0 0 44
0 0 44
0 0 43
0 0 40
0 0 49
0 0 44
0 0 46
0 0 45
0 0 43
0 0 42
0 0 45
0 0 46
0 0 47
0 0 47
0 0 46
0 0 44
0 0 43
0 0 42
0 0 42
0 0 44
0 0 43
0 0 42
0 0 42
0 0 42
0 0 42
0 0 42
0 0 42
0 0 42
0 0 42
0 0 42
0 0 42
0 0 42
0 0 42
0 0 42
0 0 42
0 0 42
0 0 42
0 0 42
0 0 42
0 0 42
0 0 42
0 0 42
0 0 42
0 0 42
0 0 42
0 0 42
0 0 45
0 0 47
23 58 78
130 149 137
220 235 255
220 235 255
220 235 255
220 235 255
220 235 255
220 235 255
220 235 255
220 235 255
220 235 255
220 235 255
220 235 255
220 235 255
220 235 255
220 235 255
220 235 255
220 235 255
220 235 255
220 235 255
220 235 255
220 235 255
220 235 255
220 235 255
220 235 255
220 235 255
220 235 255
220 235 255
220 235 255
220 235 255
220 235 255
220 235 255
220 235 255
220 235 255
220 235 255
220 235 255
220 235 255
220 235 255
220 235 255
220 235 255
220 235 255
220 235 255
220 235 255
220 235 255
220 235 255
220 235 255
220 235 255
220 235 255
220 235 255
220 235 255
220 235 255
220 235 255
220 235 255
220 235 255
220 235 255
220 235 255
220 235 255
220 235 255
220 235 255
220 235 255
220 235 255
220 235 255
220 235 255
220 235 255
220 235 255
220 235 255
220 235 255
220 235 255
220 235 255
220 235 255
220 235 255
220 235 255
220 235 255
220 235 255
220 235 255
220 235 255
220 235 255
220 235 255
220 235 255
220 235 255
220 235 255
220 235 255
220 235 255
220 235 255
220 235 255
220 235 255
220 235 255
220 235 255
220 235 255
220 235 255
220 235 255
220 235 255
220 235 255
220 235 255
220 235 255
220 235 255
220 235 255
220 235 255
220 235 255
220 235 255
220 235 255
220 235 255
220 235 255
220 235 255
220 235 255
220 235 255
220 235 255
220 235 255
220 235 255
220 235 255
220 235 255
220 235 255
220 235 255
220 235 255
220 235 255
220 235 255
220 235 255
220 235 255
220 235 255
220 235 255
220 235 255
220 235 255
220 235 255
220 235 255
220 235 255
220 235 255
220 235 255
220 235 255
220 235 255
220 235 255
220 235 255
220 235 255
220 235 255
220 235 255
220 235 255
220 235 255
220 235 255
220 235 255
220 235 255
220 235 255
220 235 255
220 235 255
220 235 255
220 235 255
220 235 255
220 235 255
220 235 255
220 235 255
220 235 255
220 235 255
220 235 255
220 235 255
220 235 255
220 235 255
220 235 255
220 235 255
220 235 255
220 235 255
220 235 255
220 235 255
220 235 255
220 235 255
220 235 255
220 235 255
220 235 255
220 235 255
220 235 255
220 235 255
220 235 255
220 235 255
220 235 255
220 235 255
220 235 255
220 235 255
220 235 255
220 235 255
220 235 255
220 235 255
220 235 255
220 235 255
220 235 255
220 235 255
220 235 255
220 235 255
220 235 255
220 235 255
220 235 255
220 235 255
220 235 255
220 235 255
220 235 255
220 235 255
69 74 90
0 0 42
0 0 42
0 0 42
0 0 42
0 0 42
0 0 42
0 0 42
0 0 42
0 0 42
0 0 45
0 0 43
0 0 42
0 0 42
0 0 42
0 0 42
0 0 42
0 0 42
0 0 42
0 0 43
0 0 43
0 0 43
0 0 45
0 0 45
0 0 45
0 0 43
0 0 42
0 0 44
0 0 45
0 0 45
0 0 45
0 0 44
0 0 42
0 0 42
0 0 43
0 0 45
0 0 45
0 0 45
0 0 45
0 0 45
0 0 43
0 0 42
0 0 42
0 0 44
0 0 45
0 0 42
0 0 42
0 0 42
0 0 42
0 0 42
0 0 42
0 0 42
0 0 42
0 0 42
0 0 42
0 0 42
0 0 42
0 0 42
0 0 42
0 0 42
0 0 42
0 0 45
0 0 45
0 0 43
0 0 42
0 0 42
0 0 42
0 0 42
0 0 42
0 0 42
0 0 42
0 0 42
0 0 42
0 0 42
0 0 42
0 0 42
0 0 42
0 0 42
0 0 42
0 0 42
0 0 42
0 0 42
0 0 42
0 0 42
0 0 42
0 0 44
0 0 44
0 0 45
0 0 45
0 0 45
0 0 45
0 0 45
0 0 44
0 0 43
0 0 44
0 0 45
0 0 46
0 0 47
0 0 48
0 0 43
0 0 45
0 0 48
0 0 58
0 0 58
0 0 63
0 20 80
0 33 86
0 20 72
0 0 48
0 0 54
0 0 51
0 0 47
0 0 49
22 42 39
23 51 29
27 47 19
48 79 24
55 87 21
27 41 41
0 0 44
0 0 46
0 0 37
0 0 40
0 0 42
0 0 41
0 0 41
0 0 41
0 0 42
0 0 42
0 0 44
0 0 42
0 0 41
0 0 42
0 0 43
0 0 42
0 0 46
0 3 47
3 7 45
7 14 43
13 20 44
17 26 45
61 74 33
107 102 58
68 65 79
31 31 81
16 18 65
64 66 82
97 102 75
43 50 41
27 32 46
0 0 45
0 0 43
0 0 40
0 0 44
0 0 44
0 0 43
0 0 45
0 0 53
0 0 56
0 0 54
0 0 49
0 0 48
0 0 49
0 0 43
0 0 45
0 0 40
0 0 42
0 0 45
0 0 44
0 0 43
0 0 47
0 0 48
0 0 48
0 0 50
0 0 50
0 0 47
0 0 45
0 0 44
0 0 43
0 0 44
0 0 44
0 0 42
0 0 42
0 0 42
0 0 42
0 0 42
0 0 42
0 0 42
0 0 42
0 0 42
0 0 42
0 0 42
0 0 42
0 0 42
0 0 42
0 0 42
0 0 42
0 0 42
0 0 42
0 0 42
0 0 42
0 0 42
0 0 42
0 0 42
0 0 42
0 0 42
0 0 45
0 0 49
0 22 57
103 126 109
220 235 255
220 235 255
220 235 255
220 235 255
220 235 255
220 235 255
220 235 255
220 235 255
220 235 255
220 235 255
220 235 255
220 235 255
220 235 255
220 235 255
220 235 255
220 235 255
220 235 255
220 235 255
220 235 255
220 235 255
220 235 255
220 235 255
220 235 255
220 235 255
220 235 255
220 235 255
220 235 255
220 235 255
220 235 255
220 235 255
220 235 255
220 235 255
220 235 255
220 235 255
220 235 255
220 235 255
220 235 255
220 235 255
220 235 255
220 235 255
220 235 255
220 235 255
220 235 255
220 235 255
220 235 255
220 235 255
220 235 255
220 235 255
220 235 255
220 235 255
220 235 255
220 235 255
220 235 255
220 235 255
220 235 255
220 235 255
220 235 255
220 235 255
220 235 255
220 235 255
220 235 255
220 235 255
220 235 255
220 235 255
220 235 255
220 235 255
220 235 255
220 235 255
220 235 255
220 235 255
220 235 255
220 235 255
220 235 255
220 235 255
220 235 255
220 235 255
220 235 255
220 235 255
220 235 255
220 235 255
220 235 255
220 235 255
220 235 255
220 235 255
220 235 255
220 235 255
220 235 255
220 235 255
220 235 255
220 235 255
220 235 255
220 235 255
220 235 255
220 235 255
220 235 255
220 235 255
220 235 255
220 235 255
220 235 255
220 235 255
220 235 255
220 235 255
220 235 255
220 235 255
220 235 255
220 235 255
220 235 255
220 235 255
220 235 255
220 235 255
220 235 255
220 235 255
220 235 255
220 235 255
220 235 255
220 235 255
220 235 255
220 235 255
220 235 255
220 235 255
220 235 255
220 235 255
220 235 255
220 235 255
220 235 255
220 235 255
220 235 255
220 235 255
220 235 255
220 235 255
220 235 255
220 235 255
220 235 255
220 235 255
220 235 255
220 235 255
220 235 255
220 235 255
220 235 255
220 235 255
220 235 255
220 235 255
220 235 255
220 235 255
220 235 255
220 235 255
220 235 255
220 235 255
220 235 255
220 235 255
220 235 255
220 235 255
220 235 255
220 235 255
220 235 255
220 235 255
220 235 255
220 235 255
220 235 255
220 235 255
220 235 255
220 235 255
220 235 255
220 235 255
220 235 255
220 235 255
220 235 255
220 235 255
220 235 255
220 235 255
220 235 255
220 235 255
220 235 255
220 235 255
220 235 255
220 235 255
220 235 255
220 235 255
220 235 255
220 235 255
220 235 255
220 235 255
220 235 255
220 235 255
220 235 255
220 235 255
220 235 255
220 235 255
220 235 255
209 223 243
0 0 42
0 0 42
0 0 42
0 0 42
0 0 42
0 0 42
0 0 42
0 0 42
0 0 42
0 0 42
0 0 45
0 0 42
0 0 42
0 0 42
0 0 42
0 0 42
0 0 42
0 0 42
0 0 44
0 0 45
0 0 45
0 0 45
0 0 45
0 0 45
0 0 45
0 0 43
0 0 42
0 0 43
0 0 45
0 0 44
0 0 44
0 0 43
0 0 43
0 0 42
0 0 45
0 0 45
0 0 45
0 0 44
0 0 45
0 0 45
0 0 44
0 0 44
0 0 43
0 0 43
0 0 43
0 0 42
0 0 42
0 0 42
0 0 42
0 0 42
0 0 42
0 0 42
0 0 42
0 0 42
0 0 42
0 0 42
0 0 42
0 0 42
0 0 42
0 0 42
0 0 42
0 0 42
0 0 43
0 0 43
0 0 42
0 0 42
0 0 42
0 0 43
0 0 45
0 0 43
0 0 42
0 0 42
0 0 42
0 0 42
0 0 43
0 0 42
0 0 42
0 0 40
0 0 41
0 0 42
0 0 42
0 0 42
0 0 42
0 0 42
0 0 42
0 0 42
0 0 43
0 0 45
0 0 45
0 0 45
0 0 45
0 0 45
0 0 45
0 0 45
0 0 44
0 0 45
0 0 48
0 0 48
0 0 49
0 0 47
0 0 48
0 0 52
0 0 57
0 0 58
0 0 57
0 28 89
0 41 101
0 17 74
0 0 58
0 0 55
0 0 58
0 0 58
0 0 48
0 0 50
32 56 32
44 71 24
59 85 32
58 84 26
44 60 44
8 12 41
0 0 39
0 0 44
0 0 36
0 0 39
0 0 42
0 0 44
0 0 39
0 0 40
0 0 41
0 0 43
0 0 40
0 0 44
0 0 40
0 0 47
0 0 42
3 5 41
22 33 46
38 57 45
28 50 23
43 63 16
49 66 14
48 73 11
53 70 15
77 89 67
59 82 96
87 96 64
104 100 65
85 87 41
66 78 22
68 84 23
26 38 39
0 0 46
0 0 45
0 4 46
0 1 44
0 0 43
0 0 47
0 0 61
18 28 63
9 14 71
4 5 58
0 0 68
0 0 67
0 0 53
0 0 47
0 0 39
0 0 42
0 0 44
0 0 45
0 0 45
0 0 47
0 0 48
0 0 49
0 0 51
0 0 53
0 0 51
0 0 48
0 0 46
0 0 45
0 0 45
0 0 44
0 0 43
0 0 42
0 0 42
0 0 42
0 0 42
0 0 42
0 0 42
0 0 42
0 0 42
0 0 42
0 0 42
0 0 42
0 0 42
0 0 42
0 0 42
0 0 42
0 0 42
0 0 42
0 0 42
0 0 42
0 0 42
0 0 42
0 0 42
0 0 42
0 0 42
0 0 44
0 0 47
0 0 45
52 79 70
211 226 245
220 235 255
220 235 255
220 235 255
220 235 255
220 235 255
220 235 255
220 235 255
220 235 255
220 235 255
220 235 255
220 235 255
220 235 255
220 235 255
220 235 255
220 235 255
220 235 255
220 235 255
220 235 255
220 235 255
220 235 255
220 235 255
220 235 255
220 235 255
220 235 255
220 235 255
220 235 255
220 235 255
220 235 255
220 235 255
220 235 255
220 235 255
220 235 255
220 235 255
220 235 255
220 235 255
220 235 255
220 235 255
220 235 255
220 235 255
220 235 255
220 235 255
220 235 255
220 235 255
220 235 255
220 235 255
220 235 255
220 235 255
220 235 255
220 235 255
220 235 255
220 235 255
220 235 255
220 235 255
220 235 255
220 235 255
220 235 255
220 235 255
220 235 255
220 235 255
220 235 255
220 235 255
220 235 255
220 235 255
220 235 255
220 235 255
220 235 255
220 235 255
220 235 255
220 235 255
220 235 255
220 235 255
220 235 255
220 235 255
220 235 255
220 235 255
220 235 255
220 235 255
220 235 255
220 235 255
220 235 255
220 235 255
220 235 255
220 235 255
220 235 255
220 235 255
220 235 255
220 235 255
220 235 255
220 235 255
220 235 255
220 235 255
220 235 255
220 235 255
220 235 255
220 235 255
220 235 255
220 235 255
220 235 255
220 235 255
220 235 255
220 235 255
220 235 255
220 235 255
220 235 255
220 235 255
220 235 255
220 235 255
220 235 255
220 235 255
220 235 255
220 235 255
220 235 255
220 235 255
220 235 255
220 235 255
220 235 255
220 235 255
220 235 255
220 235 255
220 235 255
220 235 255
220 235 255
220 235 255
220 235 255
220 235 255
220 235 255
220 235 255
220 235 255
220 235 255
220 235 255
220 235 255
220 235 255
220 235 255
220 235 255
220 235 255
220 235 255
220 235 255
220 235 255
220 235 255
220 235 255
220 235 255
220 235 255
220 235 255
220 235 255
220 235 255
220 235 255
220 235 255
220 235 255
220 235 255
220 235 255
220 235 255
220 235 255
220 235 255
220 235 255
220 235 255
220 235 255
220 235 255
220 235 255
220 235 255
220 235 255
220 235 255
220 235 255
220 235 255
220 235 255
220 235 255
220 235 255
220 235 255
220 235 255
220 235 255
220 235 255
220 235 255
220 235 255
220 235 255
220 235 255
220 235 255
220 235 255
220 235 255
220 235 255
220 235 255
220 235 255
220 235 255
220 235 255
220 235 255
220 235 255
220 235 255
220 235 255
220 235 255
220 235 255
170 182 200
0 0 42
0 0 42
0 0 42
0 0 42
0 0 42
0 0 42
0 0 42
0 0 42
0 0 43
0 0 43
0 0 44
0 0 41
0 0 42
0 0 42
0 0 42
0 0 44
0 0 44
0 0 44
0 0 42
0 0 42
0 0 42
0 0 43
0 0 45
0 0 45
0 0 45
0 0 45
0 0 42
0 0 42
0 0 45
0 0 42
0 0 42
0 0 44
0 0 45
0 0 44
0 0 45
0 0 45
0 0 45
0 0 45
0 0 45
0 0 45
0 0 45
0 0 45
0 0 43
0 0 43
0 0 42
0 0 42
0 0 42
0 0 42
0 0 42
0 0 42
0 0 42
0 0 42
0 0 42
0 0 42
0 0 42
0 0 42
0 0 42
0 0 42
0 0 42
0 0 42
0 0 42
0 0 43
0 0 45
0 0 43
0 0 42
0 0 42
0 0 42
0 0 42
0 0 45
0 0 45
0 0 43
0 0 42
0 0 42
0 0 43
0 0 44
0 0 42
0 0 42
0 0 42
0 0 42
0 0 42
0 0 42
0 0 42
0 0 42
0 0 42
0 0 42
0 0 42
0 0 43
0 0 45
0 0 45
0 0 45
0 0 45
0 0 45
0 0 45
0 0 45
0 0 45
0 0 47
0 0 49
0 0 50
0 0 50
0 0 45
0 0 47
0 0 50
0 0 53
0 0 53
0 0 55
0 16 69
0 33 88
0 24 83
0 14 74
0 18 76
0 14 75
0 3 61
0 0 52
0 0 53
34 57 27
49 81 19
55 87 22
52 78 26
57 83 24
20 32 35
0 0 41
0 0 49
0 0 42
0 0 38
0 0 41
0 0 46
0 0 37
0 0 43
0 0 47
0 0 41
0 0 45
0 0 42
0 0 43
0 0 39
0 0 39
10 14 41
46 65 30
54 80 17
45 72 5
42 60 21
52 70 17
42 64 12
57 77 19
88 114 75
70 120 89
57 79 31
81 75 43
91 85 49
65 74 25
51 74 9
42 61 31
26 37 30
28 39 32
34 51 32
27 42 36
8 12 45
0 0 51
0 0 51
24 40 70
25 46 52
31 50 40
14 59 56
0 14 70
28 44 39
7 23 42
0 0 41
0 0 47
0 0 43
0 0 45
0 0 45
0 0 46
0 0 48
0 0 48
0 0 52
0 0 55
0 0 56
0 0 52
0 0 49
0 0 45
0 0 45
0 0 45
0 0 45
0 0 43
0 0 42
0 0 42
0 0 42
0 0 42
0 0 42
0 0 42
0 0 42
0 0 42
0 0 42
0 0 42
0 0 42
0 0 42
0 0 42
0 0 42
0 0 42
0 0 42
0 0 42
0 0 42
0 0 42
0 0 42
0 0 42
0 0 42
0 0 42
0 0 44
0 0 43
0 0 44
32 51 67
188 203 216
220 235 255
220 235 255
220 235 255
220 235 255
220 235 255
220 235 255
220 235 255
220 235 255
220 235 255
220 235 255
220 235 255
220 235 255
220 235 255
220 235 255
220 235 255
220 235 255
220 235 255
220 235 255
220 235 255
220 235 255
220 235 255
220 235 255
220 235 255
220 235 255
220 235 255
220 235 255
220 235 255
220 235 255
220 235 255
220 235 255
220 235 255
220 235 255
220 235 255
220 235 255
220 235 255
220 235 255
220 235 255
220 235 255
220 235 255
220 235 255
220 235 255
220 235 255
220 235 255
220 235 255
220 235 255
220 235 255
220 235 255
220 235 255
220 235 255
220 235 255
220 235 255
220 235 255
220 235 255
220 235 255
220 235 255
220 235 255
220 235 255
220 235 255
220 235 255
220 235 255
220 235 255
220 235 255
220 235 255
220 235 255
220 235 255
220 235 255
220 235 255
220 235 255
220 235 255
220 235 255
220 235 255
220 235 255
220 235 255
220 235 255
220 235 255
220 235 255
220 235 255
220 235 255
220 235 255
220 235 255
220 235 255
220 235 255
220 235 255
220 235 255
220 235 255
220 235 255
220 235 255
220 235 255
220 235 255
220 235 255
220 235 255
220 235 255
220 235 255
220 235 255
220 235 255
220 235 255
220 235 255
220 235 255
220 235 255
220 235 255
220 235 255
220 235 255
220 235 255
220 235 255
220 235 255
220 235 255
220 235 255
220 235 255
220 235 255
220 235 255
220 235 255
220 235 255
220 235 255
220 235 255
220 235 255
220 235 255
220 235 255
220 235 255
220 235 255
220 235 255
220 235 255
220 235 255
220 235 255
220 235 255
220 235 255
220 235 255
220 235 255
220 235 255
220 235 255
220 235 255
220 235 255
220 235 255
220 235 255
220 235 255
220 235 255
220 235 255
220 235 255
220 235 255
220 235 255
220 235 255
220 235 255
220 235 255
220 235 255
220 235 255
220 235 255
220 235 255
220 235 255
220 235 255
220 235 255
220 235 255
220 235 255
220 235 255
220 235 255
220 235 255
220 235 255
220 235 255
220 235 255
220 235 255
220 235 255
220 235 255
220 235 255
220 235 255
220 235 255
220 235 255
220 235 255
220 235 255
220 235 255
220 235 255
220 235 255
220 235 255
220 235 255
220 235 255
220 235 255
220 235 255
220 235 255
220 235 255
220 235 255
220 235 255
220 235 255
220 235 255
220 235 255
220 235 255
220 235 255
220 235 255
220 235 255
220 235 255
220 235 255
220 235 255
149 159 176
0 0 42
0 0 43
0 0 44
0 0 43
0 0 44
0 0 45
0 0 45
0 0 45
0 0 45
0 0 43
0 0 42
0 0 41
0 0 42
0 0 42
0 0 42
0 0 45
0 0 45
0 0 45
0 0 42
0 0 42
0 0 43
0 0 44
0 0 45
0 0 45
0 0 45
0 0 45
0 0 42
0 0 42
0 0 45
0 0 42
0 0 42
0 0 45
0 0 45
0 0 45
0 0 45
0 0 44
0 0 45
0 0 45
0 0 45
0 0 45
0 0 45
0 0 45
0 0 45
0 0 45
0 0 44
0 0 42
0 0 42
0 0 42
0 0 42
0 0 42
0 0 42
0 0 42
0 0 42
0 0 42
0 0 42
0 0 42
0 0 42
0 0 42
0 0 42
0 0 42
0 0 43
0 0 45
0 0 45
0 0 43
0 0 42
0 0 42
0 0 42
0 0 42
0 0 44
0 0 44
0 0 42
0 0 42
0 0 42
0 0 42
0 0 44
0 0 42
0 0 42
0 0 42
0 0 42
0 0 42
0 0 42
0 0 43
0 0 42
0 0 43
0 0 42
0 0 43
0 0 43
0 0 45
0 0 45
0 0 45
0 0 45
0 0 45
0 0 45
0 0 45
0 0 47
0 0 50
0 0 53
0 0 53
0 0 54
0 0 53
0 0 52
0 0 52
0 0 54
0 0 55
0 0 56
0 6 68
0 21 82
0 23 88
0 13 77
0 12 73
0 6 72
0 0 53
0 0 53
0 0 40
18 32 28
37 64 30
34 62 37
49 78 18
53 78 23
40 63 4
17 28 32
2 3 49
0 0 40
0 0 43
0 0 46
0 0 46
0 0 39
0 3 52
0 0 44
0 0 38
0 0 35
0 0 41
0 0 49
0 0 37
0 0 42
6 9 54
46 69 18
54 76 18
49 69 13
54 73 25
56 76 18
46 63 8
61 82 18
44 77 89
28 87 112
44 76 51
75 78 36
96 93 53
85 95 44
45 75 0
51 75 10
51 72 25
57 79 30
49 74 10
46 72 10
34 57 24
26 46 39
26 46 38
42 58 24
42 68 18
39 70 18
24 89 69
6 54 88
43 66 69
12 27 54
0 0 54
0 0 40
0 0 42
0 0 45
0 0 45
0 0 45
0 0 47
0 0 48
0 0 51
0 0 55
0 0 56
0 0 52
0 0 51
0 0 49
0 0 47
0 0 45
0 0 45
0 0 43
0 0 42
0 0 42
0 0 42
0 0 42
0 0 42
0 0 42
0 0 42
0 0 42
0 0 42
0 0 42
0 0 42
0 0 42
0 0 42
0 0 42
0 0 42
0 0 42
0 0 42
0 0 42
0 0 42
0 0 42
0 0 42
0 0 42
0 0 42
0 0 45
0 0 43
0 0 42
4 38 79
138 153 156
220 235 255
220 235 255
220 235 255
220 235 255
220 235 255
220 235 255
220 235 255
220 235 255
220 235 255
220 235 255
220 235 255
220 235 255
220 235 255
220 235 255
220 235 255
220 235 255
220 235 255
220 235 255
220 235 255
220 235 255
220 235 255
220 235 255
220 235 255
220 235 255
220 235 255
220 235 255
220 235 255
220 235 255
220 235 255
220 235 255
220 235 255
220 235 255
220 235 255
220 235 255
220 235 255
220 235 255
220 235 255
220 235 255
220 235 255
220 235 255
220 235 255
220 235 255
220 235 255
220 235 255
220 235 255
220 235 255
220 235 255
220 235 255
220 235 255
220 235 255
220 235 255
220 235 255
220 235 255
220 235 255
220 235 255
220 235 255
220 235 255
220 235 255
220 235 255
220 235 255
220 235 255
220 235 255
220 235 255
220 235 255
220 235 255
220 235 255
220 235 255
220 235 255
220 235 255
220 235 255
220 235 255
220 235 255
220 235 255
220 235 255
220 235 255
220 235 255
220 235 255
220 235 255
220 235 255
220 235 255
220 235 255
220 235 255
220 235 255
220 235 255
220 235 255
220 235 255
220 235 255
220 235 255
220 235 255
220 235 255
220 235 255
220 235 255
220 235 255
220 235 255
220 235 255
220 235 255
220 235 255
220 235 255
220 235 255
220 235 255
220 235 255
220 235 255
220 235 255
220 235 255
220 235 255
220 235 255
220 235 255
220 235 255
220 235 255
220 235 255
220 235 255
220 235 255
220 235 255
220 235 255
220 235 255
220 235 255
220 235 255
220 235 255
220 235 255
220 235 255
220 235 255
220 235 255
220 235 255
220 235 255
220 235 255
220 235 255
220 235 255
220 235 255
220 235 255
220 235 255
220 235 255
220 235 255
220 235 255
220 235 255
220 235 255
220 235 255
220 235 255
220 235 255
220 235 255
220 235 255
220 235 255
220 235 255
220 235 255
220 235 255
220 235 255
220 235 255
220 235 255
220 235 255
220 235 255
220 235 255
220 235 255
220 235 255
220 235 255
220 235 255
220 235 255
220 235 255
220 235 255
220 235 255
220 235 255
220 235 255
220 235 255
220 235 255
220 235 255
220 235 255
220 235 255
220 235 255
220 235 255
220 235 255
220 235 255
220 235 255
220 235 255
220 235 255
220 235 255
220 235 255
220 235 255
220 235 255
220 235 255
220 235 255
220 235 255
220 235 255
220 235 255
220 235 255
220 235 255
220 235 255
220 235 255
220 235 255
220 235 255
220 235 255
101 107 123
0 0 43
0 0 45
0 0 45
0 0 44
0 0 45
0 0 45
0 0 45
0 0 45
0 0 45
0 0 44
0 0 42
0 0 42
0 0 42
0 0 42
0 0 42
0 0 45
0 0 45
0 0 44
0 0 43
0 0 44
0 0 45
0 0 45
0 0 45
0 0 45
0 0 44
0 0 45
0 0 42
0 0 42
0 0 44
0 0 42
0 0 42
0 0 45
0 0 45
0 0 45
0 0 44
0 0 42
0 0 45
0 0 45
0 0 45
0 0 45
0 0 45
0 0 43
0 0 44
0 0 45
0 0 44
0 0 42
0 0 42
0 0 42
0 0 42
0 0 42
0 0 42
0 0 42
0 0 42
0 0 42
0 0 42
0 0 42
0 0 42
0 0 42
0 0 42
0 0 42
0 0 44
0 0 45
0 0 45
0 0 45
0 0 42
0 0 42
0 0 42
0 0 42
0 0 42
0 0 42
0 0 42
0 0 42
0 0 42
0 0 42
0 0 43
0 0 43
0 0 42
0 0 42
0 0 42
0 0 42
0 0 45
0 0 45
0 0 45
0 0 45
0 0 45
0 0 45
0 0 45
0 0 45
0 0 45
0 0 45
0 0 45
0 0 45
0 0 44
0 0 45
0 0 48
0 0 53
0 0 54
0 0 56
0 0 61
0 0 62
0 0 62
0 0 61
0 0 62
0 0 63
0 0 65
0 10 72
0 19 82
0 25 90
0 14 76
0 6 63
0 0 61
0 0 59
0 0 45
0 0 45
0 0 46
0 14 41
13 26 50
31 49 40
43 65 22
40 65 7
35 57 8
19 31 33
0 0 43
0 0 44
0 0 41
0 0 42
9 16 36
27 45 33
31 50 28
22 38 33
13 17 43
0 0 37
0 0 38
0 0 43
12 13 42
29 41 43
56 80 26
59 83 16
57 79 18
56 77 22
49 71 14
36 52 5
49 79 5
24 62 65
11 74 125
46 94 77
51 71 15
55 68 25
57 77 23
43 75 10
48 73 14
54 76 10
54 79 22
55 80 22
55 83 22
50 80 9
48 81 8
44 75 15
61 82 28
68 87 24
54 79 15
37 64 19
30 68 42
25 71 64
1 60 89
0 7 53
0 0 40
0 0 44
0 0 45
0 0 45
0 0 45
0 0 47
0 0 50
0 0 52
0 0 53
0 0 56
0 0 53
0 0 51
0 0 50
0 0 49
0 0 45
0 0 45
0 0 44
0 0 42
0 0 42
0 0 42
0 0 42
0 0 42
0 0 42
0 0 42
0 0 42
0 0 42
0 0 42
0 0 42
0 0 42
0 0 42
0 0 42
0 0 42
0 0 42
0 0 42
0 0 42
0 0 42
0 0 42
0 0 42
0 0 42
0 0 42
0 0 43
0 0 42
0 0 43
0 30 60
120 135 141
220 235 255
220 235 255
220 235 255
220 235 255
220 235 255
220 235 255
220 235 255
220 235 255
220 235 255
220 235 255
220 235 255
220 235 255
220 235 255
220 235 255
220 235 255
220 235 255
220 235 255
220 235 255
220 235 255
220 235 255
220 235 255
220 235 255
220 235 255
220 235 255
220 235 255
220 235 255
220 235 255
220 235 255
220 235 255
220 235 255
220 235 255
220 235 255
220 235 255
220 235 255
220 235 255
220 235 255
220 235 255
220 235 255
220 235 255
220 235 255
220 235 255
220 235 255
220 235 255
220 235 255
220 235 255
220 235 255
220 235 255
220 235 255
220 235 255
220 235 255
220 235 255
220 235 255
220 235 255
220 235 255
220 235 255
220 235 255
220 235 255
220 235 255
220 235 255
220 235 255
220 235 255
220 235 255
220 235 255
220 235 255
220 235 255
220 235 255
220 235 255
220 235 255
220 235 255
220 235 255
220 235 255
220 235 255
220 235 255
220 235 255
220 235 255
220 235 255
220 235 255
220 235 255
220 235 255
220 235 255
220 235 255
220 235 255
220 235 255
220 235 255
220 235 255
220 235 255
220 235 255
220 235 255
220 235 255
220 235 255
220 235 255
220 235 255
220 235 255
220 235 255
220 235 255
220 235 255
220 235 255
220 235 255
220 235 255
220 235 255
220 235 255
220 235 255
220 235 255
220 235 255
220 235 255
220 235 255
220 235 255
220 235 255
220 235 255
220 235 255
220 235 255
220 235 255
220 235 255
220 235 255
220 235 255
220 235 255
220 235 255
220 235 255
220 235 255
220 235 255
220 235 255
220 235 255
220 235 255
220 235 255
220 235 255
220 235 255
220 235 255
220 235 255
220 235 255
220 235 255
220 235 255
220 235 255
220 235 255
220 235 255
220 235 255
220 235 255
220 235 255
220 235 255
220 235 255
220 235 255
220 235 255
220 235 255
220 235 255
220 235 255
220 235 255
220 235 255
220 235 255
220 235 255
220 235 255
220 235 255
220 235 255
220 235 255
220 235 255
220 235 255
220 235 255
220 235 255
220 235 255
220 235 255
220 235 255
220 235 255
220 235 255
220 235 255
220 235 255
220 235 255
220 235 255
220 235 255
220 235 255
220 235 255
220 235 255
220 235 255
220 235 255
220 235 255
220 235 255
220 235 255
220 235 255
220 235 255
220 235 255
220 235 255
220 235 255
220 235 255
220 235 255
220 235 255
220 235 255
220 235 255
220 235 255
220 235 255
220 235 255
219 234 254
38 40 61
0 0 45
0 0 45
0 0 45
0 0 45
0 0 45
0 0 45
0 0 45
0 0 45
0 0 45
0 0 44
0 0 43
0 0 42
0 0 42
0 0 42
0 0 42
0 0 45
0 0 45
0 0 45
0 0 45
0 0 45
0 0 45
0 0 45
0 0 45
0 0 45
0 0 44
0 0 44
0 0 42
0 0 42
0 0 44
0 0 42
0 0 42
0 0 45
0 0 45
0 0 45
0 0 45
0 0 44
0 0 45
0 0 45
0 0 45
0 0 45
0 0 45
0 0 45
0 0 44
0 0 44
0 0 43
0 0 42
0 0 42
0 0 42
0 0 42
0 0 42
0 0 42
0 0 42
0 0 42
0 0 42
0 0 42
0 0 42
0 0 42
0 0 42
0 0 42
0 0 44
0 0 45
0 0 45
0 0 45
0 0 45
0 0 43
0 0 42
0 0 42
0 0 42
0 0 42
0 0 42
0 0 42
0 0 42
0 0 42
0 0 42
0 0 43
0 0 44
0 0 42
0 0 42
0 0 42
0 0 44
0 0 45
0 0 45
0 0 45
0 0 45
0 0 45
0 0 45
0 0 45
0 0 45
0 0 45
0 0 45
0 0 45
0 0 45
0 0 45
0 0 46
0 0 48
0 0 51
0 0 54
0 0 57
0 0 63
0 0 68
0 10 71
0 11 69
0 0 67
0 0 68
0 0 69
0 20 78
0 21 84
0 24 88
0 20 80
0 5 63
0 0 55
0 0 44
0 0 44
0 0 42
0 0 46
0 0 47
0 0 51
0 0 39
24 38 43
41 64 24
41 66 7
38 62 19
19 32 40
6 14 36
3 7 40
25 43 32
43 67 31
44 70 45
34 62 47
38 68 35
43 66 34
19 28 41
0 0 41
0 2 45
36 48 51
65 87 46
68 93 37
60 85 24
52 77 13
47 72 14
37 57 15
23 45 4
43 67 7
43 74 19
34 114 105
58 87 56
59 72 21
44 69 0
46 74 0
47 78 9
46 74 10
53 79 0
57 82 15
60 84 16
60 84 18
63 89 23
59 85 18
60 80 22
82 94 34
91 93 31
83 89 32
63 70 19
41 64 9
40 58 5
37 92 74
8 79 114
0 0 54
0 0 49
0 0 45
0 0 45
0 0 45
0 0 45
0 0 50
0 0 54
0 0 56
0 0 57
0 0 52
0 0 52
0 0 50
0 0 48
0 0 46
0 0 45
0 0 44
0 0 42
0 0 42
0 0 42
0 0 42
0 0 42
0 0 42
0 0 42
0 0 42
0 0 42
0 0 42
0 0 42
0 0 42
0 0 42
0 0 42
0 0 42
0 0 42
0 0 42
0 0 42
0 0 42
0 0 42
0 0 42
0 0 42
0 0 42
0 0 42
0 0 42
0 0 44
0 0 44
61 75 87
219 234 254
220 235 255
220 235 255
220 235 255
220 235 255
220 235 255
220 235 255
220 235 255
220 235 255
220 235 255
220 235 255
220 235 255
220 235 255
220 235 255
220 235 255
220 235 255
220 235 255
220 235 255
220 235 255
220 235 255
220 235 255
220 235 255
220 235 255
220 235 255
220 235 255
220 235 255
220 235 255
220 235 255
220 235 255
220 235 255
220 235 255
220 235 255
220 235 255
220 235 255
220 235 255
220 235 255
220 235 255
220 235 255
220 235 255
220 235 255
220 235 255
220 235 255
220 235 255
220 235 255
220 235 255
220 235 255
220 235 255
220 235 255
220 235 255
220 235 255
220 235 255
220 235 255
220 235 255
220 235 255
220 235 255
220 235 255
220 235 255
220 235 255
220 235 255
220 235 255
220 235 255
220 235 255
220 235 255
220 235 255
220 235 255
220 235 255
220 235 255
220 235 255
220 235 255
220 235 255
220 235 255
220 235 255
220 235 255
220 235 255
220 235 255
220 235 255
220 235 255
220 235 255
220 235 255
220 235 255
220 235 255
220 235 255
220 235 255
220 235 255
220 235 255
220 235 255
220 235 255
220 235 255
220 235 255
220 235 255
220 235 255
220 235 255
220 235 255
220 235 255
220 235 255
220 235 255
220 235 255
220 235 255
220 235 255
220 235 255
220 235 255
220 235 255
220 235 255
220 235 255
220 235 255
220 235 255
220 235 255
220 235 255
220 235 255
220 235 255
220 235 255
220 235 255
220 235 255
220 235 255
220 235 255
220 235 255
220 235 255
220 235 255
220 235 255
220 235 255
220 235 255
220 235 255
220 235 255
220 235 255
220 235 255
220 235 255
220 235 255
220 235 255
220 235 255
220 235 255
220 235 255
220 235 255
220 235 255
220 235 255
220 235 255
220 235 255
220 235 255
220 235 255
220 235 255
220 235 255
220 235 255
220 235 255
220 235 255
220 235 255
220 235 255
220 235 255
220 235 255
220 235 255
220 235 255
220 235 255
220 235 255
220 235 255
220 235 255
220 235 255
220 235 255
220 235 255
220 235 255
220 235 255
220 235 255
220 235 255
220 235 255
220 235 255
220 235 255
220 235 255
220 235 255
220 235 255
220 235 255
220 235 255
220 235 255
220 235 255
220 235 255
220 235 255
220 235 255
220 235 255
220 235 255
220 235 255
220 235 255
220 235 255
220 235 255
220 235 255
220 235 255
220 235 255
220 235 255
220 235 255
220 235 255
220 235 255
220 235 255
191 203 222
0 0 42
0 0 44
0 0 45
0 0 45
0 0 45
0 0 45
0 0 45
0 0 45
0 0 45
0 0 45
0 0 43
0 0 45
0 0 45
0 0 45
0 0 45
0 0 45
0 0 45
0 0 45
0 0 45
0 0 45
0 0 45
0 0 45
0 0 45
0 0 45
0 0 45
0 0 45
0 0 44
0 0 42
0 0 43
0 0 44
0 0 42
0 0 43
0 0 45
0 0 45
0 0 45
0 0 45
0 0 45
0 0 45
0 0 42
0 0 42
0 0 44
0 0 45
0 0 45
0 0 42
0 0 42
0 0 42
0 0 42
0 0 42
0 0 42
0 0 42
0 0 42
0 0 42
0 0 42
0 0 42
0 0 42
0 0 42
0 0 42
0 0 42
0 0 42
0 0 44
0 0 45
0 0 45
0 0 45
0 0 45
0 0 45
0 0 43
0 0 42
0 0 42
0 0 42
0 0 42
0 0 44
0 0 42
0 0 42
0 0 42
0 0 44
0 0 45
0 0 45
0 0 42
0 0 42
0 0 42
0 0 45
0 0 45
0 0 45
0 0 45
0 0 45
0 0 45
0 0 44
0 0 45
0 0 45
0 0 45
0 0 45
0 0 45
0 0 45
0 0 45
0 0 47
0 0 48
0 0 50
0 0 51
0 0 56
0 0 62
0 9 69
0 16 73
0 12 70
0 0 60
0 0 57
0 0 58
0 7 60
0 12 73
0 14 78
0 13 71
0 0 57
0 0 51
0 0 49
0 0 44
0 0 52
0 0 48
0 0 34
0 0 43
0 0 47
6 12 39
22 40 21
44 69 21
55 84 22
52 81 20
44 68 20
44 66 22
53 82 13
49 76 37
25 45 66
9 19 69
18 42 50
42 73 44
48 75 23
19 38 58
24 55 78
64 97 46
74 102 37
66 92 22
56 83 15
46 74 8
43 72 9
42 66 14
25 50 0
35 72 0
48 79 19
48 76 20
65 72 27
54 71 23
48 76 17
43 76 0
51 76 12
45 75 6
46 82 0
54 77 12
74 91 29
74 92 28
70 86 23
63 80 20
68 84 26
96 99 47
96 95 38
71 74 22
75 79 30
57 72 17
36 62 6
34 69 40
15 94 115
2 25 68
0 13 61
0 0 45
0 0 45
0 0 45
0 0 45
0 0 49
0 0 55
0 0 58
0 0 58
0 0 52
0 0 48
0 0 46
0 0 46
0 0 45
0 0 45
0 0 44
0 0 42
0 0 42
0 0 42
0 0 42
0 0 42
0 0 42
0 0 42
0 0 42
0 0 42
0 0 42
0 0 42
0 0 42
0 0 42
0 0 42
0 0 42
0 0 42
0 0 42
0 0 42
0 0 42
0 0 42
0 0 42
0 0 42
0 0 42
0 0 42
0 0 42
0 0 44
0 0 45
16 37 73
194 208 223
220 235 255
220 235 255
220 235 255
220 235 255
220 235 255
220 235 255
220 235 255
220 235 255
220 235 255
220 235 255
220 235 255
220 235 255
220 235 255
220 235 255
220 235 255
220 235 255
220 235 255
220 235 255
220 235 255
220 235 255
220 235 255
220 235 255
220 235 255
220 235 255
220 235 255
220 235 255
220 235 255
220 235 255
220 235 255
220 235 255
220 235 255
220 235 255
220 235 255
220 235 255
220 235 255
220 235 255
220 235 255
220 235 255
220 235 255
220 235 255
220 235 255
220 235 255
220 235 255
220 235 255
220 235 255
220 235 255
220 235 255
220 235 255
220 235 255
220 235 255
220 235 255
220 235 255
220 235 255
220 235 255
220 235 255
220 235 255
220 235 255
220 235 255
220 235 255
220 235 255
220 235 255
220 235 255
220 235 255
220 235 255
220 235 255
220 235 255
220 235 255
220 235 255
220 235 255
220 235 255
220 235 255
220 235 255
220 235 255
220 235 255
220 235 255
220 235 255
220 235 255
220 235 255
220 235 255
220 235 255
220 235 255
220 235 255
220 235 255
220 235 255
220 235 255
220 235 255
220 235 255
220 235 255
220 235 255
220 235 255
220 235 255
220 235 255
220 235 255
220 235 255
220 235 255
220 235 255
220 235 255
220 235 255
220 235 255
220 235 255
220 235 255
220 235 255
220 235 255
220 235 255
220 235 255
220 235 255
220 235 255
220 235 255
220 235 255
220 235 255
220 235 255
220 235 255
220 235 255
220 235 255
220 235 255
220 235 255
220 235 255
220 235 255
220 235 255
220 235 255
220 235 255
220 235 255
220 235 255
220 235 255
220 235 255
220 235 255
220 235 255
220 235 255
220 235 255
220 235 255
220 235 255
220 235 255
220 235 255
220 235 255
220 235 255
220 235 255
220 235 255
220 235 255
220 235 255
220 235 255
220 235 255
220 235 255
220 235 255
220 235 255
220 235 255
220 235 255
220 235 255
220 235 255
220 235 255
220 235 255
220 235 255
220 235 255
220 235 255
220 235 255
220 235 255
220 235 255
220 235 255
220 235 255
220 235 255
220 235 255
220 235 255
220 235 255
220 235 255
220 235 255
220 235 255
220 235 255
220 235 255
220 235 255
220 235 255
220 235 255
220 235 255
220 235 255
220 235 255
220 235 255
220 235 255
220 235 255
220 235 255
220 235 255
220 235 255
220 235 255
220 235 255
220 235 255
220 235 255
220 235 255
220 235 255
220 235 255
177 189 207
0 0 44
0 0 44
0 0 45
0 0 45
0 0 45
0 0 44
0 0 45
0 0 45
0 0 45
0 0 45
0 0 43
0 0 45
0 0 46
0 0 45
0 0 45
0 0 45
0 0 45
0 0 45
0 0 44
0 0 45
0 0 45
0 0 45
0 0 45
0 0 45
0 0 45
0 0 45
0 0 44
0 0 42
0 0 43
0 0 44
0 0 43
0 0 44
0 0 45
0 0 44
0 0 43
0 0 43
0 0 45
0 0 45
0 0 43
0 0 43
0 0 42
0 0 43
0 0 43
0 0 42
0 0 42
0 0 42
0 0 42
0 0 42
0 0 44
0 0 44
0 0 44
0 0 44
0 0 44
0 0 42
0 0 42
0 0 43
0 0 45
0 0 45
0 0 45
0 0 45
0 0 45
0 0 45
0 0 45
0 0 45
0 0 45
0 0 45
0 0 44
0 0 42
0 0 42
0 0 43
0 0 45
0 0 45
0 0 45
0 0 45
0 0 45
0 0 45
0 0 45
0 0 45
0 0 45
0 0 45
0 0 45
0 0 45
0 0 45
0 0 42
0 0 42
0 0 42
0 0 42
0 0 43
0 0 45
0 0 45
0 0 45
0 0 45
0 0 45
0 0 45
0 0 46
0 0 49
0 0 48
0 0 49
0 0 55
0 0 63
0 0 67
0 0 66
0 0 60
0 0 51
0 0 49
0 0 48
0 0 47
0 0 50
0 0 54
0 0 56
0 0 55
0 0 50
0 0 45
0 0 45
0 0 45
0 0 45
0 0 45
0 0 45
0 0 45
0 0 47
0 8 40
15 24 43
18 31 46
28 46 34
41 70 21
49 83 1
51 82 30
22 32 56
0 0 49
0 4 55
0 7 55
24 65 55
48 79 18
43 69 29
37 113 76
61 100 42
61 93 29
56 88 17
49 76 12
40 66 0
39 64 5
50 70 11
40 55 10
47 64 12
50 70 16
52 69 18
53 73 20
52 78 14
53 81 15
49 78 0
47 79 3
48 82 0
50 82 0
52 78 3
56 73 12
74 80 26
90 91 37
86 89 33
89 95 35
92 89 37
91 92 32
75 81 34
59 73 26
34 55 5
34 56 0
28 52 10
30 58 36
23 51 44
10 52 87
0 9 65
0 0 41
0 0 41
0 0 44
0 0 42
0 0 53
0 0 57
0 0 64
0 0 56
0 0 47
0 0 44
0 0 45
0 0 42
0 0 44
0 0 45
0 0 42
0 0 41
0 0 42
0 0 42
0 0 42
0 0 42
0 0 42
0 0 42
0 0 42
0 0 42
0 0 42
0 0 42
0 0 42
0 0 42
0 0 42
0 0 42
0 0 42
0 0 42
0 0 42
0 0 42
0 0 42
0 0 42
0 0 42
0 0 42
0 0 42
0 0 43
0 0 44
3 8 45
173 187 199
220 235 255
220 235 255
220 235 255
220 235 255
220 235 255
220 235 255
220 235 255
220 235 255
220 235 255
220 235 255
220 235 255
220 235 255
220 235 255
220 235 255
220 235 255
220 235 255
220 235 255
220 235 255
220 235 255
220 235 255
220 235 255
220 235 255
220 235 255
220 235 255
220 235 255
220 235 255
220 235 255
220 235 255
220 235 255
220 235 255
220 235 255
220 235 255
220 235 255
220 235 255
220 235 255
220 235 255
220 235 255
220 235 255
220 235 255
220 235 255
220 235 255
220 235 255
220 235 255
220 235 255
220 235 255
220 235 255
220 235 255
220 235 255
220 235 255
220 235 255
220 235 255
220 235 255
220 235 255
220 235 255
220 235 255
220 235 255
220 235 255
220 235 255
220 235 255
220 235 255
220 235 255
220 235 255
220 235 255
220 235 255
220 235 255
220 235 255
220 235 255
220 235 255
220 235 255
220 235 255
220 235 255
220 235 255
220 235 255
220 235 255
220 235 255
220 235 255
220 235 255
220 235 255
220 235 255
220 235 255
220 235 255
220 235 255
220 235 255
220 235 255
220 235 255
220 235 255
220 235 255
220 235 255
220 235 255
220 235 255
220 235 255
220 235 255
220 235 255
220 235 255
220 235 255
220 235 255
220 235 255
220 235 255
220 235 255
220 235 255
220 235 255
220 235 255
220 235 255
220 235 255
220 235 255
220 235 255
220 235 255
220 235 255
220 235 255
220 235 255
220 235 255
220 235 255
220 235 255
220 235 255
220 235 255
220 235 255
220 235 255
220 235 255
220 235 255
220 235 255
220 235 255
220 235 255
220 235 255
220 235 255
220 235 255
220 235 255
220 235 255
220 235 255
220 235 255
220 235 255
220 235 255
220 235 255
220 235 255
220 235 255
220 235 255
220 235 255
220 235 255
220 235 255
220 235 255
220 235 255
220 235 255
220 235 255
220 235 255
220 235 255
220 235 255
220 235 255
220 235 255
220 235 255
220 235 255
220 235 255
220 235 255
220 235 255
220 235 255
220 235 255
220 235 255
220 235 255
220 235 255
220 235 255
220 235 255
220 235 255
220 235 255
220 235 255
220 235 255
220 235 255
220 235 255
220 235 255
220 235 255
220 235 255
220 235 255
220 235 255
220 235 255
220 235 255
220 235 255
220 235 255
220 235 255
220 235 255
220 235 255
220 235 255
220 235 255
220 235 255
220 235 255
220 235 255
220 235 255
220 235 255
220 235 255
220 235 255
151 161 178
0 0 45
0 0 45
0 0 45
0 0 45
0 0 44
0 0 43
0 0 45
0 0 45
0 0 45
0 0 45
0 0 43
0 0 48
0 0 53
0 0 49
0 0 44
0 0 45
0 0 45
0 0 44
0 0 46
0 0 48
0 0 46
0 0 45
0 0 45
0 0 45
0 0 45
0 0 45
0 0 45
0 0 43
0 0 42
0 0 44
0 0 45
0 0 45
0 0 45
0 0 45
0 0 44
0 0 44
0 0 45
0 0 45
0 0 45
0 0 45
0 0 43
0 0 42
0 0 42
0 0 42
0 0 42
0 0 42
0 0 42
0 0 42
0 0 44
0 0 44
0 0 44
0 0 44
0 0 44
0 0 43
0 0 44
0 0 45
0 0 45
0 0 45
0 0 45
0 0 45
0 0 45
0 0 45
0 0 45
0 0 45
0 0 45
0 0 45
0 0 44
0 0 43
0 0 42
0 0 43
0 0 45
0 0 45
0 0 45
0 0 45
0 0 45
0 0 45
0 0 45
0 0 45
0 0 45
0 0 45
0 0 45
0 0 45
0 0 45
0 0 43
0 0 42
0 0 42
0 0 43
0 0 44
0 0 45
0 0 45
0 0 45
0 0 45
0 0 45
0 0 45
0 0 47
0 0 48
0 0 48
0 0 49
0 0 53
0 0 58
0 0 59
0 0 56
0 0 51
0 0 49
0 0 48
0 0 46
0 0 45
0 0 47
0 0 49
0 0 52
0 0 52
0 0 48
0 0 46
0 0 45
0 0 45
0 0 45
0 0 45
0 0 45
0 0 42
0 0 48
0 0 46
0 0 47
0 0 50
0 0 47
19 35 44
35 60 32
61 93 26
40 59 49
6 9 51
0 0 62
0 0 58
19 37 43
47 71 18
47 68 15
56 107 44
63 89 37
47 73 13
50 79 13
45 69 9
26 51 0
37 62 5
48 70 12
45 60 16
53 71 20
52 72 15
48 72 15
44 71 7
42 73 5
53 76 13
47 70 0
48 76 0
46 78 0
43 75 0
48 80 9
50 80 15
49 67 6
70 79 26
78 81 29
88 88 35
75 84 31
78 84 29
76 80 33
48 56 14
54 72 15
38 61 3
23 52 0
25 52 0
32 54 6
25 59 25
15 70 96
5 32 67
0 0 46
0 0 51
0 0 50
0 0 49
0 0 61
0 1 69
0 0 57
0 0 45
0 0 44
0 0 43
0 0 43
0 0 43
0 0 45
0 0 42
0 0 41
0 0 41
0 0 42
0 0 42
0 0 42
0 0 42
0 0 42
0 0 42
0 0 42
0 0 42
0 0 42
0 0 42
0 0 42
0 0 42
0 0 42
0 0 42
0 0 42
0 0 42
0 0 42
0 0 42
0 0 42
0 0 42
0 0 42
0 0 41
0 0 42
0 0 44
0 0 44
151 164 177
220 235 255
220 235 255
220 235 255
220 235 255
220 235 255
220 235 255
220 235 255
220 235 255
220 235 255
220 235 255
220 235 255
220 235 255
220 235 255
220 235 255
220 235 255
220 235 255
220 235 255
220 235 255
220 235 255
220 235 255
220 235 255
220 235 255
220 235 255
220 235 255
220 235 255
220 235 255
220 235 255
220 235 255
220 235 255
220 235 255
220 235 255
220 235 255
220 235 255
220 235 255
220 235 255
220 235 255
220 235 255
220 235 255
220 235 255
220 235 255
220 235 255
220 235 255
220 235 255
220 235 255
220 235 255
220 235 255
220 235 255
220 235 255
220 235 255
220 235 255
220 235 255
220 235 255
220 235 255
220 235 255
220 235 255
220 235 255
220 235 255
220 235 255
220 235 255
220 235 255
220 235 255
220 235 255
220 235 255
220 235 255
220 235 255
220 235 255
220 235 255
220 235 255
220 235 255
220 235 255
220 235 255
220 235 255
220 235 255
220 235 255
220 235 255
220 235 255
220 235 255
220 235 255
220 235 255
220 235 255
220 235 255
220 235 255
220 235 255
220 235 255
220 235 255
220 235 255
220 235 255
220 235 255
220 235 255
220 235 255
220 235 255
220 235 255
220 235 255
220 235 255
220 235 255
220 235 255
220 235 255
220 235 255
220 235 255
220 235 255
220 235 255
220 235 255
220 235 255
220 235 255
220 235 255
220 235 255
220 235 255
220 235 255
220 235 255
220 235 255
220 235 255
220 235 255
220 235 255
220 235 255
220 235 255
220 235 255
220 235 255
220 235 255
220 235 255
220 235 255
220 235 255
220 235 255
220 235 255
220 235 255
220 235 255
220 235 255
220 235 255
220 235 255
220 235 255
220 235 255
220 235 255
220 235 255
220 235 255
220 235 255
220 235 255
220 235 255
220 235 255
220 235 255
220 235 255
220 235 255
220 235 255
220 235 255
220 235 255
220 235 255
220 235 255
220 235 255
220 235 255
220 235 255
220 235 255
220 235 255
220 235 255
220 235 255
220 235 255
220 235 255
220 235 255
220 235 255
220 235 255
220 235 255
220 235 255
220 235 255
220 235 255
220 235 255
220 235 255
220 235 255
220 235 255
220 235 255
220 235 255
220 235 255
220 235 255
220 235 255
220 235 255
220 235 255
220 235 255
220 235 255
220 235 255
220 235 255
220 235 255
220 235 255
220 235 255
220 235 255
220 235 255
220 235 255
220 235 255
220 235 255
220 235 255
220 235 255
139 148 165
0 0 45
0 0 45
0 0 45
0 0 45
0 0 44
0 0 44
0 0 45
0 0 45
0 0 45
0 0 45
0 0 43
0 0 50
0 0 53
0 0 50
0 0 45
0 0 44
0 0 45
0 0 45
0 0 47
0 0 47
0 0 45
0 0 45
0 0 45
0 0 45
0 0 45
0 0 44
0 0 42
0 0 42
0 0 42
0 0 44
0 0 44
0 0 44
0 0 44
0 0 44
0 0 45
0 0 45
0 0 45
0 0 45
0 0 45
0 0 45
0 0 45
0 0 45
0 0 44
0 0 42
0 0 42
0 0 42
0 0 42
0 0 42
0 0 42
0 0 42
0 0 42
0 0 42
0 0 42
0 0 45
0 0 45
0 0 45
0 0 45
0 0 45
0 0 45
0 0 45
0 0 45
0 0 45
0 0 45
0 0 45
0 0 45
0 0 45
0 0 45
0 0 45
0 0 43
0 0 43
0 0 45
0 0 45
0 0 45
0 0 45
0 0 45
0 0 45
0 0 45
0 0 45
0 0 45
0 0 45
0 0 45
0 0 45
0 0 45
0 0 45
0 0 44
0 0 44
0 0 44
0 0 43
0 0 42
0 0 43
0 0 45
0 0 45
0 0 45
0 0 45
0 0 45
0 0 45
0 0 48
0 0 49
0 0 50
0 0 51
0 0 51
0 0 46
0 0 46
0 0 47
0 0 47
0 0 46
0 0 43
0 0 45
0 0 45
0 0 48
0 0 48
0 0 46
0 0 45
0 0 45
0 0 45
0 0 45
0 0 45
0 0 45
0 0 41
0 0 45
0 0 47
0 0 45
0 0 46
0 0 46
0 3 48
8 14 54
30 48 43
18 30 50
2 4 46
0 0 51
0 0 54
6 9 54
34 54 37
60 89 44
64 97 42
64 91 38
39 62 11
39 60 4
35 56 0
25 48 0
32 59 3
39 62 7
45 57 12
69 82 35
53 72 19
44 70 7
41 73 0
40 73 0
44 71 0
42 66 0
44 65 0
49 68 0
55 70 10
57 71 12
50 71 14
47 66 11
52 71 17
58 72 21
55 66 14
49 70 13
56 67 12
80 86 40
50 54 18
65 80 27
50 66 14
30 58 0
26 55 0
28 50 0
28 49 0
31 68 44
15 75 106
0 0 48
0 0 42
0 0 43
0 0 51
0 0 56
0 10 74
0 9 70
0 7 56
0 0 48
0 0 46
0 0 45
0 0 45
0 0 45
0 0 43
0 0 42
0 0 42
0 0 42
0 0 42
0 0 42
0 0 42
0 0 42
0 0 42
0 0 42
0 0 42
0 0 42
0 0 42
0 0 42
0 0 42
0 0 42
0 0 42
0 0 42
0 0 42
0 0 42
0 0 42
0 0 42
0 0 41
0 0 42
0 0 41
0 0 44
0 0 45
0 0 42
132 144 155
220 235 255
220 235 255
220 235 255
220 235 255
220 235 255
220 235 255
220 235 255
220 235 255
220 235 255
220 235 255
220 235 255
220 235 255
220 235 255
220 235 255
220 235 255
220 235 255
220 235 255
220 235 255
220 235 255
220 235 255
220 235 255
220 235 255
220 235 255
220 235 255
220 235 255
220 235 255
220 235 255
220 235 255
220 235 255
220 235 255
220 235 255
220 235 255
220 235 255
220 235 255
220 235 255
220 235 255
220 235 255
220 235 255
220 235 255
220 235 255
220 235 255
220 235 255
220 235 255
220 235 255
220 235 255
220 235 255
220 235 255
220 235 255
220 235 255
220 235 255
220 235 255
220 235 255
220 235 255
220 235 255
220 235 255
220 235 255
220 235 255
220 235 255
220 235 255
220 235 255
220 235 255
220 235 255
220 235 255
220 235 255
220 235 255
220 235 255
220 235 255
220 235 255
220 235 255
220 235 255
220 235 255
220 235 255
220 235 255
220 235 255
220 235 255
220 235 255
220 235 255
220 235 255
220 235 255
220 235 255
220 235 255
220 235 255
220 235 255
220 235 255
220 235 255
220 235 255
220 235 255
220 235 255
220 235 255
220 235 255
220 235 255
220 235 255
220 235 255
220 235 255
220 235 255
220 235 255
220 235 255
220 235 255
220 235 255
220 235 255
220 235 255
220 235 255
220 235 255
220 235 255
220 235 255
220 235 255
220 235 255
220 235 255
220 235 255
220 235 255
220 235 255
220 235 255
220 235 255
220 235 255
220 235 255
220 235 255
220 235 255
220 235 255
220 235 255
220 235 255
220 235 255
220 235 255
220 235 255
220 235 255
220 235 255
220 235 255
220 235 255
220 235 255
220 235 255
220 235 255
220 235 255
220 235 255
220 235 255
220 235 255
220 235 255
220 235 255
220 235 255
220 235 255
220 235 255
220 235 255
220 235 255
220 235 255
220 235 255
220 235 255
220 235 255
220 235 255
220 235 255
220 235 255
220 235 255
220 235 255
220 235 255
220 235 255
220 235 255
220 235 255
220 235 255
220 235 255
220 235 255
220 235 255
220 235 255
220 235 255
220 235 255
220 235 255
220 235 255
220 235 255
220 235 255
220 235 255
220 235 255
220 235 255
220 235 255
220 235 255
220 235 255
220 235 255
220 235 255
220 235 255
220 235 255
220 235 255
220 235 255
220 235 255
220 235 255
220 235 255
220 235 255
220 235 255
220 235 255
220 235 255
220 235 255
220 235 255
96 102 118
0 0 45
0 0 45
0 0 45
0 0 45
0 0 43
0 0 44
0 0 45
0 0 45
0 0 45
0 0 45
0 0 44
0 0 48
0 0 51
0 0 47
0 0 45
0 0 45
0 0 45
0 0 45
0 0 45
0 0 45
0 0 45
0 0 45
0 0 45
0 0 45
0 0 45
0 0 43
0 0 42
0 0 42
0 0 42
0 0 42
0 0 42
0 0 42
0 0 42
0 0 42
0 0 43
0 0 43
0 0 43
0 0 43
0 0 45
0 0 45
0 0 45
0 0 45
0 0 45
0 0 44
0 0 44
0 0 44
0 0 44
0 0 43
0 0 42
0 0 42
0 0 42
0 0 42
0 0 42
0 0 45
0 0 45
0 0 45
0 0 45
0 0 45
0 0 45
0 0 45
0 0 45
0 0 45
0 0 45
0 0 45
0 0 45
0 0 45
0 0 45
0 0 45
0 0 45
0 0 45
0 0 45
0 0 45
0 0 45
0 0 45
0 0 45
0 0 45
0 0 45
0 0 45
0 0 45
0 0 45
0 0 45
0 0 45
0 0 45
0 0 45
0 0 45
0 0 45
0 0 42
0 0 42
0 0 42
0 0 42
0 0 43
0 0 45
0 0 45
0 0 45
0 0 45
0 0 45
0 0 47
0 0 48
0 0 48
0 0 46
0 0 44
0 0 45
0 0 45
0 0 44
0 0 44
0 0 44
0 0 42
0 0 44
0 0 45
0 0 47
0 0 46
0 0 45
0 0 45
0 0 45
0 0 45
0 0 45
0 0 45
0 0 45
0 0 45
0 0 47
0 0 51
0 0 51
0 0 48
0 0 48
0 0 51
0 0 55
0 0 55
0 0 61
0 0 57
0 0 52
0 0 52
0 0 54
13 18 53
44 68 52
65 85 47
54 84 31
35 56 0
41 59 5
37 56 2
33 57 0
33 59 0
39 60 0
56 66 22
71 77 36
77 90 42
57 78 20
42 71 0
43 67 0
47 67 0
46 64 2
54 68 7
65 74 20
74 78 28
80 80 32
68 73 25
45 59 8
44 66 11
34 59 3
30 55 0
37 65 0
45 65 0
66 78 28
45 57 13
45 66 17
41 60 10
31 54 0
27 53 0
30 53 0
28 55 0
31 53 11
29 85 85
7 61 102
0 10 56
0 0 44
0 0 48
0 0 58
0 10 71
0 15 78
0 9 68
0 1 58
0 0 49
0 0 44
0 0 44
0 0 45
0 0 44
0 0 42
0 0 42
0 0 42
0 0 42
0 0 42
0 0 42
0 0 42
0 0 42
0 0 42
0 0 42
0 0 42
0 0 42
0 0 42
0 0 42
0 0 42
0 0 42
0 0 42
0 0 42
0 0 42
0 0 42
0 0 42
0 0 42
0 0 42
0 0 42
0 0 44
0 0 44
0 0 42
105 113 126
220 235 255
220 235 255
220 235 255
220 235 255
220 235 255
220 235 255
220 235 255
220 235 255
220 235 255
220 235 255
220 235 255
220 235 255
220 235 255
220 235 255
220 235 255
220 235 255
220 235 255
220 235 255
220 235 255
220 235 255
220 235 255
220 235 255
220 235 255
220 235 255
220 235 255
220 235 255
220 235 255
220 235 255
220 235 255
220 235 255
220 235 255
220 235 255
220 235 255
220 235 255
220 235 255
220 235 255
220 235 255
220 235 255
220 235 255
220 235 255
220 235 255
220 235 255
220 235 255
220 235 255
220 235 255
220 235 255
220 235 255
220 235 255
220 235 255
220 235 255
220 235 255
220 235 255
220 235 255
220 235 255
220 235 255
220 235 255
220 235 255
220 235 255
220 235 255
220 235 255
220 235 255
220 235 255
220 235 255
220 235 255
220 235 255
220 235 255
220 235 255
220 235 255
220 235 255
220 235 255
220 235 255
220 235 255
220 235 255
220 235 255
220 235 255
220 235 255
220 235 255
220 235 255
220 235 255
220 235 255
220 235 255
220 235 255
220 235 255
220 235 255
220 235 255
220 235 255
220 235 255
220 235 255
220 235 255
220 235 255
220 235 255
220 235 255
220 235 255
220 235 255
220 235 255
220 235 255
220 235 255
220 235 255
220 235 255
220 235 255
220 235 255
220 235 255
220 235 255
220 235 255
220 235 255
220 235 255
220 235 255
220 235 255
220 235 255
220 235 255
220 235 255
220 235 255
220 235 255
220 235 255
220 235 255
220 235 255
220 235 255
220 235 255
220 235 255
220 235 255
220 235 255
220 235 255
220 235 255
220 235 255
220 235 255
220 235 255
220 235 255
220 235 255
220 235 255
220 235 255
220 235 255
220 235 255
220 235 255
220 235 255
220 235 255
220 235 255
220 235 255
220 235 255
220 235 255
220 235 255
220 235 255
220 235 255
220 235 255
220 235 255
220 235 255
220 235 255
220 235 255
220 235 255
220 235 255
220 235 255
220 235 255
220 235 255
220 235 255
220 235 255
220 235 255
220 235 255
220 235 255
220 235 255
220 235 255
220 235 255
220 235 255
220 235 255
220 235 255
220 235 255
220 235 255
220 235 255
220 235 255
220 235 255
220 235 255
220 235 255
220 235 255
220 235 255
220 235 255
220 235 255
220 235 255
220 235 255
220 235 255
220 235 255
220 235 255
220 235 255
220 235 255
220 235 255
220 235 255
220 235 255
220 235 255
220 235 255
54 57 76
0 0 45
0 0 45
0 0 45
0 0 45
0 0 45
0 0 45
0 0 45
0 0 45
0 0 45
0 0 44
0 0 45
0 0 45
0 0 47
0 0 46
0 0 47
0 0 45
0 0 45
0 0 45
0 0 45
0 0 45
0 0 45
0 0 45
0 0 45
0 0 45
0 0 45
0 0 45
0 0 44
0 0 42
0 0 42
0 0 42
0 0 42
0 0 42
0 0 42
0 0 42
0 0 42
0 0 42
0 0 42
0 0 42
0 0 45
0 0 45
0 0 45
0 0 45
0 0 45
0 0 45
0 0 45
0 0 45
0 0 45
0 0 44
0 0 43
0 0 43
0 0 42
0 0 43
0 0 43
0 0 44
0 0 45
0 0 45
0 0 45
0 0 45
0 0 45
0 0 45
0 0 45
0 0 45
0 0 45
0 0 45
0 0 45
0 0 45
0 0 45
0 0 45
0 0 45
0 0 45
0 0 45
0 0 45
0 0 45
0 0 45
0 0 45
0 0 45
0 0 45
0 0 45
0 0 45
0 0 45
0 0 45
0 0 44
0 0 45
0 0 45
0 0 45
0 0 44
0 0 42
0 0 41
0 0 40
0 0 42
0 0 42
0 0 44
0 0 45
0 0 44
0 0 43
0 0 45
0 0 45
0 0 47
0 0 47
0 0 45
0 0 43
0 0 43
0 0 45
0 0 44
0 0 42
0 0 44
0 0 42
0 0 45
0 0 45
0 0 45
0 0 47
0 0 46
0 0 45
0 0 45
0 0 45
0 0 45
0 0 45
0 0 45
0 0 46
0 0 44
0 0 48
0 0 51
0 0 43
0 0 45
0 0 51
0 0 51
0 0 54
0 0 52
0 0 49
0 0 47
0 0 48
0 0 46
0 0 50
41 57 55
70 92 48
61 93 45
49 62 17
43 60 9
35 54 1
38 64 0
39 67 0
36 57 0
45 56 8
69 74 34
78 87 41
57 79 19
43 67 3
48 62 6
48 56 3
56 65 15
64 74 21
73 82 30
75 83 33
70 78 29
57 72 23
37 55 4
38 59 0
33 52 0
40 57 0
43 68 6
43 66 0
39 58 0
32 53 0
19 46 0
20 51 0
26 51 0
30 50 0
32 52 0
28 50 3
35 53 3
35 60 26
34 86 76
9 73 118
0 14 63
0 17 64
0 27 90
0 34 97
0 33 90
0 27 82
0 8 67
0 0 55
0 0 47
0 0 45
0 0 45
0 0 45
0 0 44
0 0 43
0 0 42
0 0 42
0 0 42
0 0 42
0 0 42
0 0 42
0 0 42
0 0 42
0 0 42
0 0 42
0 0 42
0 0 42
0 0 42
0 0 42
0 0 42
0 0 42
0 0 42
0 0 42
0 0 42
0 0 42
0 0 42
0 0 42
0 0 43
0 0 45
0 0 42
52 60 69
220 235 255
220 235 255
220 235 255
220 235 255
220 235 255
220 235 255
220 235 255
220 235 255
220 235 255
220 235 255
220 235 255
220 235 255
220 235 255
220 235 255
220 235 255
220 235 255
220 235 255
220 235 255
220 235 255
220 235 255
220 235 255
220 235 255
220 235 255
220 235 255
220 235 255
220 235 255
220 235 255
220 235 255
220 235 255
220 235 255
220 235 255
220 235 255
220 235 255
220 235 255
220 235 255
220 235 255
220 235 255
220 235 255
220 235 255
220 235 255
220 235 255
220 235 255
220 235 255
220 235 255
220 235 255
220 235 255
220 235 255
220 235 255
220 235 255
220 235 255
220 235 255
220 235 255
220 235 255
220 235 255
220 235 255
220 235 255
220 235 255
220 235 255
220 235 255
220 235 255
220 235 255
220 235 255
220 235 255
220 235 255
220 235 255
220 235 255
220 235 255
220 235 255
220 235 255
220 235 255
220 235 255
220 235 255
220 235 255
220 235 255
220 235 255
220 235 255
220 235 255
220 235 255
220 235 255
220 235 255
220 235 255
220 235 255
220 235 255
220 235 255
220 235 255
220 235 255
220 235 255
220 235 255
220 235 255
220 235 255
220 235 255
220 235 255
220 235 255
220 235 255
220 235 255
220 235 255
220 235 255
220 235 255
220 235 255
220 235 255
220 235 255
220 235 255
220 235 255
220 235 255
220 235 255
220 235 255
220 235 255
220 235 255
220 235 255
220 235 255
220 235 255
220 235 255
220 235 255
220 235 255
220 235 255
220 235 255
220 235 255
220 235 255
220 235 255
220 235 255
220 235 255
220 235 255
220 235 255
220 235 255
220 235 255
220 235 255
220 235 255
220 235 255
220 235 255
220 235 255
220 235 255
220 235 255
220 235 255
220 235 255
220 235 255
220 235 255
220 235 255
220 235 255
220 235 255
220 235 255
220 235 255
220 235 255
220 235 255
220 235 255
220 235 255
220 235 255
220 235 255
220 235 255
220 235 255
220 235 255
220 235 255
220 235 255
220 235 255
220 235 255
220 235 255
220 235 255
220 235 255
220 235 255
220 235 255
220 235 255
220 235 255
220 235 255
220 235 255
220 235 255
220 235 255
220 235 255
220 235 255
220 235 255
220 235 255
220 235 255
220 235 255
220 235 255
220 235 255
220 235 255
220 235 255
220 235 255
220 235 255
220 235 255
220 235 255
220 235 255
220 235 255
220 235 255
220 235 255
220 235 255
220 235 255
214 228 248
0 0 44
0 0 45
0 0 45
0 0 45
0 0 45
0 0 45
0 0 45
0 0 45
0 0 45
0 0 45
0 0 45
0 0 45
0 0 45
0 0 45
0 0 47
0 0 47
0 0 45
0 0 45
0 0 45
0 0 45
0 0 45
0 0 45
0 0 45
0 0 45
0 0 45
0 0 45
0 0 45
0 0 45
0 0 42
0 0 42
0 0 45
0 0 45
0 0 45
0 0 45
0 0 43
0 0 42
0 0 42
0 0 42
0 0 41
0 0 44
0 0 45
0 0 45
0 0 45
0 0 45
0 0 45
0 0 45
0 0 45
0 0 45
0 0 45
0 0 45
0 0 45
0 0 45
0 0 45
0 0 44
0 0 42
0 0 43
0 0 44
0 0 45
0 0 45
0 0 45
0 0 45
0 0 45
0 0 45
0 0 45
0 0 45
0 0 45
0 0 45
0 0 45
0 0 45
0 0 45
0 0 45
0 0 45
0 0 45
0 0 45
0 0 45
0 0 45
0 0 45
0 0 45
0 0 45
0 0 45
0 0 45
0 0 45
0 0 43
0 0 43
0 0 45
0 0 45
0 0 42
0 0 42
0 0 41
0 0 39
0 0 42
0 0 42
0 0 44
0 0 45
0 0 43
0 0 42
0 0 45
0 0 45
0 0 45
0 0 45
0 0 43
0 0 44
0 0 42
0 0 45
0 0 45
0 0 43
0 0 42
0 0 42
0 0 45
0 0 43
0 0 43
0 0 45
0 0 45
0 0 45
0 0 45
0 0 45
0 0 45
0 0 45
0 0 45
0 0 48
0 0 44
0 0 50
0 0 51
0 0 43
0 0 50
0 0 54
0 0 53
0 0 53
0 0 49
0 0 54
0 0 41
0 0 51
0 0 48
0 0 54
32 47 52
56 86 38
62 103 66
60 73 32
39 55 0
35 54 3
43 68 10
34 60 0
44 64 12
52 65 19
75 85 39
61 72 24
57 80 18
47 72 11
49 60 10
56 70 21
57 71 20
61 75 23
64 76 25
69 77 26
69 75 25
39 59 13
28 49 0
38 59 0
31 51 0
40 59 0
48 69 13
41 62 0
37 56 0
34 54 0
24 44 0
31 46 0
35 51 0
31 49 0
28 51 0
28 50 6
34 54 7
31 61 13
45 64 9
34 94 70
13 53 97
13 59 82
18 73 99
15 75 99
15 70 108
3 46 107
0 25 83
0 4 62
0 0 53
0 0 47
0 0 45
0 0 45
0 0 45
0 0 45
0 0 42
0 0 42
0 0 42
0 0 42
0 0 42
0 0 42
0 0 42
0 0 42
0 0 42
0 0 42
0 0 42
0 0 42
0 0 42
0 0 42
0 0 42
0 0 42
0 0 42
0 0 42
0 0 42
0 0 42
0 0 44
0 0 42
0 0 43
0 0 45
0 0 43
5 7 43
215 229 249
220 235 255
220 235 255
220 235 255
220 235 255
220 235 255
220 235 255
220 235 255
220 235 255
220 235 255
220 235 255
220 235 255
220 235 255
220 235 255
220 235 255
220 235 255
220 235 255
220 235 255
220 235 255
220 235 255
220 235 255
220 235 255
220 235 255
220 235 255
220 235 255
220 235 255
220 235 255
220 235 255
220 235 255
220 235 255
220 235 255
220 235 255
220 235 255
220 235 255
220 235 255
220 235 255
220 235 255
220 235 255
220 235 255
220 235 255
220 235 255
220 235 255
220 235 255
220 235 255
220 235 255
220 235 255
220 235 255
220 235 255
220 235 255
220 235 255
220 235 255
220 235 255
220 235 255
220 235 255
220 235 255
220 235 255
220 235 255
220 235 255
220 235 255
220 235 255
220 235 255
220 235 255
220 235 255
220 235 255
220 235 255
220 235 255
220 235 255
220 235 255
220 235 255
220 235 255
220 235 255
220 235 255
220 235 255
220 235 255
220 235 255
220 235 255
220 235 255
220 235 255
220 235 255
220 235 255
220 235 255
220 235 255
220 235 255
220 235 255
220 235 255
220 235 255
220 235 255
220 235 255
220 235 255
220 235 255
220 235 255
220 235 255
220 235 255
221 235 255
221 235 255
221 235 255
221 235 255
221 235 255
221 235 255
221 235 255
221 235 255
221 235 255
221 235 255
221 235 255
221 235 255
221 235 255
221 235 255
221 235 255
221 235 255
221 235 255
221 235 255
221 235 255
221 235 255
221 235 255
221 235 255
221 235 255
221 235 255
221 235 255
221 235 255
221 235 255
221 235 255
221 235 255
221 235 255
221 235 255
221 235 255
221 235 255
221 235 255
221 235 255
221 235 255
221 235 255
221 235 255
221 235 255
221 235 255
221 235 255
221 235 255
221 235 255
221 235 255
221 235 255
221 235 255
221 235 255
221 235 255
221 235 255
221 235 255
221 235 255
221 235 255
221 235 255
221 235 255
221 235 255
221 235 255
221 235 255
221 235 255
221 235 255
221 235 255
221 235 255
221 235 255
221 235 255
221 235 255
221 235 255
221 235 255
221 235 255
221 235 255
221 235 255
221 235 255
221 235 255
221 235 255
221 235 255
221 235 255
221 235 255
221 235 255
221 235 255
221 235 255
221 235 255
221 235 255
221 235 255
221 235 255
221 235 255
221 235 255
221 235 255
221 235 255
221 235 255
221 235 255
221 235 255
221 235 255
221 235 255
221 235 255
204 218 237
0 0 45
0 0 46
0 0 47
0 0 45
0 0 45
0 0 45
0 0 45
0 0 45
0 0 45
0 0 45
0 0 45
0 0 45
0 0 44
0 0 44
0 0 46
0 0 46
0 0 44
0 0 45
0 0 45
0 0 45
0 0 45
0 0 45
0 0 45
0 0 45
0 0 45
0 0 45
0 0 45
0 0 45
0 0 43
0 0 42
0 0 44
0 0 45
0 0 45
0 0 44
0 0 44
0 0 43
0 0 42
0 0 42
0 0 42
0 0 44
0 0 45
0 0 45
0 0 45
0 0 45
0 0 45
0 0 45
0 0 45
0 0 45
0 0 45
0 0 45
0 0 45
0 0 43
0 0 43
0 0 43
0 0 44
0 0 44
0 0 44
0 0 45
0 0 45
0 0 45
0 0 45
0 0 45
0 0 45
0 0 45
0 0 45
0 0 45
0 0 45
0 0 45
0 0 45
0 0 45
0 0 45
0 0 45
0 0 45
0 0 45
0 0 45
0 0 45
0 0 45
0 0 45
0 0 45
0 0 45
0 0 45
0 0 45
0 0 43
0 0 42
0 0 42
0 0 42
0 0 42
0 0 42
0 0 42
0 0 42
0 0 42
0 0 43
0 0 45
0 0 45
0 0 45
0 0 45
0 0 45
0 0 45
0 0 45
0 0 45
0 0 44
0 0 43
0 0 44
0 0 45
0 0 45
0 0 45
0 0 44
0 0 45
0 0 45
0 0 45
0 0 45
0 0 45
0 0 45
0 0 45
0 0 45
0 0 45
0 0 45
0 0 45
0 0 43
0 0 44
0 0 44
0 0 45
0 0 48
0 0 47
0 0 51
0 0 52
0 0 53
0 0 52
0 0 51
0 0 51
0 0 49
0 0 49
0 0 54
3 9 52
48 70 61
69 99 43
62 99 46
52 79 23
43 62 3
40 56 6
46 66 3
41 64 14
70 83 42
73 82 35
64 80 29
54 76 20
54 76 16
51 72 15
54 69 11
62 75 24
63 75 25
65 74 23
70 78 26
69 74 25
57 62 18
26 46 0
27 49 0
29 52 0
27 51 0
33 55 0
38 60 6
38 60 0
36 57 0
33 52 0
31 47 0
37 46 0
47 57 0
31 49 0
29 53 0
29 51 0
32 53 0
32 54 7
38 56 0
30 56 0
27 58 13
25 58 23
28 55 19
24 50 0
27 64 46
22 63 73
12 59 93
0 29 87
0 6 62
0 0 56
0 0 48
0 0 44
0 0 45
0 0 47
0 0 42
0 0 42
0 0 42
0 0 42
0 0 42
0 0 42
0 0 42
0 0 42
0 0 42
0 0 42
0 0 42
0 0 42
0 0 42
0 0 42
0 0 42
0 0 42
0 0 42
0 0 42
0 0 42
0 0 42
0 0 44
0 0 42
0 0 43
0 0 45
0 0 44
0 0 41
188 201 219
221 235 255
221 235 255
221 235 255
221 235 255
221 235 255
221 235 255
221 235 255
221 235 255
221 235 255
221 235 255
221 235 255
221 235 255
221 235 255
221 235 255
221 235 255
221 235 255
221 235 255
221 235 255
221 235 255
221 235 255
221 235 255
221 235 255
221 235 255
221 235 255
221 235 255
221 235 255
221 235 255
221 235 255
221 235 255
221 235 255
221 235 255
221 235 255
221 235 255
221 235 255
221 235 255
221 235 255
221 235 255
221 235 255
221 235 255
221 235 255
221 235 255
221 235 255
221 235 255
221 235 255
221 235 255
221 235 255
221 235 255
221 235 255
221 235 255
221 235 255
221 235 255
221 235 255
221 235 255
221 235 255
221 235 255
221 235 255
221 235 255
221 235 255
221 235 255
221 235 255
221 235 255
221 235 255
221 235 255
221 235 255
221 235 255
221 235 255
221 235 255
221 235 255
221 235 255
221 235 255
221 235 255
221 235 255
221 235 255
221 235 255
221 235 255
221 235 255
221 235 255
221 235 255
221 235 255
221 235 255
221 235 255
221 235 255
221 235 255
221 235 255
221 235 255
221 235 255
221 235 255
221 235 255
221 235 255
221 235 255
221 235 255
221 235 255
221 235 255
221 235 255
221 235 255
221 235 255
221 235 255
221 235 255
221 235 255
221 235 255
221 235 255
221 235 255
221 235 255
221 235 255
221 235 255
221 235 255
221 235 255
221 235 255
221 235 255
221 235 255
221 235 255
221 235 255
221 235 255
221 235 255
221 235 255
221 235 255
221 235 255
221 235 255
221 235 255
221 235 255
221 235 255
221 235 255
221 235 255
221 235 255
221 235 255
221 235 255
221 235 255
221 235 255
221 235 255
221 235 255
221 235 255
221 235 255
221 235 255
221 235 255
221 235 255
221 235 255
221 235 255
221 235 255
221 235 255
221 235 255
221 235 255
221 235 255
221 235 255
221 235 255
221 235 255
221 235 255
221 235 255
221 235 255
221 235 255
221 235 255
221 235 255
221 235 255
221 235 255
221 235 255
221 235 255
221 235 255
221 235 255
221 235 255
221 235 255
221 235 255
221 235 255
221 235 255
221 235 255
221 235 255
221 235 255
221 235 255
221 235 255
221 235 255
221 235 255
221 235 255
221 235 255
221 235 255
221 235 255
221 235 255
221 235 255
221 235 255
221 235 255
221 235 255
221 235 255
221 235 255
221 235 255
221 235 255
221 235 255
221 235 255
180 192 211
0 0 45
0 0 46
0 0 47
0 0 45
0 0 45
0 0 45
0 0 45
0 0 45
0 0 45
0 0 45
0 0 45
0 0 45
0 0 45
0 0 45
0 0 45
0 0 45
0 0 45
0 0 45
0 0 45
0 0 45
0 0 45
0 0 45
0 0 45
0 0 45
0 0 45
0 0 45
0 0 45
0 0 45
0 0 45
0 0 45
0 0 44
0 0 45
0 0 45
0 0 45
0 0 45
0 0 45
0 0 42
0 0 42
0 0 43
0 0 45
0 0 45
0 0 45
0 0 45
0 0 45
0 0 45
0 0 45
0 0 45
0 0 45
0 0 45
0 0 45
0 0 45
0 0 42
0 0 42
0 0 43
0 0 45
0 0 45
0 0 45
0 0 45
0 0 45
0 0 45
0 0 45
0 0 45
0 0 45
0 0 45
0 0 45
0 0 45
0 0 45
0 0 45
0 0 45
0 0 45
0 0 45
0 0 45
0 0 45
0 0 45
0 0 45
0 0 45
0 0 45
0 0 45
0 0 45
0 0 45
0 0 45
0 0 45
0 0 44
0 0 42
0 0 42
0 0 42
0 0 42
0 0 42
0 0 42
0 0 42
0 0 42
0 0 44
0 0 45
0 0 45
0 0 45
0 0 45
0 0 45
0 0 45
0 0 45
0 0 45
0 0 45
0 0 45
0 0 45
0 0 45
0 0 45
0 0 45
0 0 43
0 0 45
0 0 45
0 0 45
0 0 45
0 0 45
0 0 45
0 0 45
0 0 45
0 0 45
0 0 45
0 0 45
0 0 45
0 0 45
0 0 42
0 0 43
0 0 46
0 0 45
0 0 48
0 0 50
0 0 52
0 0 50
0 0 50
0 0 50
0 0 50
0 0 50
0 0 55
0 8 55
43 68 75
68 99 47
58 88 36
47 73 15
51 69 16
48 66 17
48 67 5
60 78 30
73 89 44
60 76 21
54 76 19
54 74 18
53 73 14
60 77 17
67 78 23
67 78 28
68 78 31
72 82 30
72 83 32
60 72 21
41 56 6
31 52 0
30 50 0
23 45 0
25 46 0
34 55 0
39 60 0
33 53 0
31 51 0
30 49 0
27 45 0
38 49 0
54 61 13
57 61 13
46 53 12
41 57 12
33 54 0
36 57 0
32 53 0
25 49 0
23 46 0
25 47 0
24 44 0
21 39 0
26 47 0
28 53 10
25 58 49
13 91 117
0 35 95
0 3 60
0 0 54
0 0 45
0 0 42
0 0 45
0 0 43
0 0 42
0 0 42
0 0 42
0 0 42
0 0 42
0 0 42
0 0 42
0 0 42
0 0 42
0 0 42
0 0 42
0 0 42
0 0 40
0 0 42
0 0 42
0 0 42
0 0 42
0 0 42
0 0 42
0 0 44
0 0 44
0 0 44
0 0 45
0 0 44
0 0 42
186 198 216
221 235 255
221 235 255
221 235 255
221 235 255
221 235 255
221 235 255
221 235 255
221 235 255
221 235 255
221 235 255
221 235 255
221 235 255
221 235 255
221 235 255
221 235 255
221 235 255
221 235 255
221 235 255
221 235 255
221 235 255
221 235 255
221 235 255
221 235 255
221 235 255
221 235 255
221 235 255
221 235 255
221 235 255
221 235 255
221 235 255
221 235 255
221 235 255
221 235 255
221 235 255
221 235 255
221 235 255
221 235 255
221 235 255
221 235 255
221 235 255
221 235 255
221 235 255
221 235 255
221 235 255
221 235 255
221 235 255
221 235 255
221 235 255
221 235 255
221 235 255
221 235 255
221 235 255
221 235 255
221 235 255
221 235 255
221 235 255
221 235 255
221 235 255
221 235 255
221 235 255
221 235 255
221 235 255
221 235 255
221 235 255
221 235 255
221 235 255
221 235 255
221 235 255
221 235 255
221 235 255
221 235 255
221 235 255
221 235 255
221 235 255
221 235 255
221 235 255
221 235 255
221 235 255
221 235 255
221 235 255
221 235 255
221 235 255
221 235 255
221 235 255
221 235 255
221 235 255
221 235 255
221 235 255
221 235 255
221 235 255
221 235 255
221 235 255
221 235 255
221 235 255
221 235 255
221 235 255
221 235 255
221 235 255
221 235 255
221 235 255
221 235 255
221 235 255
221 235 255
221 235 255
221 235 255
221 235 255
221 235 255
221 235 255
221 235 255
221 235 255
221 235 255
221 235 255
221 235 255
221 235 255
221 235 255
221 235 255
221 235 255
221 235 255
221 235 255
221 235 255
221 235 255
221 235 255
221 235 255
221 235 255
221 235 255
221 235 255
221 235 255
221 235 255
221 235 255
221 235 255
221 235 255
221 235 255
221 235 255
221 235 255
221 235 255
221 235 255
221 235 255
221 235 255
221 235 255
221 235 255
221 235 255
221 235 255
221 235 255
221 235 255
221 235 255
221 235 255
221 235 255
221 235 255
221 235 255
221 235 255
221 235 255
221 235 255
221 235 255
221 235 255
221 235 255
221 235 255
221 235 255
221 235 255
221 235 255
221 235 255
221 235 255
221 235 255
221 235 255
221 235 255
221 235 255
221 235 255
221 235 255
221 235 255
221 235 255
221 235 255
221 235 255
221 235 255
221 235 255
221 235 255
221 235 255
221 235 255
221 235 255
221 235 255
221 235 255
221 235 255
221 235 255
221 235 255
221 235 255
221 235 255
181 192 211
0 0 45
0 0 45
0 0 46
0 0 45
0 0 45
0 0 45
0 0 45
0 0 45
0 0 45
0 0 45
0 0 45
0 0 45
0 0 45
0 0 45
0 0 45
0 0 45
0 0 45
0 0 45
0 0 45
0 0 45
0 0 45
0 0 45
0 0 45
0 0 45
0 0 45
0 0 45
0 0 45
0 0 45
0 0 45
0 0 45
0 0 45
0 0 45
0 0 45
0 0 45
0 0 45
0 0 45
0 0 42
0 0 42
0 0 43
0 0 45
0 0 45
0 0 45
0 0 45
0 0 45
0 0 45
0 0 45
0 0 45
0 0 45
0 0 45
0 0 45
0 0 45
0 0 42
0 0 42
0 0 43
0 0 45
0 0 45
0 0 45
0 0 45
0 0 45
0 0 45
0 0 45
0 0 45
0 0 45
0 0 45
0 0 45
0 0 45
0 0 45
0 0 45
0 0 45
0 0 45
0 0 45
0 0 45
0 0 45
0 0 45
0 0 45
0 0 45
0 0 45
0 0 45
0 0 45
0 0 45
0 0 45
0 0 45
0 0 45
0 0 44
0 0 42
0 0 42
0 0 42
0 0 44
0 0 43
0 0 42
0 0 44
0 0 45
0 0 45
0 0 45
0 0 45
0 0 45
0 0 45
0 0 45
0 0 45
0 0 45
0 0 45
0 0 45
0 0 45
0 0 45
0 0 45
0 0 45
0 0 45
0 0 45
0 0 45
0 0 45
0 0 45
0 0 45
0 0 45
0 0 43
0 0 43
0 0 45
0 0 45
0 0 45
0 0 43
0 0 44
0 0 44
0 0 44
0 0 45
0 0 45
0 0 46
0 0 48
0 0 49
0 0 49
0 0 48
0 0 48
0 0 49
0 0 51
0 0 52
0 3 54
36 69 77
60 93 36
63 84 38
50 72 15
59 76 24
53 73 20
58 71 17
72 82 32
71 87 36
55 78 19
53 75 14
58 75 15
57 71 11
65 79 21
69 82 26
67 80 29
63 75 26
63 75 23
56 72 21
43 62 8
32 52 0
31 51 0
28 47 0
25 44 0
32 51 0
34 53 0
37 55 0
32 51 0
32 51 0
26 47 0
24 43 0
29 49 0
46 56 9
72 72 23
78 80 31
53 66 18
38 63 0
35 58 0
29 52 0
26 49 0
24 46 0
25 48 0
26 46 0
17 36 0
25 48 0
28 52 0
27 51 6
32 68 36
17 106 125
2 40 92
0 0 58
0 0 46
0 0 43
0 0 42
0 0 45
0 0 43
0 0 42
0 0 42
0 0 42
0 0 42
0 0 42
0 0 42
0 0 42
0 0 42
0 0 42
0 0 42
0 0 42
0 0 41
0 0 42
0 0 42
0 0 42
0 0 42
0 0 42
0 0 42
0 0 44
0 0 45
0 0 45
0 0 45
0 0 45
0 0 43
176 188 206
221 235 255
221 235 255
221 235 255
221 235 255
221 235 255
221 235 255
221 235 255
221 235 255
221 235 255
221 235 255
221 235 255
221 235 255
221 235 255
221 235 255
221 235 255
221 235 255
221 235 255
221 235 255
221 235 255
221 235 255
221 235 255
221 235 255
221 235 255
221 235 255
221 235 255
221 235 255
221 235 255
221 235 255
221 235 255
221 235 255
221 235 255
221 235 255
221 235 255
221 235 255
221 235 255
221 235 255
221 235 255
221 235 255
221 235 255
221 235 255
221 235 255
221 235 255
221 235 255
221 235 255
221 235 255
221 235 255
221 235 255
221 235 255
221 235 255
221 235 255
221 235 255
221 235 255
221 235 255
221 235 255
221 235 255
221 235 255
221 235 255
221 235 255
221 235 255
221 235 255
221 235 255
221 235 255
221 235 255
221 235 255
221 235 255
221 235 255
221 235 255
221 235 255
221 235 255
221 235 255
221 235 255
221 235 255
221 235 255
221 235 255
221 235 255
221 235 255
221 235 255
221 235 255
221 235 255
221 235 255
221 235 255
221 235 255
221 235 255
221 235 255
221 235 255
221 235 255
221 235 255
221 235 255
221 235 255
221 235 255
221 235 255
221 235 255
221 235 255
221 235 255
221 235 255
221 235 255
221 235 255
221 235 255
221 235 255
221 235 255
221 235 255
221 235 255
221 235 255
221 235 255
221 235 255
221 235 255
221 235 255
221 235 255
221 235 255
221 235 255
221 235 255
221 235 255
221 235 255
221 235 255
221 235 255
221 235 255
221 235 255
221 235 255
221 235 255
221 235 255
221 235 255
221 235 255
221 235 255
221 235 255
221 235 255
221 235 255
221 235 255
221 235 255
221 235 255
221 235 255
221 235 255
221 235 255
221 235 255
221 235 255
221 235 255
221 235 255
221 235 255
221 235 255
221 235 255
221 235 255
221 235 255
221 235 255
221 235 255
221 235 255
221 235 255
221 235 255
221 235 255
221 235 255
221 235 255
221 235 255
221 235 255
221 235 255
221 235 255
221 235 255
221 235 255
221 235 255
221 235 255
221 235 255
221 235 255
221 235 255
221 235 255
221 235 255
221 235 255
221 235 255
221 235 255
221 235 255
221 235 255
221 235 255
221 235 255
221 235 255
221 235 255
221 235 255
221 235 255
221 235 255
221 235 255
221 235 255
221 235 255
221 235 255
221 235 255
221 235 255
221 235 255
221 235 255
221 235 255
221 235 255
165 176 193
0 0 45
0 0 45
0 0 46
0 0 45
0 0 45
0 0 44
0 0 45
0 0 45
0 0 45
0 0 45
0 0 45
0 0 45
0 0 45
0 0 45
0 0 45
0 0 45
0 0 45
0 0 45
0 0 45
0 0 45
0 0 45
0 0 45
0 0 45
0 0 45
0 0 45
0 0 45
0 0 45
0 0 45
0 0 45
0 0 45
0 0 45
0 0 45
0 0 45
0 0 45
0 0 45
0 0 44
0 0 42
0 0 42
0 0 42
0 0 43
0 0 43
0 0 43
0 0 43
0 0 44
0 0 45
0 0 45
0 0 45
0 0 45
0 0 45
0 0 45
0 0 45
0 0 42
0 0 42
0 0 43
0 0 45
0 0 45
0 0 45
0 0 45
0 0 45
0 0 45
0 0 45
0 0 45
0 0 45
0 0 45
0 0 45
0 0 45
0 0 45
0 0 45
0 0 45
0 0 45
0 0 45
0 0 45
0 0 45
0 0 45
0 0 45
0 0 45
0 0 45
0 0 45
0 0 45
0 0 45
0 0 45
0 0 45
0 0 45
0 0 44
0 0 42
0 0 42
0 0 43
0 0 45
0 0 45
0 0 45
0 0 45
0 0 45
0 0 45
0 0 45
0 0 45
0 0 45
0 0 45
0 0 45
0 0 45
0 0 45
0 0 45
0 0 45
0 0 45
0 0 45
0 0 47
0 0 45
0 0 45
0 0 45
0 0 45
0 0 45
0 0 45
0 0 45
0 0 45
0 0 43
0 0 42
0 0 43
0 0 45
0 0 45
0 0 45
0 0 46
0 0 47
0 0 47
0 0 47
0 0 46
0 0 45
0 0 46
0 0 47
0 0 46
0 0 46
0 0 47
0 0 48
0 0 49
0 0 47
1 7 63
28 62 82
53 83 39
65 83 33
55 74 19
63 78 25
54 73 17
65 77 28
72 80 32
61 78 24
58 81 20
62 79 17
61 76 16
61 73 16
61 76 17
56 77 17
50 70 14
46 62 9
46 63 8
39 58 5
34 53 0
33 51 0
33 51 0
30 50 0
25 43 0
30 48 0
32 50 0
34 51 0
32 51 0
33 52 0
29 50 0
28 50 0
29 51 0
42 59 11
65 72 17
70 76 23
59 74 22
41 63 0
40 63 0
30 54 0
26 49 0
23 45 0
27 49 0
29 49 0
28 49 0
30 53 0
29 51 0
26 48 9
31 50 0
28 82 60
14 80 92
0 8 65
0 0 52
0 0 48
0 0 43
0 0 45
0 0 45
0 0 42
0 0 42
0 0 42
0 0 42
0 0 42
0 0 42
0 0 42
0 0 42
0 0 42
0 0 42
0 0 42
0 0 42
0 0 42
0 0 42
0 0 42
0 0 42
0 0 42
0 0 42
0 0 44
0 0 45
0 0 45
0 0 45
0 0 45
0 0 44
165 176 193
221 235 255
221 235 255
221 235 255
221 235 255
221 235 255
221 235 255
221 235 255
221 235 255
221 235 255
221 235 255
221 235 255
221 235 255
221 235 255
221 235 255
221 235 255
221 235 255
221 235 255
221 235 255
221 235 255
221 235 255
221 235 255
221 235 255
221 235 255
221 235 255
221 235 255
221 235 255
221 235 255
221 235 255
221 235 255
221 235 255
221 235 255
221 235 255
221 235 255
221 235 255
221 235 255
221 235 255
221 235 255
221 235 255
221 235 255
221 235 255
221 235 255
221 235 255
221 235 255
221 235 255
221 235 255
221 235 255
221 235 255
221 235 255
221 235 255
221 235 255
221 235 255
221 235 255
221 235 255
221 235 255
221 235 255
221 235 255
221 235 255
221 235 255
221 235 255
221 235 255
221 235 255
221 235 255
221 235 255
221 235 255
221 235 255
221 235 255
221 235 255
221 235 255
221 235 255
221 235 255
221 235 255
221 235 255
221 235 255
221 235 255
221 235 255
221 235 255
221 235 255
221 235 255
221 235 255
221 235 255
221 235 255
221 235 255
221 235 255
221 235 255
221 235 255
221 235 255
221 235 255
221 235 255
221 235 255
221 235 255
221 235 255
221 235 255
221 235 255
221 235 255
221 235 255
221 235 255
221 235 255
221 235 255
221 235 255
221 235 255
221 235 255
221 235 255
221 235 255
221 235 255
221 235 255
221 235 255
221 235 255
221 235 255
221 235 255
221 235 255
221 235 255
221 235 255
221 235 255
221 235 255
221 235 255
221 235 255
221 235 255
221 235 255
221 235 255
221 235 255
221 235 255
221 235 255
221 235 255
221 235 255
221 235 255
221 235 255
221 235 255
221 235 255
221 235 255
221 235 255
221 235 255
221 235 255
221 235 255
221 235 255
221 235 255
221 235 255
221 235 255
221 235 255
221 235 255
221 235 255
221 235 255
221 235 255
221 235 255
221 235 255
221 235 255
221 235 255
221 235 255
221 235 255
221 235 255
221 235 255
221 235 255
221 235 255
221 235 255
221 235 255
221 235 255
221 235 255
221 235 255
221 235 255
221 235 255
221 235 255
221 235 255
221 235 255
221 235 255
221 235 255
221 235 255
221 235 255
221 235 255
221 235 255
221 235 255
221 235 255
221 235 255
221 235 255
221 235 255
221 235 255
221 235 255
221 235 255
221 235 255
221 235 255
221 235 255
221 235 255
221 235 255
221 235 255
221 235 255
221 235 255
148 158 174
0 0 45
0 0 45
0 0 45
0 0 45
0 0 43
0 0 43
0 0 45
0 0 45
0 0 45
0 0 45
0 0 45
0 0 45
0 0 45
0 0 45
0 0 45
0 0 45
0 0 45
0 0 45
0 0 45
0 0 45
0 0 45
0 0 45
0 0 45
0 0 45
0 0 45
0 0 45
0 0 45
0 0 45
0 0 45
0 0 45
0 0 45
0 0 45
0 0 45
0 0 45
0 0 45
0 0 44
0 0 42
0 0 42
0 0 42
0 0 42
0 0 42
0 0 42
0 0 42
0 0 43
0 0 45
0 0 45
0 0 45
0 0 44
0 0 43
0 0 42
0 0 42
0 0 45
0 0 45
0 0 45
0 0 45
0 0 45
0 0 45
0 0 45
0 0 45
0 0 45
0 0 45
0 0 45
0 0 45
0 0 45
0 0 45
0 0 45
0 0 45
0 0 45
0 0 45
0 0 45
0 0 45
0 0 45
0 0 45
0 0 45
0 0 45
0 0 45
0 0 45
0 0 45
0 0 45
0 0 45
0 0 45
0 0 45
0 0 45
0 0 45
0 0 43
0 0 42
0 0 45
0 0 45
0 0 45
0 0 45
0 0 45
0 0 45
0 0 45
0 0 45
0 0 43
0 0 44
0 0 45
0 0 46
0 0 48
0 0 48
0 0 48
0 0 49
0 0 48
0 0 48
0 0 47
0 0 45
0 0 45
0 0 45
0 0 45
0 0 45
0 0 45
0 0 45
0 0 45
0 0 46
0 0 46
0 0 46
0 0 46
0 0 49
0 0 49
0 0 50
0 0 51
0 0 51
0 0 50
0 0 48
0 0 48
0 0 46
0 0 46
0 0 45
0 0 45
0 0 46
0 0 48
0 0 49
0 0 45
0 0 58
23 45 78
53 78 45
56 76 13
60 72 34
60 71 21
58 72 17
67 80 35
68 83 31
59 79 17
56 76 18
60 74 18
60 74 15
57 72 13
45 65 6
37 60 0
38 61 0
37 58 0
38 60 0
33 53 0
33 52 0
39 54 0
32 52 0
28 47 0
32 51 0
30 49 0
29 46 0
34 54 0
30 50 0
30 50 0
31 53 0
33 57 0
34 57 0
58 70 19
75 80 28
81 84 34
69 78 29
43 59 4
43 66 2
36 58 0
29 52 0
21 45 0
27 47 0
28 48 0
31 54 0
28 50 0
28 48 0
28 49 0
36 51 0
32 49 0
19 71 73
0 29 83
0 11 68
0 0 56
0 0 43
0 0 44
0 0 44
0 0 42
0 0 42
0 0 42
0 0 42
0 0 42
0 0 42
0 0 42
0 0 42
0 0 42
0 0 42
0 0 42
0 0 42
0 0 42
0 0 43
0 0 44
0 0 42
0 0 42
0 0 42
0 0 43
0 0 45
0 0 45
0 0 45
0 0 45
0 0 44
148 158 174
221 235 255
221 235 255
221 235 255
221 235 255
221 235 255
221 235 255
221 235 255
221 235 255
221 235 255
221 235 255
221 235 255
221 235 255
221 235 255
221 235 255
221 235 255
221 235 255
221 235 255
221 235 255
221 235 255
221 235 255
221 235 255
221 235 255
221 235 255
221 235 255
221 235 255
221 235 255
221 235 255
221 235 255
221 235 255
221 235 255
221 235 255
221 235 255
221 235 255
221 235 255
221 235 255
221 235 255
221 235 255
221 235 255
221 235 255
221 235 255
221 235 255
221 235 255
221 235 255
221 235 255
221 235 255
221 235 255
221 235 255
221 235 255
221 235 255
221 235 255
221 235 255
221 235 255
221 235 255
221 235 255
221 235 255
221 235 255
221 235 255
221 235 255
221 235 255
221 235 255
221 235 255
221 235 255
221 235 255
221 235 255
221 235 255
221 235 255
221 235 255
221 235 255
221 235 255
221 235 255
221 235 255
221 235 255
221 235 255
221 235 255
221 235 255
221 235 255
221 235 255
221 235 255
221 235 255
221 235 255
221 235 255
221 235 255
221 235 255
221 235 255
221 235 255
221 235 255
221 235 255
221 235 255
221 235 255
221 235 255
221 235 255
221 235 255
221 235 255
221 235 255
221 235 255
221 235 255
221 235 255
221 235 255
221 235 255
221 235 255
221 235 255
221 235 255
221 235 255
221 235 255
221 235 255
221 235 255
221 235 255
221 235 255
221 235 255
221 235 255
221 235 255
221 235 255
221 235 255
221 235 255
221 235 255
221 235 255
221 235 255
221 235 255
221 235 255
221 235 255
221 235 255
221 235 255
221 235 255
221 235 255
221 235 255
221 235 255
221 235 255
221 235 255
221 235 255
221 235 255
221 235 255
221 235 255
221 235 255
221 235 255
221 235 255
221 235 255
221 235 255
221 235 255
221 235 255
221 235 255
221 235 255
221 235 255
221 235 255
221 235 255
221 235 255
221 235 255
221 235 255
221 235 255
221 235 255
221 235 255
221 235 255
221 235 255
221 235 255
221 235 255
221 235 255
221 235 255
221 235 255
221 235 255
221 235 255
221 235 255
221 235 255
221 235 255
221 235 255
221 235 255
221 235 255
221 235 255
221 235 255
221 235 255
221 235 255
221 235 255
221 235 255
221 235 255
221 235 255
221 235 255
221 235 255
221 235 255
221 235 255
221 235 255
221 235 255
221 235 255
221 235 255
221 235 255
221 235 255
221 235 255
139 149 165
0 0 45
0 0 45
0 0 45
0 0 45
0 0 44
0 0 44
0 0 45
0 0 45
0 0 45
0 0 45
0 0 45
0 0 45
0 0 45
0 0 45
0 0 45
0 0 45
0 0 45
0 0 45
0 0 45
0 0 45
0 0 45
0 0 45
0 0 45
0 0 45
0 0 45
0 0 44
0 0 42
0 0 42
0 0 42
0 0 43
0 0 45
0 0 44
0 0 45
0 0 45
0 0 45
0 0 44
0 0 42
0 0 42
0 0 42
0 0 42
0 0 42
0 0 42
0 0 42
0 0 42
0 0 42
0 0 42
0 0 42
0 0 42
0 0 42
0 0 42
0 0 42
0 0 45
0 0 45
0 0 45
0 0 45
0 0 45
0 0 45
0 0 45
0 0 45
0 0 45
0 0 45
0 0 45
0 0 45
0 0 45
0 0 45
0 0 45
0 0 45
0 0 45
0 0 45
0 0 45
0 0 45
0 0 45
0 0 45
0 0 45
0 0 45
0 0 45
0 0 45
0 0 45
0 0 45
0 0 45
0 0 45
0 0 45
0 0 45
0 0 45
0 0 44
0 0 44
0 0 45
0 0 45
0 0 45
0 0 45
0 0 45
0 0 45
0 0 45
0 0 45
0 0 43
0 0 43
0 0 45
0 0 47
0 0 48
0 0 50
0 0 51
0 0 52
0 0 51
0 0 48
0 0 47
0 0 45
0 0 45
0 0 45
0 0 45
0 0 45
0 0 45
0 0 45
0 0 45
0 0 47
0 0 48
0 0 50
0 0 51
0 0 52
0 0 53
0 0 54
0 0 55
0 0 54
0 0 53
0 0 51
0 0 51
0 0 49
0 0 48
0 0 47
0 0 46
0 0 47
0 0 48
0 0 47
0 0 51
0 17 80
35 64 49
56 82 35
48 70 16
60 69 30
62 74 26
70 80 30
61 74 30
47 69 15
51 74 11
54 72 17
54 72 17
54 74 15
44 65 9
34 54 0
36 56 0
40 58 0
38 56 0
38 58 0
31 52 0
34 54 0
37 57 0
30 49 0
29 49 0
29 51 0
30 49 0
23 41 0
30 49 0
33 52 0
34 54 0
32 53 0
33 56 0
36 59 0
54 71 11
85 89 37
84 85 41
62 70 23
41 61 10
41 61 6
38 57 0
34 53 0
25 45 0
28 48 0
29 48 0
29 49 0
32 53 0
30 50 0
27 49 0
32 48 5
38 53 0
37 81 78
0 86 127
4 67 115
0 22 69
0 0 45
0 0 42
0 0 42
0 0 42
0 0 42
0 0 42
0 0 42
0 0 42
0 0 42
0 0 42
0 0 42
0 0 42
0 0 42
0 0 42
0 0 42
0 0 42
0 0 44
0 0 45
0 0 43
0 0 42
0 0 42
0 0 43
0 0 45
0 0 45
0 0 45
0 0 45
0 0 43
139 149 165
221 235 255
221 235 255
221 235 255
221 235 255
221 235 255
221 235 255
221 235 255
221 235 255
221 235 255
221 235 255
221 235 255
221 235 255
221 235 255
221 235 255
221 235 255
221 235 255
221 235 255
221 235 255
221 235 255
221 235 255
221 235 255
221 235 255
221 235 255
221 235 255
221 235 255
221 235 255
221 235 255
221 235 255
221 235 255
221 235 255
221 235 255
221 235 255
221 235 255
221 235 255
221 235 255
221 235 255
221 235 255
221 235 255
221 235 255
221 235 255
221 235 255
221 235 255
221 235 255
221 235 255
221 235 255
221 235 255
221 235 255
221 235 255
221 235 255
221 235 255
221 235 255
221 235 255
221 235 255
221 235 255
221 235 255
221 235 255
221 235 255
221 235 255
221 235 255
221 235 255
221 235 255
221 235 255
221 235 255
221 235 255
221 235 255
221 235 255
221 235 255
221 235 255
221 235 255
221 235 255
221 235 255
221 235 255
221 235 255
221 235 255
221 235 255
221 235 255
221 235 255
221 235 255
221 235 255
221 235 255
221 235 255
221 235 255
221 235 255
221 235 255
221 235 255
221 235 255
221 235 255
221 235 255
221 235 255
221 235 255
221 235 255
221 235 255
221 235 255
221 235 255
221 235 255
221 235 255
221 235 255
221 235 255
221 235 255
221 235 255
221 235 255
221 235 255
221 235 255
221 235 255
221 235 255
221 235 255
221 235 255
221 235 255
221 235 255
221 235 255
221 235 255
221 235 255
221 235 255
221 235 255
221 235 255
221 235 255
221 235 255
221 235 255
221 235 255
221 235 255
221 235 255
221 235 255
221 235 255
221 235 255
221 235 255
221 235 255
221 235 255
221 235 255
221 235 255
221 235 255
221 235 255
221 235 255
221 235 255
221 235 255
221 235 255
221 235 255
221 235 255
221 235 255
221 235 255
221 235 255
221 235 255
221 235 255
221 235 255
221 235 255
221 235 255
221 235 255
221 235 255
221 235 255
221 235 255
221 235 255
221 235 255
221 235 255
221 235 255
221 235 255
221 235 255
221 235 255
221 235 255
221 235 255
221 235 255
221 235 255
221 235 255
221 235 255
221 235 255
221 235 255
221 235 255
221 235 255
221 235 255
221 235 255
221 235 255
221 235 255
221 235 255
221 235 255
221 235 255
221 235 255
221 235 255
221 235 255
221 235 255
221 235 255
221 235 255
221 235 255
221 235 255
221 235 255
221 235 255
221 235 255
117 124 140
0 0 45
0 0 45
0 0 45
0 0 45
0 0 45
0 0 45
0 0 45
0 0 45
0 0 45
0 0 45
0 0 45
0 0 45
0 0 45
0 0 45
0 0 45
0 0 45
0 0 45
0 0 44
0 0 45
0 0 45
0 0 45
0 0 45
0 0 45
0 0 43
0 0 43
0 0 43
0 0 42
0 0 42
0 0 42
0 0 43
0 0 45
0 0 44
0 0 44
0 0 43
0 0 43
0 0 43
0 0 42
0 0 42
0 0 42
0 0 42
0 0 42
0 0 42
0 0 42
0 0 43
0 0 44
0 0 44
0 0 44
0 0 44
0 0 42
0 0 42
0 0 42
0 0 43
0 0 44
0 0 45
0 0 45
0 0 45
0 0 45
0 0 45
0 0 45
0 0 45
0 0 45
0 0 45
0 0 45
0 0 45
0 0 45
0 0 45
0 0 45
0 0 45
0 0 45
0 0 45
0 0 45
0 0 45
0 0 45
0 0 45
0 0 45
0 0 45
0 0 45
0 0 45
0 0 45
0 0 45
0 0 45
0 0 45
0 0 45
0 0 45
0 0 45
0 0 45
0 0 45
0 0 45
0 0 45
0 0 45
0 0 45
0 0 45
0 0 45
0 0 45
0 0 43
0 0 43
0 0 47
0 0 48
0 0 48
0 0 48
0 0 48
0 0 53
0 0 52
0 0 50
0 0 47
0 0 45
0 0 45
0 0 45
0 0 45
0 0 44
0 0 43
0 0 45
0 0 45
0 0 47
0 0 50
0 0 51
0 0 53
0 0 53
0 0 54
0 0 53
0 0 55
0 0 55
0 0 54
0 0 53
0 0 53
0 0 52
0 0 51
0 0 53
0 0 54
0 0 50
0 0 61
0 8 46
15 34 61
33 65 64
52 79 37
50 70 13
46 61 12
67 75 29
65 77 34
61 75 28
46 63 15
35 57 0
36 58 1
45 63 10
47 68 9
45 66 8
40 61 7
36 58 0
37 55 0
38 56 0
35 54 0
35 54 0
35 55 0
35 55 0
31 53 0
29 51 0
29 51 0
28 50 0
27 47 0
23 42 0
24 45 0
32 53 0
37 54 0
34 52 0
33 54 0
36 61 0
47 70 9
70 84 31
61 68 19
64 74 23
59 71 22
39 58 0
37 56 0
32 50 0
29 48 0
27 44 0
30 47 0
30 48 0
32 53 0
30 50 0
30 51 0
35 54 8
31 53 0
27 67 50
10 114 141
7 118 153
0 57 100
0 8 59
0 0 43
0 0 42
0 0 41
0 0 42
0 0 42
0 0 42
0 0 42
0 0 42
0 0 42
0 0 42
0 0 42
0 0 42
0 0 42
0 0 42
0 0 42
0 0 44
0 0 44
0 0 43
0 0 42
0 0 42
0 0 43
0 0 44
0 0 45
0 0 45
0 0 45
0 0 42
134 143 159
221 235 255
221 235 255
221 235 255
221 235 255
221 235 255
221 235 255
221 235 255
221 235 255
221 235 255
221 235 255
221 235 255
221 235 255
221 235 255
221 235 255
221 235 255
221 235 255
221 235 255
221 235 255
221 235 255
221 235 255
221 235 255
221 235 255
221 235 255
221 235 255
221 235 255
221 235 255
221 235 255
221 235 255
221 235 255
221 235 255
221 235 255
221 235 255
221 235 255
221 235 255
221 235 255
221 235 255
221 235 255
221 235 255
221 235 255
221 235 255
221 235 255
221 235 255
221 235 255
221 235 255
221 235 255
221 235 255
221 235 255
221 235 255
221 235 255
221 235 255
221 235 255
221 235 255
221 235 255
221 235 255
221 235 255
221 235 255
221 235 255
221 235 255
221 235 255
221 235 255
221 235 255
221 235 255
221 235 255
221 235 255
221 235 255
221 235 255
221 235 255
221 235 255
221 235 255
221 235 255
221 235 255
221 235 255
221 235 255
221 235 255
221 235 255
221 235 255
221 235 255
221 235 255
221 235 255
221 235 255
221 235 255
221 235 255
221 235 255
221 235 255
221 235 255
221 235 255
221 235 255
221 235 255
221 235 255
221 235 255
221 235 255
221 235 255
221 235 255
221 235 255
221 235 255
221 235 255
221 235 255
221 235 255
221 235 255
221 235 255
221 235 255
221 235 255
221 235 255
221 235 255
221 235 255
221 235 255
221 235 255
221 235 255
221 235 255
221 235 255
221 235 255
221 235 255
221 235 255
221 235 255
221 235 255
221 235 255
221 235 255
221 235 255
221 235 255
221 235 255
221 235 255
221 235 255
221 235 255
221 235 255
221 235 255
221 235 255
221 235 255
221 235 255
221 235 255
221 235 255
221 235 255
221 235 255
221 235 255
221 235 255
221 235 255
221 235 255
221 235 255
221 235 255
221 235 255
221 235 255
221 235 255
221 235 255
221 235 255
221 235 255
221 235 255
221 235 255
221 235 255
221 235 255
221 235 255
221 235 255
221 235 255
221 235 255
221 235 255
221 235 255
221 235 255
221 235 255
221 235 255
221 235 255
221 235 255
221 235 255
221 235 255
221 235 255
221 235 255
221 235 255
221 235 255
221 235 255
221 235 255
221 235 255
221 235 255
221 235 255
221 235 255
221 235 255
221 235 255
221 235 255
221 235 255
221 235 255
221 235 255
221 235 255
221 235 255
221 235 255
221 235 255
221 235 255
221 235 255
221 235 255
106 113 129
0 0 45
0 0 45
0 0 45
0 0 45
0 0 45
0 0 45
0 0 45
0 0 45
0 0 45
0 0 45
0 0 45
0 0 45
0 0 45
0 0 45
0 0 45
0 0 45
0 0 44
0 0 42
0 0 44
0 0 45
0 0 45
0 0 45
0 0 45
0 0 44
0 0 42
0 0 42
0 0 42
0 0 42
0 0 42
0 0 43
0 0 44
0 0 43
0 0 42
0 0 42
0 0 42
0 0 42
0 0 42
0 0 42
0 0 43
0 0 44
0 0 44
0 0 44
0 0 44
0 0 45
0 0 45
0 0 45
0 0 45
0 0 45
0 0 43
0 0 44
0 0 44
0 0 44
0 0 45
0 0 45
0 0 45
0 0 45
0 0 45
0 0 45
0 0 45
0 0 45
0 0 45
0 0 45
0 0 45
0 0 45
0 0 45
0 0 45
0 0 45
0 0 45
0 0 45
0 0 45
0 0 45
0 0 45
0 0 45
0 0 45
0 0 45
0 0 45
0 0 45
0 0 45
0 0 45
0 0 45
0 0 45
0 0 45
0 0 45
0 0 45
0 0 45
0 0 45
0 0 45
0 0 45
0 0 45
0 0 45
0 0 45
0 0 45
0 0 45
0 0 45
0 0 44
0 0 44
0 0 47
0 0 48
0 0 48
0 0 48
0 0 47
0 0 50
0 0 50
0 0 48
0 0 48
0 0 48
0 0 44
0 0 47
0 0 45
0 0 45
0 0 45
0 0 46
0 0 48
0 0 48
0 0 51
0 0 53
0 0 53
0 0 53
0 0 54
0 0 54
0 0 57
0 0 57
0 0 56
0 0 55
0 0 55
0 0 52
0 0 56
0 0 52
0 0 53
0 0 50
0 0 48
18 28 59
65 98 67
65 101 45
49 74 36
45 60 3
66 74 40
64 77 31
62 77 34
59 76 28
49 70 15
43 64 0
41 63 0
38 58 0
43 65 0
38 59 0
34 55 0
31 52 0
32 53 0
35 55 0
31 49 0
27 47 0
33 52 0
34 55 0
34 55 0
34 55 0
28 49 0
28 49 0
29 48 0
25 43 0
25 44 0
29 48 0
33 51 0
35 54 0
33 54 0
36 58 0
37 61 0
43 64 7
44 61 5
59 71 18
49 62 7
42 60 0
38 56 0
28 46 0
29 47 0
29 45 0
33 50 0
30 49 0
31 52 0
30 51 0
30 54 0
34 52 0
29 51 10
31 55 24
21 112 116
34 180 177
11 106 138
0 22 74
0 0 50
0 0 42
0 0 40
0 0 42
0 0 42
0 0 42
0 0 42
0 0 42
0 0 42
0 0 42
0 0 42
0 0 42
0 0 42
0 0 42
0 0 42
0 0 42
0 0 42
0 0 42
0 0 42
0 0 42
0 0 42
0 0 42
0 0 42
0 0 42
0 0 42
0 0 42
103 110 125
221 235 255
221 235 255
221 235 255
221 235 255
221 235 255
221 235 255
221 235 255
221 235 255
221 235 255
221 235 255
221 235 255
221 235 255
221 235 255
221 235 255
221 235 255
221 235 255
221 235 255
221 235 255
221 235 255
221 235 255
221 235 255
221 235 255
221 235 255
221 235 255
221 235 255
221 235 255
221 235 255
221 235 255
221 235 255
221 235 255
221 235 255
221 235 255
221 235 255
221 235 255
221 235 255
221 235 255
221 235 255
221 235 255
221 235 255
221 235 255
221 235 255
221 235 255
221 235 255
221 235 255
221 235 255
221 235 255
221 235 255
221 235 255
221 235 255
221 235 255
221 235 255
221 235 255
221 235 255
221 235 255
221 235 255
221 235 255
221 235 255
221 235 255
221 235 255
221 235 255
221 235 255
221 235 255
221 235 255
221 235 255
221 235 255
221 235 255
221 235 255
221 235 255
221 235 255
221 235 255
221 235 255
221 235 255
221 235 255
221 235 255
221 235 255
221 235 255
221 235 255
221 235 255
221 235 255
221 235 255
221 235 255
221 235 255
221 235 255
221 235 255
221 235 255
221 235 255
221 235 255
221 235 255
221 235 255
221 235 255
221 235 255
221 235 255
221 235 255
221 235 255
221 235 255
221 235 255
221 235 255
221 235 255
221 235 255
221 235 255
221 235 255
221 235 255
221 235 255
221 235 255
221 235 255
221 235 255
221 235 255
221 235 255
221 235 255
221 235 255
221 235 255
221 235 255
221 235 255
221 235 255
221 235 255
221 235 255
221 235 255
221 235 255
221 235 255
221 235 255
221 235 255
221 235 255
221 235 255
221 235 255
221 235 255
221 235 255
221 235 255
221 235 255
221 235 255
221 235 255
221 235 255
221 235 255
221 235 255
221 235 255
221 235 255
221 235 255
221 235 255
221 235 255
221 235 255
221 235 255
221 235 255
221 235 255
221 235 255
221 235 255
221 235 255
221 235 255
221 235 255
221 235 255
221 235 255
221 235 255
221 235 255
221 235 255
221 235 255
221 235 255
221 235 255
221 235 255
221 235 255
221 235 255
221 235 255
221 235 255
221 235 255
221 235 255
221 235 255
221 235 255
221 235 255
221 235 255
221 235 255
221 235 255
221 235 255
221 235 255
221 235 255
221 235 255
221 235 255
221 235 255
221 235 255
221 235 255
221 235 255
221 235 255
221 235 255
221 235 255
221 235 255
221 235 255
221 235 255
221 235 255
106 113 129
0 0 45
0 0 45
0 0 45
0 0 45
0 0 45
0 0 45
0 0 45
0 0 45
0 0 45
0 0 45
0 0 45
0 0 45
0 0 45
0 0 45
0 0 45
0 0 45
0 0 45
0 0 42
0 0 44
0 0 45
0 0 45
0 0 45
0 0 45
0 0 45
0 0 45
0 0 45
0 0 45
0 0 45
0 0 45
0 0 44
0 0 42
0 0 42
0 0 42
0 0 42
0 0 42
0 0 42
0 0 42
0 0 43
0 0 44
0 0 45
0 0 45
0 0 45
0 0 45
0 0 45
0 0 45
0 0 45
0 0 45
0 0 45
0 0 45
0 0 45
0 0 45
0 0 45
0 0 45
0 0 45
0 0 45
0 0 45
0 0 45
0 0 45
0 0 45
0 0 45
0 0 45
0 0 45
0 0 45
0 0 45
0 0 45
0 0 45
0 0 45
0 0 45
0 0 45
0 0 45
0 0 45
0 0 45
0 0 45
0 0 45
0 0 45
0 0 45
0 0 45
0 0 45
0 0 45
0 0 45
0 0 45
0 0 45
0 0 45
0 0 45
0 0 45
0 0 45
0 0 45
0 0 45
0 0 45
0 0 45
0 0 45
0 0 45
0 0 45
0 0 45
0 0 45
0 0 45
0 0 48
0 0 48
0 0 48
0 0 48
0 0 48
0 0 49
0 0 49
0 0 49
0 0 50
0 0 49
0 0 47
0 0 48
0 0 48
0 0 48
0 0 48
0 0 48
0 0 48
0 0 50
0 0 54
0 0 53
0 0 53
0 0 53
0 0 55
0 0 56
0 0 57
0 0 56
0 0 56
0 0 57
0 0 57
0 0 57
0 0 64
0 0 60
0 4 58
0 6 59
0 0 62
33 56 77
59 90 62
64 90 38
52 71 25
60 70 17
70 77 36
53 70 22
55 73 25
49 68 17
51 73 18
42 64 0
40 61 0
34 54 0
39 59 0
37 58 0
35 56 0
32 52 0
33 54 0
35 55 0
28 49 0
25 45 0
28 48 0
32 54 0
36 56 0
36 56 0
30 50 0
25 44 0
27 46 0
29 49 0
34 52 0
33 53 0
30 53 0
30 55 0
28 52 0
32 54 0
34 56 0
32 55 0
32 55 0
36 56 0
36 54 0
34 54 0
33 53 0
29 47 0
29 48 0
37 54 0
45 62 0
32 50 0
30 49 0
29 50 0
31 52 0
32 53 0
28 50 0
32 50 0
36 69 46
13 125 139
19 164 173
0 64 114
0 10 58
0 0 45
0 0 41
0 0 41
0 0 42
0 0 42
0 0 42
0 0 42
0 0 42
0 0 42
0 0 42
0 0 42
0 0 42
0 0 42
0 0 42
0 0 42
0 0 42
0 0 42
0 0 42
0 0 42
0 0 42
0 0 42
0 0 42
0 0 42
0 0 42
0 0 42
91 97 112
221 235 255
221 235 255
221 235 255
221 235 255
221 235 255
221 235 255
221 235 255
221 235 255
221 235 255
221 235 255
221 235 255
221 235 255
221 235 255
221 235 255
221 235 255
221 235 255
221 235 255
221 235 255
221 235 255
221 235 255
221 235 255
221 235 255
221 235 255
221 235 255
221 235 255
221 235 255
221 235 255
221 235 255
221 235 255
221 235 255
221 235 255
221 235 255
221 235 255
221 235 255
221 235 255
221 235 255
221 235 255
221 235 255
221 235 255
221 235 255
221 235 255
221 235 255
221 235 255
221 235 255
221 235 255
221 235 255
221 235 255
221 235 255
221 235 255
221 235 255
221 235 255
221 235 255
221 235 255
221 235 255
221 235 255
221 235 255
221 235 255
221 235 255
221 235 255
221 235 255
221 235 255
221 235 255
221 235 255
221 235 255
221 235 255
221 235 255
221 235 255
221 235 255
221 235 255
221 235 255
221 235 255
221 235 255
221 235 255
221 235 255
221 235 255
221 235 255
221 235 255
221 235 255
221 235 255
221 235 255
221 235 255
221 235 255
221 235 255
221 235 255
221 235 255
221 235 255
221 235 255
221 235 255
221 235 255
221 235 255
221 235 255
221 235 255
221 235 255
221 235 255
221 235 255
221 235 255
221 235 255
221 235 255
221 235 255
221 235 255
221 235 255
221 235 255
221 235 255
221 235 255
221 235 255
221 235 255
221 235 255
221 235 255
221 235 255
221 235 255
221 235 255
221 235 255
221 235 255
221 235 255
221 235 255
221 235 255
221 235 255
221 235 255
221 235 255
221 235 255
221 235 255
221 235 255
221 235 255
221 235 255
221 235 255
221 235 255
221 235 255
221 235 255
221 235 255
221 235 255
221 235 255
221 235 255
221 235 255
221 235 255
221 235 255
221 235 255
221 235 255
221 235 255
221 235 255
221 235 255
221 235 255
221 235 255
221 235 255
221 235 255
221 235 255
221 235 255
221 235 255
221 235 255
221 235 255
221 235 255
221 235 255
221 235 255
221 235 255
221 235 255
221 235 255
221 235 255
221 235 255
221 235 255
221 235 255
221 235 255
221 235 255
221 235 255
221 235 255
221 235 255
221 235 255
221 235 255
221 235 255
221 235 255
221 235 255
221 235 255
221 235 255
221 235 255
221 235 255
221 235 255
221 235 255
221 235 255
221 235 255
221 235 255
221 235 255
221 235 255
221 235 255
221 235 255
221 235 255
221 235 255
91 97 113
0 0 45
0 0 45
0 0 45
0 0 45
0 0 45
0 0 45
0 0 45
0 0 45
0 0 45
0 0 45
0 0 45
0 0 45
0 0 45
0 0 45
0 0 45
0 0 45
0 0 45
0 0 44
0 0 45
0 0 45
0 0 45
0 0 45
0 0 45
0 0 45
0 0 45
0 0 45
0 0 45
0 0 45
0 0 45
0 0 45
0 0 43
0 0 43
0 0 42
0 0 42
0 0 42
0 0 43
0 0 44
0 0 45
0 0 45
0 0 45
0 0 45
0 0 45
0 0 45
0 0 45
0 0 45
0 0 45
0 0 45
0 0 45
0 0 45
0 0 45
0 0 45
0 0 45
0 0 44
0 0 44
0 0 45
0 0 45
0 0 45
0 0 45
0 0 45
0 0 45
0 0 45
0 0 45
0 0 45
0 0 45
0 0 45
0 0 45
0 0 45
0 0 45
0 0 45
0 0 45
0 0 45
0 0 45
0 0 45
0 0 45
0 0 45
0 0 45
0 0 45
0 0 45
0 0 45
0 0 45
0 0 45
0 0 45
0 0 45
0 0 45
0 0 45
0 0 45
0 0 45
0 0 45
0 0 45
0 0 45
0 0 45
0 0 45
0 0 45
0 0 45
0 0 46
0 0 47
0 0 48
0 0 48
0 0 48
0 0 49
0 0 49
0 0 49
0 0 49
0 0 50
0 0 51
0 0 50
0 0 50
0 0 49
0 0 49
0 0 49
0 0 49
0 0 49
0 0 49
0 0 52
0 0 55
0 0 54
0 0 53
0 0 54
0 0 57
0 0 57
0 0 57
0 0 57
0 0 57
0 0 57
0 0 57
0 0 53
0 8 61
0 5 62
0 10 71
0 18 75
0 24 76
52 88 76
65 97 42
57 79 25
64 75 30
73 82 42
61 73 32
53 70 21
51 70 19
49 69 14
43 64 0
41 62 0
35 55 0
34 52 0
37 56 0
38 59 0
39 60 0
35 55 0
31 52 0
31 52 0
28 49 0
29 49 0
28 50 0
28 51 0
31 53 0
31 51 0
30 50 0
25 44 0
28 45 0
30 50 0
30 48 0
28 48 0
26 51 0
30 55 0
29 52 0
34 53 0
33 51 0
29 50 0
28 50 0
26 49 0
27 48 0
29 48 0
31 51 0
31 50 0
30 48 0
35 51 0
41 58 0
31 51 0
30 49 0
29 47 0
30 48 0
34 49 0
31 49 0
30 52 0
34 52 3
17 95 93
10 130 156
8 100 131
0 21 76
0 0 50
0 0 44
0 0 41
0 0 41
0 0 42
0 0 42
0 0 42
0 0 42
0 0 42
0 0 42
0 0 42
0 0 42
0 0 42
0 0 42
0 0 42
0 0 42
0 0 42
0 0 42
0 0 42
0 0 42
0 0 42
0 0 42
0 0 42
0 0 42
0 0 42
106 113 128
221 235 255
221 235 255
221 235 255
221 235 255
221 235 255
221 235 255
221 235 255
221 235 255
221 235 255
221 235 255
221 235 255
221 235 255
221 235 255
221 235 255
221 235 255
221 235 255
221 235 255
221 235 255
221 235 255
221 235 255
221 235 255
221 235 255
221 235 255
221 235 255
221 235 255
221 235 255
221 235 255
221 235 255
221 235 255
221 235 255
221 235 255
221 235 255
221 235 255
221 235 255
221 235 255
221 235 255
221 235 255
221 235 255
221 235 255
221 235 255
221 235 255
221 235 255
221 235 255
221 235 255
221 235 255
221 235 255
221 235 255
221 235 255
221 235 255
221 235 255
221 235 255
221 235 255
221 235 255
221 235 255
221 235 255
221 235 255
221 235 255
221 235 255
221 235 255
221 235 255
221 235 255
221 235 255
221 235 255
221 235 255
221 235 255
221 235 255
221 235 255
221 235 255
221 235 255
221 235 255
221 235 255
221 235 255
221 235 255
221 235 255
221 235 255
221 235 255
221 235 255
221 235 255
221 235 255
221 235 255
221 235 255
221 235 255
221 235 255
221 235 255
221 235 255
221 235 255
221 235 255
221 235 255
221 235 255
221 235 255
221 235 255
221 235 255
221 235 255
221 235 255
221 235 255
221 235 255
221 235 255
221 235 255
221 235 255
221 235 255
221 235 255
221 235 255
221 235 255
221 235 255
221 235 255
221 235 255
221 235 255
221 235 255
221 235 255
221 235 255
221 235 255
221 235 255
221 235 255
221 235 255
221 235 255
221 235 255
221 235 255
221 235 255
221 235 255
221 235 255
221 235 255
221 235 255
221 235 255
221 235 255
221 235 255
221 235 255
221 235 255
221 235 255
221 235 255
221 235 255
221 235 255
221 235 255
221 235 255
221 235 255
221 235 255
221 235 255
221 235 255
221 235 255
221 235 255
221 235 255
221 235 255
221 235 255
221 235 255
221 235 255
221 235 255
221 235 255
221 235 255
221 235 255
221 235 255
221 235 255
221 235 255
221 235 255
221 235 255
221 235 255
221 235 255
221 235 255
221 235 255
221 235 255
221 235 255
221 235 255
221 235 255
221 235 255
221 235 255
221 235 255
221 235 255
221 235 255
221 235 255
221 235 255
221 235 255
221 235 255
221 235 255
221 235 255
221 235 255
221 235 255
221 235 255
221 235 255
221 235 255
221 235 255
221 235 255
221 235 255
221 235 255
221 235 255
221 235 255
221 235 255
76 81 98
0 0 45
0 0 45
0 0 45
0 0 45
0 0 45
0 0 45
0 0 45
0 0 45
0 0 45
0 0 45
0 0 45
0 0 45
0 0 45
0 0 45
0 0 45
0 0 45
0 0 45
0 0 45
0 0 45
0 0 45
0 0 45
0 0 45
0 0 45
0 0 45
0 0 45
0 0 45
0 0 45
0 0 45
0 0 45
0 0 45
0 0 45
0 0 45
0 0 44
0 0 44
0 0 44
0 0 44
0 0 45
0 0 45
0 0 45
0 0 45
0 0 45
0 0 45
0 0 45
0 0 45
0 0 45
0 0 45
0 0 45
0 0 45
0 0 45
0 0 45
0 0 45
0 0 45
0 0 44
0 0 45
0 0 45
0 0 45
0 0 45
0 0 45
0 0 45
0 0 47
0 0 47
0 0 47
0 0 47
0 0 47
0 0 46
0 0 45
0 0 45
0 0 45
0 0 45
0 0 45
0 0 45
0 0 45
0 0 45
0 0 45
0 0 45
0 0 45
0 0 45
0 0 45
0 0 45
0 0 45
0 0 45
0 0 45
0 0 45
0 0 45
0 0 45
0 0 45
0 0 45
0 0 45
0 0 47
0 0 47
0 0 47
0 0 47
0 0 47
0 0 47
0 0 48
0 0 48
0 0 48
0 0 48
0 0 48
0 0 50
0 0 51
0 0 51
0 0 50
0 0 52
0 0 50
0 0 50
0 0 50
0 0 50
0 0 50
0 0 50
0 0 50
0 0 50
0 0 50
0 0 52
0 0 55
0 0 54
0 0 54
0 0 57
0 0 57
0 0 57
0 0 57
0 0 57
0 0 57
0 0 56
0 0 55
0 2 57
0 5 75
0 20 85
16 26 79
57 88 91
41 81 47
54 93 45
57 76 43
59 75 22
90 93 59
81 94 45
46 65 16
39 55 9
48 66 13
42 62 5
44 65 11
34 54 0
33 54 0
30 49 0
34 53 0
37 55 0
34 56 0
34 54 0
29 51 0
26 48 0
26 47 0
30 50 0
26 48 0
23 46 0
23 46 0
26 47 0
23 42 0
26 45 0
30 50 0
25 44 0
24 42 0
23 43 0
23 47 0
26 48 0
25 45 0
30 47 0
33 50 0
30 49 0
30 51 0
30 51 0
28 47 0
28 47 0
31 49 0
28 48 0
26 45 0
26 44 0
31 49 0
31 50 0
29 48 0
28 46 0
28 47 0
23 46 0
26 49 0
41 53 0
36 57 17
16 87 104
5 107 141
10 112 137
0 34 91
0 7 58
0 0 47
0 0 42
0 0 42
0 0 42
0 0 42
0 0 42
0 0 42
0 0 42
0 0 42
0 0 42
0 0 42
0 0 42
0 0 42
0 0 42
0 0 42
0 0 42
0 0 42
0 0 42
0 0 42
0 0 42
0 0 42
0 0 42
0 0 42
0 0 42
70 74 90
221 235 255
221 235 255
221 235 255
221 235 255
221 235 255
221 235 255
221 235 255
221 235 255
221 235 255
221 235 255
221 235 255
221 235 255
221 235 255
221 235 255
221 235 255
221 235 255
221 235 255
221 235 255
221 235 255
221 235 255
221 235 255
221 235 255
221 235 255
221 235 255
221 235 255
221 235 255
221 235 255
221 235 255
221 235 255
221 235 255
221 235 255
221 235 255
221 235 255
221 235 255
221 235 255
221 235 255
221 235 255
221 235 255
221 235 255
221 235 255
221 235 255
221 235 255
221 235 255
221 235 255
221 235 255
221 235 255
221 235 255
221 235 255
221 235 255
221 235 255
221 235 255
221 235 255
221 235 255
221 235 255
221 235 255
221 235 255
221 235 255
221 235 255
221 235 255
221 235 255
221 235 255
221 235 255
221 235 255
221 235 255
221 235 255
221 235 255
221 235 255
221 235 255
221 235 255
221 235 255
221 235 255
221 235 255
221 235 255
221 235 255
221 235 255
221 235 255
221 235 255
221 235 255
221 235 255
221 235 255
221 235 255
221 235 255
221 235 255
221 235 255
221 235 255
221 235 255
221 235 255
221 235 255
221 235 255
221 235 255
221 235 255
221 235 255
221 235 255
221 235 255
221 235 255
221 235 255
221 235 255
221 235 255
221 235 255
221 235 255
221 235 255
221 235 255
221 235 255
221 235 255
221 235 255
221 235 255
221 235 255
221 235 255
221 235 255
221 235 255
221 235 255
221 235 255
221 235 255
221 235 255
221 235 255
221 235 255
221 235 255
221 235 255
221 235 255
221 235 255
221 235 255
221 235 255
221 235 255
221 235 255
221 235 255
221 235 255
221 235 255
221 235 255
221 235 255
221 235 255
221 235 255
221 235 255
221 235 255
221 235 255
221 235 255
221 235 255
221 235 255
221 235 255
221 235 255
221 235 255
221 235 255
221 235 255
221 235 255
221 235 255
221 235 255
221 235 255
221 235 255
221 235 255
221 235 255
221 235 255
221 235 255
221 235 255
221 235 255
221 235 255
221 235 255
221 235 255
221 235 255
221 235 255
221 235 255
221 235 255
221 235 255
221 235 255
221 235 255
221 235 255
221 235 255
221 235 255
221 235 255
221 235 255
221 235 255
221 235 255
221 235 255
221 235 255
221 235 255
221 235 255
221 235 255
221 235 255
221 235 255
221 235 255
221 235 255
221 235 255
221 235 255
221 235 255
221 235 255
221 235 255
91 97 113
0 0 45
0 0 45
0 0 45
0 0 45
0 0 45
0 0 45
0 0 45
0 0 45
0 0 45
0 0 45
0 0 45
0 0 45
0 0 45
0 0 45
0 0 45
0 0 45
0 0 45
0 0 45
0 0 45
0 0 45
0 0 45
0 0 45
0 0 45
0 0 45
0 0 45
0 0 45
0 0 45
0 0 45
0 0 45
0 0 45
0 0 45
0 0 45
0 0 45
0 0 45
0 0 45
0 0 45
0 0 45
0 0 45
0 0 45
0 0 46
0 0 45
0 0 45
0 0 46
0 0 45
0 0 45
0 0 45
0 0 45
0 0 45
0 0 45
0 0 45
0 0 45
0 0 45
0 0 46
0 0 47
0 0 48
0 0 48
0 0 48
0 0 48
0 0 48
0 0 48
0 0 48
0 0 48
0 0 48
0 0 48
0 0 48
0 0 48
0 0 48
0 0 48
0 0 48
0 0 48
0 0 48
0 0 48
0 0 48
0 0 48
0 0 48
0 0 48
0 0 48
0 0 48
0 0 48
0 0 48
0 0 48
0 0 48
0 0 45
0 0 45
0 0 45
0 0 45
0 0 45
0 0 45
0 0 47
0 0 48
0 0 48
0 0 48
0 0 48
0 0 48
0 0 49
0 0 48
0 0 48
0 0 48
0 0 48
0 0 50
0 0 53
0 0 54
0 0 53
0 0 54
0 0 53
0 0 51
0 0 50
0 0 51
0 0 50
0 0 50
0 0 50
0 0 50
0 0 50
0 0 52
0 0 53
0 0 55
0 0 56
0 0 57
0 0 57
0 0 57
0 0 58
0 0 58
0 0 57
0 0 56
0 0 59
0 6 64
0 9 71
0 2 69
54 66 103
110 137 137
93 124 74
52 74 30
51 62 19
71 77 35
99 105 85
61 75 40
40 61 9
29 48 0
35 51 0
36 55 0
30 50 0
34 56 0
28 48 0
29 48 0
30 48 0
29 47 0
30 50 0
29 50 0
29 51 0
26 48 0
22 43 0
22 44 0
19 41 0
19 41 0
20 43 0
19 42 0
21 42 0
20 41 0
24 45 0
23 42 0
19 41 0
19 43 0
20 40 0
24 39 0
23 40 0
27 44 0
28 46 0
26 45 0
25 45 0
27 47 0
27 46 0
25 45 0
26 44 0
25 44 0
24 43 0
24 42 0
28 47 0
24 45 0
27 47 0
27 46 0
25 45 0
21 43 0
24 47 0
46 57 10
29 71 44
15 78 103
2 91 135
16 149 159
0 101 144
0 20 79
0 0 54
0 0 45
0 0 42
0 0 42
0 0 42
0 0 42
0 0 42
0 0 42
0 0 42
0 0 42
0 0 42
0 0 42
0 0 42
0 0 42
0 0 42
0 0 42
0 0 42
0 0 42
0 0 42
0 0 42
0 0 42
0 0 42
0 0 42
0 0 44
85 91 107
221 235 255
221 235 255
221 235 255
221 235 255
221 235 255
221 235 255
221 235 255
221 235 255
221 235 255
221 235 255
221 235 255
221 235 255
221 235 255
221 235 255
221 235 255
221 235 255
221 235 255
221 235 255
221 235 255
221 235 255
221 235 255
221 235 255
221 235 255
221 235 255
221 235 255
221 235 255
221 235 255
221 235 255
221 235 255
221 235 255
221 235 255
221 235 255
221 235 255
221 235 255
221 235 255
221 235 255
221 235 255
221 235 255
221 235 255
221 235 255
221 235 255
221 235 255
221 235 255
221 235 255
221 235 255
221 235 255
221 235 255
221 235 255
221 235 255
221 235 255
221 235 255
221 235 255
221 235 255
221 235 255
221 235 255
221 235 255
221 235 255
221 235 255
221 235 255
221 235 255
221 235 255
221 235 255
221 235 255
221 235 255
221 235 255
221 235 255
221 235 255
221 235 255
221 235 255
221 235 255
221 235 255
221 235 255
221 235 255
221 235 255
221 235 255
221 235 255
221 235 255
221 235 255
221 235 255
221 235 255
221 235 255
221 235 255
221 235 255
221 235 255
221 235 255
221 235 255
221 235 255
221 235 255
221 235 255
221 235 255
221 235 255
221 235 255
221 236 255
221 236 255
221 236 255
221 236 255
221 236 255
221 236 255
221 236 255
221 236 255
221 236 255
221 236 255
221 236 255
221 236 255
221 236 255
221 236 255
221 236 255
221 236 255
221 236 255
221 236 255
221 236 255
221 236 255
221 236 255
221 236 255
221 236 255
221 236 255
221 236 255
221 236 255
221 236 255
221 236 255
221 236 255
221 236 255
221 236 255
221 236 255
221 236 255
221 236 255
221 236 255
221 236 255
221 236 255
221 236 255
221 236 255
221 236 255
221 236 255
221 236 255
221 236 255
221 236 255
221 236 255
221 236 255
221 236 255
221 236 255
221 236 255
221 236 255
221 236 255
221 236 255
221 236 255
221 236 255
221 236 255
221 236 255
221 236 255
221 236 255
221 236 255
221 236 255
221 236 255
221 236 255
221 236 255
221 236 255
221 236 255
221 236 255
221 236 255
221 236 255
221 236 255
221 236 255
221 236 255
221 236 255
221 236 255
221 236 255
221 236 255
221 236 255
221 236 255
221 236 255
221 236 255
221 236 255
221 236 255
221 236 255
221 236 255
221 236 255
221 236 255
221 236 255
221 236 255
221 236 255
221 236 255
221 236 255
221 236 255
221 236 255
96 102 118
0 0 45
0 0 45
0 0 45
0 0 45
0 0 45
0 0 45
0 0 45
0 0 45
0 0 45
0 0 45
0 0 45
0 0 45
0 0 45
0 0 45
0 0 45
0 0 45
0 0 45
0 0 45
0 0 46
0 0 46
0 0 46
0 0 46
0 0 45
0 0 46
0 0 48
0 0 46
0 0 45
0 0 45
0 0 45
0 0 45
0 0 45
0 0 45
0 0 45
0 0 45
0 0 45
0 0 45
0 0 45
0 0 45
0 0 46
0 0 48
0 0 48
0 0 48
0 0 48
0 0 47
0 0 46
0 0 46
0 0 45
0 0 45
0 0 45
0 0 45
0 0 45
0 0 46
0 0 46
0 0 46
0 0 46
0 0 46
0 0 47
0 0 48
0 0 48
0 0 48
0 0 48
0 0 48
0 0 48
0 0 48
0 0 48
0 0 48
0 0 48
0 0 48
0 0 48
0 0 48
0 0 48
0 0 48
0 0 48
0 0 48
0 0 48
0 0 48
0 0 48
0 0 48
0 0 48
0 0 48
0 0 48
0 0 48
0 0 47
0 0 46
0 0 46
0 0 46
0 0 46
0 0 46
0 0 47
0 0 48
0 0 48
0 0 48
0 0 48
0 0 48
0 0 48
0 0 48
0 0 49
0 0 49
0 0 49
0 0 51
0 0 53
0 0 54
0 0 55
4 5 51
10 14 48
0 6 55
0 0 53
0 0 51
0 0 51
0 0 51
0 0 51
0 0 50
0 0 52
0 0 52
0 0 53
0 0 54
0 0 56
0 0 57
0 0 58
0 0 58
0 0 58
0 0 58
0 0 58
0 0 62
0 0 66
0 0 72
0 16 84
0 16 81
37 50 63
88 112 80
103 138 95
41 62 17
57 64 24
73 80 35
60 77 24
41 59 6
45 64 7
30 51 0
35 53 0
35 55 0
34 54 0
30 51 0
26 46 0
27 48 0
30 48 0
27 45 0
26 47 0
25 44 0
25 45 0
23 45 0
18 40 0
14 38 0
16 39 0
22 46 0
23 47 0
20 44 0
22 46 0
17 40 0
15 38 0
18 40 0
19 41 0
19 42 0
22 38 0
26 41 0
25 44 0
26 45 0
25 46 0
26 46 0
25 46 0
26 47 0
26 45 0
23 42 0
25 43 0
24 44 0
26 45 0
22 41 0
24 45 0
23 45 0
28 51 0
27 49 0
26 45 0
28 45 0
29 52 0
36 62 21
21 67 48
28 80 53
19 98 112
20 132 137
14 125 150
0 31 89
0 0 61
0 0 46
0 0 42
0 0 44
0 0 40
0 0 44
0 0 42
0 0 42
0 0 41
0 0 42
0 0 42
0 0 42
0 0 42
0 0 42
0 0 42
0 0 42
0 0 42
0 0 42
0 0 42
0 0 42
0 0 42
0 0 42
0 0 42
0 0 43
99 105 121
221 236 255
221 236 255
221 236 255
221 236 255
221 236 255
221 236 255
221 236 255
221 236 255
221 236 255
221 236 255
221 236 255
221 236 255
221 236 255
221 236 255
221 236 255
221 236 255
221 236 255
221 236 255
221 236 255
221 236 255
221 236 255
221 236 255
221 236 255
221 236 255
221 236 255
221 236 255
221 236 255
221 236 255
221 236 255
221 236 255
221 236 255
221 236 255
221 236 255
221 236 255
221 236 255
221 236 255
221 236 255
221 236 255
221 236 255
221 236 255
221 236 255
221 236 255
221 236 255
221 236 255
221 236 255
221 236 255
221 236 255
221 236 255
221 236 255
221 236 255
221 236 255
221 236 255
221 236 255
221 236 255
221 236 255
221 236 255
221 236 255
221 236 255
221 236 255
221 236 255
221 236 255
221 236 255
221 236 255
221 236 255
221 236 255
221 236 255
221 236 255
221 236 255
221 236 255
221 236 255
221 236 255
221 236 255
221 236 255
221 236 255
221 236 255
221 236 255
221 236 255
221 236 255
221 236 255
221 236 255
221 236 255
221 236 255
221 236 255
221 236 255
221 236 255
221 236 255
221 236 255
221 236 255
221 236 255
221 236 255
221 236 255
221 236 255
221 236 255
221 236 255
221 236 255
221 236 255
221 236 255
221 236 255
221 236 255
221 236 255
221 236 255
221 236 255
221 236 255
221 236 255
221 236 255
221 236 255
221 236 255
221 236 255
221 236 255
221 236 255
221 236 255
221 236 255
221 236 255
221 236 255
221 236 255
221 236 255
221 236 255
221 236 255
221 236 255
221 236 255
221 236 255
221 236 255
221 236 255
221 236 255
221 236 255
221 236 255
221 236 255
221 236 255
221 236 255
221 236 255
221 236 255
221 236 255
221 236 255
221 236 255
221 236 255
221 236 255
221 236 255
221 236 255
221 236 255
221 236 255
221 236 255
221 236 255
221 236 255
221 236 255
221 236 255
221 236 255
221 236 255
221 236 255
221 236 255
221 236 255
221 236 255
221 236 255
221 236 255
221 236 255
221 236 255
221 236 255
221 236 255
221 236 255
221 236 255
221 236 255
221 236 255
221 236 255
221 236 255
221 236 255
221 236 255
221 236 255
221 236 255
221 236 255
221 236 255
221 236 255
221 236 255
221 236 255
221 236 255
221 236 255
221 236 255
221 236 255
221 236 255
221 236 255
221 236 255
221 236 255
221 236 255
221 236 255
221 236 255
221 236 255
82 88 104
0 0 45
0 0 45
0 0 45
0 0 45
0 0 45
0 0 45
0 0 45
0 0 45
0 0 45
0 0 45
0 0 45
0 0 45
0 0 45
0 0 45
0 0 45
0 0 45
0 0 45
0 0 45
0 0 45
0 0 46
0 0 45
0 0 45
0 0 45
0 0 46
0 0 48
0 0 47
0 0 45
0 0 45
0 0 45
0 0 45
0 0 45
0 0 45
0 0 45
0 0 45
0 0 45
0 0 45
0 0 45
0 0 45
0 0 45
0 0 46
0 0 46
0 0 46
0 0 46
0 0 47
0 0 48
0 0 47
0 0 45
0 0 45
0 0 45
0 0 45
0 0 45
0 0 45
0 0 45
0 0 45
0 0 45
0 0 45
0 0 47
0 0 48
0 0 48
0 0 48
0 0 48
0 0 48
0 0 48
0 0 48
0 0 48
0 0 48
0 0 48
0 0 48
0 0 48
0 0 48
0 0 48
0 0 48
0 0 48
0 0 48
0 0 48
0 0 48
0 0 48
0 0 48
0 0 48
0 0 48
0 0 48
0 0 48
0 0 48
0 0 48
0 0 48
0 0 48
0 0 48
0 0 48
0 0 48
0 0 48
0 0 48
0 0 48
0 0 48
0 0 48
0 0 48
0 0 48
0 0 50
0 0 50
0 0 50
0 0 50
0 0 53
0 0 51
0 0 56
5 8 47
17 26 36
11 15 51
5 16 47
0 0 52
0 0 54
0 0 52
0 0 51
0 0 52
0 0 53
0 0 53
0 0 53
0 0 53
0 0 53
0 0 57
0 0 57
0 0 58
0 0 57
0 0 58
0 0 59
0 0 64
0 0 69
0 0 70
0 19 80
7 18 86
62 86 54
92 115 102
96 133 120
42 56 26
64 67 29
64 78 33
47 67 17
37 57 0
38 57 0
36 58 0
35 54 0
33 53 0
32 53 0
34 54 0
35 54 0
31 51 0
28 46 0
25 45 0
24 43 0
24 43 0
23 42 0
20 43 0
22 44 0
21 46 0
19 44 0
21 45 0
24 47 0
23 46 0
21 44 0
21 43 0
18 40 0
19 41 0
22 42 0
23 41 0
22 40 0
24 42 0
26 46 0
30 50 0
27 48 0
26 46 0
27 48 0
27 49 0
24 44 0
23 41 0
24 42 0
24 44 0
22 43 0
22 41 0
25 43 0
26 45 0
31 51 0
32 51 0
27 46 0
34 51 0
35 58 0
32 63 17
28 58 22
27 58 26
47 65 26
43 108 101
30 150 130
4 70 110
3 27 86
0 6 52
0 0 50
0 0 42
0 0 42
0 0 43
0 0 43
0 0 40
0 0 39
0 0 42
0 0 42
0 0 42
0 0 42
0 0 42
0 0 42
0 0 42
0 0 42
0 0 42
0 0 42
0 0 42
0 0 42
0 0 42
0 0 42
0 0 42
88 94 109
221 236 255
221 236 255
221 236 255
221 236 255
221 236 255
221 236 255
221 236 255
221 236 255
221 236 255
221 236 255
221 236 255
221 236 255
221 236 255
221 236 255
221 236 255
221 236 255
221 236 255
221 236 255
221 236 255
221 236 255
221 236 255
221 236 255
221 236 255
221 236 255
221 236 255
221 236 255
221 236 255
221 236 255
221 236 255
221 236 255
221 236 255
221 236 255
221 236 255
221 236 255
221 236 255
221 236 255
221 236 255
221 236 255
221 236 255
221 236 255
221 236 255
221 236 255
221 236 255
221 236 255
221 236 255
221 236 255
221 236 255
221 236 255
221 236 255
221 236 255
221 236 255
221 236 255
221 236 255
221 236 255
221 236 255
221 236 255
221 236 255
221 236 255
221 236 255
221 236 255
221 236 255
221 236 255
221 236 255
221 236 255
221 236 255
221 236 255
221 236 255
221 236 255
221 236 255
221 236 255
221 236 255
221 236 255
221 236 255
221 236 255
221 236 255
221 236 255
221 236 255
221 236 255
221 236 255
221 236 255
221 236 255
221 236 255
221 236 255
221 236 255
221 236 255
221 236 255
221 236 255
221 236 255
221 236 255
221 236 255
221 236 255
221 236 255
221 236 255
221 236 255
221 236 255
221 236 255
221 236 255
221 236 255
221 236 255
221 236 255
221 236 255
221 236 255
221 236 255
221 236 255
221 236 255
221 236 255
221 236 255
221 236 255
221 236 255
221 236 255
221 236 255
221 236 255
221 236 255
221 236 255
221 236 255
221 236 255
221 236 255
221 236 255
221 236 255
221 236 255
221 236 255
221 236 255
221 236 255
221 236 255
221 236 255
221 236 255
221 236 255
221 236 255
221 236 255
221 236 255
221 236 255
221 236 255
221 236 255
221 236 255
221 236 255
221 236 255
221 236 255
221 236 255
221 236 255
221 236 255
221 236 255
221 236 255
221 236 255
221 236 255
221 236 255
221 236 255
221 236 255
221 236 255
221 236 255
221 236 255
221 236 255
221 236 255
221 236 255
221 236 255
221 236 255
221 236 255
221 236 255
221 236 255
221 236 255
221 236 255
221 236 255
221 236 255
221 236 255
221 236 255
221 236 255
221 236 255
221 236 255
221 236 255
221 236 255
221 236 255
221 236 255
221 236 255
221 236 255
221 236 255
221 236 255
221 236 255
221 236 255
221 236 255
221 236 255
221 236 255
221 236 255
221 236 255
221 236 255
221 236 255
104 110 126
0 0 44
0 0 45
0 0 45
0 0 45
0 0 45
0 0 44
0 0 44
0 0 43
0 0 44
0 0 45
0 0 45
0 0 45
0 0 45
0 0 45
0 0 45
0 0 45
0 0 45
0 0 45
0 0 45
0 0 45
0 0 45
0 0 45
0 0 45
0 0 45
0 0 45
0 0 45
0 0 45
0 0 45
0 0 45
0 0 45
0 0 45
0 0 45
0 0 45
0 0 45
0 0 45
0 0 45
0 0 45
0 0 45
0 0 45
0 0 45
0 0 45
0 0 45
0 0 45
0 0 47
0 0 47
0 0 45
0 0 45
0 0 45
0 0 45
0 0 45
0 0 45
0 0 45
0 0 45
0 0 45
0 0 45
0 0 45
0 0 47
0 0 48
0 0 48
0 0 48
0 0 48
0 0 48
0 0 48
0 0 48
0 0 48
0 0 48
0 0 48
0 0 48
0 0 48
0 0 48
0 0 48
0 0 48
0 0 48
0 0 48
0 0 48
0 0 48
0 0 48
0 0 48
0 0 48
0 0 48
0 0 48
0 0 48
0 0 48
0 0 48
0 0 48
0 0 48
0 0 48
0 0 48
0 0 48
0 0 48
0 0 48
0 0 48
0 0 48
0 0 48
0 0 48
0 0 48
0 0 48
0 0 50
0 0 50
0 0 50
0 0 53
0 0 54
0 0 55
6 10 51
20 30 35
8 13 48
0 12 42
0 0 53
0 0 56
0 0 52
0 0 51
0 0 53
0 0 51
0 0 49
0 0 50
0 0 52
0 0 53
0 0 55
0 0 56
0 0 57
0 0 57
0 0 57
0 0 59
0 0 63
0 0 67
0 2 68
0 18 73
36 50 78
60 74 28
88 100 93
113 138 124
56 68 23
74 77 39
54 64 20
32 53 3
31 51 0
34 53 0
37 57 0
32 53 0
31 51 0
34 55 0
37 57 0
36 55 0
31 50 0
28 48 0
27 46 0
25 45 0
27 48 0
24 44 0
20 43 0
23 46 0
25 47 0
23 46 0
20 44 0
15 39 0
14 38 0
16 40 0
19 43 0
19 41 0
20 44 0
22 44 0
24 44 0
27 46 0
25 44 0
23 41 0
23 43 0
27 48 0
26 48 0
24 45 0
22 42 0
23 44 0
21 42 0
25 43 0
24 45 0
20 40 0
27 46 0
24 45 0
27 48 0
27 48 0
30 51 0
27 50 0
30 51 0
36 56 0
32 55 0
27 53 0
22 54 0
47 62 3
29 98 81
36 61 8
34 73 31
25 82 90
10 53 95
0 21 59
0 0 35
0 0 49
0 0 39
0 0 41
0 0 42
0 0 41
0 0 42
0 0 42
0 0 42
0 0 42
0 0 42
0 0 42
0 0 42
0 0 42
0 0 42
0 0 42
0 0 42
0 0 42
0 0 42
0 0 42
0 0 42
99 105 120
221 236 255
221 236 255
221 236 255
221 236 255
221 236 255
221 236 255
221 236 255
221 236 255
221 236 255
221 236 255
221 236 255
221 236 255
221 236 255
221 236 255
221 236 255
221 236 255
221 236 255
221 236 255
221 236 255
221 236 255
221 236 255
221 236 255
221 236 255
221 236 255
221 236 255
221 236 255
221 236 255
221 236 255
221 236 255
221 236 255
221 236 255
221 236 255
221 236 255
221 236 255
221 236 255
221 236 255
221 236 255
221 236 255
221 236 255
221 236 255
221 236 255
221 236 255
221 236 255
221 236 255
221 236 255
221 236 255
221 236 255
221 236 255
221 236 255
221 236 255
221 236 255
221 236 255
221 236 255
221 236 255
221 236 255
221 236 255
221 236 255
221 236 255
221 236 255
221 236 255
221 236 255
221 236 255
221 236 255
221 236 255
221 236 255
221 236 255
221 236 255
221 236 255
221 236 255
221 236 255
221 236 255
221 236 255
221 236 255
221 236 255
221 236 255
221 236 255
221 236 255
221 236 255
221 236 255
221 236 255
221 236 255
221 236 255
221 236 255
221 236 255
221 236 255
221 236 255
221 236 255
221 236 255
221 236 255
221 236 255
221 236 255
221 236 255
221 236 255
221 236 255
221 236 255
221 236 255
221 236 255
221 236 255
221 236 255
221 236 255
221 236 255
221 236 255
221 236 255
221 236 255
221 236 255
221 236 255
221 236 255
221 236 255
221 236 255
221 236 255
221 236 255
221 236 255
221 236 255
221 236 255
221 236 255
221 236 255
221 236 255
221 236 255
221 236 255
221 236 255
221 236 255
221 236 255
221 236 255
221 236 255
221 236 255
221 236 255
221 236 255
221 236 255
221 236 255
221 236 255
221 236 255
221 236 255
221 236 255
221 236 255
221 236 255
221 236 255
221 236 255
221 236 255
221 236 255
221 236 255
221 236 255
221 236 255
221 236 255
221 236 255
221 236 255
221 236 255
221 236 255
221 236 255
221 236 255
221 236 255
221 236 255
221 236 255
221 236 255
221 236 255
221 236 255
221 236 255
221 236 255
221 236 255
221 236 255
221 236 255
221 236 255
221 236 255
221 236 255
221 236 255
221 236 255
221 236 255
221 236 255
221 236 255
221 236 255
221 236 255
221 236 255
221 236 255
221 236 255
221 236 255
221 236 255
221 236 255
221 236 255
221 236 255
221 236 255
221 236 255
221 236 255
221 236 255
221 236 255
221 236 255
91 97 113
0 0 42
0 0 44
0 0 45
0 0 44
0 0 43
0 0 42
0 0 42
0 0 42
0 0 42
0 0 44
0 0 45
0 0 45
0 0 43
0 0 43
0 0 43
0 0 43
0 0 43
0 0 43
0 0 44
0 0 45
0 0 45
0 0 45
0 0 45
0 0 45
0 0 45
0 0 44
0 0 43
0 0 43
0 0 43
0 0 44
0 0 45
0 0 45
0 0 45
0 0 45
0 0 45
0 0 45
0 0 45
0 0 45
0 0 45
0 0 45
0 0 45
0 0 45
0 0 45
0 0 45
0 0 45
0 0 45
0 0 45
0 0 45
0 0 45
0 0 45
0 0 45
0 0 45
0 0 45
0 0 45
0 0 45
0 0 45
0 0 45
0 0 46
0 0 47
0 0 46
0 0 47
0 0 47
0 0 46
0 0 46
0 0 47
0 0 46
0 0 47
0 0 46
0 0 46
0 0 46
0 0 47
0 0 48
0 0 48
0 0 48
0 0 48
0 0 48
0 0 47
0 0 47
0 0 47
0 0 47
0 0 47
0 0 48
0 0 48
0 0 48
0 0 48
0 0 48
0 0 48
0 0 48
0 0 48
0 0 48
0 0 48
0 0 48
0 0 48
0 0 48
0 0 47
0 0 47
0 0 47
0 0 48
0 0 50
0 0 50
0 0 50
0 0 47
0 0 54
0 4 57
0 9 50
0 0 52
0 0 51
0 0 48
0 0 50
0 0 47
0 0 49
0 0 51
0 0 51
0 0 48
0 0 48
0 0 49
0 0 52
0 0 53
0 0 54
0 0 56
0 0 57
0 0 57
0 0 59
0 0 63
0 0 67
0 8 74
0 27 94
55 72 66
58 70 25
118 131 116
120 139 119
60 70 32
72 76 38
49 60 16
34 53 0
34 53 0
33 52 0
32 52 0
32 53 0
30 51 0
32 53 0
32 52 0
27 48 0
26 46 0
32 52 0
32 52 0
26 46 0
29 49 0
27 48 0
25 48 0
25 48 0
23 44 0
23 46 0
24 46 0
18 40 0
14 35 0
15 39 0
18 41 0
18 40 0
21 43 0
20 41 0
21 41 0
23 44 0
25 46 0
21 42 0
18 37 0
25 43 0
28 50 0
22 43 0
14 32 0
21 42 0
21 42 0
25 45 0
26 46 0
23 42 0
26 47 0
27 52 0
29 52 0
27 51 0
34 58 0
30 51 0
35 53 0
37 56 0
30 52 0
26 49 0
23 57 5
38 71 36
35 87 53
43 66 0
41 64 0
38 64 13
29 77 65
15 53 76
0 6 51
0 0 45
0 0 44
0 0 40
0 0 42
0 0 40
0 0 42
0 0 42
0 0 42
0 0 42
0 0 42
0 0 42
0 0 42
0 0 42
0 0 42
0 0 42
0 0 42
0 0 42
0 0 42
0 0 42
0 0 42
79 85 100
221 236 255
221 236 255
221 236 255
221 236 255
221 236 255
221 236 255
221 236 255
221 236 255
221 236 255
221 236 255
221 236 255
221 236 255
221 236 255
221 236 255
221 236 255
221 236 255
221 236 255
221 236 255
221 236 255
221 236 255
221 236 255
221 236 255
221 236 255
221 236 255
221 236 255
221 236 255
221 236 255
221 236 255
221 236 255
221 236 255
221 236 255
221 236 255
221 236 255
221 236 255
221 236 255
221 236 255
221 236 255
221 236 255
221 236 255
221 236 255
221 236 255
221 236 255
221 236 255
221 236 255
221 236 255
221 236 255
221 236 255
221 236 255
221 236 255
221 236 255
221 236 255
221 236 255
221 236 255
221 236 255
221 236 255
221 236 255
221 236 255
221 236 255
221 236 255
221 236 255
221 236 255
221 236 255
221 236 255
221 236 255
221 236 255
221 236 255
221 236 255
221 236 255
221 236 255
221 236 255
221 236 255
221 236 255
221 236 255
221 236 255
221 236 255
221 236 255
221 236 255
221 236 255
221 236 255
221 236 255
221 236 255
221 236 255
221 236 255
221 236 255
221 236 255
221 236 255
221 236 255
221 236 255
221 236 255
221 236 255
221 236 255
221 236 255
221 236 255
221 236 255
221 236 255
221 236 255
221 236 255
221 236 255
221 236 255
221 236 255
221 236 255
221 236 255
221 236 255
221 236 255
221 236 255
221 236 255
221 236 255
221 236 255
221 236 255
221 236 255
221 236 255
221 236 255
221 236 255
221 236 255
221 236 255
221 236 255
221 236 255
221 236 255
221 236 255
221 236 255
221 236 255
221 236 255
221 236 255
221 236 255
221 236 255
221 236 255
221 236 255
221 236 255
221 236 255
221 236 255
221 236 255
221 236 255
221 236 255
221 236 255
221 236 255
221 236 255
221 236 255
221 236 255
221 236 255
221 236 255
221 236 255
221 236 255
221 236 255
221 236 255
221 236 255
221 236 255
221 236 255
221 236 255
221 236 255
221 236 255
221 236 255
221 236 255
221 236 255
221 236 255
221 236 255
221 236 255
221 236 255
221 236 255
221 236 255
221 236 255
221 236 255
221 236 255
221 236 255
221 236 255
221 236 255
221 236 255
221 236 255
221 236 255
221 236 255
221 236 255
221 236 255
221 236 255
221 236 255
221 236 255
221 236 255
221 236 255
221 236 255
221 236 255
221 236 255
221 236 255
221 236 255
221 236 255
221 236 255
221 236 255
115 122 138
0 0 42
0 0 45
0 0 42
0 0 42
0 0 42
0 0 42
0 0 42
0 0 42
0 0 42
0 0 42
0 0 42
0 0 42
0 0 42
0 0 42
0 0 42
0 0 42
0 0 42
0 0 42
0 0 42
0 0 43
0 0 42
0 0 43
0 0 43
0 0 43
0 0 43
0 0 42
0 0 42
0 0 42
0 0 42
0 0 43
0 0 45
0 0 45
0 0 45
0 0 45
0 0 45
0 0 45
0 0 45
0 0 45
0 0 45
0 0 45
0 0 45
0 0 45
0 0 45
0 0 45
0 0 45
0 0 45
0 0 45
0 0 45
0 0 45
0 0 45
0 0 45
0 0 45
0 0 45
0 0 45
0 0 45
0 0 45
0 0 45
0 0 45
0 0 45
0 0 45
0 0 45
0 0 45
0 0 45
0 0 45
0 0 45
0 0 45
0 0 45
0 0 45
0 0 45
0 0 45
0 0 46
0 0 46
0 0 46
0 0 46
0 0 46
0 0 46
0 0 45
0 0 45
0 0 45
0 0 45
0 0 45
0 0 46
0 0 47
0 0 48
0 0 48
0 0 48
0 0 48
0 0 48
0 0 46
0 0 46
0 0 46
0 0 46
0 0 46
0 0 46
0 0 45
0 0 45
0 0 45
0 0 48
0 0 48
0 0 50
0 0 50
0 0 46
0 0 48
0 0 49
0 0 47
0 0 47
0 0 57
0 0 48
0 0 46
0 0 45
0 0 47
0 0 46
0 0 48
0 0 48
0 0 48
0 0 49
0 0 52
0 0 53
0 0 53
0 0 55
0 0 57
0 0 59
0 0 61
0 0 65
0 3 71
0 14 75
0 29 95
59 80 79
53 73 19
117 136 125
144 160 160
54 64 28
68 74 35
39 52 9
28 48 0
31 51 0
29 48 0
30 49 0
32 54 0
30 52 0
29 50 0
27 48 0
26 46 0
27 46 0
33 53 0
32 53 0
24 44 0
24 45 0
27 48 0
30 52 0
29 52 0
22 45 0
21 45 0
24 47 0
21 44 0
14 37 0
17 41 0
20 43 0
23 44 0
21 43 0
19 40 0
19 40 0
19 41 0
21 42 0
23 45 0
21 43 0
20 41 0
24 47 0
25 46 0
15 35 0
21 42 0
20 43 0
25 45 0
27 47 0
26 46 0
30 46 0
41 55 0
38 53 0
43 57 0
44 60 0
40 56 0
40 56 0
33 54 0
23 47 0
26 54 15
22 63 21
24 80 42
37 62 12
36 63 0
40 66 0
38 67 0
34 62 9
30 69 60
9 28 73
4 12 53
0 0 42
0 0 43
0 0 44
0 0 42
0 0 42
0 0 42
0 0 42
0 0 42
0 0 42
0 0 42
0 0 42
0 0 42
0 0 42
0 0 42
0 0 42
0 0 42
0 0 42
0 0 42
0 0 42
121 129 144
221 236 255
221 236 255
221 236 255
221 236 255
221 236 255
221 236 255
221 236 255
221 236 255
221 236 255
221 236 255
221 236 255
221 236 255
221 236 255
221 236 255
221 236 255
221 236 255
221 236 255
221 236 255
221 236 255
221 236 255
221 236 255
221 236 255
221 236 255
221 236 255
221 236 255
221 236 255
221 236 255
221 236 255
221 236 255
221 236 255
221 236 255
221 236 255
221 236 255
221 236 255
221 236 255
221 236 255
221 236 255
221 236 255
221 236 255
221 236 255
221 236 255
221 236 255
221 236 255
221 236 255
221 236 255
221 236 255
221 236 255
221 236 255
221 236 255
221 236 255
221 236 255
221 236 255
221 236 255
221 236 255
221 236 255
221 236 255
221 236 255
221 236 255
221 236 255
221 236 255
221 236 255
221 236 255
221 236 255
221 236 255
221 236 255
221 236 255
221 236 255
221 236 255
221 236 255
221 236 255
221 236 255
221 236 255
221 236 255
221 236 255
221 236 255
221 236 255
221 236 255
221 236 255
221 236 255
221 236 255
221 236 255
221 236 255
221 236 255
221 236 255
221 236 255
221 236 255
221 236 255
221 236 255
221 236 255
221 236 255
221 236 255
221 236 255
221 236 255
221 236 255
221 236 255
221 236 255
221 236 255
221 236 255
221 236 255
221 236 255
221 236 255
221 236 255
221 236 255
221 236 255
221 236 255
221 236 255
221 236 255
221 236 255
221 236 255
221 236 255
221 236 255
221 236 255
221 236 255
221 236 255
221 236 255
221 236 255
221 236 255
221 236 255
221 236 255
221 236 255
221 236 255
221 236 255
221 236 255
221 236 255
221 236 255
221 236 255
221 236 255
221 236 255
221 236 255
221 236 255
221 236 255
221 236 255
221 236 255
221 236 255
221 236 255
221 236 255
221 236 255
221 236 255
221 236 255
221 236 255
221 236 255
221 236 255
221 236 255
221 236 255
221 236 255
221 236 255
221 236 255
221 236 255
221 236 255
221 236 255
221 236 255
221 236 255
221 236 255
221 236 255
221 236 255
221 236 255
221 236 255
221 236 255
221 236 255
221 236 255
221 236 255
221 236 255
221 236 255
221 236 255
221 236 255
221 236 255
221 236 255
221 236 255
221 236 255
221 236 255
221 236 255
221 236 255
221 236 255
221 236 255
221 236 255
221 236 255
221 236 255
221 236 255
221 236 255
221 236 255
221 236 255
221 236 255
221 236 255
221 236 255
127 135 151
0 0 42
0 0 44
0 0 40
0 0 41
0 0 42
0 0 42
0 0 42
0 0 42
0 0 42
0 0 42
0 0 42
0 0 42
0 0 42
0 0 42
0 0 42
0 0 41
0 0 41
0 0 41
0 0 42
0 0 42
0 0 42
0 0 42
0 0 42
0 0 42
0 0 42
0 0 42
0 0 42
0 0 42
0 0 42
0 0 42
0 0 42
0 0 42
0 0 42
0 0 42
0 0 42
0 0 42
0 0 42
0 0 42
0 0 43
0 0 44
0 0 44
0 0 44
0 0 44
0 0 44
0 0 45
0 0 45
0 0 45
0 0 45
0 0 45
0 0 45
0 0 45
0 0 45
0 0 45
0 0 45
0 0 45
0 0 45
0 0 45
0 0 45
0 0 45
0 0 45
0 0 45
0 0 45
0 0 45
0 0 45
0 0 45
0 0 45
0 0 45
0 0 45
0 0 45
0 0 45
0 0 45
0 0 45
0 0 45
0 0 45
0 0 45
0 0 45
0 0 45
0 0 45
0 0 45
0 0 45
0 0 45
0 0 45
0 0 45
0 0 46
0 0 45
0 0 45
0 0 45
0 0 45
0 0 45
0 0 45
0 0 45
0 0 45
0 0 45
0 0 45
0 0 45
0 0 45
0 0 47
0 0 48
0 0 48
0 0 48
0 0 48
0 0 44
0 0 44
0 0 52
0 0 47
0 0 38
0 0 43
0 0 48
0 0 47
0 0 45
0 0 45
0 0 44
0 0 44
0 0 47
0 0 48
0 0 50
0 0 52
0 0 53
0 0 53
0 0 57
0 0 61
0 0 62
0 0 64
0 10 70
0 19 79
0 24 87
9 41 110
73 93 98
55 77 29
125 147 126
173 182 184
60 65 37
60 68 25
42 57 9
28 51 0
29 51 0
27 48 0
30 52 0
29 52 0
31 53 0
30 51 0
30 51 0
30 50 0
29 49 0
33 54 0
30 50 0
24 43 0
24 44 0
24 48 0
27 50 0
30 51 0
23 45 0
19 42 0
21 45 0
19 42 0
17 41 0
21 44 0
24 48 0
25 50 0
27 50 0
21 43 0
22 44 0
20 42 0
19 40 0
20 43 0
21 44 0
24 44 0
19 41 0
25 48 0
22 46 0
22 44 0
22 42 0
25 45 0
31 49 0
34 50 0
35 50 0
38 53 0
35 50 0
44 60 0
34 52 0
32 53 0
32 54 0
27 50 0
30 52 0
29 49 0
32 53 0
39 52 0
33 62 0
40 63 0
35 62 0
39 61 4
42 64 5
33 65 31
19 66 84
40 57 68
16 22 53
0 1 46
0 0 51
0 0 42
0 0 42
0 0 42
0 0 42
0 0 42
0 0 42
0 0 42
0 0 42
0 0 42
0 0 42
0 0 42
0 0 42
0 0 42
0 0 42
0 0 42
0 0 42
99 105 120
221 236 255
221 236 255
221 236 255
221 236 255
221 236 255
221 236 255
221 236 255
221 236 255
221 236 255
221 236 255
221 236 255
221 236 255
221 236 255
221 236 255
221 236 255
221 236 255
221 236 255
221 236 255
221 236 255
221 236 255
221 236 255
221 236 255
221 236 255
221 236 255
221 236 255
221 236 255
221 236 255
221 236 255
221 236 255
221 236 255
221 236 255
221 236 255
221 236 255
221 236 255
221 236 255
221 236 255
221 236 255
221 236 255
221 236 255
221 236 255
221 236 255
221 236 255
221 236 255
221 236 255
221 236 255
221 236 255
221 236 255
221 236 255
221 236 255
221 236 255
221 236 255
221 236 255
221 236 255
221 236 255
221 236 255
221 236 255
221 236 255
221 236 255
221 236 255
221 236 255
221 236 255
221 236 255
221 236 255
221 236 255
221 236 255
221 236 255
221 236 255
221 236 255
221 236 255
221 236 255
221 236 255
221 236 255
221 236 255
221 236 255
221 236 255
221 236 255
221 236 255
221 236 255
221 236 255
221 236 255
221 236 255
221 236 255
221 236 255
221 236 255
221 236 255
221 236 255
221 236 255
221 236 255
221 236 255
221 236 255
221 236 255
221 236 255
222 236 255
222 236 255
222 236 255
222 236 255
222 236 255
222 236 255
222 236 255
222 236 255
222 236 255
222 236 255
222 236 255
222 236 255
222 236 255
222 236 255
222 236 255
222 236 255
222 236 255
222 236 255
222 236 255
222 236 255
222 236 255
222 236 255
222 236 255
222 236 255
222 236 255
222 236 255
222 236 255
222 236 255
222 236 255
222 236 255
222 236 255
222 236 255
222 236 255
222 236 255
222 236 255
222 236 255
222 236 255
222 236 255
222 236 255
222 236 255
222 236 255
222 236 255
222 236 255
222 236 255
222 236 255
222 236 255
222 236 255
222 236 255
222 236 255
222 236 255
222 236 255
222 236 255
222 236 255
222 236 255
222 236 255
222 236 255
222 236 255
222 236 255
222 236 255
222 236 255
222 236 255
222 236 255
222 236 255
222 236 255
222 236 255
222 236 255
222 236 255
222 236 255
222 236 255
222 236 255
222 236 255
222 236 255
222 236 255
222 236 255
222 236 255
222 236 255
222 236 255
222 236 255
222 236 255
222 236 255
222 236 255
222 236 255
222 236 255
222 236 255
222 236 255
222 236 255
222 236 255
222 236 255
222 236 255
222 236 255
222 236 255
222 236 255
133 141 157
0 0 42
0 0 42
0 0 42
0 0 42
0 0 42
0 0 42
0 0 42
0 0 42
0 0 42
0 0 42
0 0 42
0 0 42
0 0 42
0 0 42
0 0 42
0 0 41
0 0 41
0 0 41
0 0 42
0 0 42
0 0 42
0 0 42
0 0 42
0 0 42
0 0 42
0 0 42
0 0 42
0 0 42
0 0 42
0 0 42
0 0 42
0 0 42
0 0 42
0 0 42
0 0 42
0 0 42
0 0 42
0 0 42
0 0 42
0 0 42
0 0 42
0 0 42
0 0 42
0 0 42
0 0 44
0 0 44
0 0 44
0 0 44
0 0 44
0 0 44
0 0 44
0 0 44
0 0 44
0 0 44
0 0 44
0 0 44
0 0 44
0 0 44
0 0 44
0 0 44
0 0 44
0 0 44
0 0 45
0 0 45
0 0 45
0 0 45
0 0 45
0 0 45
0 0 45
0 0 45
0 0 45
0 0 45
0 0 45
0 0 45
0 0 45
0 0 45
0 0 45
0 0 45
0 0 45
0 0 45
0 0 45
0 0 45
0 0 45
0 0 45
0 0 45
0 0 45
0 0 45
0 0 45
0 0 45
0 0 45
0 0 45
0 0 45
0 0 45
0 0 45
0 0 45
0 0 45
0 0 47
0 0 48
0 0 48
0 0 48
0 0 49
0 0 48
0 0 42
0 0 48
0 0 47
0 0 47
0 0 52
0 0 46
0 0 46
0 0 44
0 0 44
0 0 45
0 0 45
0 0 48
0 0 50
0 0 51
0 0 53
0 0 53
0 0 56
0 0 61
0 0 64
0 3 65
0 10 69
0 15 76
0 25 87
0 33 94
0 31 90
13 28 86
50 81 90
102 140 145
86 101 89
62 73 26
56 67 22
37 55 7
22 44 0
29 51 0
31 53 0
29 51 0
32 53 0
28 50 0
23 44 0
25 47 0
30 52 0
29 51 0
29 52 0
26 48 0
24 44 0
24 44 0
23 47 0
25 48 0
27 48 0
24 45 0
25 46 0
25 48 0
23 45 0
22 47 0
22 47 0
26 49 0
28 52 0
29 52 0
26 49 0
23 46 0
18 40 0
14 37 0
17 40 0
21 42 0
24 44 0
19 38 0
23 43 0
28 49 0
25 44 0
24 43 0
27 47 0
29 48 0
31 49 0
30 50 0
26 50 0
28 50 0
35 58 0
26 49 0
27 49 0
40 63 0
33 56 0
31 53 0
29 51 0
28 53 0
36 57 0
33 60 0
38 59 0
34 56 0
38 55 5
44 63 5
37 67 23
33 63 27
54 69 34
43 60 38
32 45 40
38 54 37
24 28 48
0 0 38
0 0 39
0 0 41
0 0 41
0 0 42
0 0 41
0 0 42
0 0 42
0 0 42
0 0 42
0 0 42
0 0 42
0 0 42
0 0 42
0 0 42
125 133 148
222 236 255
222 236 255
222 236 255
222 236 255
222 236 255
222 236 255
222 236 255
222 236 255
222 236 255
222 236 255
222 236 255
222 236 255
222 236 255
222 236 255
222 236 255
222 236 255
222 236 255
222 236 255
222 236 255
222 236 255
222 236 255
222 236 255
222 236 255
222 236 255
222 236 255
222 236 255
222 236 255
222 236 255
222 236 255
222 236 255
222 236 255
222 236 255
222 236 255
222 236 255
222 236 255
222 236 255
222 236 255
222 236 255
222 236 255
222 236 255
222 236 255
222 236 255
222 236 255
222 236 255
222 236 255
222 236 255
222 236 255
222 236 255
222 236 255
222 236 255
222 236 255
222 236 255
222 236 255
222 236 255
222 236 255
222 236 255
222 236 255
222 236 255
222 236 255
222 236 255
222 236 255
222 236 255
222 236 255
222 236 255
222 236 255
222 236 255
222 236 255
222 236 255
222 236 255
222 236 255
222 236 255
222 236 255
222 236 255
222 236 255
222 236 255
222 236 255
222 236 255
222 236 255
222 236 255
222 236 255
222 236 255
222 236 255
222 236 255
222 236 255
222 236 255
222 236 255
222 236 255
222 236 255
222 236 255
222 236 255
222 236 255
222 236 255
222 236 255
222 236 255
222 236 255
222 236 255
222 236 255
222 236 255
222 236 255
222 236 255
222 236 255
222 236 255
222 236 255
222 236 255
222 236 255
222 236 255
222 236 255
222 236 255
222 236 255
222 236 255
222 236 255
222 236 255
222 236 255
222 236 255
222 236 255
222 236 255
222 236 255
222 236 255
222 236 255
222 236 255
222 236 255
222 236 255
222 236 255
222 236 255
222 236 255
222 236 255
222 236 255
222 236 255
222 236 255
222 236 255
222 236 255
222 236 255
222 236 255
222 236 255
222 236 255
222 236 255
222 236 255
222 236 255
222 236 255
222 236 255
222 236 255
222 236 255
222 236 255
222 236 255
222 236 255
222 236 255
222 236 255
222 236 255
222 236 255
222 236 255
222 236 255
222 236 255
222 236 255
222 236 255
222 236 255
222 236 255
222 236 255
222 236 255
222 236 255
222 236 255
222 236 255
222 236 255
222 236 255
222 236 255
222 236 255
222 236 255
222 236 255
222 236 255
222 236 255
222 236 255
222 236 255
222 236 255
222 236 255
222 236 255
222 236 255
222 236 255
222 236 255
222 236 255
222 236 255
222 236 255
222 236 255
222 236 255
222 236 255
222 236 255
133 141 157
0 0 42
0 0 42
0 0 42
0 0 42
0 0 42
0 0 42
0 0 42
0 0 42
0 0 42
0 0 42
0 0 42
0 0 42
0 0 42
0 0 42
0 0 42
0 0 42
0 0 42
0 0 42
0 0 42
0 0 42
0 0 42
0 0 42
0 0 42
0 0 42
0 0 42
0 0 42
0 0 42
0 0 42
0 0 42
0 0 42
0 0 42
0 0 42
0 0 42
0 0 42
0 0 42
0 0 42
0 0 42
0 0 42
0 0 42
0 0 42
0 0 42
0 0 42
0 0 42
0 0 42
0 0 42
0 0 42
0 0 42
0 0 42
0 0 42
0 0 42
0 0 42
0 0 42
0 0 42
0 0 42
0 0 42
0 0 42
0 0 42
0 0 42
0 0 42
0 0 42
0 0 42
0 0 43
0 0 45
0 0 45
0 0 45
0 0 45
0 0 45
0 0 45
0 0 45
0 0 45
0 0 45
0 0 45
0 0 45
0 0 45
0 0 45
0 0 45
0 0 45
0 0 45
0 0 45
0 0 45
0 0 45
0 0 45
0 0 45
0 0 45
0 0 45
0 0 45
0 0 45
0 0 45
0 0 45
0 0 45
0 0 45
0 0 45
0 0 45
0 0 45
0 0 46
0 0 48
0 0 48
0 0 48
0 0 48
0 0 48
0 0 48
0 0 48
0 0 47
0 0 47
0 0 48
0 0 47
0 0 45
0 0 48
0 0 46
0 0 45
0 0 44
0 0 44
0 0 45
0 0 45
0 0 48
0 0 49
0 0 52
0 0 55
0 0 59
0 0 64
0 0 65
0 3 68
0 11 72
0 16 78
0 22 84
0 23 87
0 23 86
3 28 89
58 104 130
89 132 132
66 77 50
64 67 32
43 60 10
33 52 0
24 45 0
26 47 0
26 49 0
30 52 0
31 51 0
27 46 0
22 43 0
23 44 0
26 46 0
26 48 0
25 49 0
24 48 0
24 45 0
24 46 0
24 48 0
22 44 0
21 44 0
24 48 0
29 52 0
30 53 0
27 51 0
19 44 0
19 44 0
23 44 0
24 46 0
25 46 0
25 47 0
23 47 0
20 43 0
14 37 0
17 40 0
23 43 0
23 43 0
23 41 0
26 43 0
32 52 0
27 46 0
26 47 0
28 49 0
25 45 0
24 47 0
25 48 0
25 48 0
28 49 0
28 50 0
27 49 0
35 54 0
43 66 0
38 62 0
38 60 0
28 51 0
33 56 0
36 57 1
30 53 0
37 59 0
37 58 0
39 60 0
42 61 0
35 63 5
33 54 0
42 59 2
40 60 3
43 65 10
48 70 9
51 69 25
19 25 47
0 0 42
0 0 42
0 0 43
0 0 43
0 0 40
0 0 42
0 0 42
0 0 42
0 0 42
0 0 42
0 0 42
0 0 42
0 0 42
0 0 42
121 129 144
222 236 255
222 236 255
222 236 255
222 236 255
222 236 255
222 236 255
222 236 255
222 236 255
222 236 255
222 236 255
222 236 255
222 236 255
222 236 255
222 236 255
222 236 255
222 236 255
222 236 255
222 236 255
222 236 255
222 236 255
222 236 255
222 236 255
222 236 255
222 236 255
222 236 255
222 236 255
222 236 255
222 236 255
222 236 255
222 236 255
222 236 255
222 236 255
222 236 255
222 236 255
222 236 255
222 236 255
222 236 255
222 236 255
222 236 255
222 236 255
222 236 255
222 236 255
222 236 255
222 236 255
222 236 255
222 236 255
222 236 255
222 236 255
222 236 255
222 236 255
222 236 255
222 236 255
222 236 255
222 236 255
222 236 255
222 236 255
222 236 255
222 236 255
222 236 255
222 236 255
222 236 255
222 236 255
222 236 255
222 236 255
222 236 255
222 236 255
222 236 255
222 236 255
222 236 255
222 236 255
222 236 255
222 236 255
222 236 255
222 236 255
222 236 255
222 236 255
222 236 255
222 236 255
222 236 255
222 236 255
222 236 255
222 236 255
222 236 255
222 236 255
222 236 255
222 236 255
222 236 255
222 236 255
222 236 255
222 236 255
222 236 255
222 236 255
222 236 255
222 236 255
222 236 255
222 236 255
222 236 255
222 236 255
222 236 255
222 236 255
222 236 255
222 236 255
222 236 255
222 236 255
222 236 255
222 236 255
222 236 255
222 236 255
222 236 255
222 236 255
222 236 255
222 236 255
222 236 255
222 236 255
222 236 255
222 236 255
222 236 255
222 236 255
222 236 255
222 236 255
222 236 255
222 236 255
222 236 255
222 236 255
222 236 255
222 236 255
222 236 255
222 236 255
222 236 255
222 236 255
222 236 255
222 236 255
222 236 255
222 236 255
222 236 255
222 236 255
222 236 255
222 236 255
222 236 255
222 236 255
222 236 255
222 236 255
222 236 255
222 236 255
222 236 255
222 236 255
222 236 255
222 236 255
222 236 255
222 236 255
222 236 255
222 236 255
222 236 255
222 236 255
222 236 255
222 236 255
222 236 255
222 236 255
222 236 255
222 236 255
222 236 255
222 236 255
222 236 255
222 236 255
222 236 255
222 236 255
222 236 255
222 236 255
222 236 255
222 236 255
222 236 255
222 236 255
222 236 255
222 236 255
222 236 255
222 236 255
222 236 255
222 236 255
222 236 255
222 236 255
222 236 255
222 236 255
222 236 255
222 236 255
157 167 183
0 0 42
0 0 42
0 0 42
0 0 42
0 0 42
0 0 42
0 0 42
0 0 42
0 0 42
0 0 42
0 0 42
0 0 42
0 0 42
0 0 42
0 0 42
0 0 42
0 0 42
0 0 42
0 0 42
0 0 42
0 0 42
0 0 42
0 0 42
0 0 42
0 0 42
0 0 42
0 0 42
0 0 42
0 0 42
0 0 42
0 0 42
0 0 42
0 0 42
0 0 42
0 0 42
0 0 42
0 0 42
0 0 42
0 0 42
0 0 42
0 0 42
0 0 42
0 0 42
0 0 42
0 0 42
0 0 42
0 0 42
0 0 42
0 0 42
0 0 42
0 0 42
0 0 42
0 0 42
0 0 42
0 0 42
0 0 42
0 0 42
0 0 42
0 0 42
0 0 42
0 0 42
0 0 43
0 0 45
0 0 45
0 0 45
0 0 45
0 0 45
0 0 45
0 0 45
0 0 45
0 0 45
0 0 45
0 0 45
0 0 45
0 0 45
0 0 45
0 0 45
0 0 45
0 0 45
0 0 45
0 0 45
0 0 45
0 0 45
0 0 45
0 0 45
0 0 45
0 0 45
0 0 45
0 0 45
0 0 45
0 0 45
0 0 45
0 0 45
0 0 45
0 0 47
0 0 50
0 0 49
0 0 50
0 0 49
0 0 49
0 0 49
0 0 48
0 0 46
0 0 46
0 0 48
0 0 46
0 0 45
0 0 47
0 0 45
0 0 45
0 0 45
0 0 45
0 0 45
0 0 45
0 0 48
0 0 50
0 0 54
0 0 58
0 0 63
0 0 64
0 0 65
0 0 67
0 0 70
0 12 76
0 20 83
0 20 82
0 20 85
31 53 74
65 89 79
85 104 85
56 66 22
45 65 16
38 54 0
33 53 0
25 46 0
23 46 0
24 48 0
26 47 0
27 48 0
22 45 0
23 45 0
18 40 0
20 40 0
26 47 0
24 46 0
21 45 0
22 44 0
24 46 0
24 48 0
21 43 0
22 44 0
24 48 0
25 50 0
25 47 0
22 43 0
19 44 0
21 46 0
24 47 0
23 45 0
21 43 0
23 44 0
27 49 0
24 47 0
22 43 0
23 46 0
25 48 0
24 44 0
24 45 0
26 46 0
24 46 0
27 46 0
25 46 0
25 45 0
20 42 0
23 46 0
24 47 0
24 47 0
29 49 0
29 51 0
33 55 0
30 51 0
32 54 0
31 54 0
35 58 0
33 56 0
33 53 7
39 59 8
30 51 0
35 56 0
30 51 0
37 58 0
44 64 5
34 56 1
33 53 0
37 55 0
41 59 9
44 62 6
48 70 15
51 71 8
43 58 26
6 8 43
0 0 39
0 0 40
0 0 43
0 0 42
0 0 42
0 0 42
0 0 42
0 0 42
0 0 42
0 0 42
0 0 42
0 0 42
0 0 42
149 158 174
222 236 255
222 236 255
222 236 255
222 236 255
222 236 255
222 236 255
222 236 255
222 236 255
222 236 255
222 236 255
222 236 255
222 236 255
222 236 255
222 236 255
222 236 255
222 236 255
222 236 255
222 236 255
222 236 255
222 236 255
222 236 255
222 236 255
222 236 255
222 236 255
222 236 255
222 236 255
222 236 255
222 236 255
222 236 255
222 236 255
222 236 255
222 236 255
222 236 255
222 236 255
222 236 255
222 236 255
222 236 255
222 236 255
222 236 255
222 236 255
222 236 255
222 236 255
222 236 255
222 236 255
222 236 255
222 236 255
222 236 255
222 236 255
222 236 255
222 236 255
222 236 255
222 236 255
222 236 255
222 236 255
222 236 255
222 236 255
222 236 255
222 236 255
222 236 255
222 236 255
222 236 255
222 236 255
222 236 255
222 236 255
222 236 255
222 236 255
222 236 255
222 236 255
222 236 255
222 236 255
222 236 255
222 236 255
222 236 255
222 236 255
222 236 255
222 236 255
222 236 255
222 236 255
222 236 255
222 236 255
222 236 255
222 236 255
222 236 255
222 236 255
222 236 255
222 236 255
222 236 255
222 236 255
222 236 255
222 236 255
222 236 255
222 236 255
222 236 255
222 236 255
222 236 255
222 236 255
222 236 255
222 236 255
222 236 255
222 236 255
222 236 255
222 236 255
222 236 255
222 236 255
222 236 255
222 236 255
222 236 255
222 236 255
222 236 255
222 236 255
222 236 255
222 236 255
222 236 255
222 236 255
222 236 255
222 236 255
222 236 255
222 236 255
222 236 255
222 236 255
222 236 255
222 236 255
222 236 255
222 236 255
222 236 255
222 236 255
222 236 255
222 236 255
222 236 255
222 236 255
222 236 255
222 236 255
222 236 255
222 236 255
222 236 255
222 236 255
222 236 255
222 236 255
222 236 255
222 236 255
222 236 255
222 236 255
222 236 255
222 236 255
222 236 255
222 236 255
222 236 255
222 236 255
222 236 255
222 236 255
222 236 255
222 236 255
222 236 255
222 236 255
222 236 255
222 236 255
222 236 255
222 236 255
222 236 255
222 236 255
222 236 255
222 236 255
222 236 255
222 236 255
222 236 255
222 236 255
222 236 255
222 236 255
222 236 255
222 236 255
222 236 255
222 236 255
222 236 255
222 236 255
222 236 255
222 236 255
222 236 255
222 236 255
222 236 255
222 236 255
222 236 255
222 236 255
222 236 255
222 236 255
161 172 188
0 0 42
0 0 42
0 0 42
0 0 42
0 0 42
0 0 42
0 0 42
0 0 42
0 0 42
0 0 42
0 0 42
0 0 42
0 0 42
0 0 42
0 0 42
0 0 42
0 0 42
0 0 42
0 0 42
0 0 42
0 0 42
0 0 42
0 0 42
0 0 42
0 0 42
0 0 42
0 0 42
0 0 42
0 0 42
0 0 42
0 0 42
0 0 42
0 0 42
0 0 42
0 0 42
0 0 42
0 0 42
0 0 42
0 0 42
0 0 42
0 0 42
0 0 42
0 0 42
0 0 42
0 0 42
0 0 42
0 0 42
0 0 42
0 0 42
0 0 42
0 0 42
0 0 42
0 0 42
0 0 42
0 0 42
0 0 42
0 0 42
0 0 42
0 0 42
0 0 42
0 0 42
0 0 42
0 0 45
0 0 45
0 0 45
0 0 45
0 0 45
0 0 45
0 0 45
0 0 45
0 0 44
0 0 44
0 0 44
0 0 44
0 0 44
0 0 44
0 0 44
0 0 44
0 0 45
0 0 45
0 0 45
0 0 45
0 0 45
0 0 45
0 0 45
0 0 45
0 0 45
0 0 45
0 0 45
0 0 45
0 0 45
0 0 45
0 0 45
0 0 47
0 0 49
0 0 50
0 0 50
0 0 50
0 0 51
0 0 51
0 0 50
0 0 48
0 0 47
0 0 47
0 0 48
0 0 47
0 0 46
0 0 45
0 0 45
0 0 45
0 0 45
0 0 45
0 0 46
0 0 46
0 0 48
0 0 51
0 0 54
0 0 59
0 0 64
0 0 66
0 0 67
0 0 67
0 0 69
0 12 78
0 25 89
4 23 88
50 56 77
55 74 35
40 61 12
49 68 18
56 59 23
42 54 2
37 55 0
40 60 0
31 54 0
21 46 0
24 49 0
24 48 0
22 49 0
19 45 0
19 45 0
17 41 0
21 42 0
28 47 0
22 43 0
19 41 0
19 41 0
22 45 0
23 46 0
23 47 0
27 48 0
25 46 0
20 42 0
21 42 0
20 41 0
21 45 0
26 48 0
26 48 0
24 46 0
22 44 0
17 41 0
20 43 0
19 41 0
19 42 0
22 45 0
22 46 0
22 46 0
20 43 0
20 43 0
19 43 0
20 41 0
20 40 0
24 47 0
22 44 0
25 48 0
28 52 0
27 51 0
30 51 0
27 50 0
27 49 0
28 51 0
30 52 0
30 53 0
30 54 0
35 60 0
26 45 4
40 60 10
33 55 0
42 63 0
38 59 0
42 63 7
45 65 10
41 60 0
34 55 0
33 51 0
43 61 4
48 63 14
50 69 17
50 69 17
53 70 17
27 34 44
0 0 43
0 0 44
0 0 41
0 0 44
0 0 42
0 0 42
0 0 42
0 0 42
0 0 42
0 0 42
0 0 42
0 0 42
0 0 42
149 158 174
222 236 255
222 236 255
222 236 255
222 236 255
222 236 255
222 236 255
222 236 255
222 236 255
222 236 255
222 236 255
222 236 255
222 236 255
222 236 255
222 236 255
222 236 255
222 236 255
222 236 255
222 236 255
222 236 255
222 236 255
222 236 255
222 236 255
222 236 255
222 236 255
222 236 255
222 236 255
222 236 255
222 236 255
222 236 255
222 236 255
222 236 255
222 236 255
222 236 255
222 236 255
222 236 255
222 236 255
222 236 255
222 236 255
222 236 255
222 236 255
222 236 255
222 236 255
222 236 255
222 236 255
222 236 255
222 236 255
222 236 255
222 236 255
222 236 255
222 236 255
222 236 255
222 236 255
222 236 255
222 236 255
222 236 255
222 236 255
222 236 255
222 236 255
222 236 255
222 236 255
222 236 255
222 236 255
222 236 255
222 236 255
222 236 255
222 236 255
222 236 255
222 236 255
222 236 255
222 236 255
222 236 255
222 236 255
222 236 255
222 236 255
222 236 255
222 236 255
222 236 255
222 236 255
222 236 255
222 236 255
222 236 255
222 236 255
222 236 255
222 236 255
222 236 255
222 236 255
222 236 255
222 236 255
222 236 255
222 236 255
222 236 255
222 236 255
222 236 255
222 236 255
222 236 255
222 236 255
222 236 255
222 236 255
222 236 255
222 236 255
222 236 255
222 236 255
222 236 255
222 236 255
222 236 255
222 236 255
222 236 255
222 236 255
222 236 255
222 236 255
222 236 255
222 236 255
222 236 255
222 236 255
222 236 255
222 236 255
222 236 255
222 236 255
222 236 255
222 236 255
222 236 255
222 236 255
222 236 255
222 236 255
222 236 255
222 236 255
222 236 255
222 236 255
222 236 255
222 236 255
222 236 255
222 236 255
222 236 255
222 236 255
222 236 255
222 236 255
222 236 255
222 236 255
222 236 255
222 236 255
222 236 255
222 236 255
222 236 255
222 236 255
222 236 255
222 236 255
222 236 255
222 236 255
222 236 255
222 236 255
222 236 255
222 236 255
222 236 255
222 236 255
222 236 255
222 236 255
222 236 255
222 236 255
222 236 255
222 236 255
222 236 255
222 236 255
222 236 255
222 236 255
222 236 255
222 236 255
222 236 255
222 236 255
222 236 255
222 236 255
222 236 255
222 236 255
222 236 255
222 236 255
222 236 255
222 236 255
222 236 255
222 236 255
222 236 255
222 236 255
222 236 255
222 236 255
222 236 255
222 236 255
170 181 198
0 0 42
0 0 42
0 0 42
0 0 42
0 0 42
0 0 42
0 0 42
0 0 42
0 0 42
0 0 42
0 0 42
0 0 42
0 0 42
0 0 42
0 0 42
0 0 42
0 0 42
0 0 42
0 0 42
0 0 42
0 0 42
0 0 42
0 0 42
0 0 42
0 0 42
0 0 42
0 0 42
0 0 42
0 0 42
0 0 42
0 0 42
0 0 42
0 0 42
0 0 42
0 0 42
0 0 42
0 0 42
0 0 42
0 0 42
0 0 42
0 0 42
0 0 42
0 0 42
0 0 42
0 0 42
0 0 42
0 0 42
0 0 42
0 0 42
0 0 42
0 0 42
0 0 42
0 0 42
0 0 42
0 0 42
0 0 42
0 0 42
0 0 42
0 0 42
0 0 42
0 0 42
0 0 42
0 0 45
0 0 45
0 0 45
0 0 45
0 0 45
0 0 45
0 0 44
0 0 43
0 0 42
0 0 42
0 0 42
0 0 42
0 0 42
0 0 42
0 0 42
0 0 42
0 0 44
0 0 45
0 0 45
0 0 45
0 0 45
0 0 45
0 0 45
0 0 45
0 0 45
0 0 45
0 0 45
0 0 45
0 0 45
0 0 45
0 0 46
0 0 48
0 0 50
0 0 53
0 0 53
0 0 52
0 0 52
0 0 52
0 0 51
0 0 48
0 0 48
0 0 48
0 0 48
0 0 48
0 0 48
0 0 47
0 0 45
0 0 45
0 0 45
0 0 45
0 0 47
0 0 47
0 0 48
0 0 51
0 0 55
0 0 59
0 0 61
0 0 63
0 0 64
0 0 64
0 0 65
0 17 76
0 29 93
12 45 97
89 97 79
89 91 40
56 75 27
50 65 14
48 60 13
37 52 0
35 55 0
36 57 0
26 50 0
21 44 0
23 47 0
23 49 0
21 48 0
20 48 0
19 48 0
21 47 0
23 45 0
25 45 0
21 42 0
19 41 0
19 41 0
20 43 0
17 41 0
18 42 0
21 44 0
18 41 0
20 41 0
23 44 0
21 44 0
23 46 0
24 46 0
23 45 0
23 44 0
22 45 0
19 43 0
19 43 0
18 41 0
18 42 0
19 43 0
18 43 0
20 44 0
19 42 0
20 43 0
20 43 0
17 39 0
22 43 0
24 48 0
24 45 0
25 48 0
28 53 0
26 49 0
29 51 0
27 49 0
25 45 0
29 50 0
27 49 0
28 52 0
28 52 0
28 53 0
30 49 3
40 60 5
41 61 0
50 70 9
43 64 11
36 56 3
41 60 3
37 56 0
37 58 0
42 58 3
48 63 12
46 57 19
56 69 17
54 70 18
63 75 24
68 77 47
32 33 48
13 15 42
0 0 41
0 0 42
0 0 42
0 0 42
0 0 42
0 0 42
0 0 42
0 0 42
0 0 42
0 0 42
0 0 42
172 183 200
222 236 255
222 236 255
222 236 255
222 236 255
222 236 255
222 236 255
222 236 255
222 236 255
222 236 255
222 236 255
222 236 255
222 236 255
222 236 255
222 236 255
222 236 255
222 236 255
222 236 255
222 236 255
222 236 255
222 236 255
222 236 255
222 236 255
222 236 255
222 236 255
222 236 255
222 236 255
222 236 255
222 236 255
222 236 255
222 236 255
222 236 255
222 236 255
222 236 255
222 236 255
222 236 255
222 236 255
222 236 255
222 236 255
222 236 255
222 236 255
222 236 255
222 236 255
222 236 255
222 236 255
222 236 255
222 236 255
222 236 255
222 236 255
222 236 255
222 236 255
222 236 255
222 236 255
222 236 255
222 236 255
222 236 255
222 236 255
222 236 255
222 236 255
222 236 255
222 236 255
222 236 255
222 236 255
222 236 255
222 236 255
222 236 255
222 236 255
222 236 255
222 236 255
222 236 255
222 236 255
222 236 255
222 236 255
222 236 255
222 236 255
222 236 255
222 236 255
222 236 255
222 236 255
222 236 255
222 236 255
222 236 255
222 236 255
222 236 255
222 236 255
222 236 255
222 236 255
222 236 255
222 236 255
222 236 255
222 236 255
222 236 255
222 236 255
222 236 255
222 236 255
222 236 255
222 236 255
222 236 255
222 236 255
222 236 255
222 236 255
222 236 255
222 236 255
222 236 255
222 236 255
222 236 255
222 236 255
222 236 255
222 236 255
222 236 255
222 236 255
222 236 255
222 236 255
222 236 255
222 236 255
222 236 255
222 236 255
222 236 255
222 236 255
222 236 255
222 236 255
222 236 255
222 236 255
222 236 255
222 236 255
222 236 255
222 236 255
222 236 255
222 236 255
222 236 255
222 236 255
222 236 255
222 236 255
222 236 255
222 236 255
222 236 255
222 236 255
222 236 255
222 236 255
222 236 255
222 236 255
222 236 255
222 236 255
222 236 255
222 236 255
222 236 255
222 236 255
222 236 255
222 236 255
222 236 255
222 236 255
222 236 255
222 236 255
222 236 255
222 236 255
222 236 255
222 236 255
222 236 255
222 236 255
222 236 255
222 236 255
222 236 255
222 236 255
222 236 255
222 236 255
222 236 255
222 236 255
222 236 255
222 236 255
222 236 255
222 236 255
222 236 255
222 236 255
222 236 255
222 236 255
222 236 255
222 236 255
222 236 255
222 236 255
222 236 255
222 236 255
222 236 255
222 236 255
222 236 255
222 236 255
187 199 216
0 0 42
0 0 42
0 0 42
0 0 42
0 0 42
0 0 42
0 0 42
0 0 42
0 0 42
0 0 42
0 0 42
0 0 42
0 0 42
0 0 42
0 0 42
0 0 42
0 0 42
0 0 42
0 0 42
0 0 42
0 0 42
0 0 42
0 0 42
0 0 42
0 0 42
0 0 42
0 0 42
0 0 42
0 0 42
0 0 42
0 0 42
0 0 42
0 0 42
0 0 42
0 0 42
0 0 42
0 0 42
0 0 42
0 0 42
0 0 42
0 0 42
0 0 42
0 0 42
0 0 42
0 0 42
0 0 42
0 0 42
0 0 42
0 0 42
0 0 42
0 0 42
0 0 42
0 0 42
0 0 42
0 0 42
0 0 42
0 0 42
0 0 42
0 0 42
0 0 42
0 0 42
0 0 42
0 0 45
0 0 45
0 0 45
0 0 45
0 0 45
0 0 45
0 0 43
0 0 42
0 0 42
0 0 42
0 0 42
0 0 42
0 0 42
0 0 42
0 0 42
0 0 42
0 0 42
0 0 44
0 0 45
0 0 45
0 0 45
0 0 45
0 0 45
0 0 45
0 0 45
0 0 45
0 0 45
0 0 45
0 0 45
0 0 45
0 0 47
0 0 48
0 0 50
0 0 53
0 0 51
0 0 51
0 0 50
0 0 50
0 0 50
0 0 48
0 0 48
0 0 48
0 0 48
0 0 48
0 0 48
0 0 48
0 0 46
0 0 45
0 0 45
0 0 45
0 0 45
0 0 46
0 0 49
0 0 51
0 0 53
0 0 55
0 0 57
0 0 60
0 0 60
0 0 61
0 0 63
0 14 72
0 27 89
8 48 104
91 104 89
125 118 62
75 84 39
50 66 18
42 60 13
45 58 10
35 54 0
32 53 0
22 44 0
20 42 0
21 45 0
25 49 0
25 50 0
20 46 0
19 45 0
22 49 0
24 48 0
23 44 0
20 42 0
18 41 0
16 39 0
19 41 0
17 40 0
14 39 0
15 39 0
16 40 0
19 41 0
20 44 0
23 46 0
24 48 0
23 45 0
20 43 0
22 45 0
22 46 0
19 43 0
19 42 0
19 42 0
19 43 0
19 44 0
21 44 0
23 45 0
23 45 0
23 44 0
20 42 0
19 40 0
25 47 0
25 47 0
20 43 0
21 45 0
22 45 0
24 47 0
29 51 0
28 51 0
27 49 0
27 48 0
24 47 0
28 53 0
29 54 0
32 56 7
42 64 9
42 62 7
44 66 0
50 69 11
41 60 9
35 55 0
41 59 0
40 60 0
37 57 0
44 58 7
51 65 17
53 64 17
61 71 20
61 71 24
78 84 32
78 81 45
83 85 50
42 45 37
0 0 44
0 0 42
0 0 42
0 0 42
0 0 42
0 0 42
0 0 42
0 0 42
0 0 42
0 0 42
0 0 42
187 199 216
222 236 255
222 236 255
222 236 255
222 236 255
222 236 255
222 236 255
222 236 255
222 236 255
222 236 255
222 236 255
222 236 255
222 236 255
222 236 255
222 236 255
222 236 255
222 236 255
222 236 255
222 236 255
222 236 255
222 236 255
222 236 255
222 236 255
222 236 255
222 236 255
222 236 255
222 236 255
222 236 255
222 236 255
222 236 255
222 236 255
222 236 255
222 236 255
222 236 255
222 236 255
222 236 255
222 236 255
222 236 255
222 236 255
222 236 255
222 236 255
222 236 255
222 236 255
222 236 255
222 236 255
222 236 255
222 236 255
222 236 255
222 236 255
222 236 255
222 236 255
222 236 255
222 236 255
222 236 255
222 236 255
222 236 255
222 236 255
222 236 255
222 236 255
222 236 255
222 236 255
222 236 255
222 236 255
222 236 255
222 236 255
222 236 255
222 236 255
222 236 255
222 236 255
222 236 255
222 236 255
222 236 255
222 236 255
222 236 255
222 236 255
222 236 255
222 236 255
222 236 255
222 236 255
222 236 255
222 236 255
222 236 255
222 236 255
222 236 255
222 236 255
222 236 255
222 236 255
222 236 255
222 236 255
222 236 255
222 236 255
222 236 255
222 236 255
222 236 255
222 236 255
222 236 255
222 236 255
222 236 255
222 236 255
222 236 255
222 236 255
222 236 255
222 236 255
222 236 255
222 236 255
222 236 255
222 236 255
222 236 255
222 236 255
222 236 255
222 236 255
222 236 255
222 236 255
222 236 255
222 236 255
222 236 255
222 236 255
222 236 255
222 236 255
222 236 255
222 236 255
222 236 255
222 236 255
222 236 255
222 236 255
222 236 255
222 236 255
222 236 255
222 236 255
222 236 255
222 236 255
222 236 255
222 236 255
222 236 255
222 236 255
222 236 255
222 236 255
222 236 255
222 236 255
222 236 255
222 236 255
222 236 255
222 236 255
222 236 255
222 236 255
222 236 255
222 236 255
222 236 255
222 236 255
222 236 255
222 236 255
222 236 255
222 236 255
222 236 255
222 236 255
222 236 255
222 236 255
222 236 255
222 236 255
222 236 255
222 236 255
222 236 255
222 236 255
222 236 255
222 236 255
222 236 255
222 236 255
222 236 255
222 236 255
222 236 255
222 236 255
222 236 255
222 236 255
222 236 255
222 236 255
222 236 255
222 236 255
222 236 255
222 236 255
222 236 255
222 236 255
222 236 255
222 236 255
222 236 255
222 236 255
205 217 236
0 0 42
0 0 42
0 0 42
0 0 42
0 0 42
0 0 42
0 0 42
0 0 42
0 0 42
0 0 42
0 0 42
0 0 42
0 0 42
0 0 42
0 0 42
0 0 42
0 0 42
0 0 42
0 0 42
0 0 42
0 0 42
0 0 42
0 0 42
0 0 42
0 0 42
0 0 42
0 0 42
0 0 42
0 0 42
0 0 42
0 0 42
0 0 42
0 0 42
0 0 42
0 0 42
0 0 42
0 0 42
0 0 42
0 0 42
0 0 42
0 0 42
0 0 42
0 0 42
0 0 42
0 0 42
0 0 42
0 0 42
0 0 42
0 0 42
0 0 42
0 0 42
0 0 42
0 0 42
0 0 42
0 0 42
0 0 42
0 0 42
0 0 42
0 0 42
0 0 42
0 0 42
0 0 42
0 0 45
0 0 44
0 0 44
0 0 44
0 0 45
0 0 44
0 0 42
0 0 42
0 0 42
0 0 42
0 0 42
0 0 42
0 0 42
0 0 42
0 0 42
0 0 42
0 0 42
0 0 44
0 0 45
0 0 45
0 0 45
0 0 45
0 0 45
0 0 45
0 0 45
0 0 45
0 0 45
0 0 45
0 0 45
0 0 45
0 0 47
0 0 48
0 0 49
0 0 51
0 0 50
0 0 48
0 0 48
0 0 48
0 0 48
0 0 48
0 0 48
0 0 46
0 0 48
0 0 48
0 0 48
0 0 48
0 0 46
0 0 45
0 0 45
0 0 45
0 0 45
0 0 47
0 0 48
0 0 51
0 0 53
0 0 53
0 0 53
0 0 56
0 0 57
0 0 60
0 0 60
0 6 65
0 19 82
0 25 92
46 76 95
143 139 103
101 98 53
57 68 17
53 60 9
44 68 15
44 60 10
34 53 0
25 46 0
25 45 0
20 43 0
24 49 0
22 46 0
20 46 0
25 52 0
27 51 0
23 47 0
20 44 0
19 44 0
19 43 0
17 40 0
14 40 0
14 39 0
14 39 0
14 39 0
14 39 0
18 41 0
22 45 0
25 49 0
24 46 0
20 42 0
18 41 0
23 45 0
22 45 0
19 44 0
20 44 0
20 44 0
20 43 0
20 43 0
23 45 0
25 45 0
23 44 0
21 44 0
19 43 0
20 42 0
24 45 0
22 45 0
18 41 0
18 43 0
20 44 0
24 47 0
27 49 0
25 46 0
25 48 0
26 48 0
22 46 0
27 51 0
28 50 0
33 55 8
40 62 2
43 66 6
45 64 1
49 64 9
47 63 8
42 56 0
44 55 0
38 57 0
35 57 0
46 59 6
51 61 10
55 68 22
68 75 27
60 72 20
73 80 34
93 91 55
84 81 45
50 58 33
0 0 41
0 0 42
0 0 42
0 0 42
0 0 42
0 0 42
0 0 42
0 0 42
0 0 42
0 0 42
0 0 42
207 220 239
222 236 255
222 236 255
222 236 255
222 236 255
222 236 255
222 236 255
222 236 255
222 236 255
222 236 255
222 236 255
222 236 255
222 236 255
222 236 255
222 236 255
222 236 255
222 236 255
222 236 255
222 236 255
222 236 255
222 236 255
222 236 255
222 236 255
222 236 255
222 236 255
222 236 255
222 236 255
222 236 255
222 236 255
222 236 255
222 236 255
222 236 255
222 236 255
222 236 255
222 236 255
222 236 255
222 236 255
222 236 255
222 236 255
222 236 255
222 236 255
222 236 255
222 236 255
222 236 255
222 236 255
222 236 255
222 236 255
222 236 255
222 236 255
222 236 255
222 236 255
222 236 255
222 236 255
222 236 255
222 236 255
222 236 255
222 236 255
222 236 255
222 236 255
222 236 255
222 236 255
222 236 255
222 236 255
222 236 255
222 236 255
222 236 255
222 236 255
222 236 255
222 236 255
222 236 255
222 236 255
222 236 255
222 236 255
222 236 255
222 236 255
222 236 255
222 236 255
222 236 255
222 236 255
222 236 255
222 236 255
222 236 255
222 236 255
222 236 255
222 236 255
222 236 255
222 236 255
222 236 255
222 236 255
222 236 255
222 236 255
222 236 255
222 236 255
222 236 255
222 236 255
222 236 255
222 236 255
222 236 255
222 236 255
222 236 255
222 236 255
222 236 255
222 236 255
222 236 255
222 236 255
222 236 255
222 236 255
222 236 255
222 236 255
222 236 255
222 236 255
222 236 255
222 236 255
222 236 255
222 236 255
222 236 255
222 236 255
222 236 255
222 236 255
222 236 255
222 236 255
222 236 255
222 236 255
222 236 255
222 236 255
222 236 255
222 236 255
222 236 255
222 236 255
222 236 255
222 236 255
222 236 255
222 236 255
222 236 255
222 236 255
222 236 255
222 236 255
222 236 255
222 236 255
222 236 255
222 236 255
222 236 255
222 236 255
222 236 255
222 236 255
222 236 255
222 236 255
222 236 255
222 236 255
222 236 255
222 236 255
222 236 255
222 236 255
222 236 255
222 236 255
222 236 255
222 236 255
222 236 255
222 236 255
222 236 255
222 236 255
222 236 255
222 236 255
222 236 255
222 236 255
222 236 255
222 236 255
222 236 255
222 236 255
222 236 255
222 236 255
222 236 255
222 236 255
222 236 255
222 236 255
222 236 255
222 236 255
222 236 255
222 236 255
222 236 255
222 236 255
222 236 255
222 236 255
222 236 255
222 236 255
216 230 249
0 0 42
0 0 42
0 0 42
0 0 42
0 0 42
0 0 42
0 0 42
0 0 42
0 0 42
0 0 42
0 0 42
0 0 42
0 0 42
0 0 42
0 0 42
0 0 42
0 0 42
0 0 42
0 0 42
0 0 42
0 0 42
0 0 42
0 0 42
0 0 42
0 0 42
0 0 42
0 0 42
0 0 42
0 0 42
0 0 42
0 0 42
0 0 42
0 0 42
0 0 42
0 0 42
0 0 42
0 0 42
0 0 42
0 0 42
0 0 42
0 0 42
0 0 42
0 0 42
0 0 42
0 0 42
0 0 42
0 0 42
0 0 42
0 0 42
0 0 42
0 0 42
0 0 42
0 0 42
0 0 42
0 0 42
0 0 42
0 0 42
0 0 42
0 0 42
0 0 42
0 0 42
0 0 44
0 0 44
0 0 42
0 0 42
0 0 43
0 0 43
0 0 45
0 0 45
0 0 45
0 0 44
0 0 43
0 0 43
0 0 43
0 0 43
0 0 43
0 0 44
0 0 45
0 0 45
0 0 45
0 0 45
0 0 45
0 0 45
0 0 45
0 0 45
0 0 45
0 0 45
0 0 45
0 0 45
0 0 45
0 0 45
0 0 45
0 0 45
0 0 45
0 0 45
0 0 45
0 0 45
0 0 45
0 0 45
0 0 43
0 0 43
0 0 48
0 0 48
0 0 48
0 0 48
0 0 48
0 0 48
0 0 49
0 0 47
0 0 45
0 0 42
0 0 45
0 0 45
0 0 45
0 0 48
0 0 48
0 0 52
0 0 53
0 0 53
0 0 54
0 0 57
0 0 58
0 0 61
0 10 70
0 15 78
0 13 76
48 66 98
181 186 169
143 139 96
78 81 41
54 64 17
62 76 27
57 70 25
42 56 12
34 49 0
35 51 0
23 47 0
26 53 0
22 48 0
24 51 0
28 54 0
23 47 0
19 44 0
19 44 0
19 44 0
20 43 0
19 41 0
16 41 0
16 40 0
17 40 0
16 40 0
15 38 0
16 39 0
22 45 0
25 50 0
20 43 0
15 38 0
18 41 0
23 44 0
20 44 0
18 43 0
20 44 0
20 43 0
21 44 0
22 44 0
26 47 0
27 48 0
23 45 0
21 44 0
18 43 0
22 44 0
24 44 0
20 42 0
19 41 0
19 42 0
21 44 0
24 48 0
24 48 0
24 45 0
25 50 0
27 52 0
29 52 0
32 56 3
28 52 2
29 51 0
46 68 2
47 72 8
47 64 3
50 62 11
50 66 13
50 61 13
53 60 13
37 53 0
41 55 6
49 58 8
50 59 12
58 67 23
68 71 28
67 76 28
76 79 39
95 88 55
81 78 39
51 60 29
0 0 42
0 0 42
0 0 42
0 0 42
0 0 42
0 0 42
0 0 42
0 0 42
0 0 42
0 0 42
0 0 42
219 232 252
222 236 255
222 236 255
222 236 255
222 236 255
222 236 255
222 236 255
222 236 255
222 236 255
222 236 255
222 236 255
222 236 255
222 236 255
222 236 255
222 236 255
222 236 255
222 236 255
222 236 255
222 236 255
222 236 255
222 236 255
222 236 255
222 236 255
222 236 255
222 236 255
222 236 255
222 236 255
222 236 255
222 236 255
222 236 255
222 236 255
222 236 255
222 236 255
222 236 255
222 236 255
222 236 255
222 236 255
222 236 255
222 236 255
222 236 255
222 236 255
222 236 255
222 236 255
222 236 255
222 236 255
222 236 255
222 236 255
222 236 255
222 236 255
222 236 255
222 236 255
222 236 255
222 236 255
222 236 255
222 236 255
222 236 255
222 236 255
222 236 255
222 236 255
222 236 255
222 236 255
222 236 255
222 236 255
222 236 255
222 236 255
222 236 255
222 236 255
222 236 255
222 236 255
222 236 255
222 236 255
222 236 255
222 236 255
222 236 255
222 236 255
222 236 255
222 236 255
222 236 255
222 236 255
222 236 255
222 236 255
222 236 255
222 236 255
222 236 255
222 236 255
222 236 255
222 236 255
222 236 255
222 236 255
222 236 255
222 236 255
222 236 255
222 236 255
222 236 255
222 236 255
222 236 255
222 236 255
222 236 255
222 236 255
222 236 255
222 236 255
222 236 255
222 236 255
222 236 255
222 236 255
222 236 255
222 236 255
222 236 255
222 236 255
222 236 255
222 236 255
222 236 255
222 236 255
222 236 255
222 236 255
222 236 255
222 236 255
222 236 255
222 236 255
222 236 255
222 236 255
222 236 255
222 236 255
222 236 255
222 236 255
222 236 255
222 236 255
222 236 255
222 236 255
222 236 255
222 236 255
222 236 255
222 236 255
222 236 255
222 236 255
222 236 255
222 236 255
222 236 255
222 236 255
222 236 255
222 236 255
222 236 255
222 236 255
222 236 255
222 236 255
222 236 255
222 236 255
222 236 255
222 236 255
222 236 255
222 236 255
222 236 255
222 236 255
222 236 255
222 236 255
222 236 255
222 236 255
222 236 255
222 236 255
222 236 255
222 236 255
222 236 255
222 236 255
222 236 255
222 236 255
222 236 255
222 236 255
222 236 255
222 236 255
222 236 255
222 236 255
222 236 255
222 236 255
222 236 255
222 236 255
222 236 255
222 236 255
222 236 255
222 236 255
222 236 255
222 236 255
222 236 255
222 236 255
222 236 255
222 236 255
222 236 255
58 62 79
0 0 42
0 0 42
0 0 42
0 0 42
0 0 42
0 0 42
0 0 42
0 0 42
0 0 42
0 0 42
0 0 42
0 0 42
0 0 42
0 0 42
0 0 42
0 0 42
0 0 42
0 0 42
0 0 42
0 0 42
0 0 42
0 0 42
0 0 42
0 0 42
0 0 42
0 0 42
0 0 42
0 0 42
0 0 42
0 0 42
0 0 42
0 0 42
0 0 42
0 0 42
0 0 42
0 0 42
0 0 42
0 0 42
0 0 42
0 0 42
0 0 42
0 0 42
0 0 42
0 0 42
0 0 42
0 0 42
0 0 42
0 0 42
0 0 42
0 0 42
0 0 42
0 0 42
0 0 42
0 0 42
0 0 42
0 0 42
0 0 42
0 0 42
0 0 42
0 0 44
0 0 45
0 0 45
0 0 44
0 0 43
0 0 45
0 0 45
0 0 45
0 0 45
0 0 45
0 0 45
0 0 45
0 0 45
0 0 45
0 0 45
0 0 45
0 0 45
0 0 45
0 0 45
0 0 45
0 0 45
0 0 45
0 0 45
0 0 45
0 0 45
0 0 45
0 0 45
0 0 45
0 0 45
0 0 45
0 0 45
0 0 45
0 0 45
0 0 45
0 0 45
0 0 45
0 0 45
0 0 45
0 0 45
0 0 45
0 0 44
0 0 46
0 0 46
0 0 46
0 0 48
0 0 48
0 0 48
0 0 49
0 0 47
0 0 45
0 0 44
0 0 45
0 0 45
0 0 47
0 0 48
0 0 48
0 0 49
0 0 51
0 0 51
0 0 53
0 0 56
0 0 58
0 0 60
0 0 68
0 19 81
0 21 79
37 45 92
136 151 169
148 155 131
102 103 57
51 65 19
63 67 22
56 64 20
48 58 15
30 45 0
31 50 0
32 55 0
27 50 0
25 48 0
24 49 0
23 47 0
23 45 0
22 44 0
20 43 0
19 43 0
19 42 0
19 42 0
19 42 0
18 41 0
19 43 0
19 43 0
16 40 0
19 41 0
23 44 0
21 44 0
17 39 0
15 37 0
19 42 0
23 45 0
21 45 0
22 45 0
17 42 0
15 40 0
20 42 0
24 46 0
24 46 0
24 44 0
21 44 0
20 43 0
18 41 0
24 46 0
22 45 0
20 44 0
17 41 0
20 44 0
22 45 0
27 50 0
24 47 0
24 47 0
26 51 0
26 51 0
35 59 0
44 68 10
36 60 6
43 65 8
48 71 5
47 70 2
52 67 14
52 63 11
52 63 12
56 64 16
53 59 13
47 58 6
54 60 15
56 64 21
54 62 20
71 68 33
72 72 33
68 74 31
80 80 42
91 85 52
78 79 39
48 60 23
0 0 43
0 0 42
0 0 42
0 0 42
0 0 42
0 0 42
0 0 42
0 0 42
0 0 42
0 0 42
31 33 55
222 236 255
222 236 255
222 236 255
222 236 255
222 236 255
222 236 255
222 236 255
222 236 255
222 236 255
222 236 255
222 236 255
222 236 255
222 236 255
222 236 255
222 236 255
222 236 255
222 236 255
222 236 255
222 236 255
222 236 255
222 236 255
222 236 255
222 236 255
222 236 255
222 236 255
222 236 255
222 236 255
222 236 255
222 236 255
222 236 255
222 236 255
222 236 255
222 236 255
222 236 255
222 236 255
222 236 255
222 236 255
222 236 255
222 236 255
222 236 255
222 236 255
222 236 255
222 236 255
222 236 255
222 236 255
222 236 255
222 236 255
222 236 255
222 236 255
222 236 255
222 236 255
222 236 255
222 236 255
222 236 255
222 236 255
222 236 255
222 236 255
222 236 255
222 236 255
222 236 255
222 236 255
222 236 255
222 236 255
222 236 255
222 236 255
222 236 255
222 236 255
222 236 255
222 236 255
222 236 255
222 236 255
222 236 255
222 236 255
222 236 255
222 236 255
222 236 255
222 236 255
222 236 255
222 236 255
222 236 255
222 236 255
222 236 255
222 236 255
222 236 255
222 236 255
222 236 255
222 236 255
222 236 255
222 236 255
222 236 255
222 236 255
222 236 255
222 236 255
222 236 255
222 236 255
222 236 255
222 236 255
222 236 255
222 236 255
222 236 255
222 236 255
222 236 255
222 236 255
222 236 255
222 236 255
222 236 255
222 236 255
222 236 255
222 236 255
222 236 255
222 236 255
222 236 255
222 236 255
222 236 255
222 236 255
222 236 255
222 236 255
222 236 255
222 236 255
222 236 255
222 236 255
222 236 255
222 236 255
222 236 255
222 236 255
222 236 255
222 236 255
222 236 255
222 236 255
222 236 255
222 236 255
222 236 255
222 236 255
222 236 255
222 236 255
222 236 255
222 236 255
222 236 255
222 236 255
222 236 255
222 236 255
222 236 255
222 236 255
222 236 255
222 236 255
222 236 255
222 236 255
222 236 255
222 236 255
222 236 255
222 236 255
222 236 255
222 236 255
222 236 255
222 236 255
222 236 255
222 236 255
222 236 255
222 236 255
222 236 255
222 236 255
222 236 255
222 236 255
222 236 255
222 236 255
222 236 255
222 236 255
222 236 255
222 236 255
222 236 255
222 236 255
222 236 255
222 236 255
222 236 255
222 236 255
222 236 255
222 236 255
222 236 255
222 236 255
222 236 255
222 236 255
222 236 255
222 236 255
222 236 255
222 236 255
222 236 255
86 91 106
0 0 42
0 0 42
0 0 42
0 0 42
0 0 42
0 0 42
0 0 42
0 0 42
0 0 42
0 0 42
0 0 42
0 0 42
0 0 42
0 0 42
0 0 42
0 0 42
0 0 42
0 0 42
0 0 42
0 0 42
0 0 42
0 0 42
0 0 42
0 0 42
0 0 42
0 0 42
0 0 42
0 0 42
0 0 42
0 0 42
0 0 42
0 0 42
0 0 42
0 0 42
0 0 42
0 0 42
0 0 42
0 0 42
0 0 42
0 0 42
0 0 42
0 0 42
0 0 42
0 0 42
0 0 42
0 0 42
0 0 42
0 0 42
0 0 42
0 0 42
0 0 42
0 0 42
0 0 42
0 0 42
0 0 42
0 0 42
0 0 42
0 0 42
0 0 44
0 0 45
0 0 45
0 0 45
0 0 45
0 0 45
0 0 45
0 0 45
0 0 45
0 0 45
0 0 45
0 0 45
0 0 45
0 0 45
0 0 45
0 0 45
0 0 45
0 0 45
0 0 45
0 0 45
0 0 45
0 0 45
0 0 45
0 0 45
0 0 45
0 0 45
0 0 45
0 0 45
0 0 45
0 0 45
0 0 45
0 0 45
0 0 45
0 0 45
0 0 45
0 0 45
0 0 45
0 0 45
0 0 45
0 0 45
0 0 45
0 0 45
0 0 45
0 0 45
0 0 45
0 0 48
0 0 48
0 0 48
0 0 48
0 0 46
0 0 45
0 0 45
0 0 45
0 0 45
0 0 47
0 0 47
0 0 47
0 0 48
0 0 49
0 0 50
0 0 52
0 0 55
0 0 58
0 0 62
0 0 67
0 19 80
0 22 84
0 8 81
25 31 88
66 77 94
101 106 76
67 65 33
61 66 25
68 71 30
50 54 16
27 39 0
27 47 0
40 64 11
26 49 0
23 44 0
24 46 0
22 44 0
23 46 0
23 45 0
20 42 0
19 41 0
15 39 0
18 41 0
19 43 0
20 43 0
19 44 0
20 44 0
19 42 0
21 43 0
21 42 0
14 37 0
14 36 0
15 37 0
20 43 0
24 47 0
24 47 0
22 46 0
17 42 0
16 40 0
22 43 0
23 45 0
23 46 0
21 44 0
19 43 0
19 42 0
19 41 0
22 44 0
23 47 0
25 48 0
20 42 0
22 47 0
26 48 0
27 51 0
24 46 0
24 47 0
26 51 0
25 49 0
30 54 0
33 58 0
38 61 0
52 75 13
49 71 10
51 71 8
55 67 16
59 69 22
57 67 18
59 66 20
56 61 18
53 59 14
60 62 20
55 61 22
61 66 29
83 76 45
70 68 32
67 69 28
74 75 38
75 77 39
67 75 26
43 59 27
0 0 42
0 0 42
0 0 42
0 0 42
0 0 42
0 0 42
0 0 42
0 0 42
0 0 42
0 0 42
89 94 109
222 236 255
222 236 255
222 236 255
222 236 255
222 236 255
222 236 255
222 236 255
222 236 255
222 236 255
222 236 255
222 236 255
222 236 255
222 236 255
222 236 255
222 236 255
222 236 255
222 236 255
222 236 255
222 236 255
222 236 255
222 236 255
222 236 255
222 236 255
222 236 255
222 236 255
222 236 255
222 236 255
222 236 255
222 236 255
222 236 255
222 236 255
222 236 255
222 236 255
222 236 255
222 236 255
222 236 255
222 236 255
222 236 255
222 236 255
222 236 255
222 236 255
222 236 255
222 236 255
222 236 255
222 236 255
222 236 255
222 236 255
222 236 255
222 236 255
222 236 255
222 236 255
222 236 255
222 236 255
222 236 255
222 236 255
222 236 255
222 236 255
222 236 255
222 236 255
222 236 255
222 236 255
222 236 255
222 236 255
222 236 255
222 236 255
222 236 255
222 236 255
222 236 255
222 236 255
222 236 255
222 236 255
222 236 255
222 236 255
222 236 255
222 236 255
222 236 255
222 236 255
222 236 255
222 236 255
222 236 255
222 236 255
222 236 255
222 236 255
222 236 255
222 236 255
222 236 255
222 236 255
222 236 255
222 236 255
222 236 255
222 236 255
222 236 255
222 236 255
222 236 255
222 236 255
222 236 255
222 236 255
222 236 255
222 236 255
222 236 255
222 236 255
222 236 255
222 236 255
222 236 255
222 236 255
222 236 255
222 236 255
222 236 255
222 236 255
222 236 255
222 236 255
222 236 255
222 236 255
222 236 255
222 236 255
222 236 255
222 236 255
222 236 255
222 236 255
222 236 255
222 236 255
222 236 255
222 236 255
222 236 255
222 236 255
222 236 255
222 236 255
222 236 255
222 236 255
222 236 255
222 236 255
222 236 255
222 236 255
222 236 255
222 236 255
222 236 255
222 236 255
222 236 255
222 236 255
222 236 255
222 236 255
222 236 255
222 236 255
222 236 255
222 236 255
222 236 255
222 236 255
222 236 255
222 236 255
222 236 255
222 236 255
222 236 255
222 236 255
222 236 255
222 236 255
222 236 255
222 236 255
222 236 255
222 236 255
222 236 255
222 236 255
222 236 255
222 236 255
222 236 255
222 236 255
222 236 255
222 236 255
222 236 255
222 236 255
222 236 255
222 236 255
222 236 255
222 236 255
222 236 255
222 236 255
222 236 255
222 236 255
222 236 255
222 236 255
222 236 255
222 236 255
222 236 255
222 236 255
222 236 255
222 236 255
222 236 255
139 147 163
0 0 42
0 0 42
0 0 42
0 0 42
0 0 42
0 0 42
0 0 42
0 0 44
0 0 44
0 0 44
0 0 44
0 0 44
0 0 44
0 0 44
0 0 44
0 0 42
0 0 42
0 0 42
0 0 42
0 0 42
0 0 42
0 0 42
0 0 42
0 0 42
0 0 42
0 0 42
0 0 42
0 0 42
0 0 42
0 0 42
0 0 42
0 0 42
0 0 42
0 0 42
0 0 42
0 0 42
0 0 42
0 0 42
0 0 42
0 0 42
0 0 42
0 0 42
0 0 42
0 0 42
0 0 42
0 0 42
0 0 42
0 0 42
0 0 42
0 0 42
0 0 42
0 0 42
0 0 42
0 0 42
0 0 42
0 0 42
0 0 42
0 0 42
0 0 44
0 0 45
0 0 44
0 0 44
0 0 45
0 0 45
0 0 45
0 0 45
0 0 45
0 0 44
0 0 42
0 0 42
0 0 42
0 0 42
0 0 43
0 0 44
0 0 45
0 0 45
0 0 45
0 0 45
0 0 45
0 0 45
0 0 45
0 0 45
0 0 45
0 0 45
0 0 45
0 0 45
0 0 45
0 0 45
0 0 45
0 0 45
0 0 45
0 0 45
0 0 45
0 0 45
0 0 45
0 0 45
0 0 45
0 0 45
0 0 45
0 0 45
0 0 45
0 0 45
0 0 45
0 0 47
0 0 48
0 0 48
0 0 47
0 0 45
0 0 45
0 0 45
0 0 45
0 0 45
0 0 45
0 0 45
0 0 45
0 0 45
0 0 47
0 0 48
0 0 51
0 0 54
0 0 58
0 0 60
0 3 67
0 17 80
0 18 78
0 12 67
0 6 71
0 14 84
58 63 89
92 90 62
61 65 24
78 76 38
69 68 32
36 45 0
29 50 0
32 55 1
27 47 0
24 46 0
26 48 0
21 45 0
22 45 0
23 45 0
23 46 0
24 45 0
18 40 0
18 41 0
20 42 0
22 44 0
20 43 0
19 43 0
19 42 0
19 42 0
20 42 0
16 38 0
15 38 0
16 37 0
19 43 0
24 47 0
24 48 0
19 44 0
18 42 0
20 44 0
22 45 0
20 43 0
19 42 0
19 43 0
19 44 0
19 42 0
19 41 0
20 43 0
21 44 0
27 49 0
22 46 0
22 45 0
24 47 0
27 51 0
25 46 0
24 47 0
26 50 0
26 50 0
29 53 0
24 49 0
37 61 0
48 70 11
51 71 15
56 75 17
59 69 23
54 64 16
57 64 16
54 60 18
54 58 18
52 60 16
56 61 17
57 62 24
67 70 35
82 76 41
75 71 35
72 71 30
73 75 37
69 77 36
58 73 19
31 45 34
0 0 42
0 0 42
0 0 42
0 0 42
0 0 42
0 0 42
0 0 42
0 0 42
0 0 42
0 0 42
115 122 137
222 236 255
222 236 255
222 236 255
222 236 255
222 236 255
222 236 255
222 236 255
222 236 255
222 236 255
222 236 255
222 236 255
222 236 255
222 236 255
222 236 255
222 236 255
222 236 255
222 236 255
222 236 255
222 236 255
222 236 255
222 236 255
222 236 255
222 236 255
222 236 255
222 236 255
222 236 255
222 236 255
222 236 255
222 236 255
222 236 255
222 236 255
222 236 255
222 236 255
222 236 255
222 236 255
222 236 255
222 236 255
222 236 255
222 236 255
222 236 255
222 236 255
222 236 255
222 236 255
222 236 255
222 236 255
222 236 255
222 236 255
222 236 255
222 236 255
222 236 255
222 236 255
222 236 255
222 236 255
222 236 255
222 236 255
222 236 255
222 236 255
222 236 255
222 236 255
222 236 255
222 236 255
222 236 255
222 236 255
222 236 255
222 236 255
222 236 255
222 236 255
222 236 255
222 236 255
222 236 255
222 236 255
222 236 255
222 236 255
222 236 255
222 236 255
222 236 255
222 236 255
222 236 255
222 236 255
222 236 255
222 236 255
222 236 255
222 236 255
222 236 255
222 236 255
222 236 255
222 236 255
222 236 255
222 236 255
222 236 255
222 236 255
222 236 255
222 236 255
222 236 255
222 236 255
222 236 255
222 236 255
222 236 255
222 236 255
222 236 255
222 236 255
222 236 255
222 236 255
222 236 255
222 236 255
222 236 255
222 236 255
222 236 255
222 236 255
222 236 255
222 236 255
222 236 255
222 236 255
222 236 255
222 236 255
222 236 255
222 236 255
222 236 255
222 236 255
222 236 255
222 236 255
222 236 255
222 236 255
222 236 255
222 236 255
222 236 255
222 236 255
222 236 255
222 236 255
222 236 255
222 236 255
222 236 255
222 236 255
222 236 255
222 236 255
222 236 255
222 236 255
222 236 255
222 236 255
222 236 255
222 236 255
222 236 255
222 236 255
222 236 255
222 236 255
222 236 255
222 236 255
222 236 255
222 236 255
222 236 255
222 236 255
222 236 255
222 236 255
222 236 255
222 236 255
222 236 255
222 236 255
222 236 255
222 236 255
222 236 255
222 236 255
222 236 255
222 236 255
222 236 255
222 236 255
222 236 255
222 236 255
222 236 255
222 236 255
222 236 255
222 236 255
222 236 255
222 236 255
222 236 255
222 236 255
222 236 255
222 236 255
222 236 255
222 236 255
222 236 255
222 236 255
222 236 255
222 236 255
222 236 255
222 236 255
222 236 255
155 165 181
0 0 42
0 0 42
0 0 42
0 0 42
0 0 42
0 0 42
0 0 42
0 0 43
0 0 44
0 0 45
0 0 45
0 0 45
0 0 45
0 0 45
0 0 45
0 0 42
0 0 42
0 0 42
0 0 42
0 0 42
0 0 42
0 0 42
0 0 42
0 0 42
0 0 42
0 0 42
0 0 42
0 0 42
0 0 42
0 0 42
0 0 42
0 0 42
0 0 42
0 0 42
0 0 42
0 0 42
0 0 42
0 0 42
0 0 42
0 0 42
0 0 42
0 0 42
0 0 42
0 0 42
0 0 42
0 0 42
0 0 42
0 0 42
0 0 42
0 0 42
0 0 42
0 0 42
0 0 42
0 0 42
0 0 42
0 0 42
0 0 42
0 0 42
0 0 44
0 0 45
0 0 42
0 0 42
0 0 44
0 0 45
0 0 43
0 0 43
0 0 43
0 0 42
0 0 41
0 0 40
0 0 40
0 0 42
0 0 42
0 0 42
0 0 43
0 0 44
0 0 44
0 0 44
0 0 43
0 0 44
0 0 44
0 0 44
0 0 43
0 0 44
0 0 44
0 0 44
0 0 44
0 0 44
0 0 44
0 0 44
0 0 44
0 0 44
0 0 44
0 0 44
0 0 44
0 0 45
0 0 45
0 0 45
0 0 45
0 0 45
0 0 45
0 0 45
0 0 45
0 0 45
0 0 47
0 0 48
0 0 45
0 0 45
0 0 44
0 0 45
0 0 45
0 0 45
0 0 45
0 0 45
0 0 45
0 0 45
0 0 48
0 0 48
0 0 52
0 0 57
0 0 56
0 0 58
0 4 68
0 15 77
0 15 77
0 12 64
0 10 78
0 13 76
21 39 86
91 109 76
70 72 31
74 71 33
81 74 39
46 47 10
30 46 0
25 46 0
26 45 0
23 44 0
25 48 0
23 48 0
21 45 0
24 47 0
27 49 0
27 49 0
21 42 0
20 43 0
21 43 0
21 45 0
21 43 0
21 43 0
22 43 0
19 42 0
20 41 0
21 41 0
20 41 0
20 42 0
22 44 0
24 47 0
22 46 0
19 43 0
21 43 0
24 46 0
25 46 0
21 43 0
23 43 0
21 42 0
19 42 0
16 40 0
18 42 0
20 43 0
20 42 0
22 47 0
26 49 0
24 47 0
24 48 0
28 52 0
25 47 0
25 48 0
26 51 0
26 49 0
29 53 0
30 53 0
44 68 6
49 68 18
50 70 16
58 75 17
60 67 25
53 63 14
55 63 17
54 61 16
55 60 22
49 60 15
52 60 19
60 66 29
69 71 34
74 73 37
74 68 30
75 70 29
78 76 39
63 73 28
55 75 16
16 25 39
0 0 42
0 0 42
0 0 42
0 0 42
0 0 42
0 0 42
0 0 42
0 0 42
0 0 42
0 0 42
159 168 185
222 236 255
222 236 255
222 236 255
222 236 255
222 236 255
222 236 255
222 236 255
222 236 255
222 236 255
222 236 255
222 236 255
222 236 255
222 236 255
222 236 255
222 236 255
222 236 255
222 236 255
222 236 255
222 236 255
222 236 255
222 236 255
222 236 255
222 236 255
222 236 255
222 236 255
222 236 255
222 236 255
222 236 255
222 236 255
222 236 255
222 236 255
222 236 255
222 236 255
222 236 255
222 236 255
222 236 255
222 236 255
222 236 255
222 236 255
222 236 255
222 236 255
222 236 255
222 236 255
222 236 255
222 236 255
222 236 255
222 236 255
222 236 255
222 236 255
222 236 255
222 236 255
222 236 255
222 236 255
222 236 255
222 236 255
222 236 255
222 236 255
222 236 255
222 236 255
222 236 255
222 236 255
222 236 255
222 236 255
222 236 255
222 236 255
222 236 255
222 236 255
222 236 255
222 236 255
222 236 255
222 236 255
222 236 255
222 236 255
222 236 255
222 236 255
222 236 255
222 236 255
222 236 255
222 236 255
222 236 255
222 236 255
222 236 255
222 236 255
222 236 255
222 236 255
222 236 255
222 236 255
222 236 255
222 236 255
222 236 255
222 236 255
222 236 255
222 236 255
222 236 255
222 236 255
222 236 255
222 236 255
222 236 255
222 236 255
222 236 255
222 236 255
222 236 255
222 236 255
222 236 255
222 236 255
222 236 255
222 236 255
222 236 255
222 236 255
222 236 255
222 236 255
222 236 255
222 236 255
222 236 255
222 236 255
222 236 255
222 236 255
222 236 255
222 236 255
222 236 255
222 236 255
222 236 255
222 236 255
222 236 255
222 236 255
222 236 255
222 236 255
222 236 255
222 236 255
222 236 255
222 236 255
222 236 255
222 236 255
222 236 255
222 236 255
222 236 255
222 236 255
222 236 255
222 236 255
222 236 255
222 236 255
222 236 255
222 236 255
222 236 255
222 236 255
222 236 255
222 236 255
222 236 255
222 236 255
222 236 255
222 236 255
222 236 255
222 236 255
222 236 255
222 236 255
222 236 255
222 236 255
222 236 255
222 236 255
222 236 255
222 236 255
222 236 255
222 236 255
222 236 255
222 236 255
222 236 255
222 236 255
222 236 255
222 236 255
222 236 255
222 236 255
222 236 255
222 236 255
222 236 255
222 236 255
222 236 255
222 236 255
222 236 255
222 236 255
222 236 255
222 236 255
222 236 255
222 236 255
222 236 255
222 236 255
222 236 255
187 199 216
0 0 42
0 0 42
0 0 42
0 0 42
0 0 42
0 0 42
0 0 42
0 0 42
0 0 44
0 0 45
0 0 45
0 0 45
0 0 45
0 0 45
0 0 45
0 0 42
0 0 41
0 0 42
0 0 43
0 0 42
0 0 42
0 0 42
0 0 42
0 0 42
0 0 42
0 0 42
0 0 42
0 0 42
0 0 42
0 0 42
0 0 42
0 0 42
0 0 42
0 0 42
0 0 42
0 0 42
0 0 42
0 0 42
0 0 42
0 0 42
0 0 42
0 0 42
0 0 42
0 0 42
0 0 42
0 0 42
0 0 42
0 0 42
0 0 42
0 0 42
0 0 42
0 0 42
0 0 42
0 0 42
0 0 42
0 0 42
0 0 42
0 0 42
0 0 44
0 0 43
0 0 42
0 0 42
0 0 42
0 0 44
0 0 42
0 0 42
0 0 42
0 0 41
0 0 39
0 0 39
0 0 39
0 0 42
0 0 42
0 0 42
0 0 42
0 0 42
0 0 42
0 0 42
0 0 42
0 0 42
0 0 42
0 0 42
0 0 42
0 0 42
0 0 42
0 0 42
0 0 42
0 0 42
0 0 42
0 0 42
0 0 42
0 0 42
0 0 40
0 0 41
0 0 43
0 0 45
0 0 45
0 0 45
0 0 45
0 0 45
0 0 45
0 0 45
0 0 45
0 0 45
0 0 45
0 0 46
0 0 45
0 0 45
0 0 43
0 0 45
0 0 45
0 0 46
0 0 45
0 0 45
0 0 45
0 0 46
0 0 48
0 0 48
0 0 49
0 0 54
0 0 55
0 0 59
0 10 69
0 9 73
0 9 73
0 5 71
0 8 72
0 19 83
0 33 91
52 67 91
82 88 74
75 74 32
75 64 29
62 60 25
35 48 9
32 54 10
24 46 0
23 46 0
29 52 0
31 54 0
23 46 0
22 46 0
24 46 0
24 46 0
20 44 0
23 46 0
23 48 0
26 50 0
24 46 0
24 44 0
23 45 0
21 42 0
23 42 0
24 45 0
20 44 0
24 45 0
24 46 0
23 46 0
21 43 0
23 44 0
26 46 0
22 46 0
21 43 0
21 43 0
30 51 0
23 43 0
16 40 0
15 40 0
19 43 0
24 45 0
22 45 0
22 45 0
24 48 0
24 48 0
23 49 0
28 53 0
24 47 0
24 48 0
25 51 0
25 49 0
28 51 0
30 50 0
42 66 10
49 65 17
54 68 20
53 69 18
54 63 19
57 62 17
58 63 22
52 61 17
57 62 25
44 56 14
48 57 15
59 62 24
78 69 39
78 72 40
88 80 43
88 82 44
82 79 39
68 84 26
48 69 14
5 10 41
0 0 42
0 0 42
0 0 42
0 0 42
0 0 42
0 0 42
0 0 42
0 0 42
0 0 42
0 0 42
182 193 210
222 236 255
222 236 255
222 236 255
222 236 255
222 236 255
222 236 255
222 236 255
222 236 255
222 236 255
222 236 255
222 236 255
222 236 255
222 236 255
222 236 255
222 236 255
222 236 255
222 236 255
222 236 255
222 236 255
222 236 255
222 236 255
222 236 255
222 236 255
222 236 255
222 236 255
222 236 255
222 236 255
222 236 255
222 236 255
222 236 255
222 236 255
222 236 255
222 236 255
222 236 255
222 236 255
222 236 255
222 236 255
222 236 255
222 236 255
222 236 255
222 236 255
222 236 255
222 236 255
222 236 255
222 236 255
222 236 255
222 236 255
222 236 255
222 236 255
222 236 255
222 236 255
222 236 255
222 236 255
222 236 255
222 236 255
222 236 255
222 236 255
222 236 255
222 236 255
222 236 255
222 236 255
222 236 255
222 236 255
222 236 255
222 236 255
222 236 255
222 236 255
222 236 255
222 236 255
222 236 255
222 236 255
222 236 255
222 236 255
222 236 255
222 236 255
222 236 255
222 236 255
222 236 255
222 236 255
222 236 255
222 236 255
222 236 255
222 236 255
222 236 255
222 236 255
222 236 255
222 236 255
222 236 255
222 236 255
222 236 255
222 236 255
222 236 255
222 236 255
222 236 255
222 236 255
222 236 255
222 236 255
222 236 255
222 236 255
222 236 255
222 236 255
222 236 255
222 236 255
222 236 255
222 236 255
222 236 255
222 236 255
222 236 255
222 236 255
222 236 255
222 236 255
222 236 255
222 236 255
222 236 255
222 236 255
222 236 255
222 236 255
222 236 255
222 236 255
222 236 255
222 236 255
222 236 255
222 236 255
222 236 255
222 236 255
222 236 255
222 236 255
222 236 255
222 236 255
222 236 255
222 236 255
222 236 255
222 236 255
222 236 255
222 236 255
222 236 255
222 236 255
222 236 255
222 236 255
222 236 255
222 236 255
222 236 255
222 236 255
222 236 255
222 236 255
222 236 255
222 236 255
222 236 255
222 236 255
222 236 255
222 236 255
222 236 255
222 236 255
222 236 255
222 236 255
222 236 255
222 236 255
222 236 255
222 236 255
222 236 255
222 236 255
222 236 255
222 236 255
222 236 255
222 236 255
222 236 255
222 236 255
222 236 255
222 236 255
222 236 255
222 236 255
222 236 255
222 236 255
222 236 255
222 236 255
222 236 255
222 236 255
222 236 255
222 236 255
222 236 255
222 236 255
222 236 255
222 236 255
222 236 255
222 236 255
222 236 255
205 218 236
0 0 42
0 0 42
0 0 42
0 0 42
0 0 42
0 0 42
0 0 42
0 0 42
0 0 43
0 0 45
0 0 45
0 0 45
0 0 45
0 0 45
0 0 45
0 0 44
0 0 43
0 0 41
0 0 42
0 0 42
0 0 42
0 0 42
0 0 42
0 0 42
0 0 42
0 0 42
0 0 42
0 0 42
0 0 42
0 0 42
0 0 42
0 0 42
0 0 42
0 0 42
0 0 42
0 0 42
0 0 42
0 0 42
0 0 42
0 0 42
0 0 42
0 0 42
0 0 42
0 0 42
0 0 42
0 0 42
0 0 42
0 0 42
0 0 42
0 0 42
0 0 42
0 0 42
0 0 42
0 0 42
0 0 42
0 0 42
0 0 42
0 0 42
0 0 42
0 0 42
0 0 42
0 0 42
0 0 42
0 0 42
0 0 42
0 0 42
0 0 42
0 0 42
0 0 42
0 0 42
0 0 42
0 0 42
0 0 42
0 0 42
0 0 42
0 0 42
0 0 42
0 0 42
0 0 42
0 0 42
0 0 42
0 0 42
0 0 42
0 0 42
0 0 42
0 0 42
0 0 42
0 0 42
0 0 42
0 0 42
0 0 42
0 0 42
0 0 41
0 0 42
0 0 44
0 0 45
0 0 45
0 0 45
0 0 45
0 0 45
0 0 45
0 0 45
0 0 45
0 0 45
0 0 45
0 0 45
0 0 45
0 0 45
0 0 44
0 0 45
0 0 45
0 0 45
0 0 43
0 0 43
0 0 45
0 0 47
0 0 47
0 0 46
0 0 50
0 0 54
0 0 53
0 0 56
0 4 62
0 0 66
0 3 65
0 1 67
0 8 72
0 23 85
0 34 95
22 38 102
94 95 101
88 87 60
72 64 36
77 72 37
49 51 19
32 55 4
31 51 0
31 50 0
38 55 0
35 57 0
24 50 0
25 48 0
25 47 0
24 44 0
24 46 0
24 47 0
24 45 0
21 42 0
21 44 0
23 44 0
21 46 0
20 43 0
21 44 0
30 51 0
27 48 0
26 46 0
27 46 0
25 46 0
26 47 0
26 47 0
32 53 0
24 44 0
22 41 0
26 45 0
29 47 0
22 42 0
20 43 0
17 40 0
17 42 0
24 48 0
24 48 0
23 46 0
20 44 0
21 46 0
23 49 0
27 52 0
24 50 0
20 49 0
21 48 0
22 47 0
28 51 0
33 55 0
34 56 2
47 60 10
56 68 22
56 69 21
57 64 20
62 65 21
60 64 25
55 59 18
59 64 25
42 51 9
59 64 28
69 67 35
84 76 47
88 76 46
98 84 51
86 80 43
80 95 33
59 83 18
33 50 31
0 0 40
0 0 42
0 0 42
0 0 42
0 0 42
0 0 42
0 0 42
0 0 42
0 0 42
0 0 42
0 0 42
202 215 233
222 236 255
222 236 255
222 236 255
222 236 255
222 236 255
222 236 255
222 236 255
222 236 255
222 236 255
222 236 255
222 236 255
222 236 255
222 236 255
222 236 255
222 236 255
222 236 255
222 236 255
222 236 255
222 236 255
222 236 255
222 236 255
222 236 255
222 236 255
222 236 255
222 236 255
222 236 255
222 236 255
222 236 255
222 236 255
222 236 255
222 236 255
222 236 255
222 236 255
222 236 255
222 236 255
222 236 255
222 236 255
222 236 255
222 236 255
222 236 255
222 236 255
222 236 255
222 236 255
222 236 255
222 236 255
222 236 255
222 236 255
222 236 255
222 236 255
222 236 255
222 236 255
222 236 255
222 236 255
222 236 255
222 236 255
222 236 255
222 236 255
222 236 255
222 236 255
222 236 255
222 236 255
222 236 255
222 236 255
222 236 255
222 236 255
222 236 255
222 236 255
222 236 255
222 236 255
222 236 255
222 236 255
222 236 255
222 236 255
222 236 255
222 236 255
222 236 255
222 236 255
222 236 255
222 236 255
222 236 255
222 236 255
222 236 255
222 236 255
222 236 255
222 236 255
222 236 255
222 236 255
222 236 255
222 236 255
222 236 255
222 236 255
222 236 255
222 236 255
222 236 255
222 236 255
222 236 255
222 236 255
222 236 255
222 236 255
222 236 255
222 236 255
222 236 255
222 236 255
222 236 255
222 236 255
222 236 255
222 236 255
222 236 255
222 236 255
222 236 255
222 236 255
222 236 255
222 236 255
222 236 255
222 236 255
222 236 255
222 236 255
222 236 255
222 236 255
222 236 255
222 236 255
222 236 255
222 236 255
222 236 255
222 236 255
222 236 255
222 236 255
222 236 255
222 236 255
222 236 255
222 236 255
222 236 255
222 236 255
222 236 255
222 236 255
222 236 255
222 236 255
222 236 255
222 236 255
222 236 255
222 236 255
222 236 255
222 236 255
222 236 255
222 236 255
222 236 255
222 236 255
222 236 255
222 236 255
222 236 255
222 236 255
222 236 255
222 236 255
222 236 255
222 236 255
222 236 255
222 236 255
222 236 255
222 236 255
222 236 255
222 236 255
222 236 255
222 236 255
222 236 255
222 236 255
222 236 255
222 236 255
222 236 255
222 236 255
222 236 255
222 236 255
222 236 255
222 236 255
222 236 255
222 236 255
222 236 255
222 236 255
222 236 255
222 236 255
222 236 255
222 236 255
222 236 255
222 236 255
222 236 255
222 236 255
222 236 255
221 235 254
38 40 60
0 0 42
0 0 42
0 0 42
0 0 42
0 0 42
0 0 42
0 0 42
0 0 42
0 0 43
0 0 45
0 0 45
0 0 45
0 0 45
0 0 45
0 0 44
0 0 43
0 0 42
0 0 41
0 0 42
0 0 42
0 0 42
0 0 42
0 0 42
0 0 42
0 0 42
0 0 42
0 0 42
0 0 42
0 0 42
0 0 42
0 0 42
0 0 42
0 0 42
0 0 42
0 0 42
0 0 42
0 0 42
0 0 42
0 0 42
0 0 42
0 0 42
0 0 42
0 0 42
0 0 42
0 0 42
0 0 42
0 0 42
0 0 42
0 0 42
0 0 42
0 0 42
0 0 42
0 0 42
0 0 42
0 0 42
0 0 42
0 0 42
0 0 42
0 0 42
0 0 42
0 0 42
0 0 42
0 0 42
0 0 42
0 0 42
0 0 42
0 0 42
0 0 42
0 0 42
0 0 42
0 0 42
0 0 42
0 0 42
0 0 42
0 0 42
0 0 42
0 0 42
0 0 42
0 0 42
0 0 42
0 0 42
0 0 42
0 0 42
0 0 42
0 0 42
0 0 42
0 0 42
0 0 42
0 0 42
0 0 42
0 0 42
0 0 42
0 0 43
0 0 45
0 0 45
0 0 45
0 0 45
0 0 45
0 0 45
0 0 45
0 0 45
0 0 45
0 0 45
0 0 45
0 0 45
0 0 45
0 0 45
0 0 45
0 0 45
0 0 45
0 0 45
0 0 45
0 0 45
0 0 45
0 0 45
0 0 45
0 0 45
0 0 50
0 0 53
0 0 57
0 0 62
0 0 64
0 0 63
0 0 62
0 0 68
0 11 72
0 28 85
0 48 107
0 36 94
63 80 105
111 107 87
72 67 41
78 76 38
60 60 28
34 51 7
32 55 0
31 52 0
32 51 0
29 52 0
20 45 0
25 46 0
27 47 0
26 47 0
24 45 0
24 46 0
24 45 0
22 43 0
22 44 0
22 43 0
24 47 0
22 46 0
25 48 0
31 53 0
28 49 0
28 49 0
26 47 0
25 46 0
28 49 0
27 48 0
27 48 0
27 48 0
24 44 0
26 46 0
21 41 0
23 44 0
23 44 0
20 41 0
23 44 0
24 46 0
24 48 0
27 50 0
25 50 0
28 51 0
26 49 0
32 54 0
31 54 0
25 49 0
23 47 0
25 49 0
24 47 0
34 58 0
34 54 0
47 59 14
54 66 21
54 65 19
61 65 24
75 77 38
62 64 29
67 66 29
53 61 21
49 56 20
66 68 38
84 80 52
86 83 52
99 84 53
90 81 43
77 80 28
66 90 19
48 73 17
6 12 45
0 0 39
0 0 42
0 0 42
0 0 42
0 0 42
0 0 42
0 0 42
0 0 42
0 0 42
0 0 42
31 33 55
221 235 254
222 236 255
222 236 255
222 236 255
222 236 255
222 236 255
222 236 255
222 236 255
222 236 255
222 236 255
222 236 255
222 236 255
222 236 255
222 236 255
222 236 255
222 236 255
222 236 255
222 236 255
222 236 255
222 236 255
222 236 255
222 236 255
222 236 255
222 236 255
222 236 255
222 236 255
222 236 255
222 236 255
222 236 255
222 236 255
222 236 255
222 236 255
222 236 255
222 236 255
222 236 255
222 236 255
222 236 255
222 236 255
222 236 255
222 236 255
222 236 255
222 236 255
222 236 255
222 236 255
222 236 255
222 236 255
222 236 255
222 236 255
222 236 255
222 236 255
222 236 255
222 236 255
222 236 255
222 236 255
222 236 255
222 236 255
222 236 255
222 236 255
222 236 255
222 236 255
222 236 255
222 236 255
222 236 255
222 236 255
222 236 255
222 236 255
222 236 255
222 236 255
222 236 255
222 236 255
222 236 255
222 236 255
222 236 255
222 236 255
222 236 255
222 236 255
222 236 255
222 236 255
222 236 255
222 236 255
222 236 255
222 236 255
222 236 255
222 236 255
222 236 255
222 236 255
222 236 255
222 236 255
222 236 255
222 236 255
222 236 255
222 236 255
222 236 255
222 236 255
222 236 255
222 236 255
222 236 255
222 236 255
222 236 255
222 236 255
222 236 255
222 236 255
222 236 255
222 236 255
222 236 255
222 236 255
222 236 255
222 236 255
222 236 255
222 236 255
222 236 255
222 236 255
222 236 255
222 236 255
222 236 255
222 236 255
222 236 255
222 236 255
222 236 255
222 236 255
222 236 255
222 236 255
222 236 255
222 236 255
222 236 255
222 236 255
222 236 255
222 236 255
222 236 255
222 236 255
222 236 255
222 236 255
222 236 255
222 236 255
222 236 255
222 236 255
222 236 255
222 236 255
222 236 255
222 236 255
222 236 255
222 236 255
222 236 255
222 236 255
222 236 255
222 236 255
222 236 255
222 236 255
222 236 255
222 236 255
222 236 255
222 236 255
222 236 255
222 236 255
222 236 255
222 236 255
222 236 255
222 236 255
222 236 255
222 236 255
222 236 255
222 236 255
222 236 255
222 236 255
222 236 255
222 236 255
222 236 255
222 236 255
222 236 255
222 236 255
222 236 255
222 236 255
222 236 255
222 236 255
222 236 255
222 236 255
222 236 255
222 236 255
222 236 255
222 236 255
222 236 255
222 236 255
222 236 255
222 236 255
222 236 255
222 236 255
222 236 255
222 236 255
99 105 120
0 0 42
0 0 42
0 0 42
0 0 42
0 0 42
0 0 42
0 0 42
0 0 42
0 0 42
0 0 43
0 0 45
0 0 45
0 0 45
0 0 45
0 0 44
0 0 44
0 0 43
0 0 41
0 0 42
0 0 42
0 0 42
0 0 42
0 0 42
0 0 42
0 0 42
0 0 42
0 0 42
0 0 42
0 0 42
0 0 42
0 0 42
0 0 42
0 0 42
0 0 42
0 0 42
0 0 42
0 0 42
0 0 42
0 0 42
0 0 42
0 0 42
0 0 42
0 0 42
0 0 42
0 0 42
0 0 42
0 0 42
0 0 42
0 0 42
0 0 42
0 0 42
0 0 42
0 0 42
0 0 42
0 0 42
0 0 42
0 0 42
0 0 42
0 0 42
0 0 42
0 0 42
0 0 42
0 0 42
0 0 42
0 0 42
0 0 42
0 0 42
0 0 42
0 0 42
0 0 42
0 0 42
0 0 42
0 0 42
0 0 42
0 0 42
0 0 42
0 0 42
0 0 42
0 0 42
0 0 42
0 0 42
0 0 42
0 0 42
0 0 42
0 0 42
0 0 42
0 0 42
0 0 42
0 0 42
0 0 42
0 0 42
0 0 42
0 0 43
0 0 45
0 0 45
0 0 45
0 0 45
0 0 45
0 0 45
0 0 45
0 0 45
0 0 45
0 0 45
0 0 45
0 0 45
0 0 45
0 0 45
0 0 45
0 0 45
0 0 45
0 0 45
0 0 45
0 0 45
0 0 46
0 0 46
0 0 46
0 0 46
0 0 48
0 0 55
0 0 60
0 0 64
0 0 64
0 0 60
0 0 59
0 0 63
0 5 67
0 18 76
0 42 100
0 38 98
20 48 99
113 109 95
82 76 44
76 73 38
70 70 35
50 56 25
37 53 7
30 51 0
27 49 0
26 50 0
21 42 0
22 42 0
25 47 0
25 47 0
26 46 0
26 47 0
27 47 0
26 46 0
22 45 0
23 45 0
21 44 0
27 52 0
36 60 1
34 57 3
31 52 0
31 53 0
27 48 0
27 46 0
26 47 0
25 46 0
29 50 0
35 56 0
34 55 0
30 51 0
20 43 0
23 44 0
18 41 0
20 42 0
26 47 0
25 49 0
29 53 0
34 59 0
33 58 0
41 65 6
37 58 0
43 64 7
32 54 0
28 51 0
25 48 0
28 51 0
28 49 0
40 62 13
37 54 3
49 61 17
58 68 26
54 62 19
62 66 27
83 82 44
71 70 36
67 68 31
53 61 24
58 59 29
72 69 42
77 71 41
71 68 36
79 71 34
74 74 30
66 76 23
58 81 13
29 43 37
0 0 39
0 0 44
0 0 42
0 0 42
0 0 42
0 0 42
0 0 42
0 0 42
0 0 42
0 0 42
0 0 42
122 129 144
222 236 255
222 236 255
222 236 255
222 236 255
222 236 255
222 236 255
222 236 255
222 236 255
222 236 255
222 236 255
222 236 255
222 236 255
222 236 255
222 236 255
222 236 255
222 236 255
222 236 255
222 236 255
222 236 255
222 236 255
222 236 255
222 236 255
222 236 255
222 236 255
222 236 255
222 236 255
222 236 255
222 236 255
222 236 255
222 236 255
222 236 255
222 236 255
222 236 255
222 236 255
222 236 255
222 236 255
222 236 255
222 236 255
222 236 255
222 236 255
222 236 255
222 236 255
222 236 255
222 236 255
222 236 255
222 236 255
222 236 255
222 236 255
222 236 255
222 236 255
222 236 255
222 236 255
222 236 255
222 236 255
222 236 255
222 236 255
222 236 255
222 236 255
222 236 255
222 236 255
222 236 255
222 236 255
222 236 255
222 236 255
222 236 255
222 236 255
222 236 255
222 236 255
222 236 255
222 236 255
222 236 255
222 236 255
222 236 255
222 236 255
222 236 255
222 236 255
222 236 255
222 236 255
222 236 255
222 236 255
222 236 255
222 236 255
222 236 255
222 236 255
222 236 255
222 236 255
222 236 255
222 236 255
222 236 255
222 236 255
222 236 255
222 236 255
222 236 255
222 236 255
222 236 255
222 236 255
222 236 255
222 236 255
222 236 255
222 236 255
222 236 255
222 236 255
222 236 255
222 236 255
222 236 255
222 236 255
222 236 255
222 236 255
222 236 255
222 236 255
222 236 255
222 236 255
222 236 255
222 236 255
222 236 255
222 236 255
222 236 255
222 236 255
222 236 255
222 236 255
222 236 255
222 236 255
222 236 255
222 236 255
222 236 255
222 236 255
222 236 255
222 236 255
222 236 255
222 236 255
222 236 255
222 236 255
222 236 255
222 236 255
222 236 255
222 236 255
222 236 255
222 236 255
222 236 255
222 236 255
222 236 255
222 236 255
222 236 255
222 236 255
222 236 255
222 236 255
222 236 255
222 236 255
222 236 255
222 236 255
222 236 255
222 236 255
222 236 255
222 236 255
222 236 255
222 236 255
222 236 255
222 236 255
222 236 255
222 236 255
222 236 255
222 236 255
222 236 255
222 236 255
222 236 255
222 236 255
222 236 255
222 236 255
222 236 255
222 236 255
222 236 255
222 236 255
222 236 255
222 236 255
222 236 255
222 236 255
222 236 255
222 236 255
222 236 255
222 236 255
222 236 255
222 236 255
222 236 255
222 236 255
222 236 255
222 236 255
222 236 255
222 236 255
152 162 178
0 0 42
0 0 42
0 0 42
0 0 42
0 0 42
0 0 42
0 0 42
0 0 42
0 0 42
0 0 42
0 0 43
0 0 45
0 0 45
0 0 45
0 0 45
0 0 45
0 0 43
0 0 41
0 0 42
0 0 42
0 0 42
0 0 42
0 0 42
0 0 42
0 0 42
0 0 42
0 0 42
0 0 42
0 0 42
0 0 42
0 0 42
0 0 42
0 0 42
0 0 42
0 0 42
0 0 42
0 0 42
0 0 42
0 0 42
0 0 42
0 0 42
0 0 42
0 0 42
0 0 42
0 0 42
0 0 42
0 0 42
0 0 42
0 0 42
0 0 42
0 0 42
0 0 42
0 0 42
0 0 42
0 0 42
0 0 42
0 0 42
0 0 42
0 0 42
0 0 42
0 0 42
0 0 42
0 0 42
0 0 42
0 0 42
0 0 42
0 0 42
0 0 42
0 0 42
0 0 42
0 0 42
0 0 42
0 0 42
0 0 42
0 0 42
0 0 42
0 0 42
0 0 42
0 0 42
0 0 42
0 0 42
0 0 42
0 0 42
0 0 42
0 0 42
0 0 42
0 0 42
0 0 42
0 0 42
0 0 42
0 0 42
0 0 42
0 0 42
0 0 43
0 0 42
0 0 43
0 0 43
0 0 43
0 0 43
0 0 45
0 0 45
0 0 45
0 0 45
0 0 45
0 0 45
0 0 45
0 0 45
0 0 45
0 0 45
0 0 45
0 0 45
0 0 45
0 0 46
0 0 48
0 0 48
0 0 48
0 0 50
0 0 47
0 0 50
0 0 57
0 0 65
0 0 66
0 0 60
0 0 60
0 0 59
0 0 65
0 4 70
0 20 82
0 32 94
0 30 97
67 79 89
100 91 61
77 68 38
75 71 35
72 70 38
47 56 17
31 49 0
24 46 0
21 45 0
24 45 0
24 43 0
24 43 0
24 45 0
27 47 0
28 47 0
25 47 0
25 46 0
26 47 0
25 46 0
26 48 0
32 53 0
41 63 8
40 63 6
32 53 0
27 48 0
25 45 0
28 49 0
27 49 0
25 49 0
35 57 0
40 62 0
43 65 0
34 56 0
22 47 0
24 45 0
22 44 0
23 45 0
27 48 0
28 51 0
29 54 0
30 54 0
32 56 0
46 68 8
51 73 16
48 69 16
32 54 0
30 53 0
31 52 6
38 57 7
38 55 6
39 54 11
43 54 15
48 61 20
61 68 27
53 61 20
64 69 29
82 76 40
68 66 35
52 60 18
51 56 21
70 66 40
77 72 44
83 71 44
73 67 35
70 72 28
72 76 31
68 78 27
42 61 24
2 3 44
0 0 40
0 0 44
0 0 42
0 0 42
0 0 42
0 0 42
0 0 42
0 0 42
0 0 42
0 0 42
0 0 42
139 147 163
222 236 255
222 236 255
222 236 255
222 236 255
222 236 255
222 236 255
222 236 255
222 236 255
222 236 255
222 236 255
222 236 255
222 236 255
222 236 255
222 236 255
222 236 255
222 236 255
222 236 255
222 236 255
222 236 255
222 236 255
222 236 255
222 236 255
222 236 255
222 236 255
222 236 255
222 236 255
222 236 255
222 236 255
222 236 255
222 236 255
222 236 255
222 236 255
222 236 255
222 236 255
222 236 255
222 236 255
222 236 255
222 236 255
222 236 255
222 236 255
222 236 255
222 236 255
222 236 255
222 236 255
222 236 255
222 236 255
222 236 255
222 236 255
222 236 255
222 236 255
222 236 255
222 236 255
222 236 255
222 236 255
222 236 255
222 236 255
222 236 255
222 236 255
222 236 255
222 236 255
222 236 255
222 236 255
222 236 255
222 236 255
222 236 255
222 236 255
222 236 255
222 236 255
222 236 255
222 236 255
222 236 255
222 236 255
222 236 255
222 236 255
222 236 255
222 236 255
222 236 255
222 236 255
222 236 255
222 236 255
222 236 255
222 236 255
222 236 255
222 236 255
222 236 255
222 236 255
222 236 255
222 236 255
222 236 255
222 236 255
222 236 255
222 236 255
222 236 255
222 236 255
222 236 255
222 236 255
222 236 255
222 236 255
222 236 255
222 236 255
222 236 255
222 236 255
222 236 255
222 236 255
222 236 255
222 236 255
222 236 255
222 236 255
222 236 255
222 236 255
222 236 255
222 236 255
222 236 255
222 236 255
222 236 255
222 236 255
222 236 255
222 236 255
222 236 255
222 236 255
222 236 255
222 236 255
222 236 255
222 236 255
222 236 255
222 236 255
222 236 255
222 236 255
222 236 255
222 236 255
222 236 255
222 236 255
222 236 255
222 236 255
222 236 255
222 236 255
222 236 255
222 236 255
222 236 255
222 236 255
222 236 255
222 236 255
222 236 255
222 236 255
222 236 255
222 236 255
222 236 255
222 236 255
222 236 255
222 236 255
222 236 255
222 236 255
222 236 255
222 236 255
222 236 255
222 236 255
223 236 255
223 236 255
222 236 255
222 236 255
222 236 255
223 236 255
223 236 255
223 236 255
223 236 255
223 236 255
223 236 255
223 236 255
223 236 255
223 236 255
223 236 255
223 236 255
223 236 255
223 236 255
223 236 255
223 236 255
223 236 255
223 236 255
223 236 255
223 236 255
223 236 255
223 236 255
223 236 255
223 236 255
223 236 255
223 236 255
223 236 255
223 236 255
175 186 203
0 0 42
0 0 42
0 0 42
0 0 42
0 0 42
0 0 42
0 0 42
0 0 42
0 0 42
0 0 42
0 0 42
0 0 45
0 0 45
0 0 45
0 0 45
0 0 43
0 0 43
0 0 44
0 0 42
0 0 42
0 0 42
0 0 42
0 0 42
0 0 42
0 0 42
0 0 42
0 0 42
0 0 42
0 0 42
0 0 42
0 0 42
0 0 42
0 0 42
0 0 42
0 0 42
0 0 42
0 0 42
0 0 42
0 0 42
0 0 42
0 0 42
0 0 42
0 0 42
0 0 42
0 0 42
0 0 42
0 0 42
0 0 42
0 0 42
0 0 42
0 0 42
0 0 42
0 0 42
0 0 42
0 0 42
0 0 42
0 0 42
0 0 42
0 0 42
0 0 42
0 0 42
0 0 42
0 0 42
0 0 42
0 0 42
0 0 42
0 0 42
0 0 42
0 0 42
0 0 42
0 0 42
0 0 42
0 0 42
0 0 42
0 0 42
0 0 42
0 0 42
0 0 42
0 0 42
0 0 42
0 0 42
0 0 42
0 0 42
0 0 42
0 0 42
0 0 42
0 0 42
0 0 42
0 0 42
0 0 42
0 0 42
0 0 42
0 0 42
0 0 42
0 0 42
0 0 42
0 0 42
0 0 42
0 0 42
0 0 45
0 0 45
0 0 45
0 0 45
0 0 45
0 0 45
0 0 45
0 0 45
0 0 45
0 0 45
0 0 45
0 0 45
0 0 46
0 0 48
0 0 48
0 0 48
0 0 48
0 0 48
0 0 50
0 0 59
0 0 64
0 0 64
0 0 60
0 0 57
0 0 58
0 0 60
0 8 66
0 6 68
0 15 75
0 28 90
0 30 95
43 56 93
103 97 92
87 75 46
79 75 43
76 72 39
55 57 19
33 48 0
25 48 0
23 44 0
26 45 0
23 46 0
24 43 0
27 47 0
28 49 0
28 48 0
25 47 0
24 45 0
28 46 0
29 50 0
29 52 0
33 54 0
35 56 0
31 50 0
25 46 0
26 45 0
27 47 0
31 52 0
28 49 0
23 46 0
27 50 0
35 57 0
50 72 11
46 68 10
28 50 0
23 43 0
21 41 0
21 44 0
25 49 0
28 52 0
30 53 0
28 52 0
28 51 0
38 60 5
49 71 17
41 60 11
27 48 0
21 42 0
35 55 7
43 60 13
45 58 18
43 55 17
42 52 13
48 60 19
62 66 26
53 62 22
68 72 32
89 81 46
59 62 25
45 57 14
55 59 26
74 70 44
78 71 42
95 77 50
71 69 29
73 77 27
72 76 26
63 74 18
18 29 39
0 0 41
0 0 42
0 0 42
0 0 42
0 0 42
0 0 42
0 0 42
0 0 42
0 0 42
0 0 42
0 0 42
0 0 42
172 183 200
223 236 255
223 236 255
223 236 255
223 236 255
223 236 255
223 236 255
223 236 255
223 236 255
223 236 255
223 236 255
223 236 255
223 236 255
223 236 255
223 236 255
223 236 255
223 236 255
223 236 255
223 236 255
223 236 255
223 236 255
223 236 255
223 236 255
223 236 255
223 236 255
223 236 255
223 236 255
223 236 255
223 236 255
222 236 255
223 236 255
222 236 255
222 236 255
222 236 255
222 236 255
222 236 255
222 236 255
222 236 255
222 236 255
222 236 255
222 236 255
222 236 255
222 236 255
222 236 255
222 236 255
222 236 255
222 236 255
222 236 255
222 236 255
222 236 255
222 236 255
222 236 255
222 236 255
222 236 255
222 236 255
222 236 255
222 236 255
222 236 255
222 236 255
222 236 255
222 236 255
222 236 255
222 236 255
222 236 255
222 236 255
222 236 255
222 236 255
222 236 255
222 236 255
222 236 255
222 236 255
222 236 255
222 236 255
222 236 255
222 236 255
222 236 255
222 236 255
222 236 255
222 236 255
222 236 255
222 236 255
222 236 255
222 236 255
222 236 255
222 236 255
222 236 255
222 236 255
222 236 255
222 236 255
222 236 255
222 236 255
222 236 255
222 236 255
222 236 255
222 236 255
223 236 255
223 236 255
223 236 255
223 236 255
223 236 255
223 236 255
223 236 255
223 236 255
223 236 255
223 236 255
223 236 255
223 236 255
223 236 255
223 236 255
223 236 255
223 236 255
223 236 255
223 236 255
223 236 255
223 236 255
223 236 255
223 236 255
223 236 255
223 236 255
223 236 255
223 236 255
223 236 255
223 236 255
223 236 255
223 236 255
223 236 255
223 236 255
223 236 255
223 236 255
223 236 255
223 236 255
223 236 255
223 236 255
223 236 255
223 236 255
223 236 255
223 236 255
223 236 255
223 236 255
223 236 255
223 236 255
223 236 255
223 236 255
223 236 255
223 236 255
223 236 255
223 236 255
223 236 255
223 236 255
223 236 255
223 236 255
223 236 255
223 236 255
223 236 255
223 236 255
223 236 255
223 236 255
223 236 255
223 236 255
223 236 255
223 236 255
223 236 255
223 236 255
223 236 255
223 236 255
223 236 255
223 236 255
223 236 255
223 236 255
223 236 255
223 236 255
223 236 255
223 236 255
223 236 255
223 236 255
223 236 255
223 236 255
223 236 255
223 236 255
223 236 255
223 236 255
223 236 255
223 236 255
223 236 255
223 236 255
223 236 255
223 236 255
223 236 255
223 236 255
209 222 240
0 0 42
0 0 42
0 0 42
0 0 42
0 0 42
0 0 42
0 0 42
0 0 42
0 0 42
0 0 42
0 0 42
0 0 44
0 0 45
0 0 45
0 0 45
0 0 43
0 0 42
0 0 42
0 0 42
0 0 42
0 0 42
0 0 42
0 0 42
0 0 42
0 0 42
0 0 42
0 0 42
0 0 42
0 0 42
0 0 42
0 0 42
0 0 42
0 0 42
0 0 42
0 0 42
0 0 42
0 0 42
0 0 42
0 0 42
0 0 42
0 0 42
0 0 42
0 0 42
0 0 42
0 0 42
0 0 42
0 0 42
0 0 42
0 0 42
0 0 42
0 0 42
0 0 42
0 0 42
0 0 42
0 0 42
0 0 42
0 0 42
0 0 42
0 0 42
0 0 42
0 0 42
0 0 42
0 0 42
0 0 42
0 0 42
0 0 42
0 0 42
0 0 42
0 0 42
0 0 42
0 0 42
0 0 42
0 0 42
0 0 42
0 0 42
0 0 42
0 0 42
0 0 42
0 0 42
0 0 42
0 0 42
0 0 42
0 0 42
0 0 42
0 0 42
0 0 42
0 0 42
0 0 42
0 0 42
0 0 42
0 0 42
0 0 42
0 0 42
0 0 42
0 0 42
0 0 42
0 0 42
0 0 42
0 0 42
0 0 45
0 0 45
0 0 45
0 0 45
0 0 45
0 0 45
0 0 45
0 0 45
0 0 45
0 0 45
0 0 45
0 0 45
0 0 47
0 0 48
0 0 48
0 0 48
0 0 49
0 0 50
0 8 62
0 0 64
0 0 59
0 0 56
0 0 54
0 0 54
0 0 54
0 0 59
0 0 63
0 0 66
0 8 75
0 23 87
0 36 97
16 35 97
92 94 104
99 91 61
78 77 46
76 75 36
58 59 20
35 48 0
31 54 0
25 45 0
26 44 0
23 44 0
26 45 0
28 48 0
27 48 0
28 47 0
27 47 0
27 45 0
26 43 0
30 50 0
35 56 0
31 51 0
29 47 0
25 45 0
29 49 0
29 50 0
27 48 0
27 49 0
24 46 0
20 43 0
24 45 0
32 53 0
45 66 4
48 70 10
38 59 7
29 49 0
19 42 0
21 43 0
30 54 0
34 57 0
39 61 5
39 62 5
30 54 0
34 54 0
34 55 0
32 54 7
24 46 0
22 42 0
30 50 0
42 59 12
46 59 18
48 59 21
42 56 16
53 62 22
61 67 26
57 65 21
62 67 28
84 78 47
78 75 43
55 59 25
64 62 32
66 63 34
61 60 29
82 70 40
57 67 19
76 77 25
66 73 23
40 54 22
0 0 41
0 0 42
0 0 42
0 0 42
0 0 42
0 0 42
0 0 42
0 0 42
0 0 42
0 0 42
0 0 42
0 0 42
0 0 42
208 220 239
223 236 255
223 236 255
223 236 255
223 236 255
223 236 255
223 236 255
223 236 255
223 236 255
223 236 255
223 236 255
223 236 255
223 236 255
223 236 255
223 236 255
223 236 255
223 236 255
223 236 255
223 236 255
223 236 255
223 236 255
223 236 255
223 236 255
223 236 255
223 236 255
223 236 255
223 236 255
223 236 255
223 236 255
223 236 255
223 236 255
223 236 255
223 236 255
223 236 255
223 236 255
223 236 255
223 236 255
223 236 255
223 236 255
223 236 255
223 236 255
223 236 255
223 236 255
223 236 255
223 236 255
223 236 255
223 236 255
223 236 255
223 236 255
223 236 255
223 236 255
223 236 255
223 236 255
223 236 255
223 236 255
223 236 255
223 236 255
223 236 255
223 236 255
223 236 255
223 236 255
223 236 255
223 236 255
223 236 255
223 236 255
223 236 255
223 236 255
223 236 255
223 236 255
223 236 255
223 236 255
223 236 255
223 236 255
223 236 255
223 236 255
223 236 255
223 236 255
223 236 255
223 236 255
223 236 255
223 236 255
223 236 255
223 236 255
223 236 255
223 236 255
223 236 255
223 236 255
223 236 255
223 236 255
223 236 255
223 236 255
223 236 255
223 236 255
223 236 255
223 236 255
223 236 255
223 236 255
223 236 255
223 236 255
223 236 255
223 236 255
223 236 255
223 236 255
223 236 255
223 236 255
223 236 255
223 236 255
223 236 255
223 236 255
223 236 255
223 236 255
223 236 255
223 236 255
223 236 255
223 236 255
223 236 255
223 236 255
223 236 255
223 236 255
223 236 255
223 236 255
223 236 255
223 236 255
223 236 255
223 236 255
223 236 255
223 236 255
223 236 255
223 236 255
223 236 255
223 236 255
223 236 255
223 236 255
223 236 255
223 236 255
223 236 255
223 236 255
223 236 255
223 236 255
223 236 255
223 236 255
223 236 255
223 236 255
223 236 255
223 236 255
223 236 255
223 236 255
223 236 255
223 236 255
223 236 255
223 236 255
223 236 255
223 236 255
223 236 255
223 236 255
223 236 255
223 236 255
223 236 255
223 236 255
223 236 255
223 236 255
223 236 255
223 236 255
223 236 255
223 236 255
223 236 255
223 236 255
223 236 255
223 236 255
223 236 255
223 236 255
223 236 255
223 236 255
223 236 255
223 236 255
223 236 255
223 236 255
223 236 255
223 236 255
223 236 255
223 236 255
223 236 255
223 236 255
223 236 255
223 236 255
223 236 255
223 236 255
223 236 255
223 236 255
223 236 255
63 66 83
0 0 42
0 0 42
0 0 42
0 0 42
0 0 42
0 0 42
0 0 42
0 0 42
0 0 42
0 0 42
0 0 42
0 0 43
0 0 45
0 0 45
0 0 43
0 0 42
0 0 42
0 0 42
0 0 42
0 0 42
0 0 42
0 0 42
0 0 42
0 0 42
0 0 42
0 0 42
0 0 42
0 0 42
0 0 42
0 0 42
0 0 42
0 0 42
0 0 42
0 0 42
0 0 42
0 0 42
0 0 42
0 0 42
0 0 42
0 0 42
0 0 42
0 0 42
0 0 42
0 0 42
0 0 42
0 0 42
0 0 42
0 0 42
0 0 42
0 0 42
0 0 42
0 0 42
0 0 42
0 0 42
0 0 42
0 0 42
0 0 42
0 0 42
0 0 42
0 0 42
0 0 42
0 0 42
0 0 42
0 0 42
0 0 42
0 0 42
0 0 42
0 0 42
0 0 42
0 0 42
0 0 42
0 0 42
0 0 42
0 0 42
0 0 42
0 0 42
0 0 42
0 0 42
0 0 42
0 0 42
0 0 42
0 0 42
0 0 42
0 0 42
0 0 42
0 0 42
0 0 42
0 0 42
0 0 42
0 0 42
0 0 42
0 0 42
0 0 42
0 0 42
0 0 42
0 0 42
0 0 42
0 0 42
0 0 45
0 0 45
0 0 45
0 0 45
0 0 45
0 0 45
0 0 45
0 0 45
0 0 45
0 0 45
0 0 45
0 0 45
0 0 47
0 0 47
0 0 46
0 0 46
0 0 53
0 0 61
0 6 63
0 0 58
0 0 53
0 0 53
0 0 51
0 0 49
0 0 49
0 0 54
0 0 59
0 0 62
0 3 69
0 16 81
0 38 98
0 30 102
56 77 115
121 114 105
78 79 43
90 79 48
86 76 46
55 53 19
50 60 18
28 47 0
25 48 0
25 46 0
27 46 0
29 48 0
24 42 0
26 45 0
27 46 0
22 43 0
24 45 0
26 49 0
28 49 0
28 47 0
26 47 0
25 46 0
30 50 0
27 48 0
25 46 0
27 48 0
24 44 0
25 46 0
27 46 0
33 52 0
43 61 4
48 69 11
43 65 9
32 52 0
22 42 0
21 43 0
30 53 0
35 58 0
35 55 5
33 54 3
30 50 2
46 61 16
40 59 11
26 48 0
23 44 0
23 45 0
29 49 0
36 54 2
48 61 17
48 60 20
44 55 16
64 71 30
62 67 26
56 66 24
60 65 30
90 82 51
76 75 42
59 63 27
63 62 31
69 64 37
67 63 30
63 61 23
56 65 16
67 74 23
51 68 10
16 26 38
0 0 41
0 0 42
0 0 42
0 0 42
0 0 42
0 0 42
0 0 42
0 0 42
0 0 42
0 0 42
0 0 42
0 0 42
54 58 74
223 236 255
223 236 255
223 236 255
223 236 255
223 236 255
223 236 255
223 236 255
223 236 255
223 236 255
223 236 255
223 236 255
223 236 255
223 236 255
223 236 255
223 236 255
223 236 255
223 236 255
223 236 255
223 236 255
223 236 255
223 236 255
223 236 255
223 236 255
223 236 255
223 236 255
223 236 255
223 236 255
223 236 255
223 236 255
223 236 255
223 236 255
223 236 255
223 236 255
223 236 255
223 236 255
223 236 255
223 236 255
223 236 255
223 236 255
223 236 255
223 236 255
223 236 255
223 236 255
223 236 255
223 236 255
223 236 255
223 236 255
223 236 255
223 236 255
223 236 255
223 236 255
223 236 255
223 236 255
223 236 255
223 236 255
223 236 255
223 236 255
223 236 255
223 236 255
223 236 255
223 236 255
223 236 255
223 236 255
223 236 255
223 236 255
223 236 255
223 236 255
223 236 255
223 236 255
223 236 255
223 236 255
223 236 255
223 236 255
223 236 255
223 236 255
223 236 255
223 236 255
223 236 255
223 236 255
223 236 255
223 236 255
223 236 255
223 236 255
223 236 255
223 236 255
223 236 255
223 236 255
223 236 255
223 236 255
223 236 255
223 236 255
223 236 255
223 236 255
223 236 255
223 236 255
223 236 255
223 236 255
223 236 255
223 236 255
223 236 255
223 236 255
223 236 255
223 236 255
223 236 255
223 236 255
223 236 255
223 236 255
223 236 255
223 236 255
223 236 255
223 236 255
223 236 255
223 236 255
223 236 255
223 236 255
223 236 255
223 236 255
223 236 255
223 236 255
223 236 255
223 236 255
223 236 255
223 236 255
223 236 255
223 236 255
223 236 255
223 236 255
223 236 255
223 236 255
223 236 255
223 236 255
223 236 255
223 236 255
223 236 255
223 236 255
223 236 255
223 236 255
223 236 255
223 236 255
223 236 255
223 236 255
223 236 255
223 236 255
223 236 255
223 236 255
223 236 255
223 236 255
223 236 255
223 236 255
223 236 255
223 236 255
223 236 255
223 236 255
223 236 255
223 236 255
223 236 255
223 236 255
223 236 255
223 236 255
223 236 255
223 236 255
223 236 255
223 236 255
223 236 255
223 236 255
223 236 255
223 236 255
223 236 255
223 236 255
223 236 255
223 236 255
223 236 255
223 236 255
223 236 255
223 236 255
223 236 255
223 236 255
223 236 255
223 236 255
223 236 255
223 236 255
223 236 255
223 236 255
223 236 255
223 236 255
223 236 255
223 236 255
223 236 255
223 236 255
223 236 255
128 136 151
0 0 42
0 0 42
0 0 42
0 0 42
0 0 42
0 0 42
0 0 42
0 0 42
0 0 42
0 0 42
0 0 42
0 0 42
0 0 43
0 0 43
0 0 43
0 0 42
0 0 42
0 0 42
0 0 42
0 0 42
0 0 42
0 0 42
0 0 42
0 0 42
0 0 42
0 0 42
0 0 42
0 0 42
0 0 42
0 0 42
0 0 42
0 0 42
0 0 42
0 0 42
0 0 42
0 0 42
0 0 42
0 0 42
0 0 42
0 0 42
0 0 42
0 0 42
0 0 42
0 0 42
0 0 42
0 0 42
0 0 42
0 0 42
0 0 42
0 0 42
0 0 42
0 0 42
0 0 42
0 0 42
0 0 42
0 0 42
0 0 42
0 0 42
0 0 42
0 0 42
0 0 42
0 0 42
0 0 42
0 0 42
0 0 42
0 0 42
0 0 42
0 0 42
0 0 42
0 0 42
0 0 42
0 0 42
0 0 42
0 0 42
0 0 42
0 0 42
0 0 42
0 0 42
0 0 42
0 0 42
0 0 42
0 0 42
0 0 42
0 0 42
0 0 42
0 0 42
0 0 42
0 0 42
0 0 42
0 0 42
0 0 42
0 0 42
0 0 42
0 0 42
0 0 42
0 0 42
0 0 42
0 0 42
0 0 43
0 0 45
0 0 45
0 0 45
0 0 45
0 0 43
0 0 45
0 0 45
0 0 45
0 0 45
0 0 45
0 0 45
0 0 47
0 0 45
0 0 45
0 0 47
0 0 53
0 0 60
0 0 60
0 0 56
0 0 54
0 0 52
0 0 49
0 0 48
0 0 46
0 0 49
0 0 55
0 0 58
0 0 65
0 11 77
0 31 90
0 41 101
0 39 94
74 98 125
106 93 73
97 79 44
96 85 51
83 78 43
56 61 20
36 49 0
25 43 0
27 48 0
22 46 0
21 42 0
24 43 0
27 45 0
26 45 0
25 43 0
24 43 0
26 47 0
27 48 0
24 46 0
22 45 0
26 47 0
32 50 0
29 47 0
34 52 0
32 52 0
22 44 0
26 48 0
31 52 0
28 50 0
37 60 0
44 65 5
36 58 0
27 49 0
31 50 0
27 48 0
27 47 0
30 53 0
27 49 0
28 48 0
47 58 15
62 67 26
40 53 8
27 46 0
21 43 0
28 49 0
34 52 0
42 55 11
47 58 19
43 55 16
51 59 23
67 73 33
59 66 24
58 66 24
59 66 29
89 81 47
70 71 35
59 61 27
66 66 37
82 71 46
74 70 37
58 62 20
62 68 18
53 71 15
31 46 30
0 0 41
0 0 43
0 0 42
0 0 42
0 0 42
0 0 42
0 0 42
0 0 42
0 0 42
0 0 42
0 0 42
0 0 42
0 0 42
130 138 153
223 236 255
223 236 255
223 236 255
223 236 255
223 236 255
223 236 255
223 236 255
223 236 255
223 236 255
223 236 255
223 236 255
223 236 255
223 236 255
223 236 255
223 236 255
223 236 255
223 236 255
223 236 255
223 236 255
223 236 255
223 236 255
223 236 255
223 236 255
223 236 255
223 236 255
223 236 255
223 236 255
223 236 255
223 236 255
223 236 255
223 236 255
223 236 255
223 236 255
223 236 255
223 236 255
223 236 255
223 236 255
223 236 255
223 236 255
223 236 255
223 236 255
223 236 255
223 236 255
223 236 255
223 236 255
223 236 255
223 236 255
223 236 255
223 236 255
223 236 255
223 236 255
223 236 255
223 236 255
223 236 255
223 236 255
223 236 255
223 236 255
223 236 255
223 236 255
223 236 255
223 236 255
223 236 255
223 236 255
223 236 255
223 236 255
223 236 255
223 236 255
223 236 255
223 236 255
223 236 255
223 236 255
223 236 255
223 236 255
223 236 255
223 236 255
223 236 255
223 236 255
223 236 255
223 236 255
223 236 255
223 236 255
223 236 255
223 236 255
223 236 255
223 236 255
223 236 255
223 236 255
223 236 255
223 236 255
223 236 255
223 236 255
223 236 255
223 236 255
223 236 255
223 236 255
223 236 255
223 236 255
223 236 255
223 236 255
223 236 255
223 236 255
223 236 255
223 236 255
223 236 255
223 236 255
223 236 255
223 236 255
223 236 255
223 236 255
223 236 255
223 236 255
223 236 255
223 236 255
223 236 255
223 236 255
223 236 255
223 236 255
223 236 255
223 236 255
223 236 255
223 236 255
223 236 255
223 236 255
223 236 255
223 236 255
223 236 255
223 236 255
223 236 255
223 236 255
223 236 255
223 236 255
223 236 255
223 236 255
223 236 255
223 236 255
223 236 255
223 236 255
223 236 255
223 236 255
223 236 255
223 236 255
223 236 255
223 236 255
223 236 255
223 236 255
223 236 255
223 236 255
223 236 255
223 236 255
223 236 255
223 236 255
223 236 255
223 236 255
223 236 255
223 236 255
223 236 255
223 236 255
223 236 255
223 236 255
223 236 255
223 236 255
223 236 255
223 236 255
223 236 255
223 236 255
223 236 255
223 236 255
223 236 255
223 236 255
223 236 255
223 236 255
223 236 255
223 236 255
223 236 255
223 236 255
223 236 255
223 236 255
223 236 255
223 236 255
223 236 255
223 236 255
223 236 255
223 236 255
223 236 255
223 236 255
223 236 255
223 236 255
223 236 255
223 236 255
223 236 255
168 178 195
0 0 42
0 0 42
0 0 42
0 0 42
0 0 42
0 0 42
0 0 42
0 0 42
0 0 42
0 0 42
0 0 42
0 0 42
0 0 42
0 0 42
0 0 42
0 0 42
0 0 42
0 0 42
0 0 42
0 0 42
0 0 42
0 0 42
0 0 42
0 0 42
0 0 42
0 0 42
0 0 42
0 0 42
0 0 42
0 0 42
0 0 42
0 0 42
0 0 42
0 0 42
0 0 42
0 0 42
0 0 42
0 0 42
0 0 42
0 0 42
0 0 42
0 0 42
0 0 42
0 0 42
0 0 42
0 0 42
0 0 42
0 0 42
0 0 42
0 0 42
0 0 42
0 0 42
0 0 42
0 0 42
0 0 42
0 0 42
0 0 42
0 0 42
0 0 42
0 0 42
0 0 42
0 0 42
0 0 42
0 0 42
0 0 42
0 0 42
0 0 42
0 0 42
0 0 42
0 0 42
0 0 42
0 0 42
0 0 42
0 0 42
0 0 42
0 0 42
0 0 42
0 0 42
0 0 42
0 0 42
0 0 42
0 0 42
0 0 42
0 0 42
0 0 42
0 0 42
0 0 42
0 0 42
0 0 42
0 0 42
0 0 42
0 0 42
0 0 42
0 0 42
0 0 42
0 0 42
0 0 42
0 0 42
0 0 43
0 0 44
0 0 45
0 0 45
0 0 44
0 0 42
0 0 45
0 0 45
0 0 45
0 0 45
0 0 45
0 0 45
0 0 47
0 0 44
0 0 44
0 0 49
0 0 53
0 0 55
0 0 56
0 0 54
0 0 52
0 0 50
0 0 48
0 0 48
0 0 47
0 0 49
0 0 52
0 0 54
0 0 61
0 11 73
0 30 91
0 39 95
0 48 119
56 80 122
107 102 104
93 84 50
89 81 49
89 82 47
65 63 25
45 51 0
29 44 0
26 47 0
26 45 0
27 44 0
27 44 0
27 47 0
23 46 0
23 42 0
24 45 0
27 48 0
27 47 0
26 46 0
28 47 0
32 51 0
39 54 0
39 53 0
44 59 8
39 54 8
32 49 4
30 49 0
28 49 0
26 49 0
27 52 0
32 53 0
39 59 6
31 52 0
35 55 0
30 49 0
37 52 0
35 55 6
29 50 0
33 50 0
57 66 24
63 69 30
34 47 5
27 47 0
21 45 0
28 47 0
43 55 10
51 59 20
49 59 22
49 59 23
60 67 31
62 67 31
58 66 25
60 68 28
58 66 29
88 82 48
66 69 34
64 65 34
74 71 44
86 74 47
71 66 34
66 62 22
61 68 22
35 56 21
7 11 46
0 0 41
0 0 42
0 0 42
0 0 42
0 0 42
0 0 42
0 0 42
0 0 42
0 0 42
0 0 42
0 0 42
0 0 42
0 0 42
175 186 203
223 236 255
223 236 255
223 236 255
223 236 255
223 236 255
223 236 255
223 236 255
223 236 255
223 236 255
223 236 255
223 236 255
223 236 255
223 236 255
223 236 255
223 236 255
223 236 255
223 236 255
223 236 255
223 236 255
223 236 255
223 236 255
223 236 255
223 236 255
223 236 255
223 236 255
223 236 255
223 236 255
223 236 255
223 236 255
223 236 255
223 236 255
223 236 255
223 236 255
223 236 255
223 236 255
223 236 255
223 236 255
223 236 255
223 236 255
223 236 255
223 236 255
223 236 255
223 236 255
223 236 255
223 236 255
223 236 255
223 236 255
223 236 255
223 236 255
223 236 255
223 236 255
223 236 255
223 236 255
223 236 255
223 236 255
223 236 255
223 236 255
223 236 255
223 236 255
223 236 255
223 236 255
223 236 255
223 236 255
223 236 255
223 236 255
223 236 255
223 236 255
223 236 255
223 236 255
223 236 255
223 236 255
223 236 255
223 236 255
223 236 255
223 236 255
223 236 255
223 236 255
223 236 255
223 236 255
223 236 255
223 236 255
223 236 255
223 236 255
223 236 255
223 236 255
223 236 255
223 236 255
223 236 255
223 236 255
223 236 255
223 236 255
223 236 255
223 236 255
223 236 255
223 236 255
223 236 255
223 236 255
223 236 255
223 236 255
223 236 255
223 236 255
223 236 255
223 236 255
223 236 255
223 236 255
223 236 255
223 236 255
223 236 255
223 236 255
223 236 255
223 236 255
223 236 255
223 236 255
223 236 255
223 236 255
223 236 255
223 236 255
223 236 255
223 236 255
223 236 255
223 236 255
223 236 255
223 236 255
223 236 255
223 236 255
223 236 255
223 236 255
223 236 255
223 236 255
223 236 255
223 236 255
223 236 255
223 236 255
223 236 255
223 236 255
223 236 255
223 236 255
223 236 255
223 236 255
223 236 255
223 236 255
223 236 255
223 236 255
223 236 255
223 236 255
223 236 255
223 236 255
223 236 255
223 236 255
223 236 255
223 236 255
223 236 255
223 236 255
223 236 255
223 236 255
223 236 255
223 236 255
223 236 255
223 236 255
223 236 255
223 236 255
223 236 255
223 236 255
223 236 255
223 236 255
223 236 255
223 236 255
223 236 255
223 236 255
223 236 255
223 236 255
223 236 255
223 236 255
223 236 255
223 236 255
223 236 255
223 236 255
223 236 255
223 236 255
223 236 255
223 236 255
223 236 255
223 236 255
223 236 255
223 236 255
223 236 255
223 236 255
223 236 255
223 236 255
223 236 255
207 219 237
0 0 42
0 0 42
0 0 42
0 0 42
0 0 42
0 0 41
0 0 41
0 0 41
0 0 42
0 0 42
0 0 42
0 0 42
0 0 42
0 0 42
0 0 42
0 0 42
0 0 42
0 0 42
0 0 42
0 0 42
0 0 42
0 0 42
0 0 42
0 0 42
0 0 42
0 0 42
0 0 42
0 0 42
0 0 42
0 0 42
0 0 42
0 0 42
0 0 42
0 0 42
0 0 42
0 0 42
0 0 42
0 0 42
0 0 42
0 0 42
0 0 42
0 0 42
0 0 42
0 0 42
0 0 42
0 0 42
0 0 42
0 0 42
0 0 42
0 0 42
0 0 42
0 0 42
0 0 42
0 0 42
0 0 42
0 0 42
0 0 42
0 0 42
0 0 42
0 0 42
0 0 42
0 0 42
0 0 42
0 0 42
0 0 42
0 0 42
0 0 42
0 0 42
0 0 42
0 0 42
0 0 42
0 0 42
0 0 42
0 0 42
0 0 42
0 0 42
0 0 42
0 0 42
0 0 42
0 0 42
0 0 42
0 0 42
0 0 42
0 0 42
0 0 42
0 0 42
0 0 42
0 0 42
0 0 42
0 0 42
0 0 42
0 0 42
0 0 42
0 0 42
0 0 42
0 0 42
0 0 42
0 0 42
0 0 42
0 0 44
0 0 45
0 0 45
0 0 43
0 0 42
0 0 45
0 0 45
0 0 45
0 0 45
0 0 45
0 0 45
0 0 46
0 0 45
0 0 45
0 0 48
0 0 51
0 0 53
0 0 53
0 0 51
0 0 51
0 0 48
0 0 48
0 0 48
0 0 46
0 0 47
0 0 50
0 0 51
0 0 58
0 22 80
0 44 104
0 38 102
0 38 104
15 39 92
79 81 102
100 91 73
94 84 51
101 90 55
88 80 43
74 72 33
45 52 12
29 41 4
39 46 6
43 49 13
39 48 10
30 47 2
27 51 0
24 49 0
23 48 0
24 48 0
25 46 0
34 49 0
38 54 0
37 55 0
45 58 0
47 56 1
48 58 12
48 60 12
44 56 14
37 50 4
26 42 0
30 48 0
27 47 0
33 52 0
43 64 12
39 60 0
33 51 0
38 52 5
51 62 17
49 61 15
38 51 7
35 48 3
56 65 25
58 68 28
39 55 11
35 52 3
39 54 9
49 61 16
61 67 27
55 60 25
50 60 22
57 65 26
65 70 34
61 65 30
53 61 23
61 66 30
67 70 36
79 75 40
69 71 39
70 68 38
78 70 46
81 72 44
73 65 32
76 65 32
46 58 11
20 36 35
0 0 42
0 0 43
0 0 42
0 0 42
0 0 42
0 0 42
0 0 42
0 0 42
0 0 42
0 0 42
0 0 42
0 0 42
0 0 42
0 0 42
208 220 239
223 236 255
223 236 255
223 236 255
223 236 255
223 236 255
223 236 255
223 236 255
223 236 255
223 236 255
223 236 255
223 236 255
223 236 255
223 236 255
223 236 255
223 236 255
223 236 255
223 236 255
223 236 255
223 236 255
223 236 255
223 236 255
223 236 255
223 236 255
223 236 255
223 236 255
223 236 255
223 236 255
223 236 255
223 236 255
223 236 255
223 236 255
223 236 255
223 236 255
223 236 255
223 236 255
223 236 255
223 236 255
223 236 255
223 236 255
223 236 255
223 236 255
223 236 255
223 236 255
223 236 255
223 236 255
223 236 255
223 236 255
223 236 255
223 236 255
223 236 255
223 236 255
223 236 255
223 236 255
223 236 255
223 236 255
223 236 255
223 236 255
223 236 255
223 236 255
223 236 255
223 236 255
223 236 255
223 236 255
223 236 255
223 236 255
223 236 255
223 236 255
223 236 255
223 236 255
223 236 255
223 236 255
223 236 255
223 236 255
223 236 255
223 236 255
223 236 255
223 236 255
223 236 255
223 236 255
223 236 255
223 236 255
223 236 255
223 236 255
223 236 255
223 236 255
223 236 255
223 236 255
223 236 255
223 236 255
223 236 255
223 236 255
223 236 255
223 236 255
223 236 255
223 236 255
223 236 255
223 236 255
223 236 255
223 236 255
223 236 255
223 236 255
223 236 255
223 236 255
223 236 255
223 236 255
223 236 255
223 236 255
223 236 255
223 236 255
223 236 255
223 236 255
223 236 255
223 236 255
223 236 255
223 236 255
223 236 255
223 236 255
223 236 255
223 236 255
223 236 255
223 236 255
223 236 255
223 236 255
223 236 255
223 236 255
223 236 255
223 236 255
223 236 255
223 236 255
223 236 255
223 236 255
223 236 255
223 236 255
223 236 255
223 236 255
223 236 255
223 236 255
223 236 255
223 236 255
223 236 255
223 236 255
223 236 255
223 236 255
223 236 255
223 236 255
223 236 255
223 236 255
223 236 255
223 236 255
223 236 255
223 236 255
223 236 255
223 236 255
223 236 255
223 236 255
223 236 255
223 236 255
223 236 255
223 236 255
223 236 255
223 236 255
223 236 255
223 236 255
223 236 255
223 236 255
223 236 255
223 236 255
223 236 255
223 236 255
223 236 255
223 236 255
223 236 255
223 236 255
223 236 255
223 236 255
223 236 255
223 236 255
223 236 255
223 236 255
223 236 255
223 236 255
223 236 255
223 236 255
223 236 255
223 236 255
223 236 255
223 236 255
223 236 255
223 236 255
223 236 255
223 236 255
74 78 93
0 0 42
0 0 42
0 0 42
0 0 42
0 0 42
0 0 41
0 0 40
0 0 42
0 0 42
0 0 42
0 0 42
0 0 42
0 0 42
0 0 42
0 0 42
0 0 42
0 0 42
0 0 42
0 0 42
0 0 42
0 0 42
0 0 42
0 0 42
0 0 42
0 0 42
0 0 42
0 0 42
0 0 42
0 0 42
0 0 42
0 0 42
0 0 42
0 0 42
0 0 42
0 0 42
0 0 42
0 0 42
0 0 42
0 0 42
0 0 42
0 0 42
0 0 42
0 0 42
0 0 42
0 0 42
0 0 42
0 0 42
0 0 42
0 0 42
0 0 42
0 0 42
0 0 42
0 0 42
0 0 42
0 0 42
0 0 42
0 0 42
0 0 42
0 0 42
0 0 42
0 0 42
0 0 42
0 0 42
0 0 42
0 0 42
0 0 42
0 0 42
0 0 42
0 0 42
0 0 42
0 0 42
0 0 42
0 0 42
0 0 42
0 0 42
0 0 42
0 0 42
0 0 42
0 0 42
0 0 42
0 0 42
0 0 42
0 0 42
0 0 42
0 0 42
0 0 42
0 0 42
0 0 42
0 0 42
0 0 42
0 0 42
0 0 42
0 0 42
0 0 42
0 0 42
0 0 42
0 0 42
0 0 42
0 0 42
0 0 44
0 0 44
0 0 42
0 0 42
0 0 45
0 0 45
0 0 45
0 0 45
0 0 45
0 0 45
0 0 44
0 0 45
0 0 45
0 0 45
0 0 49
0 0 51
0 0 50
0 0 50
0 0 48
0 0 48
0 0 48
0 0 47
0 0 45
0 0 46
0 0 47
0 0 48
0 0 57
0 19 77
0 33 93
0 30 98
0 29 90
0 32 90
20 45 94
113 106 86
101 87 52
109 95 61
96 85 49
87 82 46
60 61 24
50 52 19
57 56 21
67 66 33
69 68 33
57 60 25
38 48 7
27 46 0
24 43 0
23 43 0
23 43 0
28 44 0
31 48 0
38 55 0
45 55 0
48 56 11
50 60 16
51 63 17
46 57 8
45 57 11
31 45 0
29 47 0
28 46 0
29 45 0
34 55 3
38 58 0
39 54 0
58 68 24
62 65 25
64 64 24
60 66 24
44 56 11
53 64 21
50 61 19
50 62 19
49 59 15
56 65 23
61 69 27
75 76 40
59 63 27
51 62 23
62 70 30
62 66 31
57 62 27
55 62 26
62 65 31
70 70 38
78 74 41
78 76 48
77 70 46
88 76 52
81 70 42
89 74 46
82 70 40
41 57 5
10 18 37
0 0 39
0 0 42
0 0 42
0 0 42
0 0 42
0 0 42
0 0 42
0 0 42
0 0 42
0 0 42
0 0 42
0 0 42
0 0 42
86 91 106
223 236 255
223 236 255
223 236 255
223 236 255
223 236 255
223 236 255
223 236 255
223 236 255
223 236 255
223 236 255
223 236 255
223 236 255
223 236 255
223 236 255
223 236 255
223 236 255
223 236 255
223 236 255
223 236 255
223 236 255
223 236 255
223 236 255
223 236 255
223 236 255
223 236 255
223 236 255
223 236 255
223 236 255
223 236 255
223 236 255
223 236 255
223 236 255
223 236 255
223 236 255
223 236 255
223 236 255
223 236 255
223 236 255
223 236 255
223 236 255
223 236 255
223 236 255
223 236 255
223 236 255
223 236 255
223 236 255
223 236 255
223 236 255
223 236 255
223 236 255
223 236 255
223 236 255
223 236 255
223 236 255
223 236 255
223 236 255
223 236 255
223 236 255
223 236 255
223 236 255
223 236 255
223 236 255
223 236 255
223 236 255
223 236 255
223 236 255
223 236 255
223 236 255
223 236 255
223 236 255
223 236 255
223 236 255
223 236 255
223 236 255
223 236 255
223 236 255
223 236 255
223 236 255
223 236 255
223 236 255
223 236 255
223 236 255
223 236 255
223 236 255
223 236 255
223 236 255
223 236 255
223 236 255
223 236 255
223 236 255
223 236 255
223 236 255
223 236 255
223 236 255
223 236 255
223 236 255
223 236 255
223 236 255
223 236 255
223 236 255
223 236 255
223 236 255
223 236 255
223 236 255
223 236 255
223 236 255
223 236 255
223 236 255
223 236 255
223 236 255
223 236 255
223 236 255
223 236 255
223 236 255
223 236 255
223 236 255
223 236 255
223 236 255
223 236 255
223 236 255
223 236 255
223 236 255
223 236 255
223 236 255
223 236 255
223 236 255
223 236 255
223 236 255
223 236 255
223 236 255
223 236 255
223 236 255
223 236 255
223 236 255
223 236 255
223 236 255
223 236 255
223 236 255
223 236 255
223 236 255
223 236 255
223 236 255
223 236 255
223 236 255
223 236 255
223 236 255
223 236 255
223 236 255
223 236 255
223 236 255
223 236 255
223 236 255
223 236 255
223 236 255
223 236 255
223 236 255
223 236 255
223 236 255
223 236 255
223 236 255
223 236 255
223 236 255
223 236 255
223 236 255
223 236 255
223 236 255
223 236 255
223 236 255
223 236 255
223 236 255
223 236 255
223 236 255
223 236 255
223 236 255
223 236 255
223 236 255
223 236 255
223 236 255
223 236 255
223 236 255
223 236 255
223 236 255
223 236 255
223 236 255
223 236 255
223 236 255
223 236 255
223 236 255
223 236 255
223 236 255
223 236 255
223 236 255
139 147 163
0 0 42
0 0 42
0 0 42
0 0 42
0 0 42
0 0 42
0 0 41
0 0 42
0 0 42
0 0 42
0 0 42
0 0 42
0 0 42
0 0 42
0 0 42
0 0 42
0 0 42
0 0 42
0 0 42
0 0 42
0 0 42
0 0 42
0 0 42
0 0 42
0 0 42
0 0 42
0 0 42
0 0 42
0 0 42
0 0 42
0 0 42
0 0 42
0 0 42
0 0 42
0 0 42
0 0 42
0 0 42
0 0 42
0 0 42
0 0 42
0 0 42
0 0 42
0 0 42
0 0 42
0 0 42
0 0 42
0 0 42
0 0 42
0 0 42
0 0 42
0 0 42
0 0 42
0 0 42
0 0 42
0 0 42
0 0 42
0 0 42
0 0 42
0 0 42
0 0 42
0 0 42
0 0 42
0 0 42
0 0 42
0 0 42
0 0 42
0 0 42
0 0 42
0 0 42
0 0 42
0 0 42
0 0 42
0 0 42
0 0 42
0 0 42
0 0 42
0 0 42
0 0 42
0 0 42
0 0 42
0 0 42
0 0 42
0 0 42
0 0 42
0 0 42
0 0 42
0 0 42
0 0 42
0 0 42
0 0 42
0 0 42
0 0 42
0 0 42
0 0 42
0 0 42
0 0 42
0 0 42
0 0 42
0 0 42
0 0 42
0 0 42
0 0 42
0 0 42
0 0 45
0 0 45
0 0 45
0 0 45
0 0 45
0 0 45
0 0 43
0 0 45
0 0 43
0 0 45
0 0 48
0 0 48
0 0 45
0 0 48
0 0 47
0 0 47
0 0 47
0 0 45
0 0 44
0 0 47
0 0 43
0 0 45
0 0 55
0 8 67
0 9 70
0 23 84
0 26 93
0 29 89
15 29 95
129 136 112
118 104 74
106 91 57
102 90 55
87 79 43
72 69 34
67 65 31
71 67 35
78 69 37
84 74 42
92 86 52
84 78 43
49 58 18
37 48 0
24 42 0
20 44 0
24 46 0
29 50 0
44 61 8
47 58 10
51 60 14
49 60 11
46 59 5
40 54 0
39 54 0
33 51 0
29 49 0
23 44 0
23 41 0
29 48 0
40 56 9
43 57 3
65 68 28
68 65 30
71 70 33
64 69 30
53 63 21
53 62 19
55 63 24
58 64 28
68 71 35
64 67 27
63 70 30
59 67 28
58 65 27
65 69 34
69 71 35
65 70 33
62 65 30
62 66 31
70 71 38
77 73 42
80 76 46
75 73 41
79 71 47
87 75 49
75 66 36
87 72 44
68 68 29
36 55 13
0 0 44
0 0 41
0 0 41
0 0 42
0 0 42
0 0 42
0 0 42
0 0 42
0 0 42
0 0 42
0 0 42
0 0 42
0 0 42
0 0 42
139 147 163
223 236 255
223 236 255
223 236 255
223 236 255
223 236 255
223 236 255
223 236 255
223 236 255
223 236 255
223 236 255
223 236 255
223 236 255
223 236 255
223 236 255
223 236 255
223 236 255
223 236 255
223 236 255
223 236 255
223 236 255
223 236 255
223 236 255
223 236 255
223 236 255
223 236 255
223 236 255
223 236 255
223 236 255
223 236 255
223 236 255
223 236 255
223 236 255
223 236 255
223 236 255
223 236 255
223 236 255
223 236 255
223 236 255
223 236 255
223 236 255
223 236 255
223 236 255
223 236 255
223 236 255
223 236 255
223 236 255
223 236 255
223 236 255
223 236 255
223 236 255
223 236 255
223 236 255
223 236 255
223 236 255
223 236 255
223 236 255
223 236 255
223 236 255
223 236 255
223 236 255
223 236 255
223 236 255
223 236 255
223 236 255
223 236 255
223 236 255
223 236 255
223 236 255
223 236 255
223 236 255
223 236 255
223 236 255
223 236 255
223 236 255
223 236 255
223 236 255
223 236 255
223 236 255
223 236 255
223 236 255
223 236 255
223 236 255
223 236 255
223 236 255
223 236 255
223 236 255
223 236 255
223 236 255
223 236 255
223 236 255
223 236 255
223 236 255
223 236 255
223 236 255
223 236 255
223 236 255
223 236 255
223 236 255
223 236 255
223 236 255
223 236 255
223 236 255
223 236 255
223 236 255
223 236 255
223 236 255
223 236 255
223 236 255
223 236 255
223 236 255
223 236 255
223 236 255
223 236 255
223 236 255
223 236 255
223 236 255
223 236 255
223 236 255
223 236 255
223 236 255
223 236 255
223 236 255
223 236 255
223 236 255
223 236 255
223 236 255
223 236 255
223 236 255
223 236 255
223 236 255
223 236 255
223 236 255
223 236 255
223 236 255
223 236 255
223 236 255
223 236 255
223 236 255
223 236 255
223 236 255
223 237 255
223 236 255
223 237 255
223 237 255
223 237 255
223 237 255
223 237 255
223 237 255
223 237 255
223 237 255
223 237 255
223 237 255
223 237 255
223 237 255
223 237 255
223 237 255
223 237 255
223 237 255
223 237 255
223 237 255
223 237 255
223 237 255
223 237 255
223 237 255
223 237 255
223 237 255
223 237 255
223 237 255
223 237 255
223 237 255
223 237 255
223 237 255
223 237 255
223 237 255
223 237 255
223 237 255
223 237 255
223 237 255
223 237 255
223 237 255
223 237 255
223 237 255
223 237 255
223 237 255
223 237 255
223 237 255
223 237 255
223 237 255
223 237 255
223 237 255
223 237 255
223 237 255
182 194 210
0 0 42
0 0 42
0 0 42
0 0 42
0 0 42
0 0 41
0 0 41
0 0 42
0 0 42
0 0 42
0 0 42
0 0 42
0 0 42
0 0 42
0 0 42
0 0 42
0 0 42
0 0 42
0 0 42
0 0 42
0 0 42
0 0 42
0 0 42
0 0 42
0 0 42
0 0 42
0 0 42
0 0 42
0 0 42
0 0 42
0 0 42
0 0 42
0 0 42
0 0 42
0 0 42
0 0 42
0 0 42
0 0 42
0 0 42
0 0 42
0 0 42
0 0 42
0 0 42
0 0 42
0 0 42
0 0 42
0 0 42
0 0 42
0 0 42
0 0 42
0 0 42
0 0 42
0 0 42
0 0 42
0 0 42
0 0 42
0 0 42
0 0 42
0 0 42
0 0 42
0 0 42
0 0 42
0 0 42
0 0 42
0 0 42
0 0 42
0 0 42
0 0 42
0 0 42
0 0 42
0 0 42
0 0 42
0 0 42
0 0 42
0 0 42
0 0 42
0 0 42
0 0 42
0 0 42
0 0 42
0 0 42
0 0 42
0 0 42
0 0 42
0 0 42
0 0 42
0 0 42
0 0 42
0 0 42
0 0 42
0 0 42
0 0 42
0 0 42
0 0 42
0 0 42
0 0 42
0 0 42
0 0 42
0 0 42
0 0 42
0 0 42
0 0 42
0 0 42
0 0 43
0 0 43
0 0 43
0 0 43
0 0 43
0 0 43
0 0 44
0 0 45
0 0 44
0 0 45
0 0 46
0 0 46
0 0 45
0 0 46
0 0 45
0 0 45
0 0 45
0 0 45
0 0 44
0 0 44
0 0 42
0 0 46
0 0 54
0 1 62
0 10 69
0 20 81
0 23 85
0 19 88
12 23 76
124 136 133
156 148 115
107 102 69
102 91 57
98 84 52
90 82 48
80 73 37
92 83 49
89 81 50
87 80 48
95 85 50
107 92 54
92 81 49
61 59 31
28 42 6
31 45 7
19 40 0
29 49 0
44 61 12
43 58 7
45 60 0
47 62 13
42 58 9
32 50 0
29 51 0
23 46 0
24 48 0
23 45 0
24 44 0
29 48 0
43 58 10
45 59 7
63 67 26
64 66 27
59 67 25
59 69 26
62 71 29
61 69 29
61 68 31
65 69 33
71 73 37
67 70 32
60 69 30
57 64 25
61 66 27
70 74 39
61 66 29
64 70 32
62 67 32
69 70 34
76 73 40
86 81 48
77 75 42
64 64 34
74 69 45
72 68 39
61 61 25
72 68 32
61 69 20
30 49 25
0 2 45
0 0 43
0 0 41
0 0 42
0 0 42
0 0 42
0 0 42
0 0 42
0 0 42
0 0 42
0 0 42
0 0 42
0 0 42
0 0 42
185 196 213
223 237 255
223 237 255
223 237 255
223 237 255
223 237 255
223 237 255
223 237 255
223 237 255
223 237 255
223 237 255
223 237 255
223 237 255
223 237 255
223 237 255
223 237 255
223 237 255
223 237 255
223 237 255
223 237 255
223 237 255
223 237 255
223 237 255
223 237 255
223 237 255
223 237 255
223 237 255
223 237 255
223 237 255
223 237 255
223 237 255
223 237 255
223 237 255
223 237 255
223 237 255
223 237 255
223 237 255
223 237 255
223 237 255
223 237 255
223 237 255
223 237 255
223 237 255
223 237 255
223 237 255
223 237 255
223 237 255
223 237 255
223 237 255
223 236 255
223 237 255
223 237 255
223 236 255
223 236 255
223 236 255
223 236 255
223 236 255
223 236 255
223 236 255
223 236 255
223 236 255
223 236 255
223 236 255
223 236 255
223 236 255
223 236 255
223 236 255
223 236 255
223 236 255
223 236 255
223 236 255
223 236 255
223 236 255
223 236 255
223 236 255
223 236 255
223 236 255
223 236 255
223 236 255
223 236 255
223 236 255
223 236 255
223 236 255
223 236 255
223 236 255
223 236 255
223 236 255
223 236 255
223 236 255
223 236 255
223 236 255
223 236 255
223 236 255
223 236 255
223 236 255
223 236 255
223 236 255
223 237 255
223 237 255
223 237 255
223 237 255
223 237 255
223 237 255
223 237 255
223 237 255
223 237 255
223 237 255
223 237 255
223 237 255
223 237 255
223 237 255
223 237 255
223 237 255
223 237 255
223 237 255
223 237 255
223 237 255
223 237 255
223 237 255
223 237 255
223 237 255
223 237 255
223 237 255
223 237 255
223 237 255
223 237 255
223 237 255
223 237 255
223 237 255
223 237 255
223 237 255
223 237 255
223 237 255
223 237 255
223 237 255
223 237 255
223 237 255
223 237 255
223 237 255
223 237 255
223 237 255
223 237 255
223 237 255
223 237 255
223 237 255
223 237 255
223 237 255
223 237 255
223 237 255
223 237 255
223 237 255
223 237 255
223 237 255
223 237 255
223 237 255
223 237 255
223 237 255
223 237 255
223 237 255
223 237 255
223 237 255
223 237 255
223 237 255
223 237 255
223 237 255
223 237 255
223 237 255
223 237 255
223 237 255
223 237 255
223 237 255
223 237 255
223 237 255
223 237 255
223 237 255
223 237 255
223 237 255
223 237 255
223 237 255
223 237 255
223 237 255
223 237 255
223 237 255
223 237 255
223 237 255
223 237 255
223 237 255
223 237 255
223 237 255
223 237 255
223 237 255
223 237 255
223 237 255
221 234 253
49 53 70
0 0 42
0 0 42
0 0 42
0 0 42
0 0 41
0 0 41
0 0 42
0 0 42
0 0 42
0 0 42
0 0 42
0 0 42
0 0 42
0 0 42
0 0 42
0 0 42
0 0 42
0 0 42
0 0 42
0 0 42
0 0 42
0 0 42
0 0 42
0 0 42
0 0 42
0 0 42
0 0 42
0 0 42
0 0 42
0 0 42
0 0 42
0 0 42
0 0 42
0 0 42
0 0 42
0 0 42
0 0 42
0 0 42
0 0 42
0 0 42
0 0 42
0 0 42
0 0 42
0 0 42
0 0 42
0 0 42
0 0 42
0 0 42
0 0 42
0 0 42
0 0 42
0 0 42
0 0 42
0 0 42
0 0 42
0 0 42
0 0 42
0 0 42
0 0 42
0 0 42
0 0 42
0 0 42
0 0 42
0 0 42
0 0 42
0 0 42
0 0 42
0 0 42
0 0 42
0 0 42
0 0 42
0 0 42
0 0 42
0 0 42
0 0 42
0 0 42
0 0 42
0 0 42
0 0 42
0 0 42
0 0 42
0 0 42
0 0 42
0 0 42
0 0 42
0 0 42
0 0 42
0 0 42
0 0 42
0 0 42
0 0 42
0 0 42
0 0 42
0 0 42
0 0 42
0 0 42
0 0 42
0 0 42
0 0 42
0 0 42
0 0 42
0 0 42
0 0 42
0 0 42
0 0 42
0 0 42
0 0 42
0 0 42
0 0 42
0 0 43
0 0 45
0 0 45
0 0 45
0 0 45
0 0 44
0 0 44
0 0 44
0 0 44
0 0 44
0 0 44
0 0 45
0 0 45
0 0 45
0 0 46
0 0 55
0 5 62
0 13 71
0 10 77
0 14 71
0 11 73
0 17 80
72 64 84
153 141 122
145 125 93
119 102 72
103 89 49
107 93 55
110 97 59
112 101 63
105 94 58
96 83 44
96 82 41
104 92 58
97 88 54
90 84 38
55 54 23
39 50 8
26 41 0
25 44 0
34 53 0
32 51 0
37 55 0
46 61 10
43 59 8
30 50 0
25 45 0
22 44 0
22 45 0
23 45 0
26 46 0
31 51 0
42 61 11
48 64 16
50 63 12
52 67 18
51 66 17
53 64 18
58 66 23
58 64 26
63 69 32
69 73 39
71 72 38
66 72 36
62 69 33
65 70 33
68 71 33
68 73 36
64 71 34
61 68 31
66 70 33
73 68 35
84 78 45
78 73 40
76 73 39
70 69 40
77 72 46
70 68 38
56 63 22
57 63 19
56 71 16
28 48 30
0 0 41
0 0 41
0 0 42
0 0 42
0 0 42
0 0 42
0 0 42
0 0 42
0 0 42
0 0 42
0 0 42
0 0 42
0 0 42
44 47 65
220 233 252
223 237 255
223 237 255
223 237 255
223 237 255
223 237 255
223 237 255
223 237 255
223 237 255
223 237 255
223 237 255
223 237 255
223 237 255
223 237 255
223 237 255
223 237 255
223 237 255
223 237 255
223 237 255
223 237 255
223 237 255
223 237 255
223 237 255
223 237 255
223 237 255
223 237 255
223 237 255
223 237 255
223 237 255
223 237 255
223 237 255
223 237 255
223 237 255
223 237 255
223 237 255
223 237 255
223 237 255
223 237 255
223 237 255
223 237 255
223 237 255
223 237 255
223 237 255
223 237 255
223 237 255
223 237 255
223 237 255
223 237 255
223 237 255
223 237 255
223 237 255
223 237 255
223 237 255
223 237 255
223 237 255
223 237 255
223 237 255
223 237 255
223 237 255
223 237 255
223 237 255
223 237 255
223 237 255
223 237 255
223 237 255
223 237 255
223 237 255
223 237 255
223 237 255
223 237 255
223 237 255
223 237 255
223 237 255
223 237 255
223 237 255
223 237 255
223 237 255
223 237 255
223 237 255
223 237 255
223 237 255
223 237 255
223 237 255
223 237 255
223 237 255
223 237 255
223 237 255
223 237 255
223 237 255
223 237 255
223 237 255
223 237 255
223 237 255
223 237 255
223 237 255
223 237 255
223 237 255
223 237 255
223 237 255
223 237 255
223 237 255
223 237 255
223 237 255
223 237 255
223 237 255
223 237 255
223 237 255
223 237 255
223 237 255
223 237 255
223 237 255
223 237 255
223 237 255
223 237 255
223 237 255
223 237 255
223 237 255
223 237 255
223 237 255
223 237 255
223 237 255
223 237 255
223 237 255
223 237 255
223 237 255
223 237 255
223 237 255
223 237 255
223 237 255
223 237 255
223 237 255
223 237 255
223 237 255
223 237 255
223 237 255
223 237 255
223 237 255
223 237 255
223 237 255
223 237 255
223 237 255
223 237 255
223 237 255
223 237 255
223 237 255
223 237 255
223 237 255
223 237 255
223 237 255
223 237 255
223 237 255
223 237 255
223 237 255
223 237 255
223 237 255
223 237 255
223 237 255
223 237 255
223 237 255
223 237 255
223 237 255
223 237 255
223 237 255
223 237 255
223 237 255
223 237 255
223 237 255
223 237 255
223 237 255
223 237 255
223 237 255
223 237 255
223 237 255
223 237 255
223 237 255
223 237 255
223 237 255
223 237 255
223 237 255
223 237 255
223 237 255
223 237 255
223 237 255
223 237 255
223 237 255
223 237 255
223 237 255
223 237 255
223 237 255
223 237 255
223 237 255
223 237 255
223 237 255
223 237 255
139 148 163
0 0 42
0 0 42
0 0 42
0 0 42
0 0 42
0 0 42
0 0 41
0 0 42
0 0 42
0 0 42
0 0 42
0 0 42
0 0 42
0 0 42
0 0 42
0 0 42
0 0 42
0 0 42
0 0 42
0 0 42
0 0 42
0 0 42
0 0 42
0 0 42
0 0 42
0 0 42
0 0 42
0 0 42
0 0 42
0 0 42
0 0 42
0 0 42
0 0 42
0 0 42
0 0 42
0 0 42
0 0 42
0 0 42
0 0 42
0 0 42
0 0 42
0 0 42
0 0 42
0 0 42
0 0 42
0 0 42
0 0 42
0 0 42
0 0 42
0 0 42
0 0 42
0 0 42
0 0 42
0 0 42
0 0 42
0 0 42
0 0 42
0 0 42
0 0 42
0 0 42
0 0 42
0 0 42
0 0 42
0 0 42
0 0 42
0 0 42
0 0 42
0 0 42
0 0 42
0 0 42
0 0 42
0 0 42
0 0 42
0 0 42
0 0 42
0 0 42
0 0 42
0 0 42
0 0 42
0 0 42
0 0 42
0 0 42
0 0 42
0 0 42
0 0 42
0 0 42
0 0 42
0 0 42
0 0 42
0 0 42
0 0 42
0 0 42
0 0 42
0 0 42
0 0 42
0 0 42
0 0 42
0 0 42
0 0 42
0 0 42
0 0 42
0 0 42
0 0 42
0 0 42
0 0 42
0 0 42
0 0 42
0 0 42
0 0 42
0 0 42
0 0 43
0 0 45
0 0 45
0 0 45
0 0 42
0 0 42
0 0 42
0 0 42
0 0 42
0 0 43
0 0 47
0 0 45
0 0 44
0 0 48
0 0 54
0 0 62
0 7 77
0 10 80
0 10 65
0 6 62
0 17 80
0 22 89
67 68 102
146 133 113
148 128 83
110 96 67
93 85 57
107 92 54
124 104 63
119 100 60
99 86 48
98 86 48
109 92 55
89 82 73
83 81 64
76 68 33
27 44 9
26 52 0
26 50 0
18 40 0
21 43 0
37 57 0
39 58 0
36 54 0
33 54 0
26 50 0
24 45 0
25 46 0
31 47 0
33 49 0
40 55 0
45 59 9
52 66 17
60 76 27
58 74 26
48 63 16
55 64 21
64 69 30
59 66 29
62 70 32
63 69 31
70 73 39
63 68 33
65 69 34
73 76 41
74 77 39
65 72 34
66 75 36
61 68 29
72 73 36
80 75 42
82 75 42
78 75 42
78 75 43
71 68 38
73 68 39
57 59 26
55 62 22
55 66 15
53 70 12
19 32 37
0 0 41
0 0 41
0 0 42
0 0 42
0 0 42
0 0 42
0 0 42
0 0 42
0 0 42
0 0 42
0 0 42
0 0 42
0 0 42
141 149 165
223 237 255
223 237 255
223 237 255
223 237 255
223 237 255
223 237 255
223 237 255
223 237 255
223 237 255
223 237 255
223 237 255
223 237 255
223 237 255
223 237 255
223 237 255
223 237 255
223 237 255
223 237 255
223 237 255
223 237 255
223 237 255
223 237 255
223 237 255
223 237 255
223 237 255
223 237 255
223 237 255
223 237 255
223 237 255
223 237 255
223 237 255
223 237 255
223 237 255
223 237 255
223 237 255
223 237 255
223 237 255
223 237 255
223 237 255
223 237 255
223 237 255
223 237 255
223 237 255
223 237 255
223 237 255
223 237 255
223 237 255
223 237 255
223 237 255
223 237 255
223 237 255
223 237 255
223 237 255
223 237 255
223 237 255
223 237 255
223 237 255
223 237 255
223 237 255
223 237 255
223 237 255
223 237 255
223 237 255
223 237 255
223 237 255
223 237 255
223 237 255
223 237 255
223 237 255
223 237 255
223 237 255
223 237 255
223 237 255
223 237 255
223 237 255
223 237 255
223 237 255
223 237 255
223 237 255
223 237 255
223 237 255
223 237 255
223 237 255
223 237 255
223 237 255
223 237 255
223 237 255
223 237 255
223 237 255
223 237 255
223 237 255
223 237 255
223 237 255
223 237 255
223 237 255
223 237 255
223 237 255
223 237 255
223 237 255
223 237 255
223 237 255
223 237 255
223 237 255
223 237 255
223 237 255
223 237 255
223 237 255
223 237 255
223 237 255
223 237 255
223 237 255
223 237 255
223 237 255
223 237 255
223 237 255
223 237 255
223 237 255
223 237 255
223 237 255
223 237 255
223 237 255
223 237 255
223 237 255
223 237 255
223 237 255
223 237 255
223 237 255
223 237 255
223 237 255
223 237 255
223 237 255
223 237 255
223 237 255
223 237 255
223 237 255
223 237 255
223 237 255
223 237 255
223 237 255
223 237 255
223 237 255
223 237 255
223 237 255
223 237 255
223 237 255
223 237 255
223 237 255
223 237 255
223 237 255
223 237 255
223 237 255
223 237 255
223 237 255
223 237 255
223 237 255
223 237 255
223 237 255
223 237 255
223 237 255
223 237 255
223 237 255
223 237 255
223 237 255
223 237 255
223 237 255
223 237 255
223 237 255
223 237 255
223 237 255
223 237 255
223 237 255
223 237 255
223 237 255
223 237 255
223 237 255
223 237 255
223 237 255
223 237 255
223 237 255
223 237 255
223 237 255
223 237 255
223 237 255
223 237 255
223 237 255
223 237 255
223 237 255
223 237 255
223 237 255
223 237 255
223 237 255
223 237 255
223 237 255
223 237 255
178 189 206
0 0 42
0 0 42
0 0 42
0 0 42
0 0 42
0 0 41
0 0 40
0 0 42
0 0 42
0 0 42
0 0 42
0 0 42
0 0 42
0 0 42
0 0 42
0 0 42
0 0 42
0 0 42
0 0 42
0 0 42
0 0 42
0 0 42
0 0 42
0 0 42
0 0 42
0 0 42
0 0 42
0 0 42
0 0 42
0 0 42
0 0 42
0 0 42
0 0 42
0 0 42
0 0 42
0 0 42
0 0 42
0 0 42
0 0 42
0 0 42
0 0 42
0 0 42
0 0 42
0 0 42
0 0 42
0 0 42
0 0 42
0 0 42
0 0 42
0 0 42
0 0 42
0 0 42
0 0 42
0 0 42
0 0 42
0 0 42
0 0 42
0 0 42
0 0 42
0 0 42
0 0 42
0 0 42
0 0 42
0 0 42
0 0 42
0 0 42
0 0 42
0 0 42
0 0 42
0 0 42
0 0 42
0 0 42
0 0 42
0 0 42
0 0 42
0 0 42
0 0 42
0 0 42
0 0 42
0 0 42
0 0 42
0 0 42
0 0 42
0 0 42
0 0 42
0 0 42
0 0 42
0 0 42
0 0 42
0 0 42
0 0 42
0 0 42
0 0 42
0 0 42
0 0 42
0 0 42
0 0 42
0 0 42
0 0 42
0 0 42
0 0 42
0 0 42
0 0 42
0 0 42
0 0 42
0 0 42
0 0 42
0 0 42
0 0 42
0 0 42
0 0 42
0 0 43
0 0 43
0 0 43
0 0 42
0 0 42
0 0 42
0 0 42
0 0 42
0 0 42
0 0 45
0 0 45
0 0 47
0 0 49
0 0 53
0 0 59
0 0 68
0 0 65
0 3 64
0 11 72
0 10 66
0 19 76
0 24 82
43 58 98
98 92 98
134 114 81
140 116 85
129 112 84
106 97 73
104 90 62
118 97 61
113 96 62
105 93 59
73 72 78
35 56 96
78 70 66
70 66 36
25 48 0
25 45 0
19 40 0
19 41 0
32 54 0
40 59 0
32 52 0
33 55 0
29 52 0
26 47 0
34 51 0
39 52 0
41 53 0
41 54 0
45 58 0
51 63 15
60 72 27
59 73 30
52 64 22
57 67 26
53 63 22
50 61 18
60 70 28
60 67 29
66 70 36
69 71 38
72 73 41
74 75 41
72 75 38
67 74 33
66 75 32
69 74 32
76 74 36
80 76 44
82 76 45
76 74 40
79 75 43
67 68 34
66 65 33
56 61 26
58 65 24
57 71 18
43 58 16
6 10 45
0 0 41
0 0 41
0 0 42
0 0 42
0 0 42
0 0 42
0 0 42
0 0 42
0 0 42
0 0 42
0 0 42
0 0 42
0 0 42
180 191 207
223 237 255
223 237 255
223 237 255
223 237 255
223 237 255
223 237 255
223 237 255
223 237 255
223 237 255
223 237 255
223 237 255
223 237 255
223 237 255
223 237 255
223 237 255
223 237 255
223 237 255
223 237 255
223 237 255
223 237 255
223 237 255
223 237 255
223 237 255
223 237 255
223 237 255
223 237 255
223 237 255
223 237 255
223 237 255
223 237 255
223 237 255
223 237 255
223 237 255
223 237 255
223 237 255
223 237 255
223 237 255
223 237 255
223 237 255
223 237 255
223 237 255
223 237 255
223 237 255
223 237 255
223 237 255
223 237 255
223 237 255
223 237 255
223 237 255
223 237 255
223 237 255
223 237 255
223 237 255
223 237 255
223 237 255
223 237 255
223 237 255
223 237 255
223 237 255
223 237 255
223 237 255
223 237 255
223 237 255
223 237 255
223 237 255
223 237 255
223 237 255
223 237 255
223 237 255
223 237 255
223 237 255
223 237 255
223 237 255
223 237 255
223 237 255
223 237 255
223 237 255
223 237 255
223 237 255
223 237 255
223 237 255
223 237 255
223 237 255
223 237 255
223 237 255
223 237 255
223 237 255
223 237 255
223 237 255
223 237 255
223 237 255
223 237 255
223 237 255
223 237 255
223 237 255
223 237 255
223 237 255
223 237 255
223 237 255
223 237 255
223 237 255
223 237 255
223 237 255
223 237 255
223 237 255
223 237 255
223 237 255
223 237 255
223 237 255
223 237 255
223 237 255
223 237 255
223 237 255
223 237 255
223 237 255
223 237 255
223 237 255
223 237 255
223 237 255
223 237 255
223 237 255
223 237 255
223 237 255
223 237 255
223 237 255
223 237 255
223 237 255
223 237 255
223 237 255
223 237 255
223 237 255
223 237 255
223 237 255
223 237 255
223 237 255
223 237 255
223 237 255
223 237 255
223 237 255
223 237 255
223 237 255
223 237 255
223 237 255
223 237 255
223 237 255
223 237 255
223 237 255
223 237 255
223 237 255
223 237 255
223 237 255
223 237 255
223 237 255
223 237 255
223 237 255
223 237 255
223 237 255
223 237 255
223 237 255
223 237 255
223 237 255
223 237 255
223 237 255
223 237 255
223 237 255
223 237 255
223 237 255
223 237 255
223 237 255
223 237 255
223 237 255
223 237 255
223 237 255
223 237 255
223 237 255
223 237 255
223 237 255
223 237 255
223 237 255
223 237 255
223 237 255
223 237 255
223 237 255
223 237 255
223 237 255
223 237 255
223 237 255
223 237 255
223 237 255
223 237 255
223 237 255
223 237 255
223 237 255
223 237 255
219 232 250
54 58 74
0 0 42
0 0 42
0 0 42
0 0 42
0 0 42
0 0 40
0 0 41
0 0 42
0 0 42
0 0 42
0 0 42
0 0 42
0 0 42
0 0 42
0 0 42
0 0 42
0 0 42
0 0 42
0 0 42
0 0 42
0 0 42
0 0 42
0 0 42
0 0 42
0 0 42
0 0 42
0 0 42
0 0 42
0 0 42
0 0 42
0 0 42
0 0 42
0 0 42
0 0 42
0 0 42
0 0 42
0 0 42
0 0 42
0 0 42
0 0 42
0 0 42
0 0 42
0 0 42
0 0 42
0 0 42
0 0 42
0 0 42
0 0 42
0 0 42
0 0 42
0 0 42
0 0 42
0 0 42
0 0 42
0 0 42
0 0 42
0 0 42
0 0 42
0 0 42
0 0 42
0 0 42
0 0 42
0 0 42
0 0 42
0 0 42
0 0 42
0 0 42
0 0 42
0 0 42
0 0 42
0 0 42
0 0 42
0 0 42
0 0 42
0 0 42
0 0 42
0 0 42
0 0 42
0 0 42
0 0 42
0 0 42
0 0 42
0 0 42
0 0 42
0 0 42
0 0 42
0 0 42
0 0 42
0 0 42
0 0 42
0 0 42
0 0 42
0 0 42
0 0 42
0 0 42
0 0 42
0 0 42
0 0 42
0 0 42
0 0 42
0 0 42
0 0 42
0 0 42
0 0 42
0 0 42
0 0 42
0 0 42
0 0 42
0 0 42
0 0 42
0 0 42
0 0 42
0 0 42
0 0 42
0 0 42
0 0 42
0 0 42
0 0 42
0 0 43
0 0 45
0 0 46
0 0 48
0 0 50
0 0 53
0 0 53
0 0 50
0 0 56
0 0 66
0 1 64
0 12 71
0 21 85
0 26 87
0 22 85
13 25 84
80 68 86
134 118 106
182 157 124
170 153 124
134 119 91
116 99 67
123 105 70
116 102 61
109 90 59
65 74 80
62 75 72
88 79 39
45 48 16
28 40 2
23 38 4
20 41 0
26 50 0
33 54 0
26 51 0
33 56 5
36 59 7
35 54 0
40 56 0
39 53 0
44 59 0
40 54 0
41 55 0
44 57 6
45 54 11
49 63 18
44 60 11
45 60 12
42 56 11
48 62 17
60 72 29
63 70 30
70 72 37
74 74 41
73 74 39
73 75 40
72 75 38
73 79 39
69 77 34
74 77 35
76 73 37
78 74 41
80 75 43
78 73 41
74 73 37
73 68 36
57 59 25
60 64 28
50 65 13
61 74 16
33 52 35
0 0 44
0 0 42
0 0 41
0 0 42
0 0 42
0 0 42
0 0 42
0 0 42
0 0 42
0 0 42
0 0 42
0 0 42
0 0 42
44 47 65
220 233 252
223 237 255
223 237 255
223 237 255
223 237 255
223 237 255
223 237 255
223 237 255
223 237 255
223 237 255
223 237 255
223 237 255
223 237 255
223 237 255
223 237 255
223 237 255
223 237 255
223 237 255
223 237 255
223 237 255
223 237 255
223 237 255
223 237 255
223 237 255
223 237 255
223 237 255
223 237 255
223 237 255
223 237 255
223 237 255
223 237 255
223 237 255
223 237 255
223 237 255
223 237 255
223 237 255
223 237 255
223 237 255
223 237 255
223 237 255
223 237 255
223 237 255
223 237 255
223 237 255
223 237 255
223 237 255
223 237 255
223 237 255
223 237 255
223 237 255
223 237 255
223 237 255
223 237 255
223 237 255
223 237 255
223 237 255
223 237 255
223 237 255
223 237 255
223 237 255
223 237 255
223 237 255
223 237 255
223 237 255
223 237 255
223 237 255
223 237 255
223 237 255
223 237 255
223 237 255
223 237 255
223 237 255
223 237 255
223 237 255
223 237 255
223 237 255
223 237 255
223 237 255
223 237 255
223 237 255
223 237 255
223 237 255
223 237 255
223 237 255
223 237 255
223 237 255
223 237 255
223 237 255
223 237 255
223 237 255
223 237 255
223 237 255
223 237 255
223 237 255
223 237 255
223 237 255
223 237 255
223 237 255
223 237 255
223 237 255
223 237 255
223 237 255
223 237 255
223 237 255
223 237 255
223 237 255
223 237 255
223 237 255
223 237 255
223 237 255
223 237 255
223 237 255
223 237 255
223 237 255
223 237 255
223 237 255
223 237 255
223 237 255
223 237 255
223 237 255
223 237 255
223 237 255
223 237 255
223 237 255
223 237 255
223 237 255
223 237 255
223 237 255
223 237 255
223 237 255
223 237 255
223 237 255
223 237 255
223 237 255
223 237 255
223 237 255
223 237 255
223 237 255
223 237 255
223 237 255
223 237 255
223 237 255
223 237 255
223 237 255
223 237 255
223 237 255
223 237 255
223 237 255
223 237 255
223 237 255
223 237 255
223 237 255
223 237 255
223 237 255
223 237 255
223 237 255
223 237 255
223 237 255
223 237 255
223 237 255
223 237 255
223 237 255
223 237 255
223 237 255
223 237 255
223 237 255
223 237 255
223 237 255
223 237 255
223 237 255
223 237 255
223 237 255
223 237 255
223 237 255
223 237 255
223 237 255
223 237 255
223 237 255
223 237 255
223 237 255
223 237 255
223 237 255
223 237 255
223 237 255
223 237 255
223 237 255
223 237 255
223 237 255
223 237 255
223 237 255
223 237 255
223 237 255
223 237 255
223 237 255
223 237 255
223 237 255
128 136 151
0 0 42
0 0 42
0 0 42
0 0 42
0 0 42
0 0 41
0 0 39
0 0 42
0 0 42
0 0 42
0 0 42
0 0 42
0 0 42
0 0 42
0 0 42
0 0 42
0 0 42
0 0 42
0 0 42
0 0 42
0 0 42
0 0 42
0 0 42
0 0 42
0 0 42
0 0 42
0 0 42
0 0 42
0 0 42
0 0 42
0 0 42
0 0 42
0 0 42
0 0 42
0 0 42
0 0 42
0 0 42
0 0 42
0 0 42
0 0 42
0 0 42
0 0 42
0 0 42
0 0 42
0 0 42
0 0 42
0 0 42
0 0 42
0 0 42
0 0 42
0 0 42
0 0 42
0 0 42
0 0 42
0 0 42
0 0 42
0 0 42
0 0 42
0 0 42
0 0 42
0 0 42
0 0 42
0 0 42
0 0 42
0 0 42
0 0 42
0 0 42
0 0 42
0 0 42
0 0 42
0 0 42
0 0 42
0 0 42
0 0 42
0 0 42
0 0 42
0 0 42
0 0 42
0 0 42
0 0 42
0 0 42
0 0 42
0 0 42
0 0 42
0 0 42
0 0 42
0 0 42
0 0 42
0 0 42
0 0 42
0 0 42
0 0 42
0 0 42
0 0 42
0 0 42
0 0 42
0 0 42
0 0 42
0 0 42
0 0 42
0 0 42
0 0 42
0 0 42
0 0 42
0 0 42
0 0 42
0 0 42
0 0 41
0 0 42
0 0 42
0 0 42
0 0 42
0 0 42
0 0 42
0 0 42
0 0 42
0 0 42
0 0 42
0 0 43
0 0 45
0 0 45
0 0 47
0 0 50
0 0 51
0 0 59
0 0 58
0 0 62
0 0 60
0 0 49
0 0 66
0 16 80
0 20 80
0 13 69
0 3 66
6 10 65
37 43 81
94 103 118
154 141 120
181 159 123
144 132 104
121 105 72
128 114 81
121 101 61
121 96 70
117 106 68
123 101 63
75 65 36
54 52 23
52 59 28
28 44 10
27 50 0
27 54 0
29 53 0
44 66 11
48 68 13
54 66 15
48 58 9
39 55 0
40 56 0
38 53 0
35 51 0
41 55 0
37 47 0
36 48 2
38 55 10
41 57 4
50 60 20
57 66 25
65 70 32
74 75 41
77 76 43
74 75 42
72 73 39
79 76 45
81 78 46
73 76 38
69 76 33
71 75 33
78 75 40
75 72 38
78 75 41
74 69 35
75 71 36
62 62 29
54 57 23
52 58 19
61 75 20
62 73 15
17 29 51
0 0 43
0 0 43
0 0 42
0 0 42
0 0 42
0 0 42
0 0 42
0 0 42
0 0 42
0 0 42
0 0 42
0 0 42
0 0 42
124 132 146
223 237 255
223 237 255
223 237 255
223 237 255
223 237 255
223 237 255
223 237 255
223 237 255
223 237 255
223 237 255
223 237 255
223 237 255
223 237 255
223 237 255
223 237 255
223 237 255
223 237 255
223 237 255
223 237 255
223 237 255
223 237 255
223 237 255
223 237 255
223 237 255
223 237 255
223 237 255
223 237 255
223 237 255
223 237 255
223 237 255
223 237 255
223 237 255
223 237 255
223 237 255
223 237 255
223 237 255
223 237 255
223 237 255
223 237 255
223 237 255
223 237 255
223 237 255
223 237 255
223 237 255
223 237 255
223 237 255
223 237 255
223 237 255
223 237 255
223 237 255
223 237 255
223 237 255
223 237 255
223 237 255
223 237 255
223 237 255
223 237 255
223 237 255
223 237 255
223 237 255
223 237 255
223 237 255
223 237 255
223 237 255
223 237 255
223 237 255
223 237 255
223 237 255
223 237 255
223 237 255
223 237 255
223 237 255
223 237 255
223 237 255
223 237 255
223 237 255
223 237 255
223 237 255
223 237 255
223 237 255
223 237 255
223 237 255
223 237 255
223 237 255
223 237 255
223 237 255
223 237 255
223 237 255
223 237 255
223 237 255
223 237 255
223 237 255
223 237 255
223 237 255
223 237 255
223 237 255
223 237 255
223 237 255
223 237 255
223 237 255
223 237 255
223 237 255
223 237 255
223 237 255
223 237 255
223 237 255
223 237 255
223 237 255
223 237 255
223 237 255
223 237 255
223 237 255
223 237 255
223 237 255
223 237 255
223 237 255
223 237 255
223 237 255
223 237 255
223 237 255
223 237 255
223 237 255
223 237 255
223 237 255
223 237 255
223 237 255
223 237 255
223 237 255
223 237 255
223 237 255
223 237 255
223 237 255
223 237 255
223 237 255
223 237 255
223 237 255
223 237 255
223 237 255
223 237 255
223 237 255
223 237 255
223 237 255
223 237 255
223 237 255
223 237 255
223 237 255
223 237 255
223 237 255
223 237 255
223 237 255
223 237 255
223 237 255
223 237 255
223 237 255
223 237 255
223 237 255
223 237 255
223 237 255
223 237 255
223 237 255
223 237 255
223 237 255
223 237 255
223 237 255
223 237 255
223 237 255
223 237 255
223 237 255
223 237 255
223 237 255
223 237 255
223 237 255
223 237 255
223 237 255
223 237 255
223 237 255
223 237 255
223 237 255
223 237 255
223 237 255
223 237 255
223 237 255
223 237 255
223 237 255
223 237 255
223 237 255
223 237 255
223 237 255
223 237 255
223 237 255
223 237 255
223 237 255
223 237 255
223 237 255
223 237 255
223 237 255
181 192 209
0 0 42
0 0 42
0 0 42
0 0 42
0 0 42
0 0 42
0 0 43
0 0 42
0 0 42
0 0 42
0 0 42
0 0 42
0 0 42
0 0 42
0 0 42
0 0 42
0 0 42
0 0 42
0 0 42
0 0 42
0 0 42
0 0 42
0 0 42
0 0 42
0 0 42
0 0 42
0 0 42
0 0 42
0 0 42
0 0 42
0 0 42
0 0 42
0 0 42
0 0 42
0 0 42
0 0 42
0 0 42
0 0 42
0 0 42
0 0 42
0 0 42
0 0 42
0 0 42
0 0 42
0 0 42
0 0 42
0 0 42
0 0 42
0 0 42
0 0 42
0 0 42
0 0 42
0 0 42
0 0 42
0 0 42
0 0 42
0 0 42
0 0 42
0 0 42
0 0 42
0 0 42
0 0 42
0 0 42
0 0 42
0 0 42
0 0 42
0 0 42
0 0 42
0 0 42
0 0 42
0 0 42
0 0 42
0 0 42
0 0 42
0 0 42
0 0 42
0 0 42
0 0 42
0 0 42
0 0 42
0 0 42
0 0 42
0 0 42
0 0 42
0 0 42
0 0 42
0 0 42
0 0 42
0 0 42
0 0 42
0 0 42
0 0 42
0 0 42
0 0 42
0 0 42
0 0 42
0 0 42
0 0 42
0 0 42
0 0 42
0 0 42
0 0 42
0 0 42
0 0 42
0 0 42
0 0 42
0 0 42
0 0 42
0 0 42
0 0 42
0 0 42
0 0 42
0 0 42
0 0 42
0 0 42
0 0 42
0 0 42
0 0 42
0 0 42
0 0 44
0 0 45
0 0 45
0 0 45
0 0 46
0 0 47
0 0 50
0 0 53
0 0 53
0 0 54
0 0 53
0 4 66
0 11 76
0 7 70
0 0 64
0 0 60
0 10 70
0 29 91
35 58 106
105 107 114
189 163 140
146 121 93
122 104 69
131 108 72
136 112 74
140 117 80
142 118 85
121 101 69
86 74 43
90 81 53
77 73 44
46 53 15
25 46 0
33 55 1
49 69 13
61 76 23
67 78 28
61 73 26
41 59 0
39 57 0
34 50 0
33 49 0
34 50 0
34 49 0
24 40 0
40 56 13
57 68 28
62 70 34
57 64 26
69 74 38
72 74 37
71 72 39
72 74 40
72 74 40
79 77 44
75 69 39
78 76 42
73 77 39
68 72 34
77 75 39
79 76 40
77 75 40
76 71 37
71 67 34
52 59 24
59 62 27
68 68 29
69 78 22
40 50 36
0 5 50
0 0 42
0 0 42
0 0 42
0 0 42
0 0 42
0 0 42
0 0 42
0 0 42
0 0 42
0 0 42
0 0 42
0 0 42
0 0 42
189 201 218
223 237 255
223 237 255
223 237 255
223 237 255
223 237 255
223 237 255
223 237 255
223 237 255
223 237 255
223 237 255
223 237 255
223 237 255
223 237 255
223 237 255
223 237 255
223 237 255
223 237 255
223 237 255
223 237 255
223 237 255
223 237 255
223 237 255
223 237 255
223 237 255
223 237 255
223 237 255
223 237 255
223 237 255
223 237 255
223 237 255
223 237 255
223 237 255
223 237 255
223 237 255
223 237 255
223 237 255
223 237 255
223 237 255
223 237 255
223 237 255
223 237 255
223 237 255
223 237 255
223 237 255
223 237 255
223 237 255
223 237 255
223 237 255
223 237 255
223 237 255
223 237 255
223 237 255
223 237 255
223 237 255
223 237 255
223 237 255
223 237 255
223 237 255
223 237 255
223 237 255
223 237 255
223 237 255
223 237 255
223 237 255
223 237 255
223 237 255
223 237 255
223 237 255
223 237 255
223 237 255
223 237 255
223 237 255
223 237 255
223 237 255
223 237 255
223 237 255
223 237 255
223 237 255
223 237 255
223 237 255
223 237 255
223 237 255
223 237 255
223 237 255
223 237 255
223 237 255
223 237 255
223 237 255
223 237 255
223 237 255
223 237 255
223 237 255
223 237 255
223 237 255
223 237 255
223 237 255
223 237 255
223 237 255
223 237 255
223 237 255
223 237 255
223 237 255
223 237 255
223 237 255
223 237 255
223 237 255
223 237 255
223 237 255
223 237 255
223 237 255
223 237 255
223 237 255
223 237 255
223 237 255
223 237 255
223 237 255
223 237 255
223 237 255
223 237 255
223 237 255
223 237 255
223 237 255
223 237 255
223 237 255
223 237 255
223 237 255
223 237 255
223 237 255
223 237 255
223 237 255
223 237 255
223 237 255
223 237 255
223 237 255
223 237 255
223 237 255
223 237 255
223 237 255
223 237 255
223 237 255
223 237 255
223 237 255
223 237 255
223 237 255
223 237 255
223 237 255
223 237 255
223 237 255
223 237 255
223 237 255
223 237 255
223 237 255
223 237 255
223 237 255
223 237 255
223 237 255
223 237 255
223 237 255
223 237 255
223 237 255
223 237 255
223 237 255
223 237 255
223 237 255
223 237 255
223 237 255
223 237 255
223 237 255
223 237 255
223 237 255
223 237 255
223 237 255
223 237 255
223 237 255
223 237 255
223 237 255
223 237 255
223 237 255
223 237 255
223 237 255
223 237 255
223 237 255
223 237 255
223 237 255
223 237 255
223 237 255
223 237 255
223 237 255
223 237 255
223 237 255
223 237 255
223 237 255
223 237 255
223 237 255
223 237 255
223 237 255
220 233 252
59 62 79
0 0 42
0 0 42
0 0 42
0 0 42
0 0 42
0 0 43
0 0 43
0 0 42
0 0 42
0 0 42
0 0 42
0 0 42
0 0 42
0 0 42
0 0 42
0 0 42
0 0 42
0 0 42
0 0 42
0 0 42
0 0 42
0 0 42
0 0 42
0 0 42
0 0 42
0 0 42
0 0 42
0 0 42
0 0 42
0 0 42
0 0 42
0 0 42
0 0 42
0 0 42
0 0 42
0 0 42
0 0 42
0 0 42
0 0 42
0 0 42
0 0 42
0 0 42
0 0 42
0 0 42
0 0 42
0 0 42
0 0 42
0 0 42
0 0 42
0 0 42
0 0 42
0 0 42
0 0 42
0 0 42
0 0 42
0 0 42
0 0 42
0 0 42
0 0 42
0 0 42
0 0 42
0 0 42
0 0 42
0 0 42
0 0 42
0 0 42
0 0 42
0 0 42
0 0 42
0 0 42
0 0 42
0 0 42
0 0 42
0 0 42
0 0 42
0 0 42
0 0 42
0 0 42
0 0 42
0 0 42
0 0 42
0 0 42
0 0 42
0 0 42
0 0 42
0 0 42
0 0 42
0 0 42
0 0 42
0 0 42
0 0 42
0 0 42
0 0 42
0 0 42
0 0 42
0 0 42
0 0 42
0 0 42
0 0 42
0 0 42
0 0 42
0 0 42
0 0 42
0 0 42
0 0 42
0 0 42
0 0 42
0 0 42
0 0 42
0 0 42
0 0 42
0 0 42
0 0 42
0 0 42
0 0 42
0 0 42
0 0 42
0 0 42
0 0 42
0 0 44
0 0 45
0 0 45
0 0 45
0 0 46
0 0 48
0 0 50
0 0 50
0 0 53
0 0 53
0 0 57
0 0 63
0 0 60
0 0 61
0 0 57
0 6 62
0 13 76
0 21 76
21 32 87
132 119 106
177 144 106
144 118 88
135 109 74
146 120 82
148 125 89
151 123 92
158 134 97
130 111 74
111 88 61
111 92 69
85 75 51
57 60 27
37 52 5
38 54 3
65 78 30
64 75 25
47 64 13
41 59 0
41 59 0
38 53 0
33 48 0
31 50 0
31 50 0
30 51 0
37 52 13
56 62 31
63 69 36
62 68 32
67 73 35
64 68 31
71 71 36
73 74 40
72 73 40
76 75 43
79 72 42
73 71 36
72 73 35
70 71 33
75 74 38
77 74 37
78 75 37
81 73 38
72 71 38
48 58 22
67 67 29
75 72 34
60 68 20
19 29 50
0 0 47
0 0 41
0 0 42
0 0 42
0 0 42
0 0 42
0 0 42
0 0 42
0 0 42
0 0 42
0 0 42
0 0 42
0 0 42
80 85 100
222 236 254
223 237 255
223 237 255
223 237 255
223 237 255
223 237 255
223 237 255
223 237 255
223 237 255
223 237 255
223 237 255
223 237 255
223 237 255
223 237 255
223 237 255
223 237 255
223 237 255
223 237 255
223 237 255
223 237 255
223 237 255
223 237 255
223 237 255
223 237 255
223 237 255
223 237 255
223 237 255
223 237 255
223 237 255
223 237 255
223 237 255
223 237 255
223 237 255
223 237 255
223 237 255
223 237 255
223 237 255
223 237 255
223 237 255
223 237 255
223 237 255
223 237 255
223 237 255
223 237 255
223 237 255
223 237 255
223 237 255
223 237 255
223 237 255
223 237 255
223 237 255
223 237 255
223 237 255
223 237 255
223 237 255
223 237 255
223 237 255
223 237 255
223 237 255
223 237 255
223 237 255
223 237 255
223 237 255
223 237 255
223 237 255
223 237 255
223 237 255
223 237 255
223 237 255
223 237 255
223 237 255
223 237 255
223 237 255
223 237 255
223 237 255
223 237 255
223 237 255
223 237 255
223 237 255
223 237 255
223 237 255
223 237 255
223 237 255
223 237 255
223 237 255
223 237 255
223 237 255
223 237 255
223 237 255
223 237 255
223 237 255
223 237 255
223 237 255
223 237 255
223 237 255
223 237 255
223 237 255
223 237 255
223 237 255
223 237 255
223 237 255
223 237 255
223 237 255
223 237 255
223 237 255
223 237 255
223 237 255
223 237 255
223 237 255
223 237 255
223 237 255
223 237 255
223 237 255
223 237 255
223 237 255
223 237 255
223 237 255
223 237 255
223 237 255
223 237 255
223 237 255
223 237 255
223 237 255
223 237 255
223 237 255
223 237 255
223 237 255
223 237 255
223 237 255
223 237 255
223 237 255
223 237 255
223 237 255
223 237 255
223 237 255
223 237 255
223 237 255
223 237 255
223 237 255
223 237 255
223 237 255
223 237 255
223 237 255
223 237 255
223 237 255
223 237 255
223 237 255
223 237 255
223 237 255
223 237 255
223 237 255
223 237 255
223 237 255
223 237 255
223 237 255
223 237 255
223 237 255
223 237 255
223 237 255
223 237 255
223 237 255
223 237 255
223 237 255
223 237 255
223 237 255
223 237 255
223 237 255
223 237 255
223 237 255
223 237 255
223 237 255
223 237 255
223 237 255
223 237 255
223 237 255
223 237 255
223 237 255
223 237 255
223 237 255
223 237 255
223 237 255
223 237 255
223 237 255
223 237 255
223 237 255
223 237 255
223 237 255
223 237 255
223 237 255
223 237 255
223 237 255
223 237 255
223 237 255
223 237 255
223 237 255
223 237 255
223 237 255
223 237 255
150 159 174
0 0 42
0 0 42
0 0 42
0 0 42
0 0 42
0 0 41
0 0 41
0 0 42
0 0 42
0 0 42
0 0 42
0 0 42
0 0 42
0 0 42
0 0 42
0 0 42
0 0 42
0 0 42
0 0 42
0 0 42
0 0 42
0 0 42
0 0 42
0 0 42
0 0 42
0 0 42
0 0 42
0 0 42
0 0 42
0 0 42
0 0 42
0 0 42
0 0 42
0 0 42
0 0 42
0 0 42
0 0 42
0 0 42
0 0 42
0 0 42
0 0 42
0 0 42
0 0 42
0 0 42
0 0 42
0 0 42
0 0 42
0 0 42
0 0 42
0 0 42
0 0 42
0 0 42
0 0 42
0 0 42
0 0 42
0 0 42
0 0 42
0 0 42
0 0 42
0 0 42
0 0 42
0 0 42
0 0 42
0 0 42
0 0 42
0 0 42
0 0 42
0 0 42
0 0 42
0 0 42
0 0 42
0 0 42
0 0 42
0 0 42
0 0 42
0 0 42
0 0 42
0 0 42
0 0 42
0 0 42
0 0 42
0 0 42
0 0 42
0 0 42
0 0 42
0 0 42
0 0 42
0 0 42
0 0 42
0 0 42
0 0 42
0 0 42
0 0 42
0 0 42
0 0 42
0 0 42
0 0 42
0 0 42
0 0 42
0 0 42
0 0 42
0 0 42
0 0 42
0 0 42
0 0 42
0 0 42
0 0 42
0 0 42
0 0 42
0 0 42
0 0 42
0 0 42
0 0 42
0 0 42
0 0 42
0 0 42
0 0 42
0 0 42
0 0 42
0 0 42
0 0 44
0 0 45
0 0 45
0 0 47
0 0 48
0 0 48
0 0 50
0 0 52
0 0 53
0 0 54
0 0 55
0 0 54
0 0 60
0 0 62
0 2 65
0 3 58
0 2 59
0 4 58
20 30 77
109 103 106
178 150 120
144 116 81
131 109 65
144 121 81
151 120 82
170 137 100
133 109 74
112 96 63
87 76 44
70 64 32
68 67 33
51 61 18
44 56 9
59 68 24
50 61 13
43 59 8
40 57 0
44 60 8
45 60 13
37 54 4
31 51 0
32 52 0
34 52 0
37 46 13
56 59 31
59 65 31
63 71 33
70 77 39
71 74 37
76 76 42
74 76 41
71 74 39
72 72 37
72 69 36
72 72 36
77 77 41
72 71 35
75 74 38
77 74 37
79 77 41
83 77 42
66 67 32
51 58 19
68 69 30
64 65 26
50 64 41
0 14 54
0 0 45
0 0 41
0 0 42
0 0 42
0 0 42
0 0 42
0 0 42
0 0 42
0 0 42
0 0 42
0 0 42
0 0 42
0 0 42
150 159 174
223 237 255
223 237 255
223 237 255
223 237 255
223 237 255
223 237 255
223 237 255
223 237 255
223 237 255
223 237 255
223 237 255
223 237 255
223 237 255
223 237 255
223 237 255
223 237 255
223 237 255
223 237 255
223 237 255
223 237 255
223 237 255
223 237 255
223 237 255
223 237 255
223 237 255
223 237 255
223 237 255
223 237 255
223 237 255
223 237 255
223 237 255
223 237 255
223 237 255
223 237 255
223 237 255
223 237 255
223 237 255
223 237 255
223 237 255
223 237 255
223 237 255
223 237 255
223 237 255
223 237 255
223 237 255
223 237 255
223 237 255
223 237 255
223 237 255
223 237 255
223 237 255
223 237 255
223 237 255
223 237 255
223 237 255
223 237 255
223 237 255
223 237 255
223 237 255
223 237 255
223 237 255
223 237 255
223 237 255
223 237 255
223 237 255
223 237 255
223 237 255
223 237 255
223 237 255
223 237 255
223 237 255
223 237 255
223 237 255
223 237 255
223 237 255
223 237 255
223 237 255
223 237 255
223 237 255
223 237 255
223 237 255
223 237 255
223 237 255
223 237 255
223 237 255
223 237 255
223 237 255
223 237 255
223 237 255
223 237 255
223 237 255
223 237 255
223 237 255
223 237 255
223 237 255
223 237 255
223 237 255
223 237 255
223 237 255
223 237 255
223 237 255
223 237 255
223 237 255
223 237 255
223 237 255
223 237 255
223 237 255
223 237 255
223 237 255
223 237 255
223 237 255
223 237 255
223 237 255
223 237 255
223 237 255
223 237 255
223 237 255
223 237 255
223 237 255
223 237 255
223 237 255
223 237 255
223 237 255
223 237 255
223 237 255
223 237 255
223 237 255
223 237 255
223 237 255
223 237 255
223 237 255
223 237 255
223 237 255
223 237 255
223 237 255
223 237 255
223 237 255
223 237 255
223 237 255
223 237 255
223 237 255
223 237 255
223 237 255
223 237 255
223 237 255
223 237 255
223 237 255
223 237 255
223 237 255
223 237 255
223 237 255
223 237 255
223 237 255
223 237 255
223 237 255
223 237 255
223 237 255
223 237 255
223 237 255
223 237 255
223 237 255
223 237 255
223 237 255
223 237 255
223 237 255
223 237 255
223 237 255
223 237 255
223 237 255
223 237 255
223 237 255
223 237 255
223 237 255
223 237 255
223 237 255
223 237 255
223 237 255
223 237 255
223 237 255
223 237 255
223 237 255
223 237 255
223 237 255
223 237 255
223 237 255
223 237 255
223 237 255
223 237 255
223 237 255
223 237 255
223 237 255
223 237 255
223 237 255
223 237 255
223 237 255
223 237 255
223 237 255
223 237 255
202 214 232
22 23 49
0 0 42
0 0 42
0 0 42
0 0 42
0 0 42
0 0 42
0 0 42
0 0 42
0 0 42
0 0 42
0 0 42
0 0 42
0 0 42
0 0 42
0 0 42
0 0 42
0 0 42
0 0 42
0 0 42
0 0 42
0 0 42
0 0 42
0 0 42
0 0 42
0 0 42
0 0 42
0 0 42
0 0 42
0 0 42
0 0 42
0 0 42
0 0 42
0 0 42
0 0 42
0 0 42
0 0 42
0 0 42
0 0 42
0 0 42
0 0 42
0 0 42
0 0 42
0 0 42
0 0 42
0 0 42
0 0 42
0 0 42
0 0 42
0 0 42
0 0 42
0 0 42
0 0 42
0 0 42
0 0 42
0 0 42
0 0 42
0 0 42
0 0 42
0 0 42
0 0 42
0 0 42
0 0 42
0 0 42
0 0 42
0 0 42
0 0 42
0 0 42
0 0 42
0 0 42
0 0 42
0 0 42
0 0 42
0 0 42
0 0 42
0 0 42
0 0 42
0 0 42
0 0 42
0 0 42
0 0 42
0 0 42
0 0 42
0 0 42
0 0 42
0 0 42
0 0 42
0 0 42
0 0 42
0 0 42
0 0 42
0 0 42
0 0 42
0 0 42
0 0 42
0 0 42
0 0 42
0 0 42
0 0 42
0 0 42
0 0 42
0 0 42
0 0 42
0 0 42
0 0 42
0 0 42
0 0 42
0 0 42
0 0 42
0 0 42
0 0 42
0 0 42
0 0 42
0 0 42
0 0 42
0 0 42
0 0 42
0 0 42
0 0 42
0 0 42
0 0 43
0 0 45
0 0 45
0 0 43
0 0 44
0 0 47
0 0 48
0 0 50
0 0 50
0 0 55
0 0 56
0 0 57
0 0 60
0 0 64
0 0 59
0 0 55
0 0 56
0 0 58
0 0 62
63 64 96
170 145 115
144 117 84
150 127 79
165 143 99
172 142 96
140 130 70
121 111 61
118 101 64
110 93 62
81 73 45
71 66 35
43 50 13
51 59 17
63 64 24
53 60 20
48 61 14
45 58 4
46 61 12
47 62 16
41 59 6
32 52 0
39 53 1
47 59 17
56 63 28
64 69 35
59 67 31
62 72 31
67 74 35
77 78 42
76 77 42
75 76 41
73 76 40
70 74 39
70 72 37
73 74 36
78 76 38
79 78 42
76 75 39
73 71 35
77 76 38
75 71 35
58 59 22
53 57 20
61 66 28
62 63 21
31 43 47
0 0 42
0 0 42
0 0 42
0 0 42
0 0 42
0 0 42
0 0 42
0 0 42
0 0 42
0 0 42
0 0 42
0 0 42
0 0 42
0 0 42
204 216 233
223 237 255
223 237 255
223 237 255
223 237 255
223 237 255
223 237 255
223 237 255
223 237 255
223 237 255
223 237 255
223 237 255
223 237 255
223 237 255
223 237 255
223 237 255
223 237 255
223 237 255
223 237 255
223 237 255
223 237 255
223 237 255
223 237 255
223 237 255
223 237 255
223 237 255
223 237 255
223 237 255
223 237 255
223 237 255
223 237 255
223 237 255
223 237 255
223 237 255
223 237 255
223 237 255
223 237 255
223 237 255
223 237 255
223 237 255
223 237 255
223 237 255
223 237 255
223 237 255
223 237 255
223 237 255
223 237 255
223 237 255
223 237 255
223 237 255
223 237 255
223 237 255
223 237 255
223 237 255
223 237 255
223 237 255
223 237 255
223 237 255
223 237 255
223 237 255
223 237 255
223 237 255
223 237 255
223 237 255
223 237 255
223 237 255
223 237 255
223 237 255
223 237 255
223 237 255
223 237 255
223 237 255
223 237 255
223 237 255
223 237 255
223 237 255
223 237 255
223 237 255
223 237 255
223 237 255
223 237 255
223 237 255
223 237 255
223 237 255
223 237 255
223 237 255
223 237 255
223 237 255
223 237 255
223 237 255
223 237 255
223 237 255
223 237 255
223 237 255
223 237 255
223 237 255
223 237 255
223 237 255
223 237 255
223 237 255
223 237 255
223 237 255
223 237 255
223 237 255
223 237 255
223 237 255
223 237 255
223 237 255
223 237 255
223 237 255
223 237 255
223 237 255
223 237 255
223 237 255
223 237 255
223 237 255
223 237 255
223 237 255
223 237 255
223 237 255
223 237 255
223 237 255
223 237 255
223 237 255
223 237 255
223 237 255
223 237 255
223 237 255
223 237 255
223 237 255
223 237 255
223 237 255
223 237 255
223 237 255
223 237 255
223 237 255
223 237 255
223 237 255
223 237 255
223 237 255
223 237 255
223 237 255
223 237 255
223 237 255
223 237 255
223 237 255
223 237 255
223 237 255
223 237 255
223 237 255
223 237 255
223 237 255
223 237 255
224 237 255
223 237 255
224 237 255
224 237 255
224 237 255
224 237 255
224 237 255
224 237 255
224 237 255
224 237 255
224 237 255
224 237 255
224 237 255
224 237 255
224 237 255
224 237 255
224 237 255
224 237 255
224 237 255
224 237 255
224 237 255
224 237 255
224 237 255
224 237 255
224 237 255
224 237 255
224 237 255
224 237 255
224 237 255
224 237 255
224 237 255
224 237 255
224 237 255
224 237 255
224 237 255
224 237 255
224 237 255
224 237 255
224 237 255
224 237 255
224 237 255
224 237 255
224 237 255
224 237 255
224 237 255
224 237 255
224 237 255
102 108 123
0 0 42
0 0 42
0 0 42
0 0 42
0 0 42
0 0 42
0 0 42
0 0 42
0 0 42
0 0 42
0 0 42
0 0 42
0 0 42
0 0 42
0 0 42
0 0 42
0 0 42
0 0 42
0 0 42
0 0 42
0 0 42
0 0 42
0 0 42
0 0 42
0 0 42
0 0 42
0 0 42
0 0 42
0 0 42
0 0 42
0 0 42
0 0 42
0 0 42
0 0 42
0 0 42
0 0 42
0 0 42
0 0 42
0 0 42
0 0 42
0 0 42
0 0 42
0 0 42
0 0 42
0 0 42
0 0 42
0 0 42
0 0 42
0 0 42
0 0 42
0 0 42
0 0 42
0 0 42
0 0 42
0 0 42
0 0 42
0 0 42
0 0 42
0 0 42
0 0 42
0 0 42
0 0 42
0 0 42
0 0 42
0 0 42
0 0 42
0 0 42
0 0 42
0 0 42
0 0 42
0 0 42
0 0 42
0 0 42
0 0 42
0 0 42
0 0 42
0 0 42
0 0 42
0 0 42
0 0 42
0 0 42
0 0 42
0 0 42
0 0 42
0 0 42
0 0 42
0 0 42
0 0 42
0 0 42
0 0 42
0 0 42
0 0 42
0 0 42
0 0 42
0 0 42
0 0 42
0 0 42
0 0 42
0 0 42
0 0 42
0 0 42
0 0 42
0 0 42
0 0 42
0 0 42
0 0 42
0 0 42
0 0 42
0 0 42
0 0 42
0 0 42
0 0 42
0 0 42
0 0 42
0 0 42
0 0 42
0 0 42
0 0 42
0 0 42
0 0 42
0 0 43
0 0 45
0 0 43
0 0 44
0 0 45
0 0 48
0 0 48
0 0 50
0 0 53
0 0 54
0 0 55
0 0 54
0 0 54
0 0 52
0 0 51
0 0 50
0 0 56
0 0 55
70 61 81
146 127 104
123 97 76
136 112 66
131 107 64
175 148 104
166 149 98
142 125 86
137 114 82
119 98 67
105 93 61
77 71 40
45 54 12
59 65 24
67 64 28
58 62 22
53 62 16
50 62 13
46 60 10
42 59 11
38 58 2
37 55 5
57 67 25
59 67 28
48 57 12
47 54 16
53 63 22
63 72 32
72 76 38
73 75 41
73 77 39
77 79 40
75 79 42
75 77 41
75 78 40
73 74 38
70 72 33
67 70 32
71 71 35
74 75 37
66 70 30
59 63 25
56 61 25
62 64 32
54 62 28
38 47 40
0 0 44
0 0 42
0 0 42
0 0 42
0 0 42
0 0 42
0 0 42
0 0 42
0 0 42
0 0 42
0 0 42
0 0 42
0 0 42
0 0 42
118 125 140
224 237 255
224 237 255
224 237 255
224 237 255
224 237 255
224 237 255
224 237 255
224 237 255
224 237 255
224 237 255
224 237 255
224 237 255
224 237 255
224 237 255
224 237 255
224 237 255
224 237 255
224 237 255
224 237 255
224 237 255
224 237 255
224 237 255
224 237 255
224 237 255
224 237 255
224 237 255
224 237 255
224 237 255
224 237 255
224 237 255
224 237 255
224 237 255
224 237 255
224 237 255
224 237 255
224 237 255
224 237 255
224 237 255
224 237 255
224 237 255
224 237 255
224 237 255
224 237 255
224 237 255
223 237 255
223 237 255
223 237 255
223 237 255
223 237 255
223 237 255
223 237 255
223 237 255
223 237 255
223 237 255
223 237 255
223 237 255
223 237 255
223 237 255
223 237 255
223 237 255
223 237 255
223 237 255
223 237 255
223 237 255
223 237 255
223 237 255
223 237 255
223 237 255
223 237 255
223 237 255
223 237 255
223 237 255
223 237 255
223 237 255
223 237 255
223 237 255
223 237 255
223 237 255
223 237 255
223 237 255
223 237 255
223 237 255
223 237 255
223 237 255
223 237 255
223 237 255
223 237 255
223 237 255
223 237 255
223 237 255
223 237 255
223 237 255
223 237 255
223 237 255
223 237 255
223 237 255
223 237 255
223 237 255
223 237 255
223 237 255
224 237 255
224 237 255
224 237 255
224 237 255
224 237 255
224 237 255
224 237 255
224 237 255
224 237 255
224 237 255
224 237 255
224 237 255
224 237 255
224 237 255
224 237 255
224 237 255
224 237 255
224 237 255
224 237 255
224 237 255
224 237 255
224 237 255
224 237 255
224 237 255
224 237 255
224 237 255
224 237 255
224 237 255
224 237 255
224 237 255
224 237 255
224 237 255
224 237 255
224 237 255
224 237 255
224 237 255
224 237 255
224 237 255
224 237 255
224 237 255
224 237 255
224 237 255
224 237 255
224 237 255
224 237 255
224 237 255
224 237 255
224 237 255
224 237 255
224 237 255
224 237 255
224 237 255
224 237 255
224 237 255
224 237 255
224 237 255
224 237 255
224 237 255
224 237 255
224 237 255
224 237 255
224 237 255
224 237 255
224 237 255
224 237 255
224 237 255
224 237 255
224 237 255
224 237 255
224 237 255
224 237 255
224 237 255
224 237 255
224 237 255
224 237 255
224 237 255
224 237 255
224 237 255
224 237 255
224 237 255
224 237 255
224 237 255
224 237 255
224 237 255
224 237 255
224 237 255
224 237 255
224 237 255
224 237 255
224 237 255
224 237 255
224 237 255
224 237 255
224 237 255
224 237 255
224 237 255
224 237 255
224 237 255
224 237 255
224 237 255
186 197 213
0 0 42
0 0 42
0 0 42
0 0 42
0 0 42
0 0 42
0 0 42
0 0 42
0 0 42
0 0 42
0 0 42
0 0 42
0 0 42
0 0 42
0 0 42
0 0 42
0 0 42
0 0 42
0 0 42
0 0 42
0 0 42
0 0 42
0 0 42
0 0 42
0 0 42
0 0 42
0 0 42
0 0 42
0 0 42
0 0 42
0 0 42
0 0 42
0 0 42
0 0 42
0 0 42
0 0 42
0 0 42
0 0 42
0 0 42
0 0 42
0 0 42
0 0 42
0 0 42
0 0 42
0 0 42
0 0 42
0 0 42
0 0 42
0 0 42
0 0 42
0 0 42
0 0 42
0 0 42
0 0 42
0 0 42
0 0 42
0 0 42
0 0 42
0 0 42
0 0 42
0 0 42
0 0 42
0 0 42
0 0 42
0 0 42
0 0 42
0 0 42
0 0 42
0 0 42
0 0 42
0 0 42
0 0 42
0 0 42
0 0 42
0 0 42
0 0 42
0 0 42
0 0 42
0 0 42
0 0 42
0 0 42
0 0 42
0 0 42
0 0 42
0 0 42
0 0 42
0 0 42
0 0 42
0 0 42
0 0 42
0 0 42
0 0 42
0 0 42
0 0 42
0 0 42
0 0 42
0 0 42
0 0 42
0 0 42
0 0 42
0 0 42
0 0 42
0 0 42
0 0 42
0 0 42
0 0 42
0 0 42
0 0 42
0 0 42
0 0 42
0 0 42
0 0 42
0 0 42
0 0 42
0 0 42
0 0 42
0 0 42
0 0 42
0 0 42
0 0 42
0 0 42
0 0 44
0 0 43
0 0 44
0 0 45
0 0 46
0 0 47
0 0 48
0 0 50
0 0 50
0 0 48
0 0 48
0 0 48
0 0 56
0 0 50
0 0 53
0 0 55
0 0 65
63 61 86
162 145 125
128 102 81
139 111 79
132 108 79
146 115 76
160 126 95
153 128 93
134 115 83
127 106 75
106 95 58
63 62 31
50 56 18
62 63 27
74 68 38
65 61 31
56 62 23
51 60 18
43 56 4
38 54 0
34 56 0
47 62 15
64 72 31
53 62 20
48 65 19
53 65 25
60 70 29
69 73 34
75 76 40
71 74 38
69 76 34
69 75 32
66 75 34
78 82 42
78 81 42
71 73 34
60 67 27
64 68 30
73 73 36
74 74 35
63 66 29
58 63 25
61 64 27
57 63 22
50 64 36
11 17 47
0 0 42
0 0 42
0 0 42
0 0 42
0 0 42
0 0 42
0 0 42
0 0 42
0 0 42
0 0 42
0 0 42
0 0 42
0 0 42
0 0 42
184 195 212
224 237 255
224 237 255
224 237 255
224 237 255
224 237 255
224 237 255
224 237 255
224 237 255
224 237 255
224 237 255
224 237 255
224 237 255
224 237 255
224 237 255
224 237 255
224 237 255
224 237 255
224 237 255
224 237 255
224 237 255
224 237 255
224 237 255
224 237 255
224 237 255
224 237 255
224 237 255
224 237 255
224 237 255
224 237 255
224 237 255
224 237 255
224 237 255
224 237 255
224 237 255
224 237 255
224 237 255
224 237 255
224 237 255
224 237 255
224 237 255
224 237 255
224 237 255
224 237 255
224 237 255
224 237 255
224 237 255
224 237 255
224 237 255
224 237 255
224 237 255
224 237 255
224 237 255
224 237 255
224 237 255
224 237 255
224 237 255
224 237 255
224 237 255
224 237 255
224 237 255
224 237 255
224 237 255
224 237 255
224 237 255
224 237 255
224 237 255
224 237 255
224 237 255
224 237 255
224 237 255
224 237 255
224 237 255
224 237 255
224 237 255
224 237 255
224 237 255
224 237 255
224 237 255
224 237 255
224 237 255
224 237 255
224 237 255
224 237 255
224 237 255
224 237 255
224 237 255
224 237 255
224 237 255
224 237 255
224 237 255
224 237 255
224 237 255
224 237 255
224 237 255
224 237 255
224 237 255
224 237 255
224 237 255
224 237 255
224 237 255
224 237 255
224 237 255
224 237 255
224 237 255
224 237 255
224 237 255
224 237 255
224 237 255
224 237 255
224 237 255
224 237 255
224 237 255
224 237 255
224 237 255
224 237 255
224 237 255
224 237 255
224 237 255
224 237 255
224 237 255
224 237 255
224 237 255
224 237 255
224 237 255
224 237 255
224 237 255
224 237 255
224 237 255
224 237 255
224 237 255
224 237 255
224 237 255
224 237 255
224 237 255
224 237 255
224 237 255
224 237 255
224 237 255
224 237 255
224 237 255
224 237 255
224 237 255
224 237 255
224 237 255
224 237 255
224 237 255
224 237 255
224 237 255
224 237 255
224 237 255
224 237 255
224 237 255
224 237 255
224 237 255
224 237 255
224 237 255
224 237 255
224 237 255
224 237 255
224 237 255
224 237 255
224 237 255
224 237 255
224 237 255
224 237 255
224 237 255
224 237 255
224 237 255
224 237 255
224 237 255
224 237 255
224 237 255
224 237 255
224 237 255
224 237 255
224 237 255
224 237 255
224 237 255
224 237 255
224 237 255
224 237 255
224 237 255
224 237 255
224 237 255
224 237 255
224 237 255
224 237 255
224 237 255
224 237 255
224 237 255
224 237 255
224 237 255
224 237 255
224 237 255
224 237 255
224 237 255
224 237 255
224 237 255
224 237 255
224 237 255
221 235 253
74 78 93
0 0 42
0 0 42
0 0 42
0 0 42
0 0 42
0 0 42
0 0 42
0 0 42
0 0 42
0 0 42
0 0 42
0 0 42
0 0 42
0 0 42
0 0 42
0 0 42
0 0 42
0 0 42
0 0 42
0 0 42
0 0 42
0 0 42
0 0 42
0 0 42
0 0 42
0 0 42
0 0 42
0 0 42
0 0 42
0 0 42
0 0 42
0 0 42
0 0 42
0 0 42
0 0 42
0 0 42
0 0 42
0 0 42
0 0 42
0 0 42
0 0 42
0 0 42
0 0 42
0 0 42
0 0 42
0 0 42
0 0 42
0 0 42
0 0 42
0 0 42
0 0 42
0 0 42
0 0 42
0 0 42
0 0 42
0 0 42
0 0 42
0 0 42
0 0 42
0 0 42
0 0 42
0 0 42
0 0 42
0 0 42
0 0 42
0 0 42
0 0 42
0 0 42
0 0 42
0 0 42
0 0 42
0 0 42
0 0 42
0 0 42
0 0 42
0 0 42
0 0 42
0 0 42
0 0 42
0 0 42
0 0 42
0 0 42
0 0 42
0 0 42
0 0 42
0 0 42
0 0 42
0 0 42
0 0 42
0 0 42
0 0 42
0 0 42
0 0 42
0 0 42
0 0 42
0 0 42
0 0 42
0 0 42
0 0 42
0 0 42
0 0 42
0 0 42
0 0 42
0 0 42
0 0 42
0 0 42
0 0 42
0 0 42
0 0 42
0 0 42
0 0 42
0 0 42
0 0 42
0 0 42
0 0 42
0 0 42
0 0 42
0 0 42
0 0 42
0 0 42
0 0 42
0 0 42
0 0 44
0 0 45
0 0 47
0 0 46
0 0 47
0 0 48
0 0 49
0 0 50
0 0 51
0 0 52
0 0 53
0 0 56
0 0 58
0 0 57
0 0 67
64 67 91
171 148 126
150 124 98
168 136 105
153 132 102
138 111 84
172 141 114
145 121 86
104 89 54
120 101 68
92 82 46
50 54 19
51 60 21
60 62 29
67 63 36
70 71 41
55 60 22
49 58 15
43 57 11
38 55 1
33 57 3
45 62 17
56 66 25
44 60 16
55 71 25
57 69 26
64 73 30
74 78 39
71 74 36
71 76 36
64 74 29
66 74 28
61 74 27
76 83 39
79 80 40
65 72 29
56 67 26
66 71 31
70 72 32
71 72 35
67 69 32
61 63 28
69 70 34
71 73 40
40 50 66
0 0 42
0 0 42
0 0 42
0 0 42
0 0 42
0 0 42
0 0 42
0 0 42
0 0 42
0 0 42
0 0 42
0 0 42
0 0 42
0 0 42
70 75 90
221 235 253
224 237 255
224 237 255
224 237 255
224 237 255
224 237 255
224 237 255
224 237 255
224 237 255
224 237 255
224 237 255
224 237 255
224 237 255
224 237 255
224 237 255
224 237 255
224 237 255
224 237 255
224 237 255
224 237 255
224 237 255
224 237 255
224 237 255
224 237 255
224 237 255
224 237 255
224 237 255
224 237 255
224 237 255
224 237 255
224 237 255
224 237 255
224 237 255
224 237 255
224 237 255
224 237 255
224 237 255
224 237 255
224 237 255
224 237 255
224 237 255
224 237 255
224 237 255
224 237 255
224 237 255
224 237 255
224 237 255
224 237 255
224 237 255
224 237 255
224 237 255
224 237 255
224 237 255
224 237 255
224 237 255
224 237 255
224 237 255
224 237 255
224 237 255
224 237 255
224 237 255
224 237 255
224 237 255
224 237 255
224 237 255
224 237 255
224 237 255
224 237 255
224 237 255
224 237 255
224 237 255
224 237 255
224 237 255
224 237 255
224 237 255
224 237 255
224 237 255
224 237 255
224 237 255
224 237 255
224 237 255
224 237 255
224 237 255
224 237 255
224 237 255
224 237 255
224 237 255
224 237 255
224 237 255
224 237 255
224 237 255
224 237 255
224 237 255
224 237 255
224 237 255
224 237 255
224 237 255
224 237 255
224 237 255
224 237 255
224 237 255
224 237 255
224 237 255
224 237 255
224 237 255
224 237 255
224 237 255
224 237 255
224 237 255
224 237 255
224 237 255
224 237 255
224 237 255
224 237 255
224 237 255
224 237 255
224 237 255
224 237 255
224 237 255
224 237 255
224 237 255
224 237 255
224 237 255
224 237 255
224 237 255
224 237 255
224 237 255
224 237 255
224 237 255
224 237 255
224 237 255
224 237 255
224 237 255
224 237 255
224 237 255
224 237 255
224 237 255
224 237 255
224 237 255
224 237 255
224 237 255
224 237 255
224 237 255
224 237 255
224 237 255
224 237 255
224 237 255
224 237 255
224 237 255
224 237 255
224 237 255
224 237 255
224 237 255
224 237 255
224 237 255
224 237 255
224 237 255
224 237 255
224 237 255
224 237 255
224 237 255
224 237 255
224 237 255
224 237 255
224 237 255
224 237 255
224 237 255
224 237 255
224 237 255
224 237 255
224 237 255
224 237 255
224 237 255
224 237 255
224 237 255
224 237 255
224 237 255
224 237 255
224 237 255
224 237 255
224 237 255
224 237 255
224 237 255
224 237 255
224 237 255
224 237 255
224 237 255
224 237 255
224 237 255
224 237 255
224 237 255
224 237 255
224 237 255
224 237 255
224 237 255
224 237 255
224 237 255
224 237 255
224 237 255
224 237 255
224 237 255
224 237 255
161 171 186
0 0 42
0 0 42
0 0 42
0 0 42
0 0 42
0 0 42
0 0 42
0 0 42
0 0 42
0 0 42
0 0 42
0 0 42
0 0 42
0 0 42
0 0 42
0 0 42
0 0 42
0 0 42
0 0 42
0 0 42
0 0 42
0 0 42
0 0 42
0 0 42
0 0 42
0 0 42
0 0 42
0 0 42
0 0 42
0 0 42
0 0 42
0 0 42
0 0 42
0 0 42
0 0 42
0 0 42
0 0 42
0 0 42
0 0 42
0 0 42
0 0 42
0 0 42
0 0 42
0 0 42
0 0 42
0 0 42
0 0 42
0 0 42
0 0 42
0 0 42
0 0 42
0 0 42
0 0 42
0 0 42
0 0 42
0 0 42
0 0 42
0 0 42
0 0 42
0 0 42
0 0 42
0 0 42
0 0 42
0 0 42
0 0 42
0 0 42
0 0 42
0 0 42
0 0 42
0 0 42
0 0 42
0 0 42
0 0 42
0 0 42
0 0 42
0 0 42
0 0 42
0 0 42
0 0 42
0 0 42
0 0 42
0 0 42
0 0 42
0 0 42
0 0 42
0 0 42
0 0 42
0 0 42
0 0 42
0 0 42
0 0 42
0 0 42
0 0 42
0 0 42
0 0 42
0 0 42
0 0 42
0 0 42
0 0 42
0 0 42
0 0 42
0 0 42
0 0 42
0 0 42
0 0 42
0 0 42
0 0 42
0 0 42
0 0 42
0 0 42
0 0 42
0 0 42
0 0 42
0 0 42
0 0 42
0 0 42
0 0 42
0 0 42
0 0 42
0 0 42
0 0 42
0 0 40
0 0 44
0 0 45
0 0 47
0 0 48
0 0 48
0 0 49
0 0 52
0 0 53
0 0 53
0 0 53
0 0 52
0 0 54
0 0 59
0 2 59
0 12 75
79 78 99
170 133 104
145 115 91
161 129 93
157 134 103
167 146 122
203 168 141
166 136 104
106 91 54
114 95 64
84 72 40
44 49 12
50 59 21
56 59 26
61 60 34
63 65 34
58 61 26
49 58 16
46 60 16
43 60 15
42 63 13
51 64 20
53 64 22
51 64 20
59 72 27
60 70 26
67 74 32
68 73 31
67 71 26
67 76 30
62 72 25
69 80 33
66 78 30
68 75 30
73 75 34
57 68 26
57 66 26
65 71 29
69 72 34
67 68 33
62 64 28
60 65 29
64 70 28
70 79 42
8 11 65
0 0 40
0 0 42
0 0 42
0 0 42
0 0 42
0 0 42
0 0 42
0 0 42
0 0 42
0 0 42
0 0 42
0 0 42
0 0 42
0 0 42
156 166 181
224 237 255
224 237 255
224 237 255
224 237 255
224 237 255
224 237 255
224 237 255
224 237 255
224 237 255
224 237 255
224 237 255
224 237 255
224 237 255
224 237 255
224 237 255
224 237 255
224 237 255
224 237 255
224 237 255
224 237 255
224 237 255
224 237 255
224 237 255
224 237 255
224 237 255
224 237 255
224 237 255
224 237 255
224 237 255
224 237 255
224 237 255
224 237 255
224 237 255
224 237 255
224 237 255
224 237 255
224 237 255
224 237 255
224 237 255
224 237 255
224 237 255
224 237 255
224 237 255
224 237 255
224 237 255
224 237 255
224 237 255
224 237 255
224 237 255
224 237 255
224 237 255
224 237 255
224 237 255
224 237 255
224 237 255
224 237 255
224 237 255
224 237 255
224 237 255
224 237 255
224 237 255
224 237 255
224 237 255
224 237 255
224 237 255
224 237 255
224 237 255
224 237 255
224 237 255
224 237 255
224 237 255
224 237 255
224 237 255
224 237 255
224 237 255
224 237 255
224 237 255
224 237 255
224 237 255
224 237 255
224 237 255
224 237 255
224 237 255
224 237 255
224 237 255
224 237 255
224 237 255
224 237 255
224 237 255
224 237 255
224 237 255
224 237 255
224 237 255
224 237 255
224 237 255
224 237 255
224 237 255
224 237 255
224 237 255
224 237 255
224 237 255
224 237 255
224 237 255
224 237 255
224 237 255
224 237 255
224 237 255
224 237 255
224 237 255
224 237 255
224 237 255
224 237 255
224 237 255
224 237 255
224 237 255
224 237 255
224 237 255
224 237 255
224 237 255
224 237 255
224 237 255
224 237 255
224 237 255
224 237 255
224 237 255
224 237 255
224 237 255
224 237 255
224 237 255
224 237 255
224 237 255
224 237 255
224 237 255
224 237 255
224 237 255
224 237 255
224 237 255
224 237 255
224 237 255
224 237 255
224 237 255
224 237 255
224 237 255
224 237 255
224 237 255
224 237 255
224 237 255
224 237 255
224 237 255
224 237 255
224 237 255
224 237 255
224 237 255
224 237 255
224 237 255
224 237 255
224 237 255
224 237 255
224 237 255
224 237 255
224 237 255
224 237 255
224 237 255
224 237 255
224 237 255
224 237 255
224 237 255
224 237 255
224 237 255
224 237 255
224 237 255
224 237 255
224 237 255
224 237 255
224 237 255
224 237 255
224 237 255
224 237 255
224 237 255
224 237 255
224 237 255
224 237 255
224 237 255
224 237 255
224 237 255
224 237 255
224 237 255
224 237 255
224 237 255
224 237 255
224 237 255
224 237 255
224 237 255
224 237 255
224 237 255
224 237 255
224 237 255
224 237 255
224 237 255
224 237 255
224 237 255
224 237 255
213 226 244
59 62 79
0 0 42
0 0 42
0 0 42
0 0 42
0 0 42
0 0 42
0 0 42
0 0 42
0 0 42
0 0 42
0 0 42
0 0 42
0 0 42
0 0 42
0 0 42
0 0 42
0 0 42
0 0 42
0 0 42
0 0 42
0 0 42
0 0 42
0 0 42
0 0 42
0 0 42
0 0 42
0 0 42
0 0 42
0 0 42
0 0 42
0 0 42
0 0 42
0 0 42
0 0 42
0 0 42
0 0 42
0 0 42
0 0 42
0 0 42
0 0 42
0 0 42
0 0 42
0 0 42
0 0 42
0 0 42
0 0 42
0 0 42
0 0 42
0 0 42
0 0 42
0 0 42
0 0 42
0 0 42
0 0 42
0 0 42
0 0 42
0 0 42
0 0 42
0 0 42
0 0 42
0 0 42
0 0 42
0 0 42
0 0 42
0 0 42
0 0 42
0 0 42
0 0 42
0 0 42
0 0 42
0 0 42
0 0 42
0 0 42
0 0 42
0 0 42
0 0 42
0 0 42
0 0 42
0 0 42
0 0 42
0 0 42
0 0 42
0 0 42
0 0 42
0 0 42
0 0 42
0 0 42
0 0 42
0 0 42
0 0 42
0 0 42
0 0 42
0 0 42
0 0 42
0 0 42
0 0 42
0 0 42
0 0 42
0 0 42
0 0 42
0 0 42
0 0 42
0 0 42
0 0 42
0 0 42
0 0 42
0 0 42
0 0 42
0 0 42
0 0 42
0 0 42
0 0 42
0 0 42
0 0 42
0 0 42
0 0 42
0 0 42
0 0 42
0 0 42
0 0 42
0 0 41
0 0 42
0 0 45
0 0 46
0 0 48
0 0 49
0 0 50
0 0 53
0 0 54
0 0 54
0 0 53
0 0 50
0 0 53
0 0 55
0 4 64
0 11 77
98 87 99
188 152 124
154 126 100
147 114 82
159 131 98
159 134 102
180 142 114
142 116 83
117 100 62
114 96 64
82 77 47
46 53 18
53 58 23
61 61 29
60 59 32
61 63 31
59 63 27
48 57 13
47 59 16
45 61 16
44 60 13
53 65 23
57 68 25
58 69 24
58 70 26
61 72 29
59 69 22
66 76 27
65 74 26
61 73 26
75 82 40
72 82 34
72 82 35
67 76 33
64 69 30
61 69 31
60 69 28
60 68 24
62 67 29
57 62 27
52 60 21
46 58 17
42 56 39
23 30 62
0 0 45
0 0 42
0 0 42
0 0 42
0 0 42
0 0 42
0 0 42
0 0 42
0 0 42
0 0 42
0 0 42
0 0 42
0 0 42
0 0 42
38 41 60
215 227 245
224 237 255
224 237 255
224 237 255
224 237 255
224 237 255
224 237 255
224 237 255
224 237 255
224 237 255
224 237 255
224 237 255
224 237 255
224 237 255
224 237 255
224 237 255
224 237 255
224 237 255
224 237 255
224 237 255
224 237 255
224 237 255
224 237 255
224 237 255
224 237 255
224 237 255
224 237 255
224 237 255
224 237 255
224 237 255
224 237 255
224 237 255
224 237 255
224 237 255
224 237 255
224 237 255
224 237 255
224 237 255
224 237 255
224 237 255
224 237 255
224 237 255
224 237 255
224 237 255
224 237 255
224 237 255
224 237 255
224 237 255
224 237 255
224 237 255
224 237 255
224 237 255
224 237 255
224 237 255
224 237 255
224 237 255
224 237 255
224 237 255
224 237 255
224 237 255
224 237 255
224 237 255
224 237 255
224 237 255
224 237 255
224 237 255
224 237 255
224 237 255
224 237 255
224 237 255
224 237 255
224 237 255
224 237 255
224 237 255
224 237 255
224 237 255
224 237 255
224 237 255
224 237 255
224 237 255
224 237 255
224 237 255
224 237 255
224 237 255
224 237 255
224 237 255
224 237 255
224 237 255
224 237 255
224 237 255
224 237 255
224 237 255
224 237 255
224 237 255
224 237 255
224 237 255
224 237 255
224 237 255
224 237 255
224 237 255
224 237 255
224 237 255
224 237 255
224 237 255
224 237 255
224 237 255
224 237 255
224 237 255
224 237 255
224 237 255
224 237 255
224 237 255
224 237 255
224 237 255
224 237 255
224 237 255
224 237 255
224 237 255
224 237 255
224 237 255
224 237 255
224 237 255
224 237 255
224 237 255
224 237 255
224 237 255
224 237 255
224 237 255
224 237 255
224 237 255
224 237 255
224 237 255
224 237 255
224 237 255
224 237 255
224 237 255
224 237 255
224 237 255
224 237 255
224 237 255
224 237 255
224 237 255
224 237 255
224 237 255
224 237 255
224 237 255
224 237 255
224 237 255
224 237 255
224 237 255
224 237 255
224 237 255
224 237 255
224 237 255
224 237 255
224 237 255
224 237 255
224 237 255
224 237 255
224 237 255
224 237 255
224 237 255
224 237 255
224 237 255
224 237 255
224 237 255
224 237 255
224 237 255
224 237 255
224 237 255
224 237 255
224 237 255
224 237 255
224 237 255
224 237 255
224 237 255
224 237 255
224 237 255
224 237 255
224 237 255
224 237 255
224 237 255
224 237 255
224 237 255
224 237 255
224 237 255
224 237 255
224 237 255
224 237 255
224 237 255
224 237 255
224 237 255
224 237 255
224 237 255
224 237 255
224 237 255
224 237 255
224 237 255
224 237 255
224 237 255
224 237 255
224 237 255
224 237 255
224 237 255
148 157 172
0 0 42
0 0 42
0 0 42
0 0 42
0 0 42
0 0 42
0 0 42
0 0 42
0 0 42
0 0 42
0 0 42
0 0 42
0 0 42
0 0 42
0 0 42
0 0 42
0 0 42
0 0 42
0 0 42
0 0 42
0 0 42
0 0 42
0 0 42
0 0 42
0 0 42
0 0 42
0 0 42
0 0 42
0 0 42
0 0 42
0 0 42
0 0 42
0 0 42
0 0 42
0 0 42
0 0 42
0 0 42
0 0 42
0 0 42
0 0 42
0 0 42
0 0 42
0 0 42
0 0 42
0 0 42
0 0 42
0 0 42
0 0 42
0 0 42
0 0 42
0 0 42
0 0 42
0 0 42
0 0 42
0 0 42
0 0 42
0 0 42
0 0 42
0 0 42
0 0 42
0 0 42
0 0 42
0 0 42
0 0 42
0 0 42
0 0 42
0 0 42
0 0 42
0 0 42
0 0 42
0 0 42
0 0 42
0 0 42
0 0 42
0 0 42
0 0 42
0 0 42
0 0 42
0 0 42
0 0 42
0 0 42
0 0 42
0 0 42
0 0 42
0 0 42
0 0 42
0 0 42
0 0 42
0 0 42
0 0 42
0 0 42
0 0 42
0 0 42
0 0 42
0 0 42
0 0 42
0 0 42
0 0 42
0 0 42
0 0 42
0 0 42
0 0 42
0 0 42
0 0 42
0 0 42
0 0 42
0 0 42
0 0 42
0 0 42
0 0 42
0 0 42
0 0 42
0 0 42
0 0 42
0 0 42
0 0 42
0 0 42
0 0 42
0 0 42
0 0 42
0 0 42
0 0 42
0 0 43
0 0 45
0 0 46
0 0 48
0 0 50
0 0 50
0 0 51
0 0 51
0 0 51
0 0 52
0 0 54
0 0 53
0 0 60
0 0 65
116 97 98
192 165 139
158 133 110
139 111 86
158 124 93
158 125 94
157 123 93
132 109 71
136 110 73
119 104 72
58 61 33
40 49 10
54 59 23
63 64 29
60 62 30
59 61 29
55 61 23
59 70 25
60 72 27
47 62 15
37 55 2
47 61 17
50 63 17
52 64 19
59 70 29
59 71 28
64 76 26
67 79 26
61 74 24
67 79 35
78 83 40
69 76 31
63 73 27
62 72 29
59 66 29
63 71 28
64 68 30
59 65 26
51 61 20
45 55 18
43 65 37
37 53 37
21 27 55
0 0 47
0 0 41
0 0 42
0 0 42
0 0 42
0 0 42
0 0 42
0 0 42
0 0 42
0 0 42
0 0 42
0 0 42
0 0 42
0 0 42
0 0 42
164 174 190
224 237 255
224 237 255
224 237 255
224 237 255
224 237 255
224 237 255
224 237 255
224 237 255
224 237 255
224 237 255
224 237 255
224 237 255
224 237 255
224 237 255
224 237 255
224 237 255
224 237 255
224 237 255
224 237 255
224 237 255
224 237 255
224 237 255
224 237 255
224 237 255
224 237 255
224 237 255
224 237 255
224 237 255
224 237 255
224 237 255
224 237 255
224 237 255
224 237 255
224 237 255
224 237 255
224 237 255
224 237 255
224 237 255
224 237 255
224 237 255
224 237 255
224 237 255
224 237 255
224 237 255
224 237 255
224 237 255
224 237 255
224 237 255
224 237 255
224 237 255
224 237 255
224 237 255
224 237 255
224 237 255
224 237 255
224 237 255
224 237 255
224 237 255
224 237 255
224 237 255
224 237 255
224 237 255
224 237 255
224 237 255
224 237 255
224 237 255
224 237 255
224 237 255
224 237 255
224 237 255
224 237 255
224 237 255
224 237 255
224 237 255
224 237 255
224 237 255
224 237 255
224 237 255
224 237 255
224 237 255
224 237 255
224 237 255
224 237 255
224 237 255
224 237 255
224 237 255
224 237 255
224 237 255
224 237 255
224 237 255
224 237 255
224 237 255
224 237 255
224 237 255
224 237 255
224 237 255
224 237 255
224 237 255
224 237 255
224 237 255
224 237 255
224 237 255
224 237 255
224 237 255
224 237 255
224 237 255
224 237 255
224 237 255
224 237 255
224 237 255
224 237 255
224 237 255
224 237 255
224 237 255
224 237 255
224 237 255
224 237 255
224 237 255
224 237 255
224 237 255
224 237 255
224 237 255
224 237 255
224 237 255
224 237 255
224 237 255
224 237 255
224 237 255
224 237 255
224 237 255
224 237 255
224 237 255
224 237 255
224 237 255
224 237 255
224 237 255
224 237 255
224 237 255
224 237 255
224 237 255
224 237 255
224 237 255
224 237 255
224 237 255
224 237 255
224 237 255
224 237 255
224 237 255
224 237 255
224 237 255
224 237 255
224 237 255
224 237 255
224 237 255
224 237 255
224 237 255
224 237 255
224 237 255
224 237 255
224 237 255
224 237 255
224 237 255
224 237 255
224 237 255
224 237 255
224 237 255
224 237 255
224 237 255
224 237 255
224 237 255
224 237 255
224 237 255
224 237 255
224 237 255
224 237 255
224 237 255
224 237 255
224 237 255
224 237 255
224 237 255
224 237 255
224 237 255
224 237 255
224 237 255
224 237 255
224 237 255
224 237 255
224 237 255
224 237 255
224 237 255
224 237 255
224 237 255
224 237 255
224 237 255
224 237 255
224 237 255
224 237 255
224 237 255
224 237 255
224 237 255
224 237 255
224 237 255
224 237 255
224 237 255
215 227 245
38 41 60
0 0 42
0 0 42
0 0 42
0 0 42
0 0 42
0 0 42
0 0 42
0 0 42
0 0 42
0 0 42
0 0 42
0 0 42
0 0 42
0 0 42
0 0 42
0 0 42
0 0 42
0 0 42
0 0 42
0 0 42
0 0 42
0 0 42
0 0 42
0 0 42
0 0 42
0 0 42
0 0 42
0 0 42
0 0 42
0 0 42
0 0 42
0 0 42
0 0 42
0 0 42
0 0 42
0 0 42
0 0 42
0 0 42
0 0 42
0 0 42
0 0 42
0 0 42
0 0 42
0 0 42
0 0 42
0 0 42
0 0 42
0 0 42
0 0 42
0 0 42
0 0 42
0 0 42
0 0 42
0 0 42
0 0 42
0 0 42
0 0 42
0 0 42
0 0 42
0 0 42
0 0 42
0 0 42
0 0 42
0 0 42
0 0 42
0 0 42
0 0 42
0 0 42
0 0 42
0 0 42
0 0 42
0 0 42
0 0 42
0 0 42
0 0 42
0 0 42
0 0 42
0 0 42
0 0 42
0 0 42
0 0 42
0 0 42
0 0 42
0 0 42
0 0 42
0 0 42
0 0 42
0 0 42
0 0 42
0 0 42
0 0 42
0 0 42
0 0 42
0 0 42
0 0 42
0 0 42
0 0 42
0 0 42
0 0 42
0 0 42
0 0 42
0 0 42
0 0 42
0 0 42
0 0 42
0 0 42
0 0 42
0 0 42
0 0 42
0 0 42
0 0 42
0 0 42
0 0 42
0 0 42
0 0 42
0 0 42
0 0 42
0 0 42
0 0 42
0 0 41
0 0 42
0 0 42
0 0 42
0 0 45
0 0 46
0 0 47
0 0 48
0 0 49
0 0 49
0 0 52
0 0 57
0 0 57
0 0 53
0 0 57
35 29 70
141 114 100
173 147 130
169 141 122
137 120 96
158 124 100
160 123 94
143 118 87
152 128 88
159 129 95
80 71 41
31 45 2
47 59 20
55 62 25
64 70 33
57 62 27
55 60 26
55 62 21
70 81 36
65 76 30
43 60 15
39 57 13
40 56 11
45 61 18
45 59 18
57 70 27
62 74 25
66 79 26
62 74 23
78 85 40
74 81 38
61 72 30
50 62 20
53 64 18
60 68 28
60 68 26
68 76 31
58 71 26
49 61 17
42 48 29
12 19 48
13 19 53
5 8 48
0 2 46
0 0 39
0 0 42
0 0 42
0 0 42
0 0 42
0 0 42
0 0 42
0 0 42
0 0 42
0 0 42
0 0 42
0 0 42
0 0 42
0 0 42
44 47 65
212 225 243
224 237 255
224 237 255
224 237 255
224 237 255
224 237 255
224 237 255
224 237 255
224 237 255
224 237 255
224 237 255
224 237 255
224 237 255
224 237 255
224 237 255
224 237 255
224 237 255
224 237 255
224 237 255
224 237 255
224 237 255
224 237 255
224 237 255
224 237 255
224 237 255
224 237 255
224 237 255
224 237 255
224 237 255
224 237 255
224 237 255
224 237 255
224 237 255
224 237 255
224 237 255
224 237 255
224 237 255
224 237 255
224 237 255
224 237 255
224 237 255
224 237 255
224 237 255
224 237 255
224 237 255
224 237 255
224 237 255
224 237 255
224 237 255
224 237 255
224 237 255
224 237 255
224 237 255
224 237 255
224 237 255
224 237 255
224 237 255
224 237 255
224 237 255
224 237 255
224 237 255
224 237 255
224 237 255
224 237 255
224 237 255
224 237 255
224 237 255
224 237 255
224 237 255
224 237 255
224 237 255
224 237 255
224 237 255
224 237 255
224 237 255
224 237 255
224 237 255
224 237 255
224 237 255
224 237 255
224 237 255
224 237 255
224 237 255
224 237 255
224 237 255
224 237 255
224 237 255
224 237 255
224 237 255
224 237 255
224 237 255
224 237 255
224 237 255
224 237 255
224 237 255
224 237 255
224 237 255
224 237 255
224 237 255
224 237 255
224 237 255
224 237 255
224 237 255
224 237 255
224 237 255
224 237 255
224 237 255
224 237 255
224 237 255
224 237 255
224 237 255
224 237 255
224 237 255
224 237 255
224 237 255
224 237 255
224 237 255
224 237 255
224 237 255
224 237 255
224 237 255
224 237 255
224 237 255
224 237 255
224 237 255
224 237 255
224 237 255
224 237 255
224 237 255
224 237 255
224 237 255
224 237 255
224 237 255
224 237 255
224 237 255
224 237 255
224 237 255
224 237 255
224 237 255
224 237 255
224 237 255
224 237 255
224 237 255
224 237 255
224 237 255
224 237 255
224 237 255
224 237 255
224 237 255
224 237 255
224 237 255
224 237 255
224 237 255
224 237 255
224 237 255
224 237 255
224 237 255
224 237 255
224 237 255
224 237 255
224 237 255
224 237 255
224 237 255
224 237 255
224 237 255
224 237 255
224 237 255
224 237 255
224 237 255
224 237 255
224 237 255
224 237 255
224 237 255
224 237 255
224 237 255
224 237 255
224 237 255
224 237 255
224 237 255
224 237 255
224 237 255
224 237 255
224 237 255
224 237 255
224 237 255
224 237 255
224 237 255
224 237 255
224 237 255
224 237 255
224 237 255
224 237 255
224 237 255
224 237 255
224 237 255
224 237 255
224 237 255
224 237 255
224 237 255
224 237 255
224 237 255
224 237 255
224 237 255
224 237 255
224 237 255
224 237 255
140 148 163
0 0 42
0 0 42
0 0 42
0 0 42
0 0 42
0 0 42
0 0 42
0 0 42
0 0 42
0 0 42
0 0 42
0 0 42
0 0 42
0 0 42
0 0 42
0 0 42
0 0 42
0 0 42
0 0 42
0 0 42
0 0 42
0 0 42
0 0 42
0 0 42
0 0 42
0 0 42
0 0 42
0 0 42
0 0 42
0 0 42
0 0 42
0 0 42
0 0 42
0 0 42
0 0 42
0 0 42
0 0 42
0 0 42
0 0 42
0 0 42
0 0 42
0 0 42
0 0 42
0 0 42
0 0 42
0 0 42
0 0 42
0 0 42
0 0 42
0 0 42
0 0 42
0 0 42
0 0 42
0 0 42
0 0 42
0 0 42
0 0 42
0 0 42
0 0 42
0 0 42
0 0 42
0 0 42
0 0 42
0 0 42
0 0 42
0 0 42
0 0 42
0 0 42
0 0 42
0 0 42
0 0 42
0 0 42
0 0 42
0 0 42
0 0 42
0 0 42
0 0 42
0 0 42
0 0 42
0 0 42
0 0 42
0 0 42
0 0 42
0 0 42
0 0 42
0 0 42
0 0 42
0 0 42
0 0 42
0 0 42
0 0 42
0 0 42
0 0 42
0 0 42
0 0 42
0 0 42
0 0 42
0 0 42
0 0 42
0 0 42
0 0 42
0 0 42
0 0 42
0 0 42
0 0 42
0 0 42
0 0 42
0 0 42
0 0 42
0 0 42
0 0 42
0 0 42
0 0 42
0 0 42
0 0 42
0 0 42
0 0 42
0 0 42
0 0 42
0 0 41
0 0 42
0 0 43
0 0 44
0 0 45
0 0 43
0 0 45
0 0 46
0 0 48
0 0 48
0 0 55
0 0 60
0 0 53
0 0 55
5 13 80
70 59 78
158 132 112
164 140 114
154 127 111
154 123 106
160 127 99
169 135 105
154 129 94
167 134 96
139 116 80
49 50 20
44 58 18
58 66 29
62 64 30
65 70 31
58 65 27
51 61 19
50 61 18
54 65 24
51 63 21
43 58 18
40 54 10
49 63 22
48 61 17
48 60 16
63 73 29
69 77 29
65 74 24
72 82 34
70 78 33
57 69 25
51 66 24
52 67 25
54 66 21
58 67 23
59 67 24
51 60 25
54 65 26
22 37 38
8 13 51
0 0 49
0 0 44
0 0 46
0 0 43
0 0 40
0 0 42
0 0 42
0 0 42
0 0 42
0 0 42
0 0 42
0 0 42
0 0 42
0 0 42
0 0 42
0 0 42
0 0 42
0 0 42
141 150 165
224 237 255
224 237 255
224 237 255
224 237 255
224 237 255
224 237 255
224 237 255
224 237 255
224 237 255
224 237 255
224 237 255
224 237 255
224 237 255
224 237 255
224 237 255
224 237 255
224 237 255
224 237 255
224 237 255
224 237 255
224 237 255
224 237 255
224 237 255
224 237 255
224 237 255
224 237 255
224 237 255
224 237 255
224 237 255
224 237 255
224 237 255
224 237 255
224 237 255
224 237 255
224 237 255
224 237 255
224 237 255
224 237 255
224 237 255
224 237 255
224 237 255
224 237 255
224 237 255
224 237 255
224 237 255
224 237 255
224 237 255
224 237 255
224 237 255
224 237 255
224 237 255
224 237 255
224 237 255
224 237 255
224 237 255
224 237 255
224 237 255
224 237 255
224 237 255
224 237 255
224 237 255
224 237 255
224 237 255
224 237 255
224 237 255
224 237 255
224 237 255
224 237 255
224 237 255
224 237 255
224 237 255
224 237 255
224 237 255
224 237 255
224 237 255
224 237 255
224 237 255
224 237 255
224 237 255
224 237 255
224 237 255
224 237 255
224 237 255
224 237 255
224 237 255
224 237 255
224 237 255
224 237 255
224 237 255
224 237 255
224 237 255
224 237 255
224 237 255
224 237 255
224 237 255
224 237 255
224 237 255
224 237 255
224 237 255
224 237 255
224 237 255
224 237 255
224 237 255
224 237 255
224 237 255
224 237 255
224 237 255
224 237 255
224 237 255
224 237 255
224 237 255
224 237 255
224 237 255
224 237 255
224 237 255
224 237 255
224 237 255
224 237 255
224 237 255
224 237 255
224 237 255
224 237 255
224 237 255
224 237 255
224 237 255
224 237 255
224 237 255
224 237 255
224 237 255
224 237 255
224 237 255
224 237 255
224 237 255
224 237 255
224 237 255
224 237 255
224 237 255
224 237 255
224 237 255
224 237 255
224 237 255
224 237 255
224 237 255
224 237 255
224 237 255
224 237 255
224 237 255
224 237 255
224 237 255
224 237 255
224 237 255
224 237 255
224 237 255
224 237 255
224 237 255
224 237 255
224 237 255
224 237 255
224 237 255
224 237 255
224 237 255
224 237 255
224 237 255
224 237 255
224 237 255
224 237 255
224 237 255
224 237 255
224 237 255
224 237 255
224 237 255
224 237 255
224 237 255
224 237 255
224 237 255
224 237 255
224 237 255
224 237 255
224 237 255
224 237 255
224 237 255
224 237 255
224 237 255
224 237 255
224 237 255
224 237 255
224 237 255
224 237 255
224 237 255
224 237 255
224 237 255
224 237 255
224 237 255
224 237 255
224 237 255
224 237 255
224 237 255
224 237 255
224 237 255
224 237 255
224 237 255
224 237 255
224 237 255
224 237 255
224 237 255
224 237 255
215 227 245
31 33 55
0 0 42
0 0 42
0 0 42
0 0 42
0 0 42
0 0 42
0 0 42
0 0 42
0 0 42
0 0 42
0 0 42
0 0 42
0 0 42
0 0 42
0 0 42
0 0 42
0 0 42
0 0 42
0 0 42
0 0 42
0 0 42
0 0 42
0 0 42
0 0 42
0 0 42
0 0 42
0 0 42
0 0 42
0 0 42
0 0 42
0 0 42
0 0 42
0 0 42
0 0 42
0 0 42
0 0 42
0 0 42
0 0 42
0 0 42
0 0 42
0 0 42
0 0 42
0 0 42
0 0 42
0 0 42
0 0 42
0 0 42
0 0 42
0 0 42
0 0 42
0 0 42
0 0 42
0 0 42
0 0 42
0 0 42
0 0 42
0 0 42
0 0 42
0 0 42
0 0 42
0 0 42
0 0 42
0 0 42
0 0 42
0 0 42
0 0 42
0 0 42
0 0 42
0 0 42
0 0 42
0 0 42
0 0 42
0 0 42
0 0 42
0 0 42
0 0 42
0 0 42
0 0 42
0 0 42
0 0 42
0 0 42
0 0 42
0 0 42
0 0 42
0 0 42
0 0 42
0 0 42
0 0 42
0 0 42
0 0 42
0 0 42
0 0 42
0 0 42
0 0 42
0 0 42
0 0 42
0 0 42
0 0 42
0 0 42
0 0 42
0 0 42
0 0 42
0 0 42
0 0 42
0 0 42
0 0 42
0 0 42
0 0 42
0 0 42
0 0 42
0 0 42
0 0 42
0 0 42
0 0 42
0 0 42
0 0 42
0 0 42
0 0 42
0 0 42
0 0 42
0 0 44
0 0 45
0 0 45
0 0 44
0 0 45
0 0 46
0 0 48
0 0 48
0 0 50
0 0 59
0 0 53
0 0 69
28 36 87
121 110 105
165 137 111
153 125 99
151 124 105
165 138 119
163 130 107
169 139 112
161 133 100
169 139 104
107 94 62
40 49 12
60 69 31
62 65 31
64 65 32
62 64 28
55 65 23
49 61 18
51 64 21
56 70 31
49 63 21
50 64 21
42 57 11
46 61 17
46 60 12
45 58 12
59 70 25
64 74 28
72 81 33
69 80 34
57 69 23
52 68 23
43 58 16
44 58 18
47 59 15
45 56 14
36 50 5
17 35 44
4 12 57
0 0 60
0 0 44
0 0 47
0 0 43
0 0 43
0 0 39
0 0 41
0 0 42
0 0 42
0 0 42
0 0 42
0 0 42
0 0 42
0 0 42
0 0 42
0 0 42
0 0 42
0 0 42
0 0 42
38 41 60
212 225 243
224 237 255
224 237 255
224 237 255
224 237 255
224 237 255
224 237 255
224 237 255
224 237 255
224 237 255
224 237 255
224 237 255
224 237 255
224 237 255
224 237 255
224 237 255
224 237 255
224 237 255
224 237 255
224 237 255
224 237 255
224 237 255
224 237 255
224 237 255
224 237 255
224 237 255
224 237 255
224 237 255
224 237 255
224 237 255
224 237 255
224 237 255
224 237 255
224 237 255
224 237 255
224 237 255
224 237 255
224 237 255
224 237 255
224 237 255
224 237 255
224 237 255
224 237 255
224 237 255
224 237 255
224 237 255
224 237 255
224 237 255
224 237 255
224 237 255
224 237 255
224 237 255
224 237 255
224 237 255
224 237 255
224 237 255
224 237 255
224 237 255
224 237 255
224 237 255
224 237 255
224 237 255
224 237 255
224 237 255
224 237 255
224 237 255
224 237 255
224 237 255
224 237 255
224 237 255
224 237 255
224 237 255
224 237 255
224 237 255
224 237 255
224 237 255
224 237 255
224 237 255
224 237 255
224 237 255
224 237 255
224 237 255
224 237 255
224 237 255
224 237 255
224 237 255
224 237 255
224 237 255
224 237 255
224 237 255
224 237 255
224 237 255
224 237 255
224 237 255
224 237 255
224 237 255
224 237 255
224 237 255
224 237 255
224 237 255
224 237 255
224 237 255
224 237 255
224 237 255
224 237 255
224 237 255
224 237 255
224 237 255
224 237 255
224 237 255
224 237 255
224 237 255
224 237 255
224 237 255
224 237 255
224 237 255
224 237 255
224 237 255
224 237 255
224 237 255
224 237 255
224 237 255
224 237 255
224 237 255
224 237 255
224 237 255
224 237 255
224 237 255
224 237 255
224 237 255
224 237 255
224 237 255
224 237 255
224 237 255
224 237 255
224 237 255
224 237 255
224 237 255
224 237 255
224 237 255
224 237 255
224 237 255
224 237 255
224 237 255
224 237 255
224 237 255
224 237 255
224 237 255
224 237 255
224 237 255
224 237 255
224 237 255
224 237 255
224 237 255
224 237 255
224 237 255
224 237 255
224 237 255
224 237 255
224 237 255
224 237 255
224 237 255
224 237 255
224 237 255
224 237 255
224 237 255
224 237 255
224 237 255
224 237 255
224 237 255
224 237 255
224 237 255
224 237 255
224 237 255
224 237 255
224 237 255
224 237 255
224 237 255
224 237 255
224 237 255
224 237 255
224 237 255
224 237 255
224 237 255
224 237 255
224 237 255
224 237 255
224 237 255
224 237 255
224 237 255
224 237 255
224 237 255
224 237 255
224 237 255
224 237 255
224 237 255
224 237 255
224 237 255
224 237 255
224 237 255
224 237 255
224 237 255
224 237 255
224 237 255
224 237 255
224 237 255
224 237 255
224 237 255
158 168 183
0 0 42
0 0 42
0 0 42
0 0 42
0 0 42
0 0 42
0 0 42
0 0 42
0 0 42
0 0 42
0 0 42
0 0 42
0 0 42
0 0 42
0 0 42
0 0 42
0 0 42
0 0 42
0 0 42
0 0 42
0 0 42
0 0 42
0 0 42
0 0 42
0 0 42
0 0 42
0 0 42
0 0 42
0 0 42
0 0 42
0 0 42
0 0 42
0 0 42
0 0 42
0 0 42
0 0 42
0 0 42
0 0 42
0 0 42
0 0 42
0 0 42
0 0 42
0 0 42
0 0 42
0 0 42
0 0 42
0 0 42
0 0 42
0 0 42
0 0 42
0 0 42
0 0 42
0 0 42
0 0 42
0 0 42
0 0 42
0 0 42
0 0 42
0 0 42
0 0 42
0 0 42
0 0 42
0 0 42
0 0 42
0 0 42
0 0 42
0 0 42
0 0 42
0 0 42
0 0 42
0 0 42
0 0 42
0 0 42
0 0 42
0 0 42
0 0 42
0 0 42
0 0 42
0 0 42
0 0 42
0 0 42
0 0 42
0 0 42
0 0 42
0 0 42
0 0 42
0 0 42
0 0 42
0 0 42
0 0 42
0 0 42
0 0 42
0 0 42
0 0 42
0 0 42
0 0 42
0 0 42
0 0 42
0 0 42
0 0 42
0 0 42
0 0 42
0 0 42
0 0 42
0 0 42
0 0 42
0 0 42
0 0 42
0 0 42
0 0 42
0 0 42
0 0 42
0 0 42
0 0 42
0 0 42
0 0 42
0 0 42
0 0 42
0 0 42
0 0 42
0 0 45
0 0 45
0 0 45
0 0 45
0 0 45
0 0 48
0 0 48
0 0 49
0 0 52
0 0 53
0 0 57
0 0 51
35 36 71
154 130 109
167 136 109
151 121 96
165 135 106
149 123 104
153 123 103
160 131 104
158 129 99
137 115 85
53 52 18
41 52 14
50 58 21
63 68 34
63 68 33
55 63 27
43 57 16
43 56 13
42 56 12
51 65 26
42 59 15
40 58 11
43 62 16
45 63 17
44 62 13
40 57 8
48 63 18
55 68 23
59 71 25
56 68 23
51 65 19
49 63 20
40 54 11
44 57 19
30 46 0
27 47 10
16 39 48
0 7 56
0 0 49
0 0 43
0 0 46
0 0 42
0 0 40
0 0 40
0 0 42
0 0 41
0 0 42
0 0 42
0 0 42
0 0 42
0 0 42
0 0 42
0 0 42
0 0 42
0 0 42
0 0 42
0 0 42
0 0 42
158 168 183
224 237 255
224 237 255
224 237 255
224 237 255
224 237 255
224 237 255
224 237 255
224 237 255
224 237 255
224 237 255
224 237 255
224 237 255
224 237 255
224 237 255
224 237 255
224 237 255
224 237 255
224 237 255
224 237 255
224 237 255
224 237 255
224 237 255
224 237 255
224 237 255
224 237 255
224 237 255
224 237 255
224 237 255
224 237 255
224 237 255
224 237 255
224 237 255
224 237 255
224 237 255
224 237 255
224 237 255
224 237 255
224 237 255
224 237 255
224 237 255
224 237 255
224 237 255
224 237 255
224 237 255
224 237 255
224 237 255
224 237 255
224 237 255
224 237 255
224 237 255
224 237 255
224 237 255
224 237 255
224 237 255
224 237 255
224 237 255
224 237 255
224 237 255
224 237 255
224 237 255
224 237 255
224 237 255
224 237 255
224 237 255
224 237 255
224 237 255
224 237 255
224 237 255
224 237 255
224 237 255
224 237 255
224 237 255
224 237 255
224 237 255
224 237 255
224 237 255
224 237 255
224 237 255
224 237 255
224 237 255
224 237 255
224 237 255
224 237 255
224 237 255
224 237 255
224 237 255
224 237 255
224 237 255
224 237 255
224 237 255
224 237 255
224 237 255
224 237 255
224 237 255
224 237 255
224 237 255
224 237 255
224 237 255
224 237 255
224 237 255
224 237 255
224 237 255
224 237 255
224 237 255
224 237 255
224 237 255
224 237 255
224 237 255
224 237 255
224 237 255
224 237 255
224 237 255
224 237 255
224 237 255
224 237 255
224 237 255
224 237 255
224 237 255
224 237 255
224 237 255
224 237 255
224 237 255
224 237 255
224 237 255
224 237 255
224 237 255
224 237 255
224 237 255
224 237 255
224 237 255
224 237 255
224 237 255
224 237 255
224 237 255
224 237 255
224 237 255
224 237 255
224 237 255
224 237 255
224 237 255
224 237 255
224 237 255
224 237 255
224 237 255
224 237 255
224 237 255
224 237 255
224 237 255
224 237 255
224 237 255
224 237 255
224 237 255
224 237 255
224 237 255
224 237 255
224 237 255
224 237 255
224 237 255
224 237 255
224 237 255
224 237 255
224 237 255
224 237 255
224 237 255
224 237 255
224 237 255
224 237 255
224 237 255
224 237 255
224 237 255
224 237 255
224 237 255
224 237 255
224 237 255
224 237 255
224 237 255
224 237 255
224 237 255
224 237 255
224 237 255
224 237 255
224 237 255
224 237 255
224 237 255
224 237 255
224 237 255
224 237 255
224 237 255
224 237 255
224 237 255
224 237 255
224 237 255
224 237 255
224 237 255
224 237 255
224 237 255
224 237 255
224 237 255
224 237 255
224 237 255
224 237 255
224 237 255
224 237 255
224 237 255
224 237 255
224 237 255
224 237 255
224 237 255
218 231 249
55 58 74
0 0 42
0 0 42
0 0 42
0 0 42
0 0 42
0 0 42
0 0 42
0 0 42
0 0 42
0 0 42
0 0 42
0 0 42
0 0 42
0 0 42
0 0 42
0 0 42
0 0 42
0 0 42
0 0 42
0 0 42
0 0 42
0 0 42
0 0 42
0 0 42
0 0 42
0 0 42
0 0 42
0 0 42
0 0 42
0 0 42
0 0 42
0 0 42
0 0 42
0 0 42
0 0 42
0 0 42
0 0 42
0 0 42
0 0 42
0 0 42
0 0 42
0 0 42
0 0 42
0 0 42
0 0 42
0 0 42
0 0 42
0 0 42
0 0 42
0 0 42
0 0 42
0 0 42
0 0 42
0 0 42
0 0 42
0 0 42
0 0 42
0 0 42
0 0 42
0 0 42
0 0 42
0 0 42
0 0 42
0 0 42
0 0 42
0 0 42
0 0 42
0 0 42
0 0 42
0 0 42
0 0 42
0 0 42
0 0 42
0 0 42
0 0 42
0 0 42
0 0 42
0 0 42
0 0 42
0 0 42
0 0 42
0 0 42
0 0 42
0 0 42
0 0 42
0 0 42
0 0 42
0 0 42
0 0 42
0 0 42
0 0 42
0 0 42
0 0 42
0 0 42
0 0 42
0 0 42
0 0 42
0 0 42
0 0 42
0 0 42
0 0 42
0 0 42
0 0 42
0 0 42
0 0 42
0 0 42
0 0 42
0 0 42
0 0 42
0 0 42
0 0 42
0 0 42
0 0 42
0 0 42
0 0 42
0 0 42
0 0 42
0 0 42
0 0 42
0 0 45
0 0 45
0 0 45
0 0 45
0 0 46
0 0 48
0 0 50
0 0 51
0 0 50
0 0 57
0 0 56
0 0 59
57 55 72
174 142 113
182 147 118
163 130 102
150 120 95
145 120 102
164 132 112
160 131 103
130 105 77
91 80 52
49 58 23
39 51 15
52 62 22
48 57 16
48 59 21
50 60 21
47 60 19
42 55 15
40 54 11
38 54 10
39 58 14
40 58 13
43 61 16
45 63 16
43 59 11
44 60 13
47 62 21
48 63 20
51 65 23
49 63 18
47 61 14
43 54 8
48 59 18
40 53 13
23 45 17
15 35 44
0 0 51
0 0 48
0 0 44
0 0 45
0 0 41
0 0 42
0 0 42
0 0 42
0 0 42
0 0 42
0 0 42
0 0 42
0 0 42
0 0 42
0 0 42
0 0 42
0 0 42
0 0 42
0 0 42
0 0 42
0 0 42
31 33 55
213 225 243
224 237 255
224 237 255
224 237 255
224 237 255
224 237 255
224 237 255
224 237 255
224 237 255
224 237 255
224 237 255
224 237 255
224 237 255
224 237 255
224 237 255
224 237 255
224 237 255
224 237 255
224 237 255
224 237 255
224 237 255
224 237 255
224 237 255
224 237 255
224 237 255
224 237 255
224 237 255
224 237 255
224 237 255
224 237 255
224 237 255
224 237 255
224 237 255
224 237 255
224 237 255
224 237 255
224 237 255
224 237 255
224 237 255
224 237 255
224 237 255
224 237 255
224 237 255
224 237 255
224 237 255
224 237 255
224 237 255
224 237 255
224 237 255
224 237 255
224 237 255
224 237 255
224 237 255
224 237 255
224 237 255
224 237 255
224 237 255
224 237 255
224 237 255
224 237 255
224 237 255
224 237 255
224 237 255
224 237 255
224 237 255
224 237 255
224 237 255
224 237 255
224 237 255
224 237 255
224 237 255
224 237 255
224 237 255
224 237 255
224 237 255
224 237 255
224 237 255
224 237 255
224 237 255
224 237 255
224 237 255
224 237 255
224 237 255
224 237 255
224 237 255
224 237 255
224 237 255
224 237 255
224 237 255
224 237 255
224 237 255
224 237 255
224 237 255
224 237 255
224 237 255
224 237 255
224 237 255
224 237 255
224 237 255
224 237 255
224 237 255
224 237 255
224 237 255
224 237 255
224 237 255
224 237 255
224 237 255
224 237 255
224 237 255
224 237 255
224 237 255
224 237 255
224 237 255
224 237 255
224 237 255
224 237 255
224 237 255
224 237 255
224 237 255
224 237 255
224 237 255
224 237 255
224 237 255
224 237 255
224 237 255
224 237 255
224 237 255
224 237 255
224 237 255
224 237 255
224 237 255
224 237 255
224 237 255
224 237 255
224 237 255
224 237 255
224 237 255
224 237 255
224 237 255
224 237 255
224 237 255
224 237 255
224 237 255
224 237 255
224 237 255
224 237 255
224 237 255
224 237 255
224 237 255
224 237 255
224 237 255
224 237 255
224 237 255
224 237 255
224 237 255
224 237 255
224 237 255
224 237 255
224 237 255
224 237 255
224 237 255
224 237 255
224 237 255
224 237 255
224 237 255
224 237 255
224 237 255
224 237 255
224 237 255
224 237 255
224 237 255
224 237 255
224 237 255
224 237 255
224 237 255
224 237 255
224 237 255
224 237 255
224 237 255
224 237 255
224 237 255
224 237 255
224 237 255
224 237 255
224 237 255
224 237 255
224 237 255
224 237 255
224 237 255
224 237 255
224 237 255
224 237 255
224 237 255
224 237 255
224 237 255
224 237 255
224 237 255
224 237 255
224 237 255
224 237 255
224 237 255
224 237 255
224 237 255
224 237 255
224 237 255
224 237 255
224 237 255
224 237 255
224 237 255
224 237 255
171 181 196
0 0 42
0 0 42
0 0 42
0 0 42
0 0 42
0 0 42
0 0 42
0 0 42
0 0 42
0 0 42
0 0 42
0 0 42
0 0 42
0 0 42
0 0 42
0 0 42
0 0 42
0 0 42
0 0 42
0 0 42
0 0 42
0 0 42
0 0 42
0 0 42
0 0 42
0 0 42
0 0 42
0 0 42
0 0 42
0 0 42
0 0 42
0 0 42
0 0 42
0 0 42
0 0 42
0 0 42
0 0 42
0 0 42
0 0 42
0 0 42
0 0 42
0 0 42
0 0 42
0 0 42
0 0 42
0 0 42
0 0 42
0 0 42
0 0 42
0 0 42
0 0 42
0 0 42
0 0 42
0 0 42
0 0 42
0 0 42
0 0 42
0 0 42
0 0 42
0 0 42
0 0 42
0 0 42
0 0 42
0 0 42
0 0 42
0 0 42
0 0 42
0 0 42
0 0 42
0 0 42
0 0 42
0 0 42
0 0 42
0 0 42
0 0 42
0 0 42
0 0 42
0 0 42
0 0 42
0 0 42
0 0 42
0 0 42
0 0 42
0 0 42
0 0 42
0 0 42
0 0 42
0 0 42
0 0 42
0 0 42
0 0 42
0 0 42
0 0 42
0 0 42
0 0 42
0 0 42
0 0 42
0 0 42
0 0 42
0 0 42
0 0 42
0 0 42
0 0 42
0 0 42
0 0 42
0 0 42
0 0 42
0 0 42
0 0 42
0 0 42
0 0 42
0 0 42
0 0 42
0 0 42
0 0 42
0 0 42
0 0 42
0 0 42
0 0 42
0 0 45
0 0 45
0 0 45
0 0 44
0 0 46
0 0 50
0 0 51
0 0 52
0 0 55
0 0 61
0 0 59
0 0 71
77 71 82
156 123 98
166 133 100
153 120 95
139 108 90
162 135 114
165 131 108
156 131 101
104 88 60
60 60 33
42 51 15
60 69 30
56 64 25
50 58 16
47 57 16
46 54 17
49 58 19
43 56 14
40 56 14
35 52 8
40 56 14
48 62 19
52 65 21
49 61 15
50 63 19
44 57 16
46 60 17
42 56 15
48 62 21
47 59 18
47 60 20
38 50 10
48 55 19
37 51 14
13 42 49
2 10 57
0 0 48
0 0 45
0 0 45
0 0 44
0 0 42
0 0 42
0 0 42
0 0 42
0 0 42
0 0 42
0 0 42
0 0 42
0 0 42
0 0 42
0 0 42
0 0 42
0 0 42
0 0 42
0 0 42
0 0 42
0 0 42
157 166 181
224 237 255
224 237 255
224 237 255
224 237 255
224 237 255
224 237 255
224 237 255
224 237 255
224 237 255
224 237 255
224 237 255
224 237 255
224 237 255
224 237 255
224 237 255
224 237 255
224 237 255
224 237 255
224 237 255
224 237 255
224 237 255
224 237 255
224 237 255
224 237 255
224 237 255
224 237 255
224 237 255
224 237 255
224 237 255
224 237 255
224 237 255
224 237 255
224 237 255
224 237 255
224 237 255
224 237 255
224 237 255
224 237 255
224 237 255
224 237 255
224 237 255
224 237 255
224 237 255
224 237 255
224 237 255
224 237 255
224 237 255
224 237 255
224 237 255
224 237 255
224 237 255
224 237 255
224 237 255
224 237 255
224 237 255
224 237 255
224 237 255
224 237 255
224 237 255
224 237 255
224 237 255
224 237 255
224 237 255
224 237 255
224 237 255
224 237 255
224 237 255
224 237 255
224 237 255
224 237 255
224 237 255
224 237 255
224 237 255
224 237 255
224 237 255
224 237 255
224 237 255
224 237 255
224 237 255
224 237 255
224 237 255
224 237 255
224 237 255
224 237 255
224 237 255
224 237 255
224 237 255
224 237 255
224 237 255
224 237 255
224 237 255
224 237 255
224 237 255
224 237 255
224 237 255
224 237 255
224 237 255
224 237 255
224 237 255
224 237 255
224 237 255
224 237 255
224 237 255
224 237 255
224 237 255
224 237 255
224 237 255
224 237 255
224 237 255
224 237 255
224 237 255
224 237 255
224 237 255
224 237 255
224 237 255
224 237 255
224 237 255
224 237 255
224 237 255
224 237 255
224 237 255
224 237 255
224 237 255
224 237 255
224 237 255
224 237 255
224 237 255
224 237 255
224 237 255
224 237 255
224 237 255
224 237 255
224 237 255
224 237 255
224 237 255
224 237 255
224 237 255
224 237 255
224 237 255
224 237 255
224 237 255
224 237 255
224 237 255
224 237 255
224 237 255
224 237 255
224 237 255
224 237 255
224 237 255
224 237 255
224 237 255
224 237 255
224 237 255
224 237 255
224 237 255
224 237 255
224 237 255
224 237 255
224 237 255
224 237 255
224 237 255
224 237 255
224 237 255
224 237 255
224 237 255
224 237 255
224 237 255
224 237 255
224 237 255
224 237 255
224 237 255
224 237 255
224 237 255
224 237 255
224 237 255
224 237 255
224 237 255
224 237 255
224 237 255
224 237 255
224 237 255
224 237 255
224 237 255
224 237 255
224 237 255
224 237 255
224 237 255
224 237 255
224 237 255
224 237 255
224 237 255
224 237 255
224 237 255
224 237 255
224 237 255
224 237 255
224 237 255
224 237 255
224 237 255
224 237 255
224 237 255
224 237 255
224 237 255
224 237 255
224 237 255
224 237 255
224 237 255
224 237 255
224 237 255
224 237 255
219 231 249
67 71 86
0 0 42
0 0 42
0 0 42
0 0 42
0 0 42
0 0 42
0 0 42
0 0 42
0 0 42
0 0 42
0 0 42
0 0 42
0 0 42
0 0 42
0 0 42
0 0 42
0 0 42
0 0 42
0 0 42
0 0 42
0 0 42
0 0 42
0 0 42
0 0 42
0 0 42
0 0 42
0 0 42
0 0 42
0 0 42
0 0 42
0 0 42
0 0 42
0 0 42
0 0 42
0 0 42
0 0 42
0 0 42
0 0 42
0 0 42
0 0 42
0 0 42
0 0 42
0 0 42
0 0 42
0 0 42
0 0 42
0 0 42
0 0 42
0 0 42
0 0 42
0 0 42
0 0 42
0 0 42
0 0 42
0 0 42
0 0 42
0 0 42
0 0 42
0 0 42
0 0 42
0 0 42
0 0 42
0 0 42
0 0 42
0 0 42
0 0 42
0 0 42
0 0 42
0 0 42
0 0 42
0 0 42
0 0 42
0 0 42
0 0 42
0 0 42
0 0 42
0 0 42
0 0 42
0 0 42
0 0 42
0 0 42
0 0 42
0 0 42
0 0 42
0 0 42
0 0 42
0 0 42
0 0 42
0 0 42
0 0 42
0 0 42
0 0 42
0 0 42
0 0 42
0 0 42
0 0 42
0 0 42
0 0 42
0 0 42
0 0 42
0 0 42
0 0 42
0 0 42
0 0 42
0 0 42
0 0 42
0 0 42
0 0 42
0 0 42
0 0 42
0 0 42
0 0 42
0 0 42
0 0 42
0 0 42
0 0 42
0 0 42
0 0 43
0 0 45
0 0 45
0 0 45
0 0 43
0 0 47
0 0 51
0 0 53
0 0 54
0 0 59
0 0 60
0 0 59
0 0 59
90 68 75
143 109 82
153 119 86
141 114 88
132 107 86
145 118 95
165 137 112
135 112 79
108 90 64
53 56 26
53 61 24
55 63 23
54 64 24
50 59 17
48 55 16
42 53 13
51 59 23
49 60 23
40 55 14
46 62 23
43 56 17
48 61 18
52 63 23
50 60 17
47 60 17
48 62 21
33 47 7
44 59 16
54 65 26
46 57 15
34 44 5
42 51 14
39 48 14
30 47 27
6 17 62
0 0 51
0 0 46
0 0 45
0 0 45
0 0 45
0 0 45
0 0 43
0 0 42
0 0 42
0 0 42
0 0 42
0 0 42
0 0 42
0 0 42
0 0 42
0 0 42
0 0 42
0 0 42
0 0 42
0 0 42
0 0 42
71 75 90
223 236 254
224 237 255
224 237 255
224 237 255
224 237 255
224 237 255
224 237 255
224 237 255
224 237 255
224 237 255
224 237 255
224 237 255
224 237 255
224 237 255
224 237 255
224 237 255
224 237 255
224 237 255
224 237 255
224 237 255
224 237 255
224 237 255
224 237 255
224 237 255
224 237 255
224 237 255
224 237 255
224 237 255
224 237 255
224 237 255
224 237 255
224 237 255
224 237 255
224 237 255
224 237 255
224 237 255
224 237 255
224 237 255
224 237 255
224 237 255
224 237 255
224 237 255
224 237 255
224 237 255
224 237 255
224 237 255
224 237 255
224 237 255
224 237 255
224 237 255
224 237 255
224 237 255
224 237 255
224 237 255
224 237 255
224 237 255
224 237 255
224 237 255
224 237 255
224 237 255
224 237 255
224 237 255
224 237 255
224 237 255
224 237 255
224 237 255
224 237 255
224 237 255
224 237 255
224 237 255
224 237 255
224 237 255
224 237 255
224 237 255
224 237 255
224 237 255
224 237 255
224 237 255
224 237 255
224 237 255
224 237 255
224 237 255
224 237 255
224 237 255
224 237 255
224 237 255
224 237 255
224 237 255
224 237 255
224 237 255
224 237 255
224 237 255
224 237 255
224 237 255
224 237 255
224 237 255
224 237 255
224 237 255
224 237 255
224 237 255
224 237 255
224 237 255
224 237 255
224 237 255
224 237 255
224 237 255
224 237 255
224 237 255
224 237 255
224 237 255
224 237 255
224 237 255
224 237 255
224 237 255
224 237 255
224 237 255
224 237 255
224 237 255
224 237 255
224 237 255
224 237 255
224 237 255
224 237 255
224 237 255
224 237 255
224 237 255
224 237 255
224 237 255
224 237 255
224 237 255
224 237 255
224 237 255
224 237 255
224 237 255
224 237 255
224 237 255
224 237 255
224 237 255
224 237 255
224 237 255
224 237 255
224 237 255
224 237 255
224 237 255
224 237 255
224 237 255
224 237 255
224 237 255
224 237 255
224 237 255
224 237 255
224 237 255
224 237 255
224 237 255
224 237 255
224 237 255
224 237 255
224 237 255
224 237 255
224 237 255
224 237 255
224 237 255
224 237 255
224 237 255
224 237 255
224 237 255
224 237 255
224 237 255
224 237 255
224 237 255
224 237 255
224 237 255
224 237 255
224 237 255
224 237 255
224 237 255
224 237 255
224 237 255
224 237 255
224 237 255
224 237 255
224 237 255
224 237 255
224 237 255
224 237 255
224 237 255
224 237 255
224 237 255
224 237 255
224 237 255
224 237 255
224 237 255
224 237 255
224 237 255
224 237 255
224 237 255
224 237 255
224 237 255
224 237 255
224 237 255
224 237 255
224 237 255
224 237 255
224 237 255
224 237 255
224 237 255
224 237 255
224 237 255
224 237 255
224 237 255
224 237 255
224 237 255
186 197 213
0 0 42
0 0 42
0 0 42
0 0 42
0 0 42
0 0 42
0 0 42
0 0 42
0 0 42
0 0 42
0 0 42
0 0 42
0 0 42
0 0 42
0 0 42
0 0 42
0 0 42
0 0 42
0 0 42
0 0 42
0 0 42
0 0 42
0 0 42
0 0 42
0 0 42
0 0 42
0 0 42
0 0 42
0 0 42
0 0 42
0 0 42
0 0 42
0 0 42
0 0 42
0 0 42
0 0 42
0 0 42
0 0 42
0 0 42
0 0 42
0 0 42
0 0 42
0 0 42
0 0 42
0 0 42
0 0 42
0 0 42
0 0 42
0 0 42
0 0 42
0 0 42
0 0 42
0 0 42
0 0 42
0 0 42
0 0 42
0 0 42
0 0 42
0 0 42
0 0 42
0 0 42
0 0 42
0 0 42
0 0 42
0 0 42
0 0 42
0 0 42
0 0 42
0 0 42
0 0 42
0 0 42
0 0 42
0 0 42
0 0 42
0 0 42
0 0 42
0 0 42
0 0 42
0 0 42
0 0 42
0 0 42
0 0 42
0 0 42
0 0 42
0 0 42
0 0 42
0 0 42
0 0 42
0 0 42
0 0 42
0 0 42
0 0 42
0 0 42
0 0 42
0 0 42
0 0 42
0 0 42
0 0 42
0 0 42
0 0 42
0 0 42
0 0 42
0 0 42
0 0 42
0 0 42
0 0 42
0 0 42
0 0 42
0 0 42
0 0 42
0 0 42
0 0 42
0 0 42
0 0 42
0 0 42
0 0 42
0 0 42
0 0 44
0 0 45
0 0 47
0 0 46
0 0 46
0 0 47
0 0 51
0 0 53
0 0 53
0 0 55
0 0 55
0 0 63
37 33 69
125 98 85
127 98 66
136 104 75
125 105 80
141 114 98
141 117 96
157 128 104
132 109 80
95 81 54
54 57 23
54 64 27
54 64 26
50 60 19
51 61 20
51 60 23
45 54 18
50 57 21
52 62 25
54 65 25
57 69 30
48 61 21
46 57 19
51 62 23
48 60 19
47 61 19
41 54 14
31 46 6
50 61 22
52 62 24
45 53 17
36 46 3
36 49 5
28 45 3
23 41 47
0 4 58
0 0 47
0 0 45
0 0 44
0 0 44
0 0 45
0 0 44
0 0 42
0 0 42
0 0 42
0 0 42
0 0 42
0 0 42
0 0 42
0 0 42
0 0 42
0 0 42
0 0 42
0 0 42
0 0 42
0 0 42
0 0 42
172 182 198
224 237 255
224 237 255
224 237 255
224 237 255
224 237 255
224 237 255
224 237 255
224 237 255
224 237 255
224 237 255
224 237 255
224 237 255
224 237 255
224 237 255
224 237 255
224 237 255
224 237 255
224 237 255
224 237 255
224 237 255
224 237 255
224 237 255
224 237 255
224 237 255
224 237 255
224 237 255
224 237 255
224 237 255
224 237 255
224 237 255
224 237 255
224 237 255
224 237 255
224 237 255
224 237 255
224 237 255
224 237 255
224 237 255
224 237 255
224 237 255
224 237 255
224 237 255
224 237 255
224 237 255
224 237 255
224 237 255
224 237 255
224 237 255
224 237 255
224 237 255
224 237 255
224 237 255
224 237 255
224 237 255
224 237 255
224 237 255
224 237 255
224 237 255
224 237 255
224 237 255
224 237 255
224 237 255
224 237 255
224 237 255
224 237 255
224 237 255
224 237 255
224 237 255
224 237 255
224 237 255
224 237 255
224 237 255
224 237 255
224 237 255
224 237 255
224 237 255
224 237 255
224 237 255
224 237 255
224 237 255
224 237 255
224 237 255
224 237 255
224 237 255
224 237 255
224 237 255
224 237 255
224 237 255
224 237 255
224 237 255
224 237 255
224 237 255
224 237 255
224 237 255
224 237 255
224 237 255
224 237 255
224 237 255
224 237 255
224 237 255
224 237 255
224 237 255
224 237 255
224 237 255
224 237 255
224 237 255
224 237 255
224 237 255
224 237 255
224 237 255
224 237 255
224 237 255
224 237 255
224 237 255
224 237 255
224 237 255
224 237 255
224 237 255
224 237 255
224 237 255
224 237 255
224 237 255
224 237 255
224 237 255
224 237 255
224 237 255
224 237 255
224 237 255
224 237 255
224 237 255
224 237 255
224 237 255
224 237 255
224 237 255
224 237 255
224 237 255
224 237 255
224 237 255
224 237 255
224 237 255
224 237 255
224 237 255
224 237 255
224 237 255
224 237 255
224 237 255
224 237 255
224 237 255
224 237 255
224 237 255
224 237 255
224 237 255
224 237 255
224 237 255
224 237 255
224 237 255
224 237 255
224 237 255
224 237 255
224 237 255
224 237 255
224 237 255
224 237 255
224 237 255
224 237 255
224 237 255
224 237 255
224 237 255
224 237 255
224 237 255
224 237 255
224 237 255
224 237 255
224 237 255
224 237 255
224 237 255
224 237 255
224 237 255
224 237 255
224 237 255
224 237 255
224 237 255
224 237 255
224 237 255
224 237 255
224 237 255
224 237 255
224 237 255
224 237 255
224 237 255
224 237 255
224 237 255
224 237 255
224 237 255
224 237 255
224 237 255
224 237 255
224 237 255
224 237 255
224 237 255
224 237 255
224 237 255
224 237 255
224 237 255
224 237 255
224 237 255
224 237 255
224 237 255
224 237 255
224 237 255
224 237 255
224 237 255
224 237 255
114 121 135
0 0 42
0 0 42
0 0 42
0 0 42
0 0 42
0 0 42
0 0 42
0 0 42
0 0 42
0 0 42
0 0 42
0 0 42
0 0 42
0 0 42
0 0 42
0 0 42
0 0 42
0 0 42
0 0 42
0 0 42
0 0 42
0 0 42
0 0 42
0 0 42
0 0 42
0 0 42
0 0 42
0 0 42
0 0 42
0 0 42
0 0 42
0 0 42
0 0 42
0 0 42
0 0 42
0 0 42
0 0 42
0 0 42
0 0 42
0 0 42
0 0 42
0 0 42
0 0 42
0 0 42
0 0 42
0 0 42
0 0 42
0 0 42
0 0 42
0 0 42
0 0 42
0 0 42
0 0 42
0 0 42
0 0 42
0 0 42
0 0 40
0 0 42
0 0 42
0 0 42
0 0 42
0 0 42
0 0 42
0 0 42
0 0 42
0 0 42
0 0 42
0 0 42
0 0 42
0 0 42
0 0 42
0 0 42
0 0 42
0 0 42
0 0 42
0 0 42
0 0 42
0 0 42
0 0 42
0 0 42
0 0 42
0 0 42
0 0 42
0 0 42
0 0 42
0 0 42
0 0 42
0 0 42
0 0 42
0 0 42
0 0 42
0 0 42
0 0 42
0 0 42
0 0 42
0 0 42
0 0 42
0 0 42
0 0 42
0 0 42
0 0 42
0 0 42
0 0 42
0 0 42
0 0 42
0 0 42
0 0 42
0 0 42
0 0 42
0 0 42
0 0 42
0 0 42
0 0 42
0 0 42
0 0 41
0 0 43
0 0 45
0 0 47
0 0 48
0 0 48
0 0 49
0 0 50
0 0 50
0 0 50
0 0 52
0 0 53
0 0 59
0 0 66
56 50 62
133 109 80
138 114 83
156 128 106
137 117 98
149 127 112
163 141 120
158 130 104
126 110 79
86 79 50
53 62 24
63 71 33
50 60 21
49 60 20
50 60 20
54 64 28
59 64 31
62 70 34
55 67 29
52 61 22
51 62 24
47 57 19
46 55 19
53 63 27
50 64 22
42 56 13
37 50 7
40 53 12
48 58 20
49 58 18
44 53 16
43 51 13
36 51 10
32 51 16
18 39 55
0 0 50
0 0 43
0 0 45
0 0 43
0 0 43
0 0 45
0 0 43
0 0 42
0 0 42
0 0 42
0 0 42
0 0 42
0 0 42
0 0 42
0 0 42
0 0 42
0 0 42
0 0 42
0 0 42
0 0 42
0 0 42
105 111 125
224 237 255
224 237 255
224 237 255
224 237 255
224 237 255
224 237 255
224 237 255
224 237 255
224 237 255
224 237 255
224 237 255
224 237 255
224 237 255
224 237 255
224 237 255
224 237 255
224 237 255
224 237 255
224 237 255
224 237 255
224 237 255
224 237 255
224 237 255
224 237 255
224 237 255
224 237 255
224 237 255
224 237 255
224 237 255
224 237 255
224 237 255
224 237 255
224 237 255
224 237 255
224 237 255
224 237 255
224 237 255
224 237 255
224 237 255
224 237 255
224 237 255
224 237 255
224 237 255
224 237 255
224 237 255
224 237 255
224 237 255
224 237 255
224 237 255
224 237 255
224 237 255
224 237 255
224 237 255
224 237 255
224 237 255
224 237 255
224 237 255
224 237 255
224 237 255
224 237 255
224 237 255
224 237 255
224 237 255
224 237 255
224 237 255
224 237 255
224 237 255
224 237 255
224 237 255
224 237 255
224 237 255
224 237 255
224 237 255
224 237 255
224 237 255
224 237 255
224 237 255
224 237 255
224 237 255
224 237 255
224 237 255
224 237 255
224 237 255
224 237 255
224 237 255
224 237 255
224 237 255
224 237 255
224 237 255
224 237 255
224 237 255
224 237 255
224 237 255
224 237 255
224 237 255
224 237 255
224 237 255
224 237 255
224 237 255
224 237 255
224 237 255
224 237 255
224 237 255
224 237 255
224 237 255
224 237 255
224 237 255
224 237 255
224 237 255
224 237 255
224 237 255
224 237 255
224 237 255
224 237 255
224 237 255
224 237 255
224 237 255
224 237 255
224 237 255
224 237 255
224 237 255
224 237 255
224 237 255
224 237 255
224 237 255
224 237 255
224 237 255
224 237 255
224 237 255
224 237 255
224 237 255
224 237 255
224 237 255
224 237 255
224 237 255
224 237 255
224 237 255
224 237 255
224 237 255
224 237 255
224 237 255
224 237 255
224 237 255
224 237 255
224 237 255
224 237 255
224 237 255
224 237 255
224 237 255
224 237 255
224 237 255
224 237 255
224 237 255
224 237 255
224 237 255
224 237 255
224 237 255
224 237 255
224 237 255
224 237 255
224 237 255
224 237 255
224 237 255
224 237 255
224 237 255
224 237 255
224 237 255
224 237 255
224 237 255
224 237 255
224 237 255
224 237 255
224 237 255
224 237 255
224 237 255
224 237 255
224 237 255
224 237 255
224 237 255
224 237 255
224 237 255
224 237 255
224 237 255
224 237 255
224 237 255
224 237 255
224 237 255
224 237 255
224 237 255
224 237 255
224 237 255
224 237 255
224 237 255
224 237 255
224 237 255
224 237 255
224 237 255
224 237 255
224 237 255
224 237 255
224 237 255
224 237 255
224 237 255
224 237 255
224 237 255
224 237 255
224 237 255
224 237 255
224 237 255
224 237 255
224 237 255
224 237 255
224 237 255
224 237 255
203 215 232
0 0 42
0 0 42
0 0 42
0 0 42
0 0 42
0 0 42
0 0 42
0 0 42
0 0 42
0 0 42
0 0 42
0 0 42
0 0 42
0 0 42
0 0 42
0 0 42
0 0 42
0 0 42
0 0 42
0 0 42
0 0 42
0 0 42
0 0 42
0 0 42
0 0 42
0 0 42
0 0 42
0 0 42
0 0 42
0 0 42
0 0 42
0 0 42
0 0 42
0 0 42
0 0 42
0 0 42
0 0 42
0 0 42
0 0 42
0 0 42
0 0 42
0 0 42
0 0 42
0 0 42
0 0 42
0 0 42
0 0 42
0 0 42
0 0 42
0 0 42
0 0 42
0 0 42
0 0 42
0 0 42
0 0 42
0 0 42
0 0 42
0 0 42
0 0 39
0 0 40
0 0 42
0 0 42
0 0 42
0 0 42
0 0 42
0 0 42
0 0 42
0 0 42
0 0 42
0 0 42
0 0 42
0 0 42
0 0 42
0 0 42
0 0 42
0 0 42
0 0 42
0 0 42
0 0 42
0 0 42
0 0 42
0 0 42
0 0 42
0 0 42
0 0 42
0 0 42
0 0 42
0 0 42
0 0 42
0 0 42
0 0 42
0 0 42
0 0 42
0 0 42
0 0 42
0 0 42
0 0 42
0 0 42
0 0 42
0 0 42
0 0 42
0 0 42
0 0 42
0 0 42
0 0 42
0 0 42
0 0 42
0 0 42
0 0 42
0 0 42
0 0 42
0 0 42
0 0 42
0 0 41
0 0 41
0 0 44
0 0 47
0 0 48
0 0 50
0 0 51
0 0 52
0 0 52
0 0 52
0 0 52
0 0 55
0 0 55
0 3 61
34 28 70
106 95 78
139 113 86
125 99 75
144 124 109
144 130 114
135 119 97
150 133 112
137 121 91
114 103 73
52 65 25
66 76 36
57 64 27
54 63 24
52 61 24
55 64 26
62 68 35
70 75 40
57 67 29
49 64 23
53 64 24
51 61 21
49 58 20
46 56 17
48 59 18
48 60 17
41 54 9
50 63 21
52 65 26
56 70 29
51 62 21
49 56 18
47 52 17
36 45 14
27 44 22
3 13 59
0 0 45
0 0 43
0 0 45
0 0 43
0 0 43
0 0 44
0 0 42
0 0 42
0 0 42
0 0 42
0 0 42
0 0 42
0 0 42
0 0 42
0 0 42
0 0 42
0 0 42
0 0 42
0 0 42
0 0 42
22 23 49
207 219 236
224 237 255
224 237 255
224 237 255
224 237 255
224 237 255
224 237 255
224 237 255
224 237 255
224 237 255
224 237 255
224 237 255
224 237 255
224 237 255
224 237 255
224 237 255
224 237 255
224 237 255
224 237 255
224 237 255
224 237 255
224 237 255
224 237 255
224 237 255
224 237 255
224 237 255
224 237 255
224 237 255
224 237 255
224 237 255
224 237 255
224 237 255
224 237 255
224 237 255
224 237 255
224 237 255
224 237 255
224 237 255
224 237 255
224 237 255
224 237 255
224 237 255
224 237 255
224 237 255
224 237 255
224 237 255
224 237 255
224 237 255
224 237 255
224 237 255
224 237 255
224 237 255
224 237 255
224 237 255
224 237 255
224 237 255
224 237 255
224 237 255
224 237 255
224 237 255
224 237 255
224 237 255
224 237 255
224 237 255
224 237 255
224 237 255
224 237 255
224 237 255
224 237 255
224 237 255
224 237 255
224 237 255
224 237 255
224 237 255
224 237 255
224 237 255
224 237 255
224 237 255
224 237 255
224 237 255
224 237 255
224 237 255
224 237 255
224 237 255
224 237 255
224 237 255
224 237 255
224 237 255
224 237 255
224 237 255
224 237 255
224 237 255
224 237 255
224 237 255
224 237 255
224 237 255
224 237 255
224 237 255
224 237 255
224 237 255
224 237 255
224 237 255
224 237 255
224 237 255
224 237 255
224 237 255
224 237 255
224 237 255
224 237 255
224 237 255
224 237 255
224 237 255
224 237 255
224 237 255
224 237 255
224 237 255
224 237 255
224 237 255
224 237 255
224 237 255
224 237 255
224 237 255
224 237 255
224 237 255
224 237 255
224 237 255
224 237 255
224 237 255
224 237 255
224 237 255
224 237 255
224 237 255
224 237 255
224 237 255
224 237 255
224 237 255
224 237 255
224 237 255
224 237 255
224 237 255
224 237 255
224 237 255
224 237 255
224 237 255
224 237 255
224 237 255
224 237 255
224 237 255
224 237 255
224 237 255
224 237 255
224 237 255
224 237 255
224 237 255
224 237 255
224 237 255
224 237 255
224 237 255
224 237 255
224 237 255
224 237 255
224 237 255
224 237 255
224 237 255
224 237 255
224 237 255
224 237 255
224 237 255
224 237 255
224 237 255
224 237 255
224 237 255
224 237 255
224 237 255
224 237 255
224 237 255
224 237 255
224 237 255
224 237 255
224 237 255
224 237 255
224 237 255
224 237 255
224 237 255
224 237 255
224 237 255
224 237 255
224 237 255
224 237 255
224 237 255
224 237 255
224 237 255
224 237 255
224 237 255
224 237 255
224 237 255
224 237 255
224 237 255
224 237 255
224 237 255
224 237 255
224 237 255
224 237 255
224 237 255
224 237 255
224 237 255
224 237 255
224 237 255
224 237 255
224 237 255
224 237 255
224 237 255
224 237 255
224 237 255
224 237 255
224 237 255
152 161 176
0 0 42
0 0 42
0 0 42
0 0 42
0 0 42
0 0 42
0 0 42
0 0 42
0 0 42
0 0 42
0 0 42
0 0 42
0 0 42
0 0 42
0 0 42
0 0 42
0 0 42
0 0 42
0 0 42
0 0 42
0 0 42
0 0 42
0 0 42
0 0 42
0 0 42
0 0 42
0 0 42
0 0 42
0 0 42
0 0 42
0 0 42
0 0 42
0 0 42
0 0 42
0 0 42
0 0 42
0 0 42
0 0 42
0 0 42
0 0 42
0 0 42
0 0 42
0 0 42
0 0 42
0 0 42
0 0 42
0 0 42
0 0 42
0 0 42
0 0 42
0 0 42
0 0 42
0 0 42
0 0 42
0 0 42
0 0 42
0 0 42
0 0 40
0 0 40
0 0 42
0 0 42
0 0 42
0 0 42
0 0 42
0 0 42
0 0 42
0 0 42
0 0 42
0 0 42
0 0 42
0 0 42
0 0 42
0 0 42
0 0 42
0 0 42
0 0 42
0 0 42
0 0 42
0 0 42
0 0 42
0 0 42
0 0 42
0 0 42
0 0 42
0 0 42
0 0 42
0 0 42
0 0 42
0 0 42
0 0 42
0 0 42
0 0 42
0 0 42
0 0 42
0 0 42
0 0 42
0 0 42
0 0 42
0 0 42
0 0 42
0 0 42
0 0 42
0 0 42
0 0 42
0 0 42
0 0 42
0 0 42
0 0 42
0 0 42
0 0 42
0 0 42
0 0 42
0 0 42
0 0 43
0 0 46
0 0 48
0 0 49
0 0 51
0 0 53
0 0 55
0 0 57
0 0 60
0 0 60
0 0 63
0 0 63
0 6 62
72 61 75
148 129 98
128 106 81
145 121 105
162 144 132
133 113 96
140 122 97
106 91 66
117 101 72
73 71 36
53 66 27
60 69 29
63 71 32
59 66 29
52 60 22
60 67 31
66 67 35
64 68 33
42 57 11
45 62 17
53 63 24
51 60 23
38 47 9
31 39 8
51 60 20
56 65 23
57 68 27
54 70 26
54 72 26
53 72 27
55 63 25
58 61 26
49 54 16
35 53 27
16 30 54
0 0 48
0 0 45
0 0 45
0 0 45
0 0 43
0 0 43
0 0 45
0 0 43
0 0 42
0 0 42
0 0 42
0 0 42
0 0 42
0 0 42
0 0 42
0 0 42
0 0 42
0 0 42
0 0 42
0 0 42
0 0 42
166 176 191
224 237 255
224 237 255
224 237 255
224 237 255
224 237 255
224 237 255
224 237 255
224 237 255
224 237 255
224 237 255
224 237 255
224 237 255
224 237 255
224 237 255
224 237 255
224 237 255
224 237 255
224 237 255
224 237 255
224 237 255
224 237 255
224 237 255
224 237 255
224 237 255
224 237 255
224 237 255
224 237 255
224 237 255
224 237 255
224 237 255
224 237 255
224 237 255
224 237 255
224 237 255
224 237 255
224 237 255
224 237 255
224 237 255
224 237 255
224 237 255
224 237 255
224 237 255
224 237 255
224 237 255
224 237 255
224 237 255
224 237 255
224 237 255
224 237 255
224 237 255
224 237 255
224 237 255
224 237 255
224 237 255
224 237 255
224 237 255
224 237 255
224 237 255
224 237 255
224 237 255
224 237 255
224 237 255
224 237 255
224 237 255
224 237 255
224 237 255
224 237 255
224 237 255
224 237 255
224 237 255
224 237 255
224 237 255
224 237 255
224 237 255
224 237 255
224 237 255
224 237 255
224 237 255
224 237 255
224 237 255
224 237 255
224 237 255
224 237 255
224 237 255
224 237 255
224 237 255
224 237 255
224 237 255
224 237 255
224 237 255
224 237 255
224 237 255
224 237 255
224 237 255
224 237 255
224 237 255
224 237 255
224 237 255
224 237 255
224 237 255
224 237 255
224 237 255
224 237 255
224 237 255
224 237 255
224 237 255
224 237 255
224 237 255
224 237 255
224 237 255
224 237 255
224 237 255
224 237 255
224 237 255
224 237 255
224 237 255
224 237 255
224 237 255
224 237 255
224 237 255
224 237 255
224 237 255
224 237 255
224 237 255
224 237 255
224 237 255
224 237 255
224 237 255
224 237 255
224 237 255
224 237 255
224 237 255
224 237 255
224 237 255
224 237 255
224 237 255
224 237 255
224 237 255
224 237 255
224 237 255
224 237 255
224 237 255
224 237 255
224 237 255
224 237 255
224 237 255
224 237 255
224 237 255
224 237 255
224 237 255
224 237 255
224 237 255
224 237 255
224 237 255
224 237 255
224 237 255
224 237 255
224 237 255
224 237 255
224 237 255
224 237 255
224 237 255
224 237 255
224 237 255
224 237 255
224 237 255
224 237 255
224 237 255
224 237 255
224 237 255
224 237 255
224 237 255
224 237 255
224 237 255
224 237 255
224 237 255
224 237 255
224 237 255
224 237 255
224 237 255
224 237 255
224 237 255
224 237 255
224 237 255
224 237 255
224 237 255
224 237 255
224 237 255
224 237 255
224 237 255
224 237 255
224 237 255
224 237 255
224 237 255
224 237 255
224 237 255
224 237 255
224 237 255
224 237 255
224 237 255
224 237 255
224 237 255
224 237 255
224 237 255
224 237 255
224 237 255
224 237 255
224 237 255
224 237 255
224 237 255
224 237 255
224 237 255
224 237 255
224 237 255
224 237 255
224 237 255
218 230 248
67 71 86
0 0 42
0 0 42
0 0 42
0 0 42
0 0 42
0 0 42
0 0 42
0 0 42
0 0 42
0 0 42
0 0 42
0 0 42
0 0 42
0 0 42
0 0 42
0 0 42
0 0 42
0 0 42
0 0 42
0 0 42
0 0 42
0 0 42
0 0 42
0 0 42
0 0 42
0 0 42
0 0 42
0 0 42
0 0 42
0 0 42
0 0 42
0 0 42
0 0 42
0 0 42
0 0 42
0 0 42
0 0 42
0 0 42
0 0 42
0 0 42
0 0 42
0 0 42
0 0 42
0 0 42
0 0 42
0 0 42
0 0 42
0 0 42
0 0 42
0 0 42
0 0 42
0 0 42
0 0 42
0 0 42
0 0 42
0 0 41
0 0 42
0 0 42
0 0 42
0 0 42
0 0 42
0 0 42
0 0 42
0 0 42
0 0 42
0 0 42
0 0 42
0 0 42
0 0 42
0 0 42
0 0 42
0 0 42
0 0 42
0 0 42
0 0 42
0 0 42
0 0 42
0 0 42
0 0 42
0 0 42
0 0 42
0 0 42
0 0 42
0 0 42
0 0 42
0 0 42
0 0 42
0 0 42
0 0 42
0 0 42
0 0 42
0 0 42
0 0 42
0 0 42
0 0 42
0 0 42
0 0 42
0 0 42
0 0 42
0 0 42
0 0 42
0 0 42
0 0 42
0 0 42
0 0 42
0 0 42
0 0 42
0 0 42
0 0 42
0 0 42
0 0 42
0 0 44
0 0 45
0 0 47
0 0 48
0 0 50
0 0 51
0 0 53
0 0 55
0 0 60
0 0 63
0 0 65
0 0 64
0 0 68
14 12 62
112 95 86
142 120 93
126 113 91
148 128 114
135 121 106
113 89 70
111 93 67
160 132 108
161 138 110
56 62 24
61 68 33
62 66 34
69 74 40
53 63 27
56 64 28
65 69 37
62 68 34
34 45 10
41 54 13
52 64 24
51 59 23
45 54 18
43 50 14
53 57 21
66 69 30
67 74 34
64 75 32
60 76 31
55 72 27
45 60 23
40 52 17
45 52 25
35 48 29
15 26 61
0 2 51
0 0 45
0 0 45
0 0 45
0 0 45
0 0 45
0 0 45
0 0 45
0 0 43
0 0 42
0 0 42
0 0 42
0 0 42
0 0 42
0 0 42
0 0 42
0 0 42
0 0 42
0 0 42
0 0 42
0 0 42
74 78 93
219 231 249
224 237 255
224 237 255
224 237 255
224 237 255
224 237 255
224 237 255
224 237 255
224 237 255
224 237 255
224 237 255
224 237 255
224 237 255
224 237 255
224 237 255
224 237 255
224 237 255
224 237 255
224 237 255
224 237 255
224 237 255
224 237 255
224 237 255
224 237 255
224 237 255
224 237 255
224 237 255
224 237 255
224 237 255
224 237 255
224 237 255
224 237 255
224 237 255
224 237 255
224 237 255
224 237 255
224 237 255
224 237 255
224 237 255
224 237 255
224 237 255
224 237 255
224 237 255
224 237 255
224 237 255
224 237 255
224 237 255
224 237 255
224 237 255
224 237 255
224 237 255
224 237 255
224 237 255
224 237 255
224 237 255
224 237 255
224 237 255
224 237 255
224 237 255
224 237 255
224 237 255
224 237 255
224 237 255
224 237 255
224 237 255
224 237 255
224 237 255
224 237 255
224 237 255
224 237 255
224 237 255
224 237 255
224 237 255
224 237 255
224 237 255
224 237 255
224 237 255
224 237 255
224 237 255
224 237 255
224 237 255
224 237 255
224 237 255
224 237 255
224 237 255
224 237 255
224 237 255
224 237 255
224 237 255
224 237 255
224 237 255
224 237 255
224 237 255
224 237 255
224 237 255
224 237 255
224 237 255
224 237 255
224 237 255
224 237 255
224 237 255
224 237 255
224 237 255
224 237 255
224 237 255
224 237 255
224 237 255
224 237 255
224 237 255
224 237 255
224 237 255
224 237 255
224 237 255
224 237 255
224 237 255
224 237 255
224 237 255
224 237 255
224 237 255
224 237 255
224 237 255
224 237 255
224 237 255
224 237 255
224 237 255
224 237 255
224 237 255
224 237 255
224 237 255
224 237 255
224 237 255
224 237 255
224 237 255
224 237 255
224 237 255
224 237 255
224 237 255
224 237 255
224 237 255
224 237 255
224 237 255
224 237 255
224 237 255
224 237 255
224 237 255
224 237 255
224 237 255
224 237 255
224 237 255
224 237 255
224 237 255
224 237 255
224 237 255
224 237 255
224 237 255
224 237 255
224 237 255
224 237 255
224 237 255
224 237 255
224 237 255
224 237 255
224 237 255
224 237 255
224 237 255
224 237 255
224 237 255
224 237 255
224 237 255
225 237 255
224 237 255
225 237 255
225 237 255
225 237 255
225 237 255
225 237 255
225 237 255
225 237 255
225 237 255
225 237 255
225 237 255
225 237 255
225 237 255
225 237 255
225 237 255
225 237 255
225 237 255
225 237 255
225 237 255
225 237 255
225 237 255
225 237 255
225 237 255
225 237 255
225 237 255
225 237 255
225 237 255
225 237 255
225 237 255
225 237 255
225 237 255
225 237 255
225 237 255
225 237 255
225 237 255
225 237 255
225 237 255
225 237 255
225 237 255
225 237 255
225 237 255
225 237 255
225 237 255
225 237 255
225 237 255
225 237 255
225 237 255
225 237 255
188 199 215
0 0 42
0 0 42
0 0 42
0 0 42
0 0 42
0 0 42
0 0 42
0 0 42
0 0 42
0 0 42
0 0 42
0 0 42
0 0 42
0 0 42
0 0 42
0 0 42
0 0 42
0 0 42
0 0 42
0 0 42
0 0 42
0 0 42
0 0 42
0 0 42
0 0 42
0 0 42
0 0 42
0 0 42
0 0 42
0 0 42
0 0 42
0 0 42
0 0 42
0 0 42
0 0 42
0 0 42
0 0 42
0 0 42
0 0 42
0 0 42
0 0 42
0 0 42
0 0 42
0 0 42
0 0 42
0 0 42
0 0 42
0 0 42
0 0 42
0 0 42
0 0 42
0 0 42
0 0 42
0 0 42
0 0 42
0 0 42
0 0 42
0 0 42
0 0 42
0 0 42
0 0 42
0 0 42
0 0 42
0 0 42
0 0 42
0 0 42
0 0 42
0 0 42
0 0 42
0 0 42
0 0 42
0 0 42
0 0 42
0 0 42
0 0 42
0 0 42
0 0 42
0 0 42
0 0 42
0 0 42
0 0 42
0 0 42
0 0 42
0 0 42
0 0 42
0 0 42
0 0 42
0 0 42
0 0 42
0 0 42
0 0 42
0 0 42
0 0 42
0 0 42
0 0 42
0 0 42
0 0 42
0 0 42
0 0 42
0 0 42
0 0 42
0 0 42
0 0 42
0 0 42
0 0 42
0 0 42
0 0 42
0 0 42
0 0 43
0 0 45
0 0 45
0 0 43
0 0 45
0 0 45
0 0 46
0 0 48
0 0 50
0 0 50
0 0 52
0 0 54
0 0 59
0 0 61
0 0 65
0 0 66
43 37 57
113 95 68
131 107 84
146 126 111
139 113 96
118 99 74
115 90 68
110 95 69
139 113 93
86 81 54
58 64 30
56 66 30
68 71 34
63 67 32
54 63 25
62 71 33
72 76 40
61 68 32
46 56 19
57 69 31
54 63 24
59 66 31
61 67 30
57 61 25
65 66 30
72 74 34
66 69 30
64 72 29
55 68 26
45 54 16
45 56 13
39 51 8
35 51 26
11 19 67
0 0 57
0 0 45
0 0 45
0 0 45
0 0 45
0 0 45
0 0 45
0 0 45
0 0 45
0 0 43
0 0 42
0 0 42
0 0 42
0 0 42
0 0 42
0 0 42
0 0 42
0 0 42
0 0 42
0 0 42
0 0 42
0 0 42
190 201 218
225 237 255
225 237 255
225 237 255
225 237 255
225 237 255
225 237 255
225 237 255
225 237 255
225 237 255
225 237 255
225 237 255
225 237 255
225 237 255
225 237 255
225 237 255
225 237 255
225 237 255
225 237 255
225 237 255
225 237 255
225 237 255
225 237 255
225 237 255
225 237 255
225 237 255
225 237 255
225 237 255
225 237 255
225 237 255
225 237 255
225 237 255
225 237 255
225 237 255
225 237 255
225 237 255
225 237 255
225 237 255
225 237 255
225 237 255
225 237 255
225 237 255
225 237 255
225 237 255
225 237 255
225 237 255
225 237 255
225 237 255
225 237 255
225 237 255
225 237 255
225 237 255
224 237 255
224 237 255
224 237 255
224 237 255
224 237 255
224 237 255
224 237 255
224 237 255
224 237 255
224 237 255
224 237 255
224 237 255
224 237 255
224 237 255
224 237 255
224 237 255
224 237 255
224 237 255
224 237 255
224 237 255
224 237 255
224 237 255
224 237 255
224 237 255
224 237 255
224 237 255
224 237 255
224 237 255
224 237 255
224 237 255
224 237 255
224 237 255
224 237 255
224 237 255
224 237 255
224 237 255
224 237 255
224 237 255
224 237 255
224 237 255
224 237 255
224 237 255
224 237 255
224 237 255
224 237 255
224 237 255
224 237 255
224 237 255
224 237 255
224 237 255
224 237 255
224 237 255
224 237 255
224 237 255
224 237 255
224 237 255
224 237 255
224 237 255
224 237 255
224 237 255
224 237 255
224 237 255
224 237 255
224 237 255
224 237 255
224 237 255
224 237 255
224 237 255
224 237 255
224 237 255
224 237 255
224 237 255
224 237 255
225 237 255
225 237 255
225 237 255
225 237 255
225 237 255
225 237 255
225 237 255
225 237 255
225 237 255
225 237 255
225 237 255
225 237 255
225 237 255
225 237 255
225 237 255
225 237 255
225 237 255
225 237 255
225 237 255
225 237 255
225 237 255
225 237 255
225 237 255
225 237 255
225 237 255
225 237 255
225 237 255
225 237 255
225 237 255
225 237 255
225 237 255
225 237 255
225 237 255
225 237 255
225 237 255
225 237 255
225 237 255
225 237 255
225 237 255
225 237 255
225 237 255
225 237 255
225 237 255
225 237 255
225 237 255
225 237 255
225 237 255
225 237 255
225 237 255
225 237 255
225 237 255
225 237 255
225 237 255
225 237 255
225 237 255
225 237 255
225 237 255
225 237 255
225 237 255
225 237 255
225 237 255
225 237 255
225 237 255
225 237 255
225 237 255
225 237 255
225 237 255
225 237 255
225 237 255
225 237 255
225 237 255
225 237 255
225 237 255
225 237 255
225 237 255
225 237 255
225 237 255
225 237 255
225 237 255
225 237 255
225 237 255
225 237 255
225 237 255
225 237 255
225 237 255
225 237 255
225 237 255
225 237 255
225 237 255
225 237 255
225 237 255
225 237 255
225 237 255
225 237 255
225 237 255
131 138 153
0 0 42
0 0 42
0 0 42
0 0 42
0 0 42
0 0 42
0 0 42
0 0 42
0 0 42
0 0 42
0 0 42
0 0 42
0 0 42
0 0 42
0 0 42
0 0 42
0 0 42
0 0 42
0 0 42
0 0 42
0 0 42
0 0 42
0 0 42
0 0 42
0 0 42
0 0 42
0 0 42
0 0 42
0 0 42
0 0 42
0 0 42
0 0 42
0 0 42
0 0 42
0 0 42
0 0 42
0 0 42
0 0 42
0 0 42
0 0 42
0 0 42
0 0 42
0 0 42
0 0 42
0 0 42
0 0 42
0 0 42
0 0 42
0 0 42
0 0 42
0 0 42
0 0 42
0 0 42
0 0 42
0 0 42
0 0 42
0 0 42
0 0 42
0 0 42
0 0 42
0 0 42
0 0 42
0 0 42
0 0 42
0 0 42
0 0 42
0 0 42
0 0 42
0 0 42
0 0 42
0 0 42
0 0 42
0 0 42
0 0 42
0 0 42
0 0 42
0 0 42
0 0 42
0 0 42
0 0 42
0 0 42
0 0 42
0 0 42
0 0 42
0 0 42
0 0 42
0 0 42
0 0 42
0 0 42
0 0 42
0 0 42
0 0 42
0 0 42
0 0 42
0 0 42
0 0 42
0 0 42
0 0 42
0 0 42
0 0 42
0 0 42
0 0 42
0 0 42
0 0 42
0 0 42
0 0 42
0 0 42
0 0 43
0 0 45
0 0 45
0 0 45
0 0 45
0 0 45
0 0 47
0 0 50
0 0 50
0 0 51
0 0 53
0 0 57
0 0 61
0 0 67
0 0 62
11 13 69
80 77 64
131 109 81
145 125 110
154 138 120
118 103 78
113 94 73
105 86 58
95 84 57
73 70 44
87 79 55
60 66 31
77 78 38
78 78 41
59 62 29
44 54 22
58 67 31
66 71 35
54 59 23
58 68 32
55 65 27
53 61 23
69 75 39
64 68 30
65 67 30
67 69 30
72 73 34
67 70 31
62 69 27
55 64 22
57 64 24
49 69 32
48 72 51
19 33 66
0 0 54
0 0 45
0 0 45
0 0 45
0 0 45
0 0 45
0 0 45
0 0 45
0 0 45
0 0 45
0 0 44
0 0 43
0 0 42
0 0 42
0 0 42
0 0 42
0 0 42
0 0 42
0 0 42
0 0 42
0 0 42
0 0 42
133 140 155
225 237 255
225 237 255
225 237 255
225 237 255
225 237 255
225 237 255
225 237 255
225 237 255
225 237 255
225 237 255
225 237 255
225 237 255
225 237 255
225 237 255
225 237 255
225 237 255
225 237 255
225 237 255
225 237 255
225 237 255
225 237 255
225 237 255
225 237 255
225 237 255
225 237 255
225 237 255
225 237 255
225 237 255
225 237 255
225 237 255
225 237 255
225 237 255
225 237 255
225 237 255
225 237 255
225 237 255
225 237 255
225 237 255
225 237 255
225 237 255
225 237 255
225 237 255
225 237 255
225 237 255
225 237 255
225 237 255
225 237 255
225 237 255
225 237 255
225 237 255
225 237 255
225 237 255
225 237 255
225 237 255
225 237 255
225 237 255
225 237 255
225 237 255
225 237 255
225 237 255
225 237 255
225 237 255
225 237 255
225 237 255
225 237 255
225 237 255
225 237 255
225 237 255
225 237 255
225 237 255
225 237 255
225 237 255
225 237 255
225 237 255
225 237 255
225 237 255
225 237 255
225 237 255
225 237 255
225 237 255
225 237 255
225 237 255
225 237 255
225 237 255
225 237 255
225 237 255
225 237 255
225 237 255
225 237 255
225 237 255
225 237 255
225 237 255
225 237 255
225 237 255
224 237 255
225 237 255
224 237 255
224 237 255
224 237 255
224 237 255
224 237 255
224 237 255
224 237 255
224 237 255
224 237 255
224 237 255
224 237 255
224 237 255
224 237 255
224 237 255
225 237 255
225 237 255
225 237 255
225 237 255
225 237 255
225 237 255
225 237 255
225 237 255
225 237 255
225 237 255
225 237 255
225 237 255
225 237 255
225 237 255
225 237 255
225 237 255
225 237 255
225 237 255
225 237 255
225 237 255
225 237 255
225 237 255
225 237 255
225 237 255
225 237 255
225 237 255
225 237 255
225 237 255
225 237 255
225 237 255
225 237 255
225 237 255
225 237 255
225 237 255
225 237 255
225 237 255
225 237 255
225 237 255
225 237 255
225 237 255
225 237 255
225 237 255
225 237 255
225 237 255
225 237 255
225 237 255
225 237 255
225 237 255
225 237 255
225 237 255
225 237 255
225 237 255
225 237 255
225 237 255
225 237 255
225 237 255
225 237 255
225 237 255
225 237 255
225 237 255
225 237 255
225 237 255
225 237 255
225 237 255
225 237 255
225 237 255
225 237 255
225 237 255
225 237 255
225 237 255
225 237 255
225 237 255
225 237 255
225 237 255
225 237 255
225 237 255
225 237 255
225 237 255
225 237 255
225 237 255
225 237 255
225 237 255
225 237 255
225 237 255
225 237 255
225 237 255
225 237 255
225 237 255
225 237 255
225 237 255
225 237 255
225 237 255
225 237 255
225 237 255
225 237 255
225 237 255
225 237 255
225 237 255
225 237 255
225 237 255
225 237 255
225 237 255
225 237 255
225 237 255
225 237 255
225 237 255
225 237 255
225 237 255
225 237 255
225 237 255
221 234 252
78 82 97
0 0 42
0 0 42
0 0 42
0 0 42
0 0 42
0 0 42
0 0 42
0 0 42
0 0 42
0 0 42
0 0 42
0 0 42
0 0 42
0 0 42
0 0 42
0 0 42
0 0 42
0 0 42
0 0 42
0 0 42
0 0 42
0 0 42
0 0 42
0 0 42
0 0 42
0 0 42
0 0 42
0 0 42
0 0 42
0 0 42
0 0 42
0 0 42
0 0 42
0 0 42
0 0 42
0 0 42
0 0 42
0 0 42
0 0 42
0 0 42
0 0 42
0 0 42
0 0 42
0 0 42
0 0 42
0 0 42
0 0 42
0 0 42
0 0 42
0 0 42
0 0 42
0 0 42
0 0 42
0 0 42
0 0 42
0 0 42
0 0 42
0 0 42
0 0 42
0 0 42
0 0 42
0 0 42
0 0 42
0 0 42
0 0 42
0 0 42
0 0 42
0 0 42
0 0 42
0 0 42
0 0 42
0 0 42
0 0 42
0 0 42
0 0 42
0 0 42
0 0 42
0 0 42
0 0 42
0 0 42
0 0 42
0 0 42
0 0 42
0 0 42
0 0 42
0 0 42
0 0 42
0 0 42
0 0 42
0 0 42
0 0 42
0 0 42
0 0 42
0 0 42
0 0 42
0 0 42
0 0 42
0 0 42
0 0 42
0 0 42
0 0 42
0 0 42
0 0 42
0 0 42
0 0 42
0 0 42
0 0 44
0 0 45
0 0 45
0 0 45
0 0 45
0 0 47
0 0 49
0 0 51
0 0 52
0 0 53
0 0 55
0 0 58
0 0 62
0 0 67
0 0 65
3 7 67
80 71 51
113 93 68
153 136 123
144 124 102
99 83 58
154 117 99
128 97 73
105 89 64
80 77 50
86 72 47
90 83 48
73 71 33
73 73 41
58 63 33
30 43 12
66 75 40
72 78 41
63 70 33
58 68 31
49 60 21
60 68 32
68 72 34
68 70 31
70 72 35
68 73 33
66 69 30
65 72 30
56 68 25
53 66 17
49 61 26
37 102 102
21 60 77
0 8 59
0 0 44
0 0 44
0 0 45
0 0 45
0 0 45
0 0 44
0 0 43
0 0 45
0 0 45
0 0 45
0 0 45
0 0 43
0 0 44
0 0 42
0 0 43
0 0 44
0 0 43
0 0 43
0 0 42
0 0 42
0 0 42
81 85 100
217 229 247
225 237 255
225 237 255
225 237 255
225 237 255
225 237 255
225 237 255
225 237 255
225 237 255
225 237 255
225 237 255
225 237 255
225 237 255
225 237 255
225 237 255
225 237 255
225 237 255
225 237 255
225 237 255
225 237 255
225 237 255
225 237 255
225 237 255
225 237 255
225 237 255
225 237 255
225 237 255
225 237 255
225 237 255
225 237 255
225 237 255
225 237 255
225 237 255
225 237 255
225 237 255
225 237 255
225 237 255
225 237 255
225 237 255
225 237 255
225 237 255
225 237 255
225 237 255
225 237 255
225 237 255
225 237 255
225 237 255
225 237 255
225 237 255
225 237 255
225 237 255
225 237 255
225 237 255
225 237 255
225 237 255
225 237 255
225 237 255
225 237 255
225 237 255
225 237 255
225 237 255
225 237 255
225 237 255
225 237 255
225 237 255
225 237 255
225 237 255
225 237 255
225 237 255
225 237 255
225 237 255
225 237 255
225 237 255
225 237 255
225 237 255
225 237 255
225 237 255
225 237 255
225 237 255
225 237 255
225 237 255
225 237 255
225 237 255
225 237 255
225 237 255
225 237 255
225 237 255
225 237 255
225 237 255
225 237 255
225 237 255
225 237 255
225 237 255
225 237 255
225 237 255
225 237 255
225 237 255
225 237 255
225 237 255
225 237 255
225 237 255
225 237 255
225 237 255
225 237 255
225 237 255
225 237 255
225 237 255
225 237 255
225 237 255
225 237 255
225 237 255
225 237 255
225 237 255
225 237 255
225 237 255
225 237 255
225 237 255
225 237 255
225 237 255
225 237 255
225 237 255
225 237 255
225 237 255
225 237 255
225 237 255
225 237 255
225 237 255
225 237 255
225 237 255
225 237 255
225 237 255
225 237 255
225 237 255
225 237 255
225 237 255
225 237 255
225 237 255
225 237 255
225 237 255
225 237 255
225 237 255
225 237 255
225 237 255
225 237 255
225 237 255
225 237 255
225 237 255
225 237 255
225 237 255
225 237 255
225 237 255
225 237 255
225 237 255
225 237 255
225 237 255
225 237 255
225 237 255
225 237 255
225 237 255
225 237 255
225 237 255
225 237 255
225 237 255
225 237 255
225 237 255
225 237 255
225 237 255
225 237 255
225 237 255
225 237 255
225 237 255
225 237 255
225 237 255
225 237 255
225 237 255
225 237 255
225 237 255
225 237 255
225 237 255
225 237 255
225 237 255
225 237 255
225 237 255
225 237 255
225 237 255
225 237 255
225 237 255
225 237 255
225 237 255
225 237 255
225 237 255
225 237 255
225 237 255
225 237 255
225 237 255
225 237 255
225 237 255
225 237 255
225 237 255
225 237 255
225 237 255
225 237 255
225 237 255
225 237 255
225 237 255
225 237 255
225 237 255
225 237 255
225 238 255
225 237 255
225 238 255
225 238 255
225 238 255
225 238 255
225 238 255
225 238 255
225 238 255
225 238 255
225 238 255
225 238 255
225 238 255
225 238 255
198 210 226
0 0 42
0 0 42
0 0 42
0 0 42
0 0 42
0 0 42
0 0 42
0 0 42
0 0 42
0 0 42
0 0 42
0 0 42
0 0 42
0 0 42
0 0 42
0 0 42
0 0 42
0 0 42
0 0 42
0 0 42
0 0 42
0 0 42
0 0 42
0 0 42
0 0 42
0 0 42
0 0 42
0 0 42
0 0 42
0 0 42
0 0 42
0 0 42
0 0 42
0 0 42
0 0 42
0 0 42
0 0 42
0 0 42
0 0 42
0 0 42
0 0 42
0 0 42
0 0 42
0 0 42
0 0 42
0 0 42
0 0 42
0 0 42
0 0 42
0 0 42
0 0 42
0 0 42
0 0 42
0 0 42
0 0 42
0 0 42
0 0 42
0 0 42
0 0 42
0 0 42
0 0 42
0 0 42
0 0 42
0 0 42
0 0 42
0 0 42
0 0 42
0 0 42
0 0 42
0 0 42
0 0 42
0 0 42
0 0 42
0 0 42
0 0 42
0 0 42
0 0 42
0 0 42
0 0 42
0 0 42
0 0 42
0 0 42
0 0 42
0 0 42
0 0 42
0 0 42
0 0 42
0 0 42
0 0 42
0 0 42
0 0 42
0 0 42
0 0 42
0 0 42
0 0 42
0 0 42
0 0 42
0 0 42
0 0 42
0 0 42
0 0 42
0 0 42
0 0 42
0 0 42
0 0 42
0 0 42
0 0 44
0 0 45
0 0 45
0 0 45
0 0 47
0 0 48
0 0 50
0 0 52
0 0 53
0 0 53
0 0 57
0 0 60
0 0 61
0 0 68
0 0 63
21 30 62
87 76 60
119 108 86
146 134 110
118 101 74
120 108 77
143 116 89
88 78 53
92 79 54
67 67 37
76 72 40
71 69 36
67 69 36
76 79 43
52 65 24
42 60 21
77 86 47
76 82 45
66 75 38
52 63 25
56 67 30
63 72 33
69 73 34
77 80 42
70 76 38
61 69 31
60 68 29
61 71 28
54 64 22
56 67 36
38 87 93
21 62 81
3 9 60
0 0 46
0 0 45
0 0 45
0 0 45
0 0 45
0 0 45
0 0 45
0 0 45
0 0 45
0 0 45
0 0 45
0 0 45
0 0 44
0 0 44
0 0 43
0 0 45
0 0 45
0 0 45
0 0 44
0 0 42
0 0 42
22 23 49
184 194 211
225 238 255
225 238 255
225 238 255
225 238 255
225 238 255
225 238 255
225 238 255
225 238 255
225 238 255
225 238 255
225 238 255
225 237 255
225 238 255
225 237 255
225 238 255
225 237 255
225 237 255
225 237 255
225 237 255
225 237 255
225 237 255
225 237 255
225 237 255
225 237 255
225 237 255
225 237 255
225 237 255
225 237 255
225 237 255
225 237 255
225 237 255
225 237 255
225 237 255
225 237 255
225 237 255
225 237 255
225 237 255
225 237 255
225 237 255
225 237 255
225 237 255
225 237 255
225 237 255
225 237 255
225 237 255
225 237 255
225 237 255
225 237 255
225 237 255
225 237 255
225 237 255
225 237 255
225 237 255
225 237 255
225 237 255
225 237 255
225 237 255
225 237 255
225 237 255
225 237 255
225 237 255
225 237 255
225 237 255
225 237 255
225 237 255
225 237 255
225 237 255
225 237 255
225 237 255
225 237 255
225 237 255
225 237 255
225 237 255
225 237 255
225 237 255
225 237 255
225 237 255
225 237 255
225 237 255
225 237 255
225 237 255
225 237 255
225 237 255
225 237 255
225 237 255
225 237 255
225 237 255
225 237 255
225 237 255
225 237 255
225 237 255
225 237 255
225 237 255
225 237 255
225 237 255
225 237 255
225 237 255
225 237 255
225 237 255
225 237 255
225 237 255
225 237 255
225 237 255
225 237 255
225 237 255
225 237 255
225 237 255
225 237 255
225 237 255
225 237 255
225 237 255
225 237 255
225 237 255
225 237 255
225 237 255
225 237 255
225 237 255
225 237 255
225 237 255
225 237 255
225 237 255
225 237 255
225 237 255
225 237 255
225 237 255
225 237 255
225 237 255
225 237 255
225 237 255
225 237 255
225 237 255
225 237 255
225 237 255
225 237 255
225 237 255
225 237 255
225 237 255
225 237 255
225 237 255
225 237 255
225 237 255
225 237 255
225 237 255
225 237 255
225 237 255
225 237 255
225 237 255
225 237 255
225 237 255
225 237 255
225 237 255
225 237 255
225 237 255
225 237 255
225 237 255
225 237 255
225 238 255
225 238 255
225 238 255
225 238 255
225 238 255
225 238 255
225 238 255
225 238 255
225 238 255
225 238 255
225 238 255
225 238 255
225 238 255
225 238 255
225 238 255
225 238 255
225 238 255
225 238 255
225 238 255
225 238 255
225 238 255
225 238 255
225 238 255
225 238 255
225 238 255
225 238 255
225 238 255
225 238 255
225 238 255
225 238 255
225 238 255
225 238 255
225 238 255
225 238 255
225 238 255
225 238 255
225 238 255
225 238 255
225 238 255
225 238 255
225 238 255
225 238 255
225 238 255
225 238 255
225 238 255
225 238 255
225 238 255
225 238 255
225 238 255
225 238 255
225 238 255
225 238 255
225 238 255
225 238 255
225 238 255
225 238 255
225 238 255
225 238 255
225 238 255
225 238 255
225 238 255
225 238 255
225 238 255
225 238 255
225 238 255
225 238 255
225 238 255
147 156 170
0 0 42
0 0 42
0 0 42
0 0 42
0 0 42
0 0 42
0 0 42
0 0 42
0 0 42
0 0 42
0 0 42
0 0 42
0 0 42
0 0 42
0 0 42
0 0 42
0 0 42
0 0 42
0 0 42
0 0 42
0 0 42
0 0 42
0 0 42
0 0 42
0 0 42
0 0 42
0 0 42
0 0 42
0 0 42
0 0 42
0 0 42
0 0 42
0 0 42
0 0 42
0 0 42
0 0 42
0 0 42
0 0 42
0 0 42
0 0 42
0 0 42
0 0 42
0 0 42
0 0 42
0 0 42
0 0 42
0 0 42
0 0 42
0 0 42
0 0 42
0 0 42
0 0 42
0 0 42
0 0 42
0 0 42
0 0 42
0 0 42
0 0 42
0 0 42
0 0 42
0 0 42
0 0 42
0 0 42
0 0 42
0 0 42
0 0 42
0 0 42
0 0 42
0 0 42
0 0 42
0 0 42
0 0 42
0 0 42
0 0 42
0 0 42
0 0 42
0 0 42
0 0 42
0 0 42
0 0 42
0 0 42
0 0 42
0 0 42
0 0 42
0 0 42
0 0 42
0 0 42
0 0 42
0 0 42
0 0 42
0 0 42
0 0 42
0 0 42
0 0 42
0 0 42
0 0 42
0 0 42
0 0 42
0 0 42
0 0 42
0 0 42
0 0 42
0 0 42
0 0 42
0 0 42
0 0 44
0 0 45
0 0 45
0 0 46
0 0 48
0 0 50
0 0 50
0 0 52
0 0 53
0 0 54
0 0 57
0 0 60
0 0 62
0 1 67
0 9 70
60 65 51
95 84 63
152 135 118
136 109 86
111 91 66
141 127 95
144 118 95
85 74 51
81 74 50
64 66 38
62 64 33
70 68 38
81 81 46
89 86 48
82 86 46
74 82 43
74 87 44
73 82 43
65 72 36
59 68 31
60 69 31
62 71 30
72 77 36
74 81 39
58 66 29
63 73 33
58 70 29
57 69 28
47 65 19
38 80 73
8 58 93
4 15 67
0 0 48
0 0 43
0 0 44
0 0 45
0 0 45
0 0 45
0 0 45
0 0 45
0 0 45
0 0 45
0 0 45
0 0 45
0 0 45
0 0 45
0 0 44
0 0 44
0 0 45
0 0 45
0 0 45
0 0 43
0 0 45
0 0 44
140 148 163
225 238 255
225 238 255
225 238 255
225 238 255
225 238 255
225 238 255
225 238 255
225 238 255
225 238 255
225 238 255
225 238 255
225 238 255
225 238 255
225 238 255
225 238 255
225 238 255
225 238 255
225 238 255
225 238 255
225 238 255
225 238 255
225 238 255
225 238 255
225 238 255
225 238 255
225 238 255
225 238 255
225 238 255
225 238 255
225 238 255
225 238 255
225 238 255
225 238 255
225 238 255
225 238 255
225 238 255
225 238 255
225 238 255
225 238 255
225 238 255
225 238 255
225 238 255
225 238 255
225 238 255
225 238 255
225 238 255
225 238 255
225 238 255
225 238 255
225 238 255
225 238 255
225 238 255
225 238 255
225 238 255
225 238 255
225 238 255
225 238 255
225 238 255
225 238 255
225 238 255
225 238 255
225 238 255
225 238 255
225 238 255
225 238 255
225 238 255
225 237 255
225 238 255
225 237 255
225 237 255
225 237 255
225 237 255
225 237 255
225 237 255
225 237 255
225 237 255
225 237 255
225 237 255
225 237 255
225 237 255
225 237 255
225 237 255
225 237 255
225 237 255
225 237 255
225 237 255
225 237 255
225 237 255
225 237 255
225 237 255
225 237 255
225 237 255
225 237 255
225 237 255
225 237 255
225 237 255
225 237 255
225 237 255
225 237 255
225 237 255
225 237 255
225 237 255
225 237 255
225 237 255
225 237 255
225 237 255
225 237 255
225 237 255
225 237 255
225 237 255
225 237 255
225 237 255
225 237 255
225 237 255
225 237 255
225 237 255
225 238 255
225 237 255
225 238 255
225 238 255
225 238 255
225 238 255
225 238 255
225 238 255
225 238 255
225 238 255
225 238 255
225 238 255
225 238 255
225 238 255
225 238 255
225 238 255
225 238 255
225 238 255
225 238 255
225 238 255
225 238 255
225 238 255
225 238 255
225 238 255
225 238 255
225 238 255
225 238 255
225 238 255
225 238 255
225 238 255
225 238 255
225 238 255
225 238 255
225 238 255
225 238 255
225 238 255
225 238 255
225 238 255
225 238 255
225 238 255
225 238 255
225 238 255
225 238 255
225 238 255
225 238 255
225 238 255
225 238 255
225 238 255
225 238 255
225 238 255
225 238 255
225 238 255
225 238 255
225 238 255
225 238 255
225 238 255
225 238 255
225 238 255
225 238 255
225 238 255
225 238 255
225 238 255
225 238 255
225 238 255
225 238 255
225 238 255
225 238 255
225 238 255
225 238 255
225 238 255
225 238 255
225 238 255
225 238 255
225 238 255
225 238 255
225 238 255
225 238 255
225 238 255
225 238 255
225 238 255
225 238 255
225 238 255
225 238 255
225 238 255
225 238 255
225 238 255
225 238 255
225 238 255
225 238 255
225 238 255
225 238 255
225 238 255
225 238 255
225 238 255
225 238 255
225 238 255
225 238 255
225 238 255
225 238 255
225 238 255
225 238 255
225 238 255
225 238 255
225 238 255
225 238 255
225 238 255
225 238 255
225 238 255
225 238 255
110 116 130
0 0 42
0 0 42
0 0 42
0 0 42
0 0 42
0 0 42
0 0 42
0 0 42
0 0 42
0 0 42
0 0 42
0 0 42
0 0 42
0 0 42
0 0 42
0 0 42
0 0 42
0 0 42
0 0 42
0 0 42
0 0 42
0 0 42
0 0 42
0 0 42
0 0 42
0 0 42
0 0 42
0 0 42
0 0 42
0 0 42
0 0 42
0 0 42
0 0 42
0 0 42
0 0 42
0 0 42
0 0 42
0 0 42
0 0 42
0 0 42
0 0 42
0 0 42
0 0 42
0 0 42
0 0 42
0 0 42
0 0 42
0 0 42
0 0 42
0 0 42
0 0 42
0 0 42
0 0 42
0 0 42
0 0 42
0 0 42
0 0 42
0 0 42
0 0 42
0 0 42
0 0 42
0 0 42
0 0 42
0 0 42
0 0 42
0 0 42
0 0 42
0 0 42
0 0 42
0 0 42
0 0 42
0 0 42
0 0 42
0 0 42
0 0 42
0 0 42
0 0 42
0 0 42
0 0 42
0 0 42
0 0 42
0 0 42
0 0 42
0 0 42
0 0 42
0 0 42
0 0 42
0 0 42
0 0 42
0 0 42
0 0 42
0 0 42
0 0 42
0 0 42
0 0 42
0 0 42
0 0 42
0 0 42
0 0 42
0 0 42
0 0 42
0 0 42
0 0 42
0 0 42
0 0 43
0 0 44
0 0 48
0 0 49
0 0 49
0 0 51
0 0 53
0 0 57
0 0 60
0 0 59
0 0 59
0 0 63
0 0 62
0 4 69
9 14 79
66 69 47
122 113 95
175 163 154
123 100 75
90 79 47
121 106 77
125 105 79
115 103 78
81 75 49
65 65 37
73 72 42
83 80 49
97 94 60
86 86 48
85 89 51
82 86 49
74 84 44
68 77 36
69 79 38
64 72 33
65 73 37
62 71 30
69 76 31
69 81 35
54 65 24
55 68 27
59 72 31
60 69 26
49 66 56
14 46 91
0 13 78
0 0 51
0 0 44
0 0 44
0 0 45
0 0 45
0 0 45
0 0 46
0 0 46
0 0 45
0 0 45
0 0 45
0 0 45
0 0 45
0 0 45
0 0 45
0 0 43
0 0 44
0 0 45
0 0 45
0 0 44
0 0 44
0 0 45
90 95 110
221 234 252
225 238 255
225 238 255
225 238 255
225 238 255
225 238 255
225 238 255
225 238 255
225 238 255
225 238 255
225 238 255
225 238 255
225 238 255
225 238 255
225 238 255
225 238 255
225 238 255
225 238 255
225 238 255
225 238 255
225 238 255
225 238 255
225 238 255
225 238 255
225 238 255
225 238 255
225 238 255
225 238 255
225 238 255
225 238 255
225 238 255
225 238 255
225 238 255
225 238 255
225 238 255
225 238 255
225 238 255
225 238 255
225 238 255
225 238 255
225 238 255
225 238 255
225 238 255
225 238 255
225 238 255
225 238 255
225 238 255
225 238 255
225 238 255
225 238 255
225 238 255
225 238 255
225 238 255
225 238 255
225 238 255
225 238 255
225 238 255
225 238 255
225 238 255
225 238 255
225 238 255
225 238 255
225 238 255
225 238 255
225 238 255
225 238 255
225 238 255
225 238 255
225 238 255
225 238 255
225 238 255
225 238 255
225 238 255
225 238 255
225 238 255
225 238 255
225 238 255
225 238 255
225 238 255
225 238 255
225 238 255
225 238 255
225 238 255
225 238 255
225 238 255
225 238 255
225 238 255
225 238 255
225 238 255
225 238 255
225 238 255
225 238 255
225 238 255
225 238 255
225 238 255
225 238 255
225 238 255
225 238 255
225 238 255
225 238 255
225 238 255
225 238 255
225 238 255
225 238 255
225 238 255
225 238 255
225 238 255
225 238 255
225 237 255
225 237 255
225 237 255
225 237 255
225 237 255
225 238 255
225 238 255
225 238 255
225 238 255
225 238 255
225 238 255
225 238 255
225 238 255
225 238 255
225 238 255
225 238 255
225 238 255
225 238 255
225 238 255
225 238 255
225 238 255
225 238 255
225 238 255
225 238 255
225 238 255
225 238 255
225 238 255
225 238 255
225 238 255
225 238 255
225 238 255
225 238 255
225 238 255
225 238 255
225 238 255
225 238 255
225 238 255
225 238 255
225 238 255
225 238 255
225 238 255
225 238 255
225 238 255
225 238 255
225 238 255
225 238 255
225 238 255
225 238 255
225 238 255
225 238 255
225 238 255
225 238 255
225 238 255
225 238 255
225 238 255
225 238 255
225 238 255
225 238 255
225 238 255
225 238 255
225 238 255
225 238 255
225 238 255
225 238 255
225 238 255
225 238 255
225 238 255
225 238 255
225 238 255
225 238 255
225 238 255
225 238 255
225 238 255
225 238 255
225 238 255
225 238 255
225 238 255
225 238 255
225 238 255
225 238 255
225 238 255
225 238 255
225 238 255
225 238 255
225 238 255
225 238 255
225 238 255
225 238 255
225 238 255
225 238 255
225 238 255
225 238 255
225 238 255
225 238 255
225 238 255
225 238 255
225 238 255
225 238 255
225 238 255
225 238 255
225 238 255
225 238 255
225 238 255
225 238 255
225 238 255
225 238 255
225 238 255
225 238 255
225 238 255
225 238 255
225 238 255
225 238 255
225 238 255
225 238 255
225 238 255
225 238 255
225 238 255
225 238 255
205 216 233
59 62 79
0 0 42
0 0 42
0 0 42
0 0 42
0 0 42
0 0 42
0 0 42
0 0 42
0 0 42
0 0 42
0 0 42
0 0 42
0 0 42
0 0 42
0 0 42
0 0 42
0 0 42
0 0 42
0 0 42
0 0 42
0 0 42
0 0 42
0 0 42
0 0 42
0 0 42
0 0 42
0 0 42
0 0 42
0 0 42
0 0 42
0 0 42
0 0 42
0 0 42
0 0 42
0 0 42
0 0 42
0 0 42
0 0 42
0 0 42
0 0 42
0 0 42
0 0 42
0 0 42
0 0 42
0 0 42
0 0 42
0 0 42
0 0 42
0 0 42
0 0 42
0 0 42
0 0 42
0 0 42
0 0 42
0 0 42
0 0 42
0 0 42
0 0 42
0 0 42
0 0 42
0 0 42
0 0 42
0 0 42
0 0 42
0 0 42
0 0 42
0 0 42
0 0 42
0 0 42
0 0 42
0 0 42
0 0 42
0 0 42
0 0 42
0 0 42
0 0 42
0 0 42
0 0 42
0 0 42
0 0 42
0 0 42
0 0 42
0 0 42
0 0 42
0 0 42
0 0 42
0 0 42
0 0 42
0 0 42
0 0 42
0 0 42
0 0 42
0 0 42
0 0 42
0 0 42
0 0 43
0 0 43
0 0 44
0 0 43
0 0 44
0 0 43
0 0 42
0 0 43
0 0 45
0 0 49
0 0 51
0 0 52
0 0 51
0 0 52
0 0 56
0 0 61
0 0 64
0 0 62
0 0 62
0 0 66
0 0 67
0 0 68
9 14 67
59 60 41
111 107 94
160 149 140
118 100 76
103 92 57
137 116 88
137 119 90
95 84 58
74 70 42
72 67 39
73 70 41
86 79 50
97 94 61
83 88 51
86 89 54
81 86 49
75 84 45
62 71 29
74 84 40
69 79 36
61 74 30
62 73 28
69 77 37
61 72 31
58 70 28
57 72 30
53 66 26
43 61 39
19 54 95
0 15 79
0 2 56
0 0 48
0 0 46
0 0 47
0 0 47
0 0 48
0 0 48
0 0 48
0 0 47
0 0 46
0 0 45
0 0 45
0 0 45
0 0 45
0 0 45
0 0 44
0 0 43
0 0 45
0 0 45
0 0 45
0 0 45
0 0 45
55 58 76
213 225 243
225 238 255
225 238 255
225 238 255
225 238 255
225 238 255
225 238 255
225 238 255
225 238 255
225 238 255
225 238 255
225 238 255
225 238 255
225 238 255
225 238 255
225 238 255
225 238 255
225 238 255
225 238 255
225 238 255
225 238 255
225 238 255
225 238 255
225 238 255
225 238 255
225 238 255
225 238 255
225 238 255
225 238 255
225 238 255
225 238 255
225 238 255
225 238 255
225 238 255
225 238 255
225 238 255
225 238 255
225 238 255
225 238 255
225 238 255
225 238 255
225 238 255
225 238 255
225 238 255
225 238 255
225 238 255
225 238 255
225 238 255
225 238 255
225 238 255
225 238 255
225 238 255
225 238 255
225 238 255
225 238 255
225 238 255
225 238 255
225 238 255
225 238 255
225 238 255
225 238 255
225 238 255
225 238 255
225 238 255
225 238 255
225 238 255
225 238 255
225 238 255
225 238 255
225 238 255
225 238 255
225 238 255
225 238 255
225 238 255
225 238 255
225 238 255
225 238 255
225 238 255
225 238 255
225 238 255
225 238 255
225 238 255
225 238 255
225 238 255
225 238 255
225 238 255
225 238 255
225 238 255
225 238 255
225 238 255
225 238 255
225 238 255
225 238 255
225 238 255
225 238 255
225 238 255
225 238 255
225 238 255
225 238 255
225 238 255
225 238 255
225 238 255
225 238 255
225 238 255
225 238 255
225 238 255
225 238 255
225 238 255
225 238 255
225 238 255
225 238 255
225 238 255
225 238 255
225 238 255
225 238 255
225 238 255
225 238 255
225 238 255
225 238 255
225 238 255
225 238 255
225 238 255
225 238 255
225 238 255
225 238 255
225 238 255
225 238 255
225 238 255
225 238 255
225 238 255
225 238 255
225 238 255
225 238 255
225 238 255
225 238 255
225 238 255
225 238 255
225 238 255
225 238 255
225 238 255
225 238 255
225 238 255
225 238 255
225 238 255
225 238 255
225 238 255
225 238 255
225 238 255
225 238 255
225 238 255
225 238 255
225 238 255
225 238 255
225 238 255
225 238 255
225 238 255
225 238 255
225 238 255
225 238 255
225 238 255
225 238 255
225 238 255
225 238 255
225 238 255
225 238 255
225 238 255
225 238 255
225 238 255
225 238 255
225 238 255
225 238 255
225 238 255
225 238 255
225 238 255
225 238 255
225 238 255
225 238 255
225 238 255
225 238 255
225 238 255
225 238 255
225 238 255
225 238 255
225 238 255
225 238 255
225 238 255
225 238 255
225 238 255
225 238 255
225 238 255
225 238 255
225 238 255
225 238 255
225 238 255
225 238 255
225 238 255
225 238 255
225 238 255
225 238 255
225 238 255
225 238 255
225 238 255
225 238 255
225 238 255
225 238 255
225 238 255
225 238 255
225 238 255
225 238 255
225 238 255
225 238 255
225 238 255
225 238 255
225 238 255
225 238 255
225 238 255
225 238 255
225 238 255
225 238 255
225 238 255
225 238 255
225 238 255
225 238 255
225 238 255
225 238 255
225 238 255
225 238 255
225 238 255
192 203 219
22 23 49
0 0 42
0 0 42
0 0 42
0 0 42
0 0 42
0 0 42
0 0 42
0 0 42
0 0 42
0 0 42
0 0 42
0 0 42
0 0 42
0 0 42
0 0 42
0 0 42
0 0 42
0 0 42
0 0 42
0 0 42
0 0 42
0 0 42
0 0 42
0 0 42
0 0 42
0 0 42
0 0 42
0 0 42
0 0 42
0 0 42
0 0 42
0 0 42
0 0 42
0 0 42
0 0 42
0 0 42
0 0 42
0 0 42
0 0 42
0 0 42
0 0 42
0 0 42
0 0 42
0 0 42
0 0 42
0 0 42
0 0 42
0 0 42
0 0 42
0 0 42
0 0 42
0 0 42
0 0 42
0 0 42
0 0 42
0 0 42
0 0 42
0 0 42
0 0 42
0 0 42
0 0 42
0 0 42
0 0 42
0 0 42
0 0 42
0 0 42
0 0 42
0 0 42
0 0 42
0 0 42
0 0 42
0 0 42
0 0 42
0 0 42
0 0 42
0 0 42
0 0 42
0 0 42
0 0 42
0 0 43
0 0 43
0 0 42
0 0 42
0 0 42
0 0 42
0 0 42
0 0 42
0 0 42
0 0 42
0 0 42
0 0 42
0 0 42
0 0 42
0 0 42
0 0 43
0 0 45
0 0 45
0 0 45
0 0 44
0 0 44
0 0 45
0 0 46
0 0 49
0 0 51
0 0 54
0 0 53
0 0 52
0 0 53
0 0 60
0 0 66
0 0 66
0 0 65
0 0 67
0 4 70
0 11 73
0 3 68
8 20 66
55 58 27
127 127 123
180 174 178
104 91 70
106 94 67
105 90 65
109 94 68
75 69 42
75 71 46
89 79 52
87 81 51
99 90 60
91 89 56
82 86 51
88 89 54
81 86 48
74 84 40
41 50 8
58 67 28
63 77 38
57 74 30
68 77 33
73 79 36
70 78 34
62 75 32
51 65 24
39 57 42
20 55 93
0 21 78
0 2 60
0 0 49
0 0 47
0 0 48
0 0 47
0 0 48
0 0 50
0 0 52
0 0 49
0 0 47
0 0 48
0 0 47
0 0 47
0 0 46
0 0 46
0 0 45
0 0 45
0 0 45
0 0 45
0 0 45
0 0 45
0 0 45
22 23 52
185 196 212
225 238 255
225 238 255
225 238 255
225 238 255
225 238 255
225 238 255
225 238 255
225 238 255
225 238 255
225 238 255
225 238 255
225 238 255
225 238 255
225 238 255
225 238 255
225 238 255
225 238 255
225 238 255
225 238 255
225 238 255
225 238 255
225 238 255
225 238 255
225 238 255
225 238 255
225 238 255
225 238 255
225 238 255
225 238 255
225 238 255
225 238 255
225 238 255
225 238 255
225 238 255
225 238 255
225 238 255
225 238 255
225 238 255
225 238 255
225 238 255
225 238 255
225 238 255
225 238 255
225 238 255
225 238 255
225 238 255
225 238 255
225 238 255
225 238 255
225 238 255
225 238 255
225 238 255
225 238 255
225 238 255
225 238 255
225 238 255
225 238 255
225 238 255
225 238 255
225 238 255
225 238 255
225 238 255
225 238 255
225 238 255
225 238 255
225 238 255
225 238 255
225 238 255
225 238 255
225 238 255
225 238 255
225 238 255
225 238 255
225 238 255
225 238 255
225 238 255
225 238 255
225 238 255
225 238 255
225 238 255
225 238 255
225 238 255
225 238 255
225 238 255
225 238 255
225 238 255
225 238 255
225 238 255
225 238 255
225 238 255
225 238 255
225 238 255
225 238 255
225 238 255
225 238 255
225 238 255
225 238 255
225 238 255
225 238 255
225 238 255
225 238 255
225 238 255
225 238 255
225 238 255
225 238 255
225 238 255
225 238 255
225 238 255
225 238 255
225 238 255
225 238 255
225 238 255
225 238 255
225 238 255
225 238 255
225 238 255
225 238 255
225 238 255
225 238 255
225 238 255
225 238 255
225 238 255
225 238 255
225 238 255
225 238 255
225 238 255
225 238 255
225 238 255
225 238 255
225 238 255
225 238 255
225 238 255
225 238 255
225 238 255
225 238 255
225 238 255
225 238 255
225 238 255
225 238 255
225 238 255
225 238 255
225 238 255
225 238 255
225 238 255
225 238 255
225 238 255
225 238 255
225 238 255
225 238 255
225 238 255
225 238 255
225 238 255
225 238 255
225 238 255
225 238 255
225 238 255
225 238 255
225 238 255
225 238 255
225 238 255
225 238 255
225 238 255
225 238 255
225 238 255
225 238 255
225 238 255
225 238 255
225 238 255
225 238 255
225 238 255
225 238 255
225 238 255
225 238 255
225 238 255
225 238 255
225 238 255
225 238 255
225 238 255
225 238 255
225 238 255
225 238 255
225 238 255
225 238 255
225 238 255
225 238 255
225 238 255
225 238 255
225 238 255
225 238 255
225 238 255
225 238 255
225 238 255
225 238 255
225 238 255
225 238 255
225 238 255
225 238 255
225 238 255
225 238 255
225 238 255
225 238 255
225 238 255
225 238 255
225 238 255
225 238 255
225 238 255
225 238 255
225 238 255
225 238 255
225 238 255
225 238 255
225 238 255
225 238 255
225 238 255
225 238 255
225 238 255
225 238 255
225 238 255
225 238 255
225 238 255
225 238 255
225 238 255
225 238 255
225 238 255
225 238 255
225 238 255
225 238 255
225 238 255
225 238 255
146 154 169
0 0 43
0 0 44
0 0 43
0 0 43
0 0 43
0 0 42
0 0 42
0 0 42
0 0 42
0 0 42
0 0 42
0 0 42
0 0 42
0 0 42
0 0 42
0 0 42
0 0 42
0 0 42
0 0 42
0 0 42
0 0 42
0 0 42
0 0 42
0 0 42
0 0 42
0 0 41
0 0 42
0 0 42
0 0 42
0 0 42
0 0 42
0 0 42
0 0 42
0 0 42
0 0 42
0 0 42
0 0 42
0 0 42
0 0 42
0 0 42
0 0 42
0 0 42
0 0 42
0 0 42
0 0 42
0 0 42
0 0 42
0 0 42
0 0 42
0 0 42
0 0 42
0 0 42
0 0 42
0 0 42
0 0 42
0 0 42
0 0 42
0 0 42
0 0 42
0 0 42
0 0 42
0 0 42
0 0 42
0 0 42
0 0 42
0 0 42
0 0 42
0 0 42
0 0 42
0 0 42
0 0 42
0 0 42
0 0 42
0 0 42
0 0 42
0 0 42
0 0 42
0 0 42
0 0 42
0 0 45
0 0 45
0 0 45
0 0 44
0 0 44
0 0 42
0 0 42
0 0 42
0 0 42
0 0 42
0 0 44
0 0 44
0 0 44
0 0 44
0 0 44
0 0 43
0 0 45
0 0 45
0 0 45
0 0 44
0 0 44
0 0 46
0 0 48
0 0 50
0 0 53
0 0 53
0 0 54
0 0 54
0 0 57
0 0 61
0 0 68
0 0 68
0 0 67
0 6 70
0 15 76
0 18 79
0 12 78
24 44 48
56 59 25
140 147 148
179 176 182
86 79 54
90 82 56
86 78 54
82 75 50
66 70 40
89 80 52
101 90 60
94 88 56
97 88 57
88 83 50
79 82 46
78 81 44
77 81 41
76 85 40
59 69 29
42 52 14
47 73 35
66 80 30
74 79 36
68 79 33
65 75 31
54 69 25
42 63 50
7 45 102
0 23 82
0 4 56
0 0 49
0 0 48
0 0 49
0 0 48
0 0 48
0 0 50
0 0 52
0 0 51
0 0 49
0 0 48
0 0 50
0 0 51
0 0 46
0 0 47
0 0 45
0 0 45
0 0 45
0 0 46
0 0 47
0 0 45
0 0 45
0 0 47
164 173 189
225 238 255
225 238 255
225 238 255
225 238 255
225 238 255
225 238 255
225 238 255
225 238 255
225 238 255
225 238 255
225 238 255
225 238 255
225 238 255
225 238 255
225 238 255
225 238 255
225 238 255
225 238 255
225 238 255
225 238 255
225 238 255
225 238 255
225 238 255
225 238 255
225 238 255
225 238 255
225 238 255
225 238 255
225 238 255
225 238 255
225 238 255
225 238 255
225 238 255
225 238 255
225 238 255
225 238 255
225 238 255
225 238 255
225 238 255
225 238 255
225 238 255
225 238 255
225 238 255
225 238 255
225 238 255
225 238 255
225 238 255
225 238 255
225 238 255
225 238 255
225 238 255
225 238 255
225 238 255
225 238 255
225 238 255
225 238 255
225 238 255
225 238 255
225 238 255
225 238 255
225 238 255
225 238 255
225 238 255
225 238 255
225 238 255
225 238 255
225 238 255
225 238 255
225 238 255
225 238 255
225 238 255
225 238 255
225 238 255
225 238 255
225 238 255
225 238 255
225 238 255
225 238 255
225 238 255
225 238 255
225 238 255
225 238 255
225 238 255
225 238 255
225 238 255
225 238 255
225 238 255
225 238 255
225 238 255
225 238 255
225 238 255
225 238 255
225 238 255
225 238 255
225 238 255
225 238 255
225 238 255
225 238 255
225 238 255
225 238 255
225 238 255
225 238 255
225 238 255
225 238 255
225 238 255
225 238 255
225 238 255
225 238 255
225 238 255
225 238 255
225 238 255
225 238 255
225 238 255
225 238 255
225 238 255
225 238 255
225 238 255
225 238 255
225 238 255
225 238 255
225 238 255
225 238 255
225 238 255
225 238 255
225 238 255
225 238 255
225 238 255
225 238 255
225 238 255
225 238 255
225 238 255
225 238 255
225 238 255
225 238 255
225 238 255
225 238 255
225 238 255
225 238 255
225 238 255
225 238 255
225 238 255
225 238 255
225 238 255
225 238 255
225 238 255
225 238 255
225 238 255
225 238 255
225 238 255
225 238 255
225 238 255
225 238 255
225 238 255
225 238 255
225 238 255
225 238 255
225 238 255
225 238 255
225 238 255
225 238 255
225 238 255
225 238 255
225 238 255
225 238 255
225 238 255
225 238 255
225 238 255
225 238 255
225 238 255
225 238 255
225 238 255
225 238 255
225 238 255
225 238 255
225 238 255
225 238 255
225 238 255
225 238 255
225 238 255
225 238 255
225 238 255
225 238 255
225 238 255
225 238 255
225 238 255
225 238 255
225 238 255
225 238 255
225 238 255
225 238 255
225 238 255
225 238 255
225 238 255
225 238 255
225 238 255
225 238 255
225 238 255
225 238 255
225 238 255
225 238 255
225 238 255
225 238 255
225 238 255
225 238 255
225 238 255
225 238 255
225 238 255
225 238 255
225 238 255
225 238 255
225 238 255
225 238 255
225 238 255
225 238 255
225 238 255
225 238 255
225 238 255
225 238 255
225 238 255
225 238 255
225 238 255
225 238 255
225 238 255
225 238 255
225 238 255
225 238 255
225 238 255
225 238 255
225 238 255
225 238 255
224 237 254
115 121 136
0 0 45
0 0 45
0 0 44
0 0 43
0 0 42
0 0 42
0 0 42
0 0 42
0 0 42
0 0 43
0 0 42
0 0 42
0 0 42
0 0 42
0 0 42
0 0 42
0 0 42
0 0 42
0 0 42
0 0 42
0 0 42
0 0 42
0 0 42
0 0 42
0 0 42
0 0 42
0 0 42
0 0 42
0 0 42
0 0 42
0 0 42
0 0 42
0 0 42
0 0 42
0 0 42
0 0 42
0 0 42
0 0 42
0 0 42
0 0 42
0 0 42
0 0 42
0 0 42
0 0 42
0 0 42
0 0 42
0 0 42
0 0 42
0 0 42
0 0 42
0 0 42
0 0 42
0 0 42
0 0 42
0 0 42
0 0 42
0 0 42
0 0 42
0 0 42
0 0 42
0 0 42
0 0 42
0 0 42
0 0 42
0 0 42
0 0 42
0 0 42
0 0 42
0 0 42
0 0 42
0 0 42
0 0 42
0 0 42
0 0 45
0 0 45
0 0 45
0 0 45
0 0 45
0 0 43
0 0 45
0 0 45
0 0 45
0 0 45
0 0 45
0 0 45
0 0 45
0 0 45
0 0 45
0 0 45
0 0 45
0 0 45
0 0 45
0 0 45
0 0 45
0 0 45
0 0 45
0 0 45
0 0 45
0 0 45
0 0 46
0 0 48
0 0 50
0 0 53
0 0 55
0 0 55
0 0 56
0 0 58
0 0 62
0 5 69
0 14 75
0 17 76
0 20 80
0 25 84
0 18 84
17 29 73
43 62 23
61 62 43
170 178 189
174 173 172
82 73 50
82 76 48
79 73 53
74 69 44
80 76 45
97 85 58
93 86 55
93 86 55
79 77 42
73 76 39
65 71 35
70 77 42
70 77 35
69 80 36
64 75 33
58 70 37
30 98 107
40 96 104
52 73 37
53 69 40
53 68 38
40 69 71
10 43 98
0 15 73
0 0 55
0 0 49
0 0 50
0 0 52
0 0 53
0 0 51
0 0 50
0 0 51
0 0 53
0 0 52
0 0 52
0 0 52
0 0 54
0 0 53
0 0 48
0 0 47
0 0 45
0 0 46
0 0 46
0 0 46
0 0 48
0 0 48
0 0 49
127 134 150
224 237 254
225 238 255
225 238 255
225 238 255
225 238 255
225 238 255
225 238 255
225 238 255
225 238 255
225 238 255
225 238 255
225 238 255
225 238 255
225 238 255
225 238 255
225 238 255
225 238 255
225 238 255
225 238 255
225 238 255
225 238 255
225 238 255
225 238 255
225 238 255
225 238 255
225 238 255
225 238 255
225 238 255
225 238 255
225 238 255
225 238 255
225 238 255
225 238 255
225 238 255
225 238 255
225 238 255
225 238 255
225 238 255
225 238 255
225 238 255
225 238 255
225 238 255
225 238 255
225 238 255
225 238 255
225 238 255
225 238 255
225 238 255
225 238 255
225 238 255
225 238 255
225 238 255
225 238 255
225 238 255
225 238 255
225 238 255
225 238 255
225 238 255
225 238 255
225 238 255
225 238 255
225 238 255
225 238 255
225 238 255
225 238 255
225 238 255
225 238 255
225 238 255
225 238 255
225 238 255
225 238 255
225 238 255
225 238 255
225 238 255
225 238 255
225 238 255
225 238 255
225 238 255
225 238 255
225 238 255
225 238 255
225 238 255
225 238 255
225 238 255
225 238 255
225 238 255
225 238 255
225 238 255
225 238 255
225 238 255
225 238 255
225 238 255
225 238 255
225 238 255
225 238 255
225 238 255
225 238 255
225 238 255
225 238 255
225 238 255
225 238 255
225 238 255
225 238 255
225 238 255
225 238 255
225 238 255
225 238 255
225 238 255
225 238 255
225 238 255
225 238 255
225 238 255
225 238 255
225 238 255
225 238 255
225 238 255
225 238 255
225 238 255
225 238 255
225 238 255
225 238 255
225 238 255
225 238 255
225 238 255
225 238 255
225 238 255
225 238 255
225 238 255
225 238 255
225 238 255
225 238 255
225 238 255
225 238 255
225 238 255
225 238 255
225 238 255
225 238 255
225 238 255
225 238 255
225 238 255
225 238 255
225 238 255
225 238 255
225 238 255
225 238 255
225 238 255
225 238 255
225 238 255
225 238 255
225 238 255
225 238 255
225 238 255
225 238 255
225 238 255
225 238 255
225 238 255
225 238 255
225 238 255
225 238 255
225 238 255
225 238 255
225 238 255
225 238 255
225 238 255
225 238 255
225 238 255
225 238 255
225 238 255
225 238 255
225 238 255
225 238 255
225 238 255
225 238 255
225 238 255
225 238 255
225 238 255
225 238 255
225 238 255
225 238 255
225 238 255
225 238 255
225 238 255
225 238 255
225 238 255
225 238 255
225 238 255
225 238 255
225 238 255
225 238 255
225 238 255
225 238 255
225 238 255
225 238 255
225 238 255
225 238 255
225 238 255
225 238 255
225 238 255
225 238 255
225 238 255
225 238 255
225 238 255
225 238 255
225 238 255
225 238 255
225 238 255
225 238 255
225 238 255
225 238 255
225 238 255
225 238 255
225 238 255
225 238 255
225 238 255
225 238 255
225 238 255
225 238 255
225 238 255
225 238 255
225 238 255
225 238 255
225 238 255
225 238 255
225 238 255
225 238 255
225 238 255
225 238 255
225 238 255
225 238 255
225 238 255
225 238 255
225 238 255
214 226 243
98 103 118
0 0 45
0 0 45
0 0 44
0 0 42
0 0 42
0 0 42
0 0 41
0 0 42
0 0 43
0 0 43
0 0 42
0 0 42
0 0 42
0 0 42
0 0 42
0 0 42
0 0 42
0 0 42
0 0 42
0 0 42
0 0 42
0 0 42
0 0 42
0 0 42
0 0 42
0 0 42
0 0 45
0 0 44
0 0 43
0 0 43
0 0 43
0 0 42
0 0 42
0 0 42
0 0 42
0 0 42
0 0 42
0 0 42
0 0 42
0 0 42
0 0 42
0 0 42
0 0 42
0 0 42
0 0 42
0 0 42
0 0 42
0 0 42
0 0 42
0 0 42
0 0 42
0 0 42
0 0 42
0 0 42
0 0 42
0 0 42
0 0 42
0 0 42
0 0 42
0 0 42
0 0 42
0 0 42
0 0 42
0 0 42
0 0 42
0 0 42
0 0 42
0 0 42
0 0 42
0 0 43
0 0 44
0 0 45
0 0 45
0 0 45
0 0 45
0 0 45
0 0 45
0 0 43
0 0 43
0 0 44
0 0 45
0 0 45
0 0 45
0 0 45
0 0 45
0 0 45
0 0 45
0 0 45
0 0 45
0 0 45
0 0 45
0 0 45
0 0 45
0 0 47
0 0 48
0 0 48
0 0 46
0 0 48
0 0 50
0 0 50
0 0 53
0 0 53
0 0 53
0 0 53
0 0 56
0 0 59
0 8 68
0 13 74
0 17 80
0 26 89
0 25 88
0 26 87
0 14 82
34 52 40
47 59 20
111 114 112
209 214 221
125 120 103
89 77 55
81 76 48
79 72 53
81 77 49
89 82 53
87 78 52
86 85 53
80 81 46
72 76 37
65 73 36
46 56 19
47 56 20
57 67 25
58 69 27
58 68 27
63 76 35
40 78 77
9 90 134
10 95 125
1 78 119
6 53 103
0 40 100
0 16 74
0 2 56
0 0 48
0 0 49
0 0 51
0 0 53
0 0 53
0 0 51
0 0 50
0 0 52
0 0 53
0 0 54
0 0 55
0 0 57
0 0 58
0 0 53
0 0 49
0 0 47
0 0 47
0 0 48
0 0 48
0 0 49
0 0 49
0 0 50
87 92 110
223 235 253
225 238 255
225 238 255
225 238 255
225 238 255
225 238 255
225 238 255
225 238 255
225 238 255
225 238 255
225 238 255
225 238 255
225 238 255
225 238 255
225 238 255
225 238 255
225 238 255
225 238 255
225 238 255
225 238 255
225 238 255
225 238 255
225 238 255
225 238 255
225 238 255
225 238 255
225 238 255
225 238 255
225 238 255
225 238 255
225 238 255
225 238 255
225 238 255
225 238 255
225 238 255
225 238 255
225 238 255
225 238 255
225 238 255
225 238 255
225 238 255
225 238 255
225 238 255
225 238 255
225 238 255
225 238 255
225 238 255
225 238 255
225 238 255
225 238 255
225 238 255
225 238 255
225 238 255
225 238 255
225 238 255
225 238 255
225 238 255
225 238 255
225 238 255
225 238 255
225 238 255
225 238 255
225 238 255
225 238 255
225 238 255
225 238 255
225 238 255
225 238 255
225 238 255
225 238 255
225 238 255
225 238 255
225 238 255
225 238 255
225 238 255
225 238 255
225 238 255
225 238 255
225 238 255
225 238 255
225 238 255
225 238 255
225 238 255
225 238 255
225 238 255
225 238 255
225 238 255
225 238 255
225 238 255
225 238 255
225 238 255
225 238 255
225 238 255
225 238 255
225 238 255
225 238 255
225 238 255
225 238 255
225 238 255
225 238 255
225 238 255
225 238 255
225 238 255
225 238 255
225 238 255
225 238 255
225 238 255
225 238 255
225 238 255
225 238 255
225 238 255
225 238 255
225 238 255
225 238 255
225 238 255
225 238 255
225 238 255
225 238 255
225 238 255
225 238 255
225 238 255
225 238 255
225 238 255
225 238 255
225 238 255
225 238 255
225 238 255
225 238 255
225 238 255
225 238 255
225 238 255
225 238 255
225 238 255
225 238 255
225 238 255
225 238 255
225 238 255
225 238 255
225 238 255
225 238 255
225 238 255
225 238 255
225 238 255
225 238 255
225 238 255
225 238 255
225 238 255
225 238 255
225 238 255
225 238 255
225 238 255
225 238 255
225 238 255
225 238 255
225 238 255
225 238 255
225 238 255
225 238 255
225 238 255
225 238 255
225 238 255
225 238 255
225 238 255
225 238 255
225 238 255
225 238 255
225 238 255
225 238 255
225 238 255
225 238 255
225 238 255
225 238 255
225 238 255
225 238 255
225 238 255
225 238 255
225 238 255
225 238 255
225 238 255
225 238 255
225 238 255
225 238 255
225 238 255
225 238 255
225 238 255
225 238 255
225 238 255
225 238 255
225 238 255
225 238 255
225 238 255
225 238 255
225 238 255
225 238 255
225 238 255
225 238 255
225 238 255
225 238 255
225 238 255
225 238 255
225 238 255
225 238 255
225 238 255
225 238 255
225 238 255
225 238 255
225 238 255
225 238 255
225 238 255
225 238 255
225 238 255
225 238 255
225 238 255
225 238 255
225 238 255
225 238 255
225 238 255
225 238 255
225 238 255
225 238 255
225 238 255
225 238 255
225 238 255
225 238 255
225 238 255
225 238 255
225 238 255
225 238 255
225 238 255
225 238 255
225 238 255
225 238 255
225 238 255
225 238 255
209 220 238
67 71 88
0 0 45
0 0 45
0 0 44
0 0 43
0 0 43
0 0 43
0 0 43
0 0 43
0 0 42
0 0 42
0 0 42
0 0 42
0 0 42
0 0 42
0 0 42
0 0 42
0 0 42
0 0 42
0 0 42
0 0 42
0 0 42
0 0 42
0 0 42
0 0 42
0 0 43
0 0 45
0 0 45
0 0 45
0 0 45
0 0 45
0 0 44
0 0 42
0 0 42
0 0 42
0 0 42
0 0 42
0 0 42
0 0 42
0 0 42
0 0 42
0 0 42
0 0 42
0 0 42
0 0 42
0 0 42
0 0 42
0 0 42
0 0 42
0 0 42
0 0 42
0 0 42
0 0 42
0 0 42
0 0 42
0 0 42
0 0 42
0 0 42
0 0 42
0 0 42
0 0 42
0 0 42
0 0 42
0 0 42
0 0 42
0 0 42
0 0 42
0 0 42
0 0 42
0 0 42
0 0 42
0 0 42
0 0 45
0 0 45
0 0 45
0 0 45
0 0 45
0 0 45
0 0 45
0 0 45
0 0 45
0 0 45
0 0 45
0 0 45
0 0 45
0 0 45
0 0 45
0 0 45
0 0 45
0 0 45
0 0 45
0 0 45
0 0 46
0 0 47
0 0 48
0 0 48
0 0 48
0 0 48
0 0 50
0 0 50
0 0 53
0 0 54
0 0 56
0 0 57
0 0 59
0 0 64
0 11 72
0 9 74
0 20 84
0 27 88
0 23 85
0 18 83
13 28 59
42 59 11
58 65 41
200 204 213
149 148 141
100 87 56
85 75 46
77 74 48
84 78 53
85 76 45
85 78 49
77 74 45
77 79 46
71 77 40
65 74 36
58 69 32
49 60 21
47 58 18
51 62 23
52 64 23
52 61 23
52 63 27
39 87 81
4 101 134
0 77 118
0 40 103
0 23 84
0 7 69
0 0 56
0 0 49
0 0 49
0 0 48
0 0 51
0 0 54
0 0 54
0 0 54
0 0 54
0 0 56
0 0 58
0 0 56
0 0 59
0 0 62
0 0 57
0 0 52
0 0 49
0 0 45
0 0 48
0 0 50
0 0 51
0 0 52
0 0 52
71 75 96
214 226 243
225 238 255
225 238 255
225 238 255
225 238 255
225 238 255
225 238 255
225 238 255
225 238 255
225 238 255
225 238 255
225 238 255
225 238 255
225 238 255
225 238 255
225 238 255
225 238 255
225 238 255
225 238 255
225 238 255
225 238 255
225 238 255
225 238 255
225 238 255
225 238 255
225 238 255
225 238 255
225 238 255
225 238 255
225 238 255
225 238 255
225 238 255
225 238 255
225 238 255
225 238 255
225 238 255
225 238 255
225 238 255
225 238 255
225 238 255
225 238 255
225 238 255
225 238 255
225 238 255
225 238 255
225 238 255
225 238 255
225 238 255
225 238 255
225 238 255
225 238 255
225 238 255
225 238 255
225 238 255
225 238 255
225 238 255
225 238 255
225 238 255
225 238 255
225 238 255
225 238 255
225 238 255
225 238 255
225 238 255
225 238 255
225 238 255
225 238 255
225 238 255
225 238 255
225 238 255
225 238 255
225 238 255
225 238 255
225 238 255
225 238 255
225 238 255
225 238 255
225 238 255
225 238 255
225 238 255
225 238 255
225 238 255
225 238 255
225 238 255
225 238 255
225 238 255
225 238 255
225 238 255
225 238 255
225 238 255
225 238 255
225 238 255
225 238 255
225 238 255
225 238 255
225 238 255
225 238 255
225 238 255
225 238 255
225 238 255
225 238 255
225 238 255
225 238 255
225 238 255
225 238 255
225 238 255
225 238 255
225 238 255
225 238 255
225 238 255
225 238 255
225 238 255
225 238 255
225 238 255
225 238 255
225 238 255
225 238 255
225 238 255
225 238 255
225 238 255
225 238 255
225 238 255
225 238 255
225 238 255
225 238 255
225 238 255
225 238 255
225 238 255
225 238 255
225 238 255
225 238 255
225 238 255
225 238 255
225 238 255
225 238 255
225 238 255
225 238 255
225 238 255
225 238 255
225 238 255
225 238 255
225 238 255
225 238 255
225 238 255
225 238 255
225 238 255
225 238 255
225 238 255
225 238 255
225 238 255
225 238 255
225 238 255
225 238 255
225 238 255
225 238 255
225 238 255
225 238 255
225 238 255
225 238 255
225 238 255
225 238 255
225 238 255
225 238 255
225 238 255
225 238 255
225 238 255
225 238 255
225 238 255
225 238 255
225 238 255
225 238 255
225 238 255
225 238 255
225 238 255
225 238 255
225 238 255
225 238 255
225 238 255
225 238 255
225 238 255
225 238 255
225 238 255
225 238 255
225 238 255
225 238 255
225 238 255
225 238 255
225 238 255
225 238 255
225 238 255
225 238 255
225 238 255
225 238 255
225 238 255
225 238 255
225 238 255
225 238 255
225 238 255
225 238 255
225 238 255
225 238 255
225 238 255
225 238 255
225 238 255
225 238 255
225 238 255
225 238 255
225 238 255
225 238 255
225 238 255
225 238 255
225 238 255
225 238 255
225 238 255
225 238 255
225 238 255
225 238 255
225 238 255
225 238 255
225 238 255
225 238 255
225 238 255
225 238 255
225 238 255
225 238 255
225 238 255
225 238 255
225 238 255
225 238 255
225 238 255
225 238 255
225 238 255
225 238 255
225 238 255
225 238 255
225 238 255
199 210 227
55 58 77
0 0 45
0 0 45
0 0 45
0 0 45
0 0 45
0 0 44
0 0 45
0 0 43
0 0 42
0 0 42
0 0 42
0 0 42
0 0 42
0 0 42
0 0 42
0 0 42
0 0 42
0 0 42
0 0 42
0 0 42
0 0 44
0 0 44
0 0 43
0 0 43
0 0 45
0 0 45
0 0 46
0 0 45
0 0 45
0 0 45
0 0 42
0 0 42
0 0 42
0 0 42
0 0 42
0 0 42
0 0 42
0 0 42
0 0 42
0 0 42
0 0 42
0 0 42
0 0 42
0 0 42
0 0 42
0 0 42
0 0 42
0 0 42
0 0 42
0 0 42
0 0 42
0 0 42
0 0 42
0 0 42
0 0 42
0 0 42
0 0 42
0 0 42
0 0 42
0 0 42
0 0 42
0 0 42
0 0 42
0 0 42
0 0 42
0 0 42
0 0 42
0 0 43
0 0 44
0 0 44
0 0 45
0 0 45
0 0 45
0 0 45
0 0 45
0 0 45
0 0 45
0 0 45
0 0 45
0 0 45
0 0 45
0 0 45
0 0 45
0 0 45
0 0 45
0 0 45
0 0 45
0 0 45
0 0 45
0 0 45
0 0 45
0 0 47
0 0 48
0 0 48
0 0 48
0 0 48
0 0 50
0 0 51
0 0 54
0 0 59
0 0 62
0 0 62
0 0 63
0 7 69
0 13 73
0 12 76
0 21 83
0 18 80
0 10 74
4 17 65
32 49 19
46 56 21
143 149 148
226 228 236
118 110 84
107 91 58
90 82 50
82 77 51
94 86 59
91 81 53
73 70 43
70 71 41
74 76 41
75 78 42
74 81 41
62 70 32
54 63 27
48 57 19
40 51 10
42 56 17
41 56 14
47 63 22
33 80 85
6 57 112
0 35 94
0 20 79
0 5 67
0 0 60
0 0 56
0 0 54
0 0 52
0 0 51
0 0 54
0 0 59
0 0 60
0 0 58
0 0 58
0 0 60
0 0 57
0 0 58
0 0 61
0 0 59
0 0 54
0 0 55
0 0 50
0 0 49
0 0 52
0 0 53
0 0 55
0 0 54
39 41 71
208 219 237
225 238 255
225 238 255
225 238 255
225 238 255
225 238 255
225 238 255
225 238 255
225 238 255
225 238 255
225 238 255
225 238 255
225 238 255
225 238 255
225 238 255
225 238 255
225 238 255
225 238 255
225 238 255
225 238 255
225 238 255
225 238 255
225 238 255
225 238 255
225 238 255
225 238 255
225 238 255
225 238 255
225 238 255
225 238 255
225 238 255
225 238 255
225 238 255
225 238 255
225 238 255
225 238 255
225 238 255
225 238 255
225 238 255
225 238 255
225 238 255
225 238 255
225 238 255
225 238 255
225 238 255
225 238 255
225 238 255
225 238 255
225 238 255
225 238 255
225 238 255
225 238 255
225 238 255
225 238 255
225 238 255
225 238 255
225 238 255
225 238 255
225 238 255
225 238 255
225 238 255
225 238 255
225 238 255
225 238 255
225 238 255
225 238 255
225 238 255
225 238 255
225 238 255
225 238 255
225 238 255
225 238 255
225 238 255
225 238 255
225 238 255
225 238 255
225 238 255
225 238 255
225 238 255
225 238 255
225 238 255
225 238 255
225 238 255
225 238 255
225 238 255
225 238 255
225 238 255
225 238 255
225 238 255
225 238 255
225 238 255
225 238 255
225 238 255
225 238 255
225 238 255
225 238 255
225 238 255
225 238 255
225 238 255
225 238 255
225 238 255
225 238 255
225 238 255
225 238 255
225 238 255
225 238 255
225 238 255
225 238 255
225 238 255
225 238 255
225 238 255
225 238 255
225 238 255
225 238 255
225 238 255
225 238 255
225 238 255
225 238 255
225 238 255
225 238 255
225 238 255
225 238 255
225 238 255
225 238 255
225 238 255
225 238 255
225 238 255
225 238 255
225 238 255
225 238 255
225 238 255
225 238 255
225 238 255
225 238 255
225 238 255
225 238 255
225 238 255
225 238 255
225 238 255
225 238 255
225 238 255
225 238 255
225 238 255
225 238 255
225 238 255
225 238 255
225 238 255
225 238 255
225 238 255
225 238 255
225 238 255
225 238 255
225 238 255
225 238 255
225 238 255
225 238 255
225 238 255
225 238 255
225 238 255
225 238 255
225 238 255
225 238 255
225 238 255
225 238 255
225 238 255
225 238 255
225 238 255
225 238 255
225 238 255
225 238 255
225 238 255
225 238 255
225 238 255
225 238 255
225 238 255
225 238 255
225 238 255
225 238 255
225 238 255
225 238 255
225 238 255
225 238 255
225 238 255
225 238 255
225 238 255
225 238 255
225 238 255
225 238 255
225 238 255
225 238 255
225 238 255
225 238 255
225 238 255
225 238 255
225 238 255
225 238 255
225 238 255
225 238 255
225 238 255
225 238 255
225 238 255
225 238 255
225 238 255
225 238 255
225 238 255
225 238 255
225 238 255
225 238 255
225 238 255
225 238 255
225 238 255
225 238 255
225 238 255
225 238 255
225 238 255
225 238 255
225 238 255
225 238 255
225 238 255
225 238 255
225 238 255
225 238 255
225 238 255
225 238 255
225 238 255
225 238 255
225 238 255
225 238 255
225 238 255
225 238 255
225 238 255
225 238 255
225 238 255
225 238 255
225 238 255
225 238 255
225 238 255
225 238 255
191 202 218
31 33 59
0 0 45
0 0 46
0 0 45
0 0 45
0 0 45
0 0 44
0 0 44
0 0 44
0 0 43
0 0 45
0 0 44
0 0 42
0 0 42
0 0 42
0 0 43
0 0 42
0 0 42
0 0 42
0 0 42
0 0 44
0 0 45
0 0 45
0 0 45
0 0 45
0 0 45
0 0 45
0 0 45
0 0 45
0 0 44
0 0 43
0 0 43
0 0 42
0 0 43
0 0 43
0 0 42
0 0 42
0 0 42
0 0 42
0 0 42
0 0 42
0 0 42
0 0 42
0 0 42
0 0 42
0 0 42
0 0 42
0 0 42
0 0 42
0 0 42
0 0 42
0 0 42
0 0 42
0 0 42
0 0 42
0 0 42
0 0 42
0 0 42
0 0 42
0 0 42
0 0 42
0 0 42
0 0 42
0 0 42
0 0 42
0 0 42
0 0 42
0 0 42
0 0 45
0 0 45
0 0 45
0 0 45
0 0 45
0 0 45
0 0 45
0 0 45
0 0 45
0 0 45
0 0 45
0 0 45
0 0 45
0 0 45
0 0 45
0 0 45
0 0 45
0 0 48
0 0 48
0 0 48
0 0 48
0 0 47
0 0 46
0 0 47
0 0 48
0 0 48
0 0 48
0 0 48
0 0 50
0 0 52
0 0 55
0 0 60
0 0 62
0 0 63
0 0 63
0 3 68
0 5 73
0 9 75
0 19 81
0 10 76
0 6 68
26 45 31
44 57 16
98 101 101
205 215 224
187 185 188
110 97 70
102 88 55
95 85 56
86 83 55
89 80 51
80 72 45
67 65 38
67 68 38
73 74 41
74 78 44
73 77 39
75 80 39
69 76 38
58 67 30
55 66 26
51 64 24
50 63 22
47 61 24
24 52 84
0 37 95
0 16 76
0 3 69
0 0 60
0 0 56
0 0 58
0 0 58
0 0 54
0 0 55
0 0 59
0 0 61
0 0 59
0 0 58
0 0 60
0 0 59
0 0 59
0 0 59
0 0 61
0 0 55
0 0 56
0 0 56
0 0 54
0 0 52
0 0 55
0 0 56
0 0 56
22 23 63
192 203 220
225 238 255
225 238 255
225 238 255
225 238 255
225 238 255
225 238 255
225 238 255
225 238 255
225 238 255
225 238 255
225 238 255
225 238 255
225 238 255
225 238 255
225 238 255
225 238 255
225 238 255
225 238 255
225 238 255
225 238 255
225 238 255
225 238 255
225 238 255
225 238 255
225 238 255
225 238 255
225 238 255
225 238 255
225 238 255
225 238 255
225 238 255
225 238 255
225 238 255
225 238 255
225 238 255
225 238 255
225 238 255
225 238 255
225 238 255
225 238 255
225 238 255
225 238 255
225 238 255
225 238 255
225 238 255
225 238 255
225 238 255
225 238 255
225 238 255
225 238 255
225 238 255
225 238 255
225 238 255
225 238 255
225 238 255
225 238 255
225 238 255
225 238 255
225 238 255
225 238 255
225 238 255
225 238 255
225 238 255
225 238 255
225 238 255
225 238 255
225 238 255
225 238 255
225 238 255
225 238 255
225 238 255
225 238 255
225 238 255
225 238 255
225 238 255
225 238 255
225 238 255
225 238 255
225 238 255
225 238 255
225 238 255
225 238 255
225 238 255
225 238 255
225 238 255
225 238 255
225 238 255
225 238 255
225 238 255
225 238 255
225 238 255
225 238 255
225 238 255
225 238 255
225 238 255
225 238 255
225 238 255
225 238 255
225 238 255
225 238 255
225 238 255
225 238 255
225 238 255
225 238 255
225 238 255
225 238 255
225 238 255
225 238 255
225 238 255
225 238 255
225 238 255
225 238 255
225 238 255
225 238 255
225 238 255
225 238 255
225 238 255
225 238 255
225 238 255
225 238 255
225 238 255
225 238 255
225 238 255
225 238 255
225 238 255
225 238 255
225 238 255
225 238 255
225 238 255
225 238 255
225 238 255
225 238 255
225 238 255
225 238 255
225 238 255
225 238 255
225 238 255
225 238 255
225 238 255
225 238 255
225 238 255
225 238 255
225 238 255
225 238 255
225 238 255
225 238 255
225 238 255
225 238 255
225 238 255
225 238 255
225 238 255
225 238 255
225 238 255
225 238 255
225 238 255
225 238 255
225 238 255
225 238 255
225 238 255
225 238 255
225 238 255
225 238 255
225 238 255
225 238 255
225 238 255
225 238 255
225 238 255
225 238 255
225 238 255
225 238 255
225 238 255
225 238 255
225 238 255
225 238 255
225 238 255
225 238 255
225 238 255
225 238 255
225 238 255
225 238 255
225 238 255
225 238 255
225 238 255
225 238 255
225 238 255
225 238 255
225 238 255
225 238 255
225 238 255
225 238 255
225 238 255
225 238 255
225 238 255
225 238 255
225 238 255
225 238 255
225 238 255
225 238 255
225 238 255
225 238 255
225 238 255
225 238 255
225 238 255
225 238 255
225 238 255
225 238 255
225 238 255
225 238 255
225 238 255
225 238 255
225 238 255
225 238 255
225 238 255
225 238 255
225 238 255
225 238 255
225 238 255
225 238 255
225 238 255
225 238 255
225 238 255
225 238 255
225 238 255
225 238 255
225 238 255
225 238 255
225 238 255
225 238 255
225 238 255
225 238 255
225 238 255
225 238 255
225 238 255
225 238 255
225 238 255
225 238 255
225 238 255
225 238 255
225 238 255
177 187 203
0 0 47
0 0 46
0 0 47
0 0 46
0 0 45
0 0 45
0 0 44
0 0 45
0 0 45
0 0 45
0 0 45
0 0 44
0 0 42
0 0 42
0 0 44
0 0 45
0 0 45
0 0 45
0 0 44
0 0 44
0 0 45
0 0 45
0 0 45
0 0 45
0 0 45
0 0 45
0 0 45
0 0 45
0 0 45
0 0 45
0 0 45
0 0 42
0 0 42
0 0 44
0 0 42
0 0 42
0 0 42
0 0 43
0 0 45
0 0 43
0 0 42
0 0 42
0 0 42
0 0 42
0 0 42
0 0 42
0 0 44
0 0 45
0 0 43
0 0 42
0 0 42
0 0 42
0 0 42
0 0 42
0 0 44
0 0 42
0 0 43
0 0 44
0 0 44
0 0 44
0 0 42
0 0 42
0 0 42
0 0 42
0 0 42
0 0 42
0 0 42
0 0 44
0 0 44
0 0 44
0 0 45
0 0 45
0 0 45
0 0 45
0 0 43
0 0 42
0 0 43
0 0 44
0 0 44
0 0 45
0 0 45
0 0 45
0 0 45
0 0 45
0 0 47
0 0 47
0 0 48
0 0 48
0 0 48
0 0 48
0 0 48
0 0 48
0 0 48
0 0 48
0 0 50
0 0 50
0 0 51
0 0 54
0 0 57
0 0 59
0 0 62
0 0 65
0 0 69
0 3 66
0 15 71
0 19 87
0 15 76
18 31 47
38 50 18
45 54 28
160 163 168
164 159 151
119 111 88
100 84 57
91 80 51
84 77 50
72 68 40
85 78 50
76 70 42
68 67 40
70 70 43
69 71 34
68 67 36
68 73 40
72 82 36
63 74 31
59 71 31
63 71 32
56 66 29
45 63 35
27 52 83
0 25 88
0 16 77
0 4 69
0 0 63
0 0 57
0 0 59
0 0 62
0 0 61
0 0 61
0 0 59
0 0 61
0 0 59
0 0 58
0 0 60
0 0 62
0 0 60
0 0 60
0 0 61
0 0 61
0 0 58
0 0 59
0 0 59
0 0 58
0 0 58
0 0 59
0 0 58
0 1 60
174 184 202
225 238 255
225 238 255
225 238 255
225 238 255
225 238 255
225 238 255
225 238 255
225 238 255
225 238 255
225 238 255
225 238 255
225 238 255
225 238 255
225 238 255
225 238 255
225 238 255
225 238 255
225 238 255
225 238 255
225 238 255
225 238 255
225 238 255
225 238 255
225 238 255
225 238 255
225 238 255
225 238 255
225 238 255
225 238 255
225 238 255
225 238 255
225 238 255
225 238 255
225 238 255
225 238 255
225 238 255
225 238 255
225 238 255
225 238 255
225 238 255
225 238 255
225 238 255
225 238 255
225 238 255
225 238 255
225 238 255
225 238 255
225 238 255
225 238 255
225 238 255
225 238 255
225 238 255
225 238 255
225 238 255
225 238 255
225 238 255
225 238 255
225 238 255
225 238 255
225 238 255
225 238 255
225 238 255
225 238 255
225 238 255
225 238 255
225 238 255
225 238 255
225 238 255
225 238 255
225 238 255
225 238 255
225 238 255
225 238 255
225 238 255
225 238 255
225 238 255
225 238 255
225 238 255
225 238 255
225 238 255
225 238 255
225 238 255
225 238 255
225 238 255
225 238 255
225 238 255
225 238 255
225 238 255
225 238 255
225 238 255
225 238 255
225 238 255
225 238 255
225 238 255
225 238 255
225 238 255
225 238 255
225 238 255
225 238 255
225 238 255
225 238 255
225 238 255
225 238 255
225 238 255
225 238 255
225 238 255
225 238 255
225 238 255
225 238 255
225 238 255
225 238 255
225 238 255
225 238 255
225 238 255
225 238 255
225 238 255
225 238 255
225 238 255
225 238 255
225 238 255
225 238 255
225 238 255
225 238 255
225 238 255
225 238 255
225 238 255
225 238 255
225 238 255
225 238 255
225 238 255
225 238 255
225 238 255
225 238 255
225 238 255
225 238 255
225 238 255
225 238 255
225 238 255
225 238 255
225 238 255
225 238 255
225 238 255
225 238 255
225 238 255
225 238 255
225 238 255
225 238 255
225 238 255
225 238 255
225 238 255
225 238 255
225 238 255
225 238 255
225 238 255
225 238 255
225 238 255
225 238 255
225 238 255
225 238 255
225 238 255
225 238 255
225 238 255
225 238 255
225 238 255
225 238 255
225 238 255
225 238 255
225 238 255
225 238 255
225 238 255
225 238 255
225 238 255
225 238 255
225 238 255
225 238 255
225 238 255
225 238 255
225 238 255
225 238 255
225 238 255
225 238 255
225 238 255
225 238 255
225 238 255
225 238 255
225 238 255
225 238 255
225 238 255
225 238 255
225 238 255
225 238 255
225 238 255
225 238 255
225 238 255
225 238 255
225 238 255
225 238 255
225 238 255
225 238 255
225 238 255
225 238 255
225 238 255
225 238 255
225 238 255
225 238 255
225 238 255
225 238 255
225 238 255
225 238 255
225 238 255
225 238 255
225 238 255
225 238 255
225 238 255
225 238 255
225 238 255
225 238 255
225 238 255
225 238 255
225 238 255
225 238 255
225 238 255
225 238 255
225 238 255
225 238 255
225 238 255
225 238 255
225 238 255
225 238 255
225 238 255
225 238 255
225 238 255
225 238 255
225 238 255
225 238 255
225 238 255
225 238 255
225 238 255
225 238 255
225 238 255
225 238 255
164 173 189
0 0 47
0 0 47
0 0 46
0 0 45
0 0 45
0 0 45
0 0 46
0 0 45
0 0 45
0 0 45
0 0 45
0 0 44
0 0 43
0 0 44
0 0 45
0 0 45
0 0 45
0 0 45
0 0 45
0 0 45
0 0 45
0 0 45
0 0 45
0 0 45
0 0 45
0 0 45
0 0 45
0 0 45
0 0 45
0 0 45
0 0 44
0 0 42
0 0 44
0 0 44
0 0 43
0 0 42
0 0 42
0 0 44
0 0 45
0 0 44
0 0 43
0 0 42
0 0 42
0 0 42
0 0 42
0 0 43
0 0 45
0 0 44
0 0 42
0 0 42
0 0 42
0 0 42
0 0 43
0 0 45
0 0 43
0 0 43
0 0 45
0 0 44
0 0 42
0 0 42
0 0 42
0 0 42
0 0 42
0 0 42
0 0 42
0 0 42
0 0 42
0 0 42
0 0 44
0 0 45
0 0 45
0 0 45
0 0 45
0 0 45
0 0 44
0 0 44
0 0 44
0 0 44
0 0 45
0 0 45
0 0 45
0 0 45
0 0 45
0 0 45
0 0 46
0 0 48
0 0 48
0 0 48
0 0 48
0 0 48
0 0 48
0 0 48
0 0 48
0 0 50
0 0 51
0 0 52
0 0 53
0 0 54
0 0 57
0 0 61
0 0 65
0 0 67
0 3 71
0 15 79
0 23 85
9 28 42
26 39 11
37 46 12
103 108 102
155 157 154
100 90 66
100 84 57
106 89 62
94 83 54
84 75 48
80 75 49
76 72 45
65 65 36
58 62 32
65 68 37
66 73 34
73 80 42
79 77 38
70 73 40
60 66 31
63 66 32
61 65 35
48 65 48
24 46 76
0 20 78
0 1 75
0 5 68
0 0 64
0 0 60
0 0 58
0 0 60
0 0 62
0 0 64
0 0 62
0 0 59
0 0 60
0 0 59
0 0 62
0 0 62
0 0 61
0 0 59
0 0 59
0 0 65
0 0 66
0 0 64
0 0 64
0 0 63
0 0 62
0 0 62
0 0 62
0 0 62
169 178 195
225 238 255
225 238 255
225 238 255
225 238 255
225 238 255
225 238 255
225 238 255
225 238 255
225 238 255
225 238 255
225 238 255
225 238 255
225 238 255
225 238 255
225 238 255
225 238 255
225 238 255
225 238 255
225 238 255
225 238 255
225 238 255
225 238 255
225 238 255
225 238 255
225 238 255
225 238 255
225 238 255
225 238 255
225 238 255
225 238 255
225 238 255
225 238 255
225 238 255
225 238 255
225 238 255
225 238 255
225 238 255
225 238 255
225 238 255
225 238 255
225 238 255
225 238 255
225 238 255
225 238 255
225 238 255
225 238 255
225 238 255
225 238 255
225 238 255
225 238 255
225 238 255
225 238 255
225 238 255
225 238 255
225 238 255
225 238 255
225 238 255
225 238 255
225 238 255
225 238 255
225 238 255
225 238 255
225 238 255
225 238 255
225 238 255
225 238 255
225 238 255
225 238 255
225 238 255
225 238 255
225 238 255
225 238 255
225 238 255
225 238 255
225 238 255
225 238 255
225 238 255
225 238 255
225 238 255
225 238 255
225 238 255
225 238 255
225 238 255
225 238 255
225 238 255
225 238 255
225 238 255
225 238 255
225 238 255
225 238 255
225 238 255
225 238 255
225 238 255
225 238 255
225 238 255
225 238 255
225 238 255
225 238 255
225 238 255
225 238 255
225 238 255
225 238 255
225 238 255
225 238 255
225 238 255
225 238 255
225 238 255
225 238 255
225 238 255
225 238 255
225 238 255
225 238 255
225 238 255
225 238 255
225 238 255
225 238 255
225 238 255
225 238 255
225 238 255
225 238 255
225 238 255
225 238 255
225 238 255
225 238 255
225 238 255
225 238 255
225 238 255
225 238 255
225 238 255
225 238 255
225 238 255
225 238 255
225 238 255
225 238 255
225 238 255
225 238 255
225 238 255
225 238 255
225 238 255
225 238 255
225 238 255
225 238 255
225 238 255
225 238 255
225 238 255
225 238 255
225 238 255
225 238 255
225 238 255
225 238 255
225 238 255
225 238 255
225 238 255
225 238 255
225 238 255
225 238 255
225 238 255
225 238 255
225 238 255
225 238 255
225 238 255
225 238 255
225 238 255
225 238 255
225 238 255
225 238 255
225 238 255
225 238 255
225 238 255
225 238 255
225 238 255
225 238 255
225 238 255
225 238 255
225 238 255
225 238 255
225 238 255
225 238 255
225 238 255
225 238 255
225 238 255
225 238 255
225 238 255
225 238 255
225 238 255
225 238 255
225 238 255
225 238 255
225 238 255
225 238 255
225 238 255
225 238 255
225 238 255
225 238 255
225 238 255
225 238 255
225 238 255
225 238 255
225 238 255
225 238 255
225 238 255
225 238 255
225 238 255
225 238 255
225 238 255
225 238 255
225 238 255
225 238 255
225 238 255
225 238 255
225 238 255
225 238 255
225 238 255
225 238 255
225 238 255
225 238 255
225 238 255
225 238 255
225 238 255
225 238 255
225 238 255
225 238 255
225 238 255
225 238 255
225 238 255
225 238 255
225 238 255
225 238 255
225 238 255
225 238 255
225 238 255
225 238 255
225 238 255
225 238 255
225 238 255
225 238 255
225 238 255
225 238 255
225 238 255
225 238 255
225 238 255
225 238 255
225 238 255
159 168 184
0 0 47
0 0 48
0 0 47
0 0 45
0 0 45
0 0 45
0 0 45
0 0 47
0 0 46
0 0 46
0 0 45
0 0 45
0 0 46
0 0 45
0 0 45
0 0 45
0 0 45
0 0 45
0 0 45
0 0 44
0 0 44
0 0 45
0 0 45
0 0 45
0 0 45
0 0 45
0 0 45
0 0 45
0 0 45
0 0 45
0 0 42
0 0 42
0 0 44
0 0 44
0 0 45
0 0 44
0 0 43
0 0 45
0 0 45
0 0 43
0 0 42
0 0 42
0 0 42
0 0 42
0 0 44
0 0 45
0 0 45
0 0 42
0 0 42
0 0 42
0 0 42
0 0 44
0 0 45
0 0 44
0 0 44
0 0 45
0 0 45
0 0 44
0 0 43
0 0 43
0 0 43
0 0 43
0 0 43
0 0 43
0 0 43
0 0 43
0 0 43
0 0 44
0 0 45
0 0 45
0 0 45
0 0 45
0 0 45
0 0 45
0 0 45
0 0 45
0 0 45
0 0 45
0 0 45
0 0 45
0 0 45
0 0 45
0 0 45
0 0 45
0 0 46
0 0 48
0 0 48
0 0 48
0 0 48
0 0 48
0 0 48
0 0 51
0 0 51
0 0 51
0 0 53
0 0 53
0 0 53
0 0 56
0 0 59
0 0 62
0 0 62
0 2 69
0 20 76
0 20 79
21 34 28
38 45 14
45 52 29
116 119 112
129 125 114
101 89 59
100 80 54
105 88 61
92 81 52
78 69 44
77 70 47
72 69 44
67 69 41
57 64 31
52 57 28
62 73 34
63 81 45
71 78 42
63 68 42
49 63 58
35 53 67
21 36 88
4 26 83
0 16 82
0 15 73
0 5 69
0 0 65
0 0 60
0 0 58
0 0 57
0 0 60
0 0 63
0 0 66
0 0 67
0 0 62
0 0 61
0 0 63
0 0 64
0 0 64
0 0 65
0 0 64
0 0 67
0 4 70
0 2 69
0 0 67
0 0 67
0 0 65
0 0 65
0 0 64
0 0 63
158 166 184
225 238 255
225 238 255
225 238 255
225 238 255
225 238 255
225 238 255
225 238 255
225 238 255
225 238 255
225 238 255
225 238 255
225 238 255
225 238 255
225 238 255
225 238 255
225 238 255
225 238 255
225 238 255
225 238 255
225 238 255
225 238 255
225 238 255
225 238 255
225 238 255
225 238 255
225 238 255
225 238 255
225 238 255
225 238 255
225 238 255
225 238 255
225 238 255
225 238 255
225 238 255
225 238 255
225 238 255
225 238 255
225 238 255
225 238 255
225 238 255
225 238 255
225 238 255
225 238 255
225 238 255
225 238 255
225 238 255
225 238 255
225 238 255
225 238 255
225 238 255
225 238 255
225 238 255
225 238 255
225 238 255
225 238 255
225 238 255
225 238 255
225 238 255
225 238 255
225 238 255
225 238 255
225 238 255
225 238 255
225 238 255
225 238 255
225 238 255
225 238 255
225 238 255
225 238 255
225 238 255
225 238 255
225 238 255
225 238 255
225 238 255
225 238 255
225 238 255
225 238 255
225 238 255
225 238 255
225 238 255
225 238 255
225 238 255
225 238 255
225 238 255
225 238 255
225 238 255
225 238 255
225 238 255
225 238 255
225 238 255
225 238 255
225 238 255
225 238 255
225 238 255
225 238 255
225 238 255
225 238 255
225 238 255
225 238 255
225 238 255
225 238 255
225 238 255
225 238 255
225 238 255
225 238 255
225 238 255
225 238 255
225 238 255
225 238 255
225 238 255
225 238 255
225 238 255
225 238 255
225 238 255
225 238 255
225 238 255
225 238 255
225 238 255
225 238 255
225 238 255
225 238 255
225 238 255
225 238 255
225 238 255
225 238 255
225 238 255
225 238 255
225 238 255
225 238 255
225 238 255
225 238 255
225 238 255
225 238 255
225 238 255
225 238 255
225 238 255
225 238 255
225 238 255
225 238 255
225 238 255
225 238 255
225 238 255
225 238 255
225 238 255
225 238 255
225 238 255
225 238 255
225 238 255
225 238 255
225 238 255
225 238 255
225 238 255
225 238 255
225 238 255
225 238 255
225 238 255
225 238 255
225 238 255
225 238 255
225 238 255
225 238 255
225 238 255
225 238 255
225 238 255
225 238 255
225 238 255
225 238 255
225 238 255
225 238 255
225 238 255
225 238 255
225 238 255
225 238 255
225 238 255
225 238 255
225 238 255
225 238 255
225 238 255
225 238 255
225 238 255
225 238 255
225 238 255
225 238 255
225 238 255
225 238 255
225 238 255
225 238 255
225 238 255
225 238 255
225 238 255
225 238 255
225 238 255
225 238 255
225 238 255
225 238 255
225 238 255
225 238 255
225 238 255
225 238 255
225 238 255
225 238 255
225 238 255
225 238 255
225 238 255
225 238 255
225 238 255
225 238 255
225 238 255
225 238 255
225 238 255
225 238 255
225 238 255
225 238 255
225 238 255
225 238 255
225 238 255
225 238 255
225 238 255
225 238 255
225 238 255
225 238 255
225 238 255
225 238 255
225 238 255
225 238 255
225 238 255
225 238 255
225 238 255
225 238 255
225 238 255
225 238 255
225 238 255
225 238 255
225 238 255
225 238 255
225 238 255
225 238 255
225 238 255
225 238 255
225 238 255
225 238 255
225 238 255
225 238 255
225 238 255
225 238 255
142 150 166
0 0 48
0 0 49
0 0 48
0 0 45
0 0 45
0 0 45
0 0 47
0 0 48
0 0 48
0 0 47
0 0 47
0 0 45
0 0 45
0 0 44
0 0 45
0 0 44
0 0 45
0 0 45
0 0 45
0 0 45
0 0 47
0 0 47
0 0 45
0 0 45
0 0 49
0 0 45
0 0 45
0 0 45
0 0 43
0 0 42
0 0 43
0 0 44
0 0 43
0 0 43
0 0 44
0 0 43
0 0 44
0 0 43
0 0 42
0 0 42
0 0 42
0 0 42
0 0 42
0 0 44
0 0 45
0 0 45
0 0 43
0 0 42
0 0 42
0 0 42
0 0 43
0 0 45
0 0 43
0 0 42
0 0 42
0 0 42
0 0 42
0 0 44
0 0 45
0 0 45
0 0 45
0 0 45
0 0 45
0 0 45
0 0 45
0 0 45
0 0 45
0 0 45
0 0 45
0 0 45
0 0 45
0 0 45
0 0 45
0 0 45
0 0 45
0 0 45
0 0 45
0 0 45
0 0 45
0 0 45
0 0 45
0 0 45
0 0 45
0 0 45
0 0 47
0 0 48
0 0 48
0 0 48
0 0 48
0 0 48
0 0 51
0 0 51
0 0 52
0 0 53
0 0 54
0 0 56
0 0 57
0 0 58
0 0 63
0 0 65
0 0 76
0 7 75
3 18 76
32 47 19
50 58 25
67 75 59
136 139 137
133 128 118
101 88 58
110 91 63
97 86 58
87 78 49
77 69 44
71 66 42
66 64 39
64 64 37
55 61 34
53 57 29
75 74 36
36 81 88
17 49 95
0 26 88
0 25 91
0 23 86
0 18 81
0 16 78
0 15 77
0 8 70
0 0 67
0 0 66
0 0 63
0 0 58
0 0 58
0 0 63
0 0 66
0 0 69
0 0 68
0 0 67
0 0 66
0 0 63
0 0 66
0 0 66
0 0 67
0 0 69
0 7 72
0 7 72
0 6 70
0 0 69
0 0 67
0 0 66
0 0 66
0 0 64
151 159 177
226 238 255
226 238 255
225 238 255
225 238 255
225 238 255
225 238 255
225 238 255
225 238 255
225 238 255
225 238 255
225 238 255
225 238 255
225 238 255
225 238 255
225 238 255
225 238 255
225 238 255
225 238 255
225 238 255
225 238 255
225 238 255
225 238 255
225 238 255
225 238 255
225 238 255
225 238 255
225 238 255
225 238 255
225 238 255
225 238 255
225 238 255
225 238 255
225 238 255
225 238 255
225 238 255
225 238 255
225 238 255
225 238 255
225 238 255
225 238 255
225 238 255
225 238 255
225 238 255
225 238 255
225 238 255
225 238 255
225 238 255
225 238 255
225 238 255
225 238 255
225 238 255
225 238 255
225 238 255
225 238 255
225 238 255
225 238 255
225 238 255
225 238 255
225 238 255
225 238 255
225 238 255
225 238 255
225 238 255
225 238 255
225 238 255
225 238 255
225 238 255
225 238 255
225 238 255
225 238 255
225 238 255
225 238 255
225 238 255
225 238 255
225 238 255
225 238 255
225 238 255
225 238 255
225 238 255
225 238 255
225 238 255
225 238 255
225 238 255
225 238 255
225 238 255
225 238 255
225 238 255
225 238 255
225 238 255
225 238 255
225 238 255
225 238 255
225 238 255
225 238 255
225 238 255
225 238 255
225 238 255
225 238 255
225 238 255
225 238 255
225 238 255
225 238 255
225 238 255
225 238 255
225 238 255
225 238 255
225 238 255
225 238 255
225 238 255
225 238 255
225 238 255
225 238 255
225 238 255
225 238 255
225 238 255
225 238 255
225 238 255
225 238 255
225 238 255
225 238 255
225 238 255
225 238 255
225 238 255
225 238 255
225 238 255
225 238 255
225 238 255
225 238 255
225 238 255
225 238 255
225 238 255
225 238 255
225 238 255
225 238 255
225 238 255
225 238 255
225 238 255
225 238 255
225 238 255
225 238 255
225 238 255
225 238 255
225 238 255
225 238 255
225 238 255
225 238 255
225 238 255
225 238 255
225 238 255
225 238 255
225 238 255
225 238 255
225 238 255
225 238 255
225 238 255
225 238 255
225 238 255
225 238 255
225 238 255
225 238 255
225 238 255
225 238 255
225 238 255
225 238 255
225 238 255
225 238 255
225 238 255
225 238 255
225 238 255
225 238 255
225 238 255
225 238 255
225 238 255
225 238 255
225 238 255
225 238 255
225 238 255
225 238 255
225 238 255
225 238 255
225 238 255
225 238 255
225 238 255
225 238 255
225 238 255
225 238 255
225 238 255
225 238 255
225 238 255
225 238 255
225 238 255
225 238 255
225 238 255
225 238 255
225 238 255
226 238 255
226 238 255
226 238 255
226 238 255
226 238 255
226 238 255
226 238 255
226 238 255
226 238 255
226 238 255
226 238 255
226 238 255
226 238 255
226 238 255
226 238 255
226 238 255
226 238 255
226 238 255
226 238 255
226 238 255
226 238 255
226 238 255
226 238 255
226 238 255
226 238 255
226 238 255
226 238 255
226 238 255
226 238 255
226 238 255
226 238 255
226 238 255
226 238 255
226 238 255
226 238 255
226 238 255
226 238 255
226 238 255
226 238 255
226 238 255
226 238 255
226 238 255
226 238 255
226 238 255
226 238 255
226 238 255
226 238 255
226 238 255
226 238 255
226 238 255
226 238 255
226 238 255
163 171 187
0 0 48
0 0 50
0 0 48
0 0 47
0 0 45
0 0 45
0 0 48
0 0 48
0 0 48
0 0 50
0 0 50
0 0 48
0 0 45
0 0 46
0 0 47
0 0 47
0 0 45
0 0 45
0 0 44
0 0 45
0 0 45
0 0 45
0 0 45
0 0 46
0 0 47
0 0 45
0 0 45
0 0 44
0 0 45
0 0 45
0 0 43
0 0 42
0 0 42
0 0 42
0 0 42
0 0 42
0 0 42
0 0 42
0 0 42
0 0 42
0 0 42
0 0 42
0 0 42
0 0 43
0 0 43
0 0 42
0 0 42
0 0 42
0 0 43
0 0 42
0 0 44
0 0 44
0 0 44
0 0 43
0 0 43
0 0 43
0 0 44
0 0 45
0 0 45
0 0 45
0 0 45
0 0 45
0 0 45
0 0 45
0 0 45
0 0 45
0 0 45
0 0 45
0 0 45
0 0 45
0 0 45
0 0 45
0 0 45
0 0 45
0 0 45
0 0 45
0 0 45
0 0 45
0 0 45
0 0 45
0 0 45
0 0 46
0 0 48
0 0 48
0 0 48
0 0 48
0 0 48
0 0 48
0 0 48
0 0 51
0 0 53
0 0 53
0 0 54
0 0 57
0 0 58
0 0 58
0 0 58
0 0 63
0 0 68
0 9 64
0 0 62
0 19 76
30 44 26
41 54 26
76 79 67
94 89 85
87 82 55
93 83 53
85 74 48
96 84 57
98 86 57
81 74 50
73 68 46
65 63 40
61 61 35
53 58 32
57 63 37
58 77 67
10 58 101
0 23 87
0 20 84
0 24 85
0 22 83
0 17 77
0 15 78
0 8 70
0 0 66
0 2 68
0 8 70
0 0 66
0 0 58
0 0 62
0 0 66
0 0 67
0 0 68
0 0 70
0 0 70
0 0 68
0 0 67
0 0 67
0 0 67
0 1 68
0 2 69
0 4 71
0 0 70
0 2 70
0 0 68
0 0 65
0 0 65
0 0 64
142 150 168
226 238 255
226 238 255
226 238 255
226 238 255
226 238 255
226 238 255
226 238 255
226 238 255
226 238 255
226 238 255
226 238 255
226 238 255
226 238 255
226 238 255
226 238 255
226 238 255
226 238 255
226 238 255
226 238 255
226 238 255
226 238 255
226 238 255
226 238 255
226 238 255
226 238 255
226 238 255
226 238 255
226 238 255
226 238 255
226 238 255
226 238 255
226 238 255
226 238 255
226 238 255
226 238 255
226 238 255
226 238 255
226 238 255
226 238 255
226 238 255
226 238 255
226 238 255
226 238 255
226 238 255
226 238 255
226 238 255
226 238 255
226 238 255
226 238 255
226 238 255
226 238 255
226 238 255
226 238 255
226 238 255
225 238 255
225 238 255
225 238 255
225 238 255
225 238 255
225 238 255
225 238 255
225 238 255
225 238 255
225 238 255
225 238 255
225 238 255
225 238 255
225 238 255
225 238 255
225 238 255
225 238 255
225 238 255
225 238 255
225 238 255
225 238 255
225 238 255
225 238 255
225 238 255
225 238 255
225 238 255
225 238 255
225 238 255
225 238 255
225 238 255
225 238 255
225 238 255
225 238 255
225 238 255
225 238 255
225 238 255
225 238 255
225 238 255
225 238 255
225 238 255
225 238 255
225 238 255
225 238 255
225 238 255
225 238 255
225 238 255
225 238 255
225 238 255
225 238 255
225 238 255
225 238 255
225 238 255
225 238 255
225 238 255
225 238 255
225 238 255
225 238 255
225 238 255
225 238 255
225 238 255
225 238 255
225 238 255
225 238 255
225 238 255
225 238 255
225 238 255
225 238 255
225 238 255
225 238 255
225 238 255
225 238 255
225 238 255
225 238 255
225 238 255
225 238 255
225 238 255
225 238 255
225 238 255
225 238 255
225 238 255
225 238 255
225 238 255
225 238 255
225 238 255
225 238 255
225 238 255
225 238 255
225 238 255
225 238 255
225 238 255
225 238 255
225 238 255
225 238 255
225 238 255
225 238 255
225 238 255
225 238 255
225 238 255
225 238 255
225 238 255
225 238 255
225 238 255
225 238 255
225 238 255
226 238 255
226 238 255
226 238 255
226 238 255
226 238 255
226 238 255
226 238 255
226 238 255
226 238 255
226 238 255
226 238 255
226 238 255
226 238 255
226 238 255
226 238 255
226 238 255
226 238 255
226 238 255
226 238 255
226 238 255
226 238 255
226 238 255
226 238 255
226 238 255
226 238 255
226 238 255
226 238 255
226 238 255
226 238 255
226 238 255
226 238 255
226 238 255
226 238 255
226 238 255
226 238 255
226 238 255
226 238 255
226 238 255
226 238 255
226 238 255
226 238 255
226 238 255
226 238 255
226 238 255
226 238 255
226 238 255
226 238 255
226 238 255
226 238 255
226 238 255
226 238 255
226 238 255
226 238 255
226 238 255
226 238 255
226 238 255
226 238 255
226 238 255
226 238 255
226 238 255
226 238 255
226 238 255
226 238 255
226 238 255
226 238 255
226 238 255
226 238 255
226 238 255
226 238 255
226 238 255
226 238 255
226 238 255
226 238 255
226 238 255
226 238 255
226 238 255
226 238 255
226 238 255
226 238 255
226 238 255
226 238 255
226 238 255
226 238 255
226 238 255
226 238 255
226 238 255
226 238 255
226 238 255
226 238 255
226 238 255
226 238 255
156 165 180
0 0 49
0 0 51
0 0 48
0 0 48
0 0 46
0 0 46
0 0 48
0 0 48
0 0 49
0 0 52
0 0 53
0 0 50
0 0 48
0 0 48
0 0 48
0 0 47
0 0 45
0 0 47
0 0 46
0 0 47
0 0 45
0 0 45
0 0 45
0 0 45
0 0 45
0 0 45
0 0 45
0 0 45
0 0 45
0 0 45
0 0 42
0 0 42
0 0 42
0 0 42
0 0 42
0 0 42
0 0 42
0 0 42
0 0 42
0 0 42
0 0 42
0 0 42
0 0 42
0 0 42
0 0 42
0 0 43
0 0 44
0 0 45
0 0 43
0 0 43
0 0 44
0 0 45
0 0 45
0 0 45
0 0 45
0 0 45
0 0 45
0 0 45
0 0 45
0 0 45
0 0 45
0 0 45
0 0 45
0 0 45
0 0 45
0 0 45
0 0 45
0 0 45
0 0 45
0 0 45
0 0 45
0 0 45
0 0 45
0 0 45
0 0 45
0 0 45
0 0 45
0 0 45
0 0 46
0 0 48
0 0 48
0 0 48
0 0 48
0 0 48
0 0 48
0 0 48
0 0 48
0 0 48
0 0 52
0 0 53
0 0 53
0 0 54
0 0 58
0 0 60
0 0 59
0 0 60
0 0 65
0 0 65
0 0 73
0 6 65
17 35 24
40 54 17
55 68 59
105 108 100
71 63 35
86 74 47
85 71 45
92 75 50
99 80 52
94 80 52
89 78 48
82 73 44
66 68 43
58 68 37
58 66 32
60 68 48
30 64 90
0 23 86
0 26 88
0 29 90
0 23 86
0 21 82
0 18 78
0 8 70
0 5 69
0 0 68
0 10 72
0 9 72
0 0 62
0 0 64
0 0 68
0 0 68
0 6 68
0 5 69
0 0 68
0 5 70
0 1 69
0 0 66
0 0 68
0 11 72
0 5 69
0 9 71
0 0 70
0 0 69
0 0 67
0 0 63
0 0 63
0 0 64
167 176 194
226 238 255
226 238 255
226 238 255
226 238 255
226 238 255
226 238 255
226 238 255
226 238 255
226 238 255
226 238 255
226 238 255
226 238 255
226 238 255
226 238 255
226 238 255
226 238 255
226 238 255
226 238 255
226 238 255
226 238 255
226 238 255
226 238 255
226 238 255
226 238 255
226 238 255
226 238 255
226 238 255
226 238 255
226 238 255
226 238 255
226 238 255
226 238 255
226 238 255
226 238 255
226 238 255
226 238 255
226 238 255
226 238 255
226 238 255
226 238 255
226 238 255
226 238 255
226 238 255
226 238 255
226 238 255
226 238 255
226 238 255
226 238 255
226 238 255
226 238 255
226 238 255
226 238 255
226 238 255
226 238 255
226 238 255
226 238 255
226 238 255
226 238 255
226 238 255
226 238 255
226 238 255
226 238 255
226 238 255
226 238 255
226 238 255
226 238 255
226 238 255
226 238 255
226 238 255
226 238 255
226 238 255
226 238 255
226 238 255
226 238 255
226 238 255
226 238 255
226 238 255
226 238 255
226 238 255
226 238 255
226 238 255
226 238 255
226 238 255
226 238 255
226 238 255
226 238 255
226 238 255
226 238 255
226 238 255
226 238 255
226 238 255
226 238 255
225 238 255
225 238 255
225 238 255
225 238 255
225 238 255
225 238 255
225 238 255
225 238 255
225 238 255
225 238 255
225 238 255
225 238 255
225 238 255
225 238 255
225 238 255
225 238 255
225 238 255
225 238 255
225 238 255
225 238 255
225 238 255
225 238 255
225 238 255
225 238 255
225 238 255
225 238 255
225 238 255
225 238 255
225 238 255
225 238 255
225 238 255
225 238 255
225 238 255
225 238 255
226 238 255
226 238 255
226 238 255
226 238 255
226 238 255
226 238 255
226 238 255
226 238 255
226 238 255
226 238 255
226 238 255
226 238 255
226 238 255
226 238 255
226 238 255
226 238 255
226 238 255
226 238 255
226 238 255
226 238 255
226 238 255
226 238 255
226 238 255
226 238 255
226 238 255
226 238 255
226 238 255
226 238 255
226 238 255
226 238 255
226 238 255
226 238 255
226 238 255
226 238 255
226 238 255
226 238 255
226 238 255
226 238 255
226 238 255
226 238 255
226 238 255
226 238 255
226 238 255
226 238 255
226 238 255
226 238 255
226 238 255
226 238 255
226 238 255
226 238 255
226 238 255
226 238 255
226 238 255
226 238 255
226 238 255
226 238 255
226 238 255
226 238 255
226 238 255
226 238 255
226 238 255
226 238 255
226 238 255
226 238 255
226 238 255
226 238 255
226 238 255
226 238 255
226 238 255
226 238 255
226 238 255
226 238 255
226 238 255
226 238 255
226 238 255
226 238 255
226 238 255
226 238 255
226 238 255
226 238 255
226 238 255
226 238 255
226 238 255
226 238 255
226 238 255
226 238 255
226 238 255
226 238 255
226 238 255
226 238 255
226 238 255
226 238 255
226 238 255
226 238 255
226 238 255
226 238 255
226 238 255
226 238 255
226 238 255
226 238 255
226 238 255
226 238 255
226 238 255
226 238 255
226 238 255
226 238 255
226 238 255
226 238 255
226 238 255
226 238 255
226 238 255
226 238 255
226 238 255
226 238 255
226 238 255
226 238 255
226 238 255
226 238 255
226 238 255
226 238 255
226 238 255
226 238 255
226 238 255
226 238 255
226 238 255
169 178 194
22 23 56
0 0 52
0 0 50
0 0 50
0 0 47
0 0 47
0 0 48
0 0 48
0 0 49
0 0 53
0 0 52
0 0 52
0 0 53
0 0 50
0 0 47
0 0 47
0 0 47
0 0 47
0 0 47
0 0 46
0 0 45
0 0 45
0 0 45
0 0 45
0 0 45
0 0 45
0 0 45
0 0 45
0 0 45
0 0 45
0 0 44
0 0 42
0 0 42
0 0 42
0 0 44
0 0 45
0 0 45
0 0 44
0 0 44
0 0 44
0 0 44
0 0 44
0 0 43
0 0 42
0 0 42
0 0 42
0 0 43
0 0 45
0 0 45
0 0 45
0 0 44
0 0 45
0 0 45
0 0 45
0 0 45
0 0 45
0 0 45
0 0 45
0 0 45
0 0 45
0 0 45
0 0 45
0 0 45
0 0 45
0 0 45
0 0 45
0 0 45
0 0 45
0 0 44
0 0 45
0 0 45
0 0 45
0 0 45
0 0 45
0 0 45
0 0 45
0 0 45
0 0 46
0 0 48
0 0 48
0 0 48
0 0 48
0 0 48
0 0 48
0 0 48
0 0 48
0 0 49
0 0 52
0 0 53
0 0 53
0 0 53
0 0 57
0 0 59
0 0 60
0 0 61
0 0 61
0 4 69
0 5 66
8 23 41
43 60 22
43 60 34
106 119 117
95 96 85
80 67 44
86 74 47
88 75 48
91 77 48
86 73 44
82 69 49
85 78 49
82 73 57
24 24 69
26 33 72
28 46 73
17 34 86
3 21 82
0 22 85
0 24 87
0 24 86
0 19 83
0 13 75
0 6 69
0 14 74
0 10 71
0 0 67
0 18 77
0 7 67
0 0 66
0 5 71
0 7 73
0 4 72
0 2 71
0 0 70
0 0 70
0 1 70
0 4 69
0 6 68
0 9 72
0 13 74
0 7 71
0 1 66
0 0 67
0 0 66
0 0 62
0 0 64
22 23 70
169 178 196
226 238 255
226 238 255
226 238 255
226 238 255
226 238 255
226 238 255
226 238 255
226 238 255
226 238 255
226 238 255
226 238 255
226 238 255
226 238 255
226 238 255
226 238 255
226 238 255
226 238 255
226 238 255
226 238 255
226 238 255
226 238 255
226 238 255
226 238 255
226 238 255
226 238 255
226 238 255
226 238 255
226 238 255
226 238 255
226 238 255
226 238 255
226 238 255
226 238 255
226 238 255
226 238 255
226 238 255
226 238 255
226 238 255
226 238 255
226 238 255
226 238 255
226 238 255
226 238 255
226 238 255
226 238 255
226 238 255
226 238 255
226 238 255
226 238 255
226 238 255
226 238 255
226 238 255
226 238 255
226 238 255
226 238 255
226 238 255
226 238 255
226 238 255
226 238 255
226 238 255
226 238 255
226 238 255
226 238 255
226 238 255
226 238 255
226 238 255
226 238 255
226 238 255
226 238 255
226 238 255
226 238 255
226 238 255
226 238 255
226 238 255
226 238 255
226 238 255
226 238 255
226 238 255
226 238 255
226 238 255
226 238 255
226 238 255
226 238 255
226 238 255
226 238 255
226 238 255
226 238 255
226 238 255
226 238 255
226 238 255
226 238 255
226 238 255
226 238 255
226 238 255
226 238 255
226 238 255
226 238 255
226 238 255
226 238 255
226 238 255
226 238 255
226 238 255
226 238 255
226 238 255
226 238 255
226 238 255
226 238 255
226 238 255
226 238 255
226 238 255
226 238 255
226 238 255
226 238 255
226 238 255
226 238 255
226 238 255
226 238 255
226 238 255
226 238 255
226 238 255
226 238 255
226 238 255
226 238 255
225 238 255
225 238 255
225 238 255
226 238 255
226 238 255
226 238 255
226 238 255
226 238 255
226 238 255
226 238 255
226 238 255
226 238 255
226 238 255
226 238 255
226 238 255
226 238 255
226 238 255
226 238 255
226 238 255
226 238 255
226 238 255
226 238 255
226 238 255
226 238 255
226 238 255
226 238 255
226 238 255
226 238 255
226 238 255
226 238 255
226 238 255
226 238 255
226 238 255
226 238 255
226 238 255
226 238 255
226 238 255
226 238 255
226 238 255
226 238 255
226 238 255
226 238 255
226 238 255
226 238 255
226 238 255
226 238 255
226 238 255
226 238 255
226 238 255
226 238 255
226 238 255
226 238 255
226 238 255
226 238 255
226 238 255
226 238 255
226 238 255
226 238 255
226 238 255
226 238 255
226 238 255
226 238 255
226 238 255
226 238 255
226 238 255
226 238 255
226 238 255
226 238 255
226 238 255
226 238 255
226 238 255
226 238 255
226 238 255
226 238 255
226 238 255
226 238 255
226 238 255
226 238 255
226 238 255
226 238 255
226 238 255
226 238 255
226 238 255
226 238 255
226 238 255
226 238 255
226 238 255
226 238 255
226 238 255
226 238 255
226 238 255
226 238 255
226 238 255
226 238 255
226 238 255
226 238 255
226 238 255
226 238 255
226 238 255
226 238 255
226 238 255
226 238 255
226 238 255
226 238 255
226 238 255
226 238 255
226 238 255
226 238 255
226 238 255
226 238 255
226 238 255
226 238 255
226 238 255
226 238 255
226 238 255
226 238 255
226 238 255
226 238 255
226 238 255
226 238 255
226 238 255
226 238 255
226 238 255
226 238 255
226 238 255
226 238 255
226 238 255
226 238 255
226 238 255
226 238 255
178 187 203
39 41 67
0 0 52
0 0 50
0 0 50
0 0 47
0 0 48
0 0 48
0 0 48
0 0 48
0 0 54
0 0 50
0 0 53
0 0 55
0 0 50
0 0 48
0 0 48
0 0 46
0 0 47
0 0 48
0 0 48
0 0 45
0 0 45
0 0 45
0 0 45
0 0 45
0 0 45
0 0 44
0 0 44
0 0 45
0 0 45
0 0 43
0 0 43
0 0 43
0 0 43
0 0 45
0 0 45
0 0 45
0 0 45
0 0 45
0 0 45
0 0 45
0 0 44
0 0 44
0 0 45
0 0 45
0 0 45
0 0 45
0 0 45
0 0 45
0 0 45
0 0 45
0 0 45
0 0 45
0 0 45
0 0 45
0 0 45
0 0 45
0 0 45
0 0 45
0 0 45
0 0 45
0 0 45
0 0 45
0 0 45
0 0 45
0 0 45
0 0 45
0 0 45
0 0 45
0 0 45
0 0 46
0 0 46
0 0 46
0 0 47
0 0 46
0 0 46
0 0 47
0 0 48
0 0 48
0 0 48
0 0 48
0 0 49
0 0 49
0 0 49
0 0 49
0 0 50
0 0 51
0 0 53
0 0 53
0 0 55
0 0 57
0 0 58
0 0 60
0 0 60
0 0 68
0 6 76
0 7 66
19 39 33
21 43 36
75 87 78
115 120 118
106 99 80
96 80 55
93 79 51
105 92 65
88 76 51
81 71 42
90 74 49
100 82 55
69 63 57
15 21 67
12 27 82
0 22 83
0 18 81
0 18 80
0 20 83
0 21 83
0 15 76
0 7 69
0 10 72
0 15 79
0 15 78
0 11 74
0 10 73
0 6 70
0 12 71
0 9 74
0 14 75
0 11 74
0 2 72
0 0 70
0 9 70
0 11 72
0 7 70
0 13 72
0 19 79
0 13 73
0 6 70
0 0 66
0 0 64
0 0 65
0 1 65
0 0 62
0 0 66
180 190 208
226 238 255
226 238 255
226 238 255
226 238 255
226 238 255
226 238 255
226 238 255
226 238 255
226 238 255
226 238 255
226 238 255
226 238 255
226 238 255
226 238 255
226 238 255
226 238 255
226 238 255
226 238 255
226 238 255
226 238 255
226 238 255
226 238 255
226 238 255
226 238 255
226 238 255
226 238 255
226 238 255
226 238 255
226 238 255
226 238 255
226 238 255
226 238 255
226 238 255
226 238 255
226 238 255
226 238 255
226 238 255
226 238 255
226 238 255
226 238 255
226 238 255
226 238 255
226 238 255
226 238 255
226 238 255
226 238 255
226 238 255
226 238 255
226 238 255
226 238 255
226 238 255
226 238 255
226 238 255
226 238 255
226 238 255
226 238 255
226 238 255
226 238 255
226 238 255
226 238 255
226 238 255
226 238 255
226 238 255
226 238 255
226 238 255
226 238 255
226 238 255
226 238 255
226 238 255
226 238 255
226 238 255
226 238 255
226 238 255
226 238 255
226 238 255
226 238 255
226 238 255
226 238 255
226 238 255
226 238 255
226 238 255
226 238 255
226 238 255
226 238 255
226 238 255
226 238 255
226 238 255
226 238 255
226 238 255
226 238 255
226 238 255
226 238 255
226 238 255
226 238 255
226 238 255
226 238 255
226 238 255
226 238 255
226 238 255
226 238 255
226 238 255
226 238 255
226 238 255
226 238 255
226 238 255
226 238 255
226 238 255
226 238 255
226 238 255
226 238 255
226 238 255
226 238 255
226 238 255
226 238 255
226 238 255
226 238 255
226 238 255
226 238 255
226 238 255
226 238 255
226 238 255
226 238 255
226 238 255
226 238 255
226 238 255
226 238 255
226 238 255
226 238 255
226 238 255
226 238 255
226 238 255
226 238 255
226 238 255
226 238 255
226 238 255
226 238 255
226 238 255
226 238 255
226 238 255
226 238 255
226 238 255
226 238 255
226 238 255
226 238 255
226 238 255
226 238 255
226 238 255
226 238 255
226 238 255
226 238 255
226 238 255
226 238 255
226 238 255
226 238 255
226 238 255
226 238 255
226 238 255
226 238 255
226 238 255
226 238 255
226 238 255
226 238 255
226 238 255
226 238 255
226 238 255
226 238 255
226 238 255
226 238 255
226 238 255
226 238 255
226 238 255
226 238 255
226 238 255
226 238 255
226 238 255
226 238 255
226 238 255
226 238 255
226 238 255
226 238 255
226 238 255
226 238 255
226 238 255
226 238 255
226 238 255
226 238 255
226 238 255
226 238 255
226 238 255
226 238 255
226 238 255
226 238 255
226 238 255
226 238 255
226 238 255
226 238 255
226 238 255
226 238 255
226 238 255
226 238 255
226 238 255
226 238 255
226 238 255
226 238 255
226 238 255
226 238 255
226 238 255
226 238 255
226 238 255
226 238 255
226 238 255
226 238 255
226 238 255
226 238 255
226 238 255
226 238 255
226 238 255
226 238 255
226 238 255
226 238 255
226 238 255
226 238 255
226 238 255
226 238 255
226 238 255
226 238 255
226 238 255
226 238 255
226 238 255
226 238 255
226 238 255
226 238 255
226 238 255
226 238 255
226 238 255
226 238 255
226 238 255
226 238 255
226 238 255
226 238 255
226 238 255
226 238 255
226 238 255
226 238 255
226 238 255
226 238 255
226 238 255
226 238 255
226 238 255
226 238 255
226 238 255
226 238 255
226 238 255
226 238 255
226 238 255
187 198 214
45 47 73
0 0 55
0 0 49
0 0 48
0 0 48
0 0 48
0 0 48
0 0 48
0 0 51
0 0 53
0 0 52
0 0 53
0 0 52
0 0 49
0 0 48
0 0 47
0 0 47
0 0 47
0 0 50
0 0 47
0 0 45
0 0 45
0 0 45
0 0 47
0 0 45
0 0 45
0 0 45
0 0 45
0 0 45
0 0 44
0 0 44
0 0 45
0 0 45
0 0 45
0 0 45
0 0 45
0 0 45
0 0 45
0 0 45
0 0 45
0 0 45
0 0 45
0 0 45
0 0 45
0 0 45
0 0 45
0 0 44
0 0 46
0 0 45
0 0 45
0 0 45
0 0 45
0 0 45
0 0 45
0 0 45
0 0 46
0 0 46
0 0 45
0 0 45
0 0 45
0 0 45
0 0 45
0 0 45
0 0 45
0 0 45
0 0 45
0 0 45
0 0 46
0 0 47
0 0 48
0 0 48
0 0 48
0 0 48
0 0 48
0 0 48
0 0 48
0 0 48
0 0 48
0 0 48
0 0 48
0 0 50
0 0 50
0 0 50
0 0 51
0 0 51
0 0 52
0 0 53
0 0 53
0 0 54
0 0 55
0 0 57
0 0 59
0 0 62
0 6 72
0 11 74
5 27 51
6 28 48
42 52 75
139 153 157
88 86 69
91 80 52
96 83 55
103 88 58
117 103 75
95 82 56
94 81 51
90 76 49
85 77 53
51 50 62
44 56 66
12 27 80
0 14 75
0 17 76
0 20 82
0 18 80
0 10 71
0 7 68
0 13 74
0 19 82
0 19 81
0 15 76
0 13 74
0 4 72
0 12 74
0 15 79
0 10 74
0 11 74
0 14 75
0 5 70
0 0 69
0 8 71
0 13 75
0 9 72
0 14 76
0 12 72
0 5 69
0 6 68
0 10 70
0 1 65
0 6 68
0 4 66
59 63 91
192 202 219
226 238 255
226 238 255
226 238 255
226 238 255
226 238 255
226 238 255
226 238 255
226 238 255
226 238 255
226 238 255
226 238 255
226 238 255
226 238 255
226 238 255
226 238 255
226 238 255
226 238 255
226 238 255
226 238 255
226 238 255
226 238 255
226 238 255
226 238 255
226 238 255
226 238 255
226 238 255
226 238 255
226 238 255
226 238 255
226 238 255
226 238 255
226 238 255
226 238 255
226 238 255
226 238 255
226 238 255
226 238 255
226 238 255
226 238 255
226 238 255
226 238 255
226 238 255
226 238 255
226 238 255
226 238 255
226 238 255
226 238 255
226 238 255
226 238 255
226 238 255
226 238 255
226 238 255
226 238 255
226 238 255
226 238 255
226 238 255
226 238 255
226 238 255
226 238 255
226 238 255
226 238 255
226 238 255
226 238 255
226 238 255
226 238 255
226 238 255
226 238 255
226 238 255
226 238 255
226 238 255
226 238 255
226 238 255
226 238 255
226 238 255
226 238 255
226 238 255
226 238 255
226 238 255
226 238 255
226 238 255
226 238 255
226 238 255
226 238 255
226 238 255
226 238 255
226 238 255
226 238 255
226 238 255
226 238 255
226 238 255
226 238 255
226 238 255
226 238 255
226 238 255
226 238 255
226 238 255
226 238 255
226 238 255
226 238 255
226 238 255
226 238 255
226 238 255
226 238 255
226 238 255
226 238 255
226 238 255
226 238 255
226 238 255
226 238 255
226 238 255
226 238 255
226 238 255
226 238 255
226 238 255
226 238 255
226 238 255
226 238 255
226 238 255
226 238 255
226 238 255
226 238 255
226 238 255
226 238 255
226 238 255
226 238 255
226 238 255
226 238 255
226 238 255
226 238 255
226 238 255
226 238 255
226 238 255
226 238 255
226 238 255
226 238 255
226 238 255
226 238 255
226 238 255
226 238 255
226 238 255
226 238 255
226 238 255
226 238 255
226 238 255
226 238 255
226 238 255
226 238 255
226 238 255
226 238 255
226 238 255
226 238 255
226 238 255
226 238 255
226 238 255
226 238 255
226 238 255
226 238 255
226 238 255
226 238 255
226 238 255
226 238 255
226 238 255
226 238 255
226 238 255
226 238 255
226 238 255
226 238 255
226 238 255
226 238 255
226 238 255
226 238 255
226 238 255
226 238 255
226 238 255
226 238 255
226 238 255
226 238 255
226 238 255
226 238 255
226 238 255
226 238 255
226 238 255
226 238 255
226 238 255
226 238 255
226 238 255
226 238 255
226 238 255
226 238 255
226 238 255
226 238 255
226 238 255
226 238 255
226 238 255
226 238 255
226 238 255
226 238 255
226 238 255
226 238 255
226 238 255
226 238 255
226 238 255
226 238 255
226 238 255
226 238 255
226 238 255
226 238 255
226 238 255
226 238 255
226 238 255
226 238 255
226 238 255
226 238 255
226 238 255
226 238 255
226 238 255
226 238 255
226 238 255
226 238 255
226 238 255
226 238 255
226 238 255
226 238 255
226 238 255
226 238 255
226 238 255
226 238 255
226 238 255
226 238 255
226 238 255
226 238 255
226 238 255
226 238 255
226 238 255
226 238 255
226 238 255
226 238 255
226 238 255
226 238 255
226 238 255
226 238 255
226 238 255
226 238 255
226 238 255
226 238 255
226 238 255
226 238 255
226 238 255
226 238 255
226 238 255
226 238 255
226 238 255
226 238 255
226 238 255
226 238 255
226 238 255
226 238 255
206 217 234
75 79 100
0 0 57
0 0 50
0 0 48
0 0 48
0 0 49
0 0 50
0 0 49
0 0 50
0 0 52
0 0 52
0 0 52
0 0 51
0 0 49
0 0 48
0 0 47
0 0 47
0 0 50
0 0 52
0 0 48
0 0 45
0 0 45
0 0 45
0 0 47
0 0 47
0 0 47
0 0 47
0 0 46
0 0 45
0 0 45
0 0 45
0 0 45
0 0 45
0 0 45
0 0 45
0 0 45
0 0 45
0 0 45
0 0 45
0 0 45
0 0 45
0 0 45
0 0 44
0 0 45
0 0 45
0 0 45
0 0 47
0 0 47
0 0 46
0 0 47
0 0 47
0 0 46
0 0 45
0 0 48
0 0 51
0 0 50
0 0 47
0 0 45
0 0 47
0 0 45
0 0 45
0 0 46
0 0 45
0 0 46
0 0 46
0 0 47
0 0 48
0 0 48
0 0 48
0 0 48
0 0 48
0 0 48
0 0 48
0 0 48
0 0 48
0 0 48
0 0 48
0 0 50
0 0 50
0 0 50
0 0 50
0 0 51
0 0 53
0 0 53
0 0 53
0 0 53
0 0 53
0 0 53
0 0 56
0 0 59
0 0 63
0 0 68
0 12 75
0 15 70
0 30 30
17 23 68
90 102 102
115 126 129
88 77 55
91 79 51
93 81 52
103 89 59
102 86 56
108 91 64
103 89 55
93 79 49
56 62 67
17 31 74
0 15 79
0 19 76
0 18 81
0 20 81
0 10 74
0 4 69
0 0 64
0 14 75
0 18 81
0 15 79
0 15 78
0 13 75
0 13 75
0 12 74
0 13 74
0 13 76
0 12 74
0 12 73
0 8 71
0 0 69
0 6 72
0 11 73
0 10 72
0 5 70
0 11 73
0 13 74
0 9 72
0 12 74
0 8 70
0 8 70
0 6 68
75 79 102
207 218 235
226 238 255
226 238 255
226 238 255
226 238 255
226 238 255
226 238 255
226 238 255
226 238 255
226 238 255
226 238 255
226 238 255
226 238 255
226 238 255
226 238 255
226 238 255
226 238 255
226 238 255
226 238 255
226 238 255
226 238 255
226 238 255
226 238 255
226 238 255
226 238 255
226 238 255
226 238 255
226 238 255
226 238 255
226 238 255
226 238 255
226 238 255
226 238 255
226 238 255
226 238 255
226 238 255
226 238 255
226 238 255
226 238 255
226 238 255
226 238 255
226 238 255
226 238 255
226 238 255
226 238 255
226 238 255
226 238 255
226 238 255
226 238 255
226 238 255
226 238 255
226 238 255
226 238 255
226 238 255
226 238 255
226 238 255
226 238 255
226 238 255
226 238 255
226 238 255
226 238 255
226 238 255
226 238 255
226 238 255
226 238 255
226 238 255
226 238 255
226 238 255
226 238 255
226 238 255
226 238 255
226 238 255
226 238 255
226 238 255
226 238 255
226 238 255
226 238 255
226 238 255
226 238 255
226 238 255
226 238 255
226 238 255
226 238 255
226 238 255
226 238 255
226 238 255
226 238 255
226 238 255
226 238 255
226 238 255
226 238 255
226 238 255
226 238 255
226 238 255
226 238 255
226 238 255
226 238 255
226 238 255
226 238 255
226 238 255
226 238 255
226 238 255
226 238 255
226 238 255
226 238 255
226 238 255
226 238 255
226 238 255
226 238 255
226 238 255
226 238 255
226 238 255
226 238 255
226 238 255
226 238 255
226 238 255
226 238 255
226 238 255
226 238 255
226 238 255
226 238 255
226 238 255
226 238 255
226 238 255
226 238 255
226 238 255
226 238 255
226 238 255
226 238 255
226 238 255
226 238 255
226 238 255
226 238 255
226 238 255
226 238 255
226 238 255
226 238 255
226 238 255
226 238 255
226 238 255
226 238 255
226 238 255
226 238 255
226 238 255
226 238 255
226 238 255
226 238 255
226 238 255
226 238 255
226 238 255
226 238 255
226 238 255
226 238 255
226 238 255
226 238 255
226 238 255
226 238 255
226 238 255
226 238 255
226 238 255
226 238 255
226 238 255
226 238 255
226 238 255
226 238 255
226 238 255
226 238 255
226 238 255
226 238 255
226 238 255
226 238 255
226 238 255
226 238 255
226 238 255
226 238 255
226 238 255
226 238 255
226 238 255
226 238 255
226 238 255
226 238 255
226 238 255
226 238 255
226 238 255
226 238 255
226 238 255
226 238 255
226 238 255
226 238 255
226 238 255
226 238 255
226 238 255
226 238 255
226 238 255
226 238 255
226 238 255
226 238 255
226 238 255
226 238 255
226 238 255
226 238 255
226 238 255
226 238 255
226 238 255
226 238 255
226 238 255
226 238 255
226 238 255
226 238 255
226 238 255
226 238 255
226 238 255
226 238 255
226 238 255
226 238 255
226 238 255
226 238 255
226 238 255
226 238 255
226 238 255
226 238 255
226 238 255
226 238 255
226 238 255
226 238 255
226 238 255
226 238 255
226 238 255
226 238 255
226 238 255
226 238 255
226 238 255
226 238 255
226 238 255
226 238 255
226 238 255
226 238 255
226 238 255
226 238 255
226 238 255
226 238 255
226 238 255
226 238 255
226 238 255
226 238 255
226 238 255
226 238 255
226 238 255
226 238 255
226 238 255
226 238 255
226 238 255
226 238 255
226 238 255
226 238 255
226 238 255
226 238 255
226 238 255
226 238 255
226 238 255
215 227 244
108 114 133
0 1 59
0 0 52
0 0 51
0 0 52
0 0 51
0 0 51
0 0 52
0 0 51
0 0 51
0 0 53
0 0 56
0 0 53
0 0 52
0 0 49
0 0 48
0 0 50
0 0 52
0 0 50
0 0 46
0 0 46
0 0 45
0 0 44
0 0 45
0 0 47
0 0 50
0 0 49
0 0 47
0 0 45
0 0 45
0 0 45
0 0 45
0 0 45
0 0 45
0 0 45
0 0 45
0 0 45
0 0 45
0 0 46
0 0 46
0 0 46
0 0 45
0 0 46
0 0 46
0 0 46
0 0 48
0 0 48
0 0 48
0 0 47
0 0 48
0 0 48
0 0 47
0 0 50
0 0 51
0 0 50
0 0 47
0 0 49
0 0 51
0 0 50
0 0 48
0 0 48
0 0 48
0 0 48
0 0 48
0 0 48
0 0 48
0 0 48
0 0 48
0 0 48
0 0 49
0 0 49
0 0 49
0 0 49
0 0 48
0 0 48
0 0 50
0 0 50
0 0 50
0 0 51
0 0 51
0 0 52
0 0 53
0 0 53
0 0 53
0 0 53
0 0 53
0 0 56
0 0 58
0 0 62
0 0 66
0 0 72
0 9 66
0 13 63
0 13 64
55 66 66
124 136 132
112 117 112
91 78 51
95 83 52
93 80 50
110 95 62
117 99 65
109 90 58
84 77 53
65 62 61
11 20 80
0 15 71
0 15 80
0 16 77
0 16 80
0 15 78
0 7 69
0 0 60
0 2 65
0 11 74
0 11 74
0 12 74
0 13 75
0 8 72
0 11 72
0 8 68
0 5 69
0 6 70
0 2 68
0 0 67
0 0 67
0 6 71
0 14 79
0 10 74
0 8 72
0 14 77
0 15 78
0 10 73
0 5 71
0 6 71
0 9 71
0 7 69
75 79 102
215 227 244
226 238 255
226 238 255
226 238 255
226 238 255
226 238 255
226 238 255
226 238 255
226 238 255
226 238 255
226 238 255
226 238 255
226 238 255
226 238 255
226 238 255
226 238 255
226 238 255
226 238 255
226 238 255
226 238 255
226 238 255
226 238 255
226 238 255
226 238 255
226 238 255
226 238 255
226 238 255
226 238 255
226 238 255
226 238 255
226 238 255
226 238 255
226 238 255
226 238 255
226 238 255
226 238 255
226 238 255
226 238 255
226 238 255
226 238 255
226 238 255
226 238 255
226 238 255
226 238 255
226 238 255
226 238 255
226 238 255
226 238 255
226 238 255
226 238 255
226 238 255
226 238 255
226 238 255
226 238 255
226 238 255
226 238 255
226 238 255
226 238 255
226 238 255
226 238 255
226 238 255
226 238 255
226 238 255
226 238 255
226 238 255
226 238 255
226 238 255
226 238 255
226 238 255
226 238 255
226 238 255
226 238 255
226 238 255
226 238 255
226 238 255
226 238 255
226 238 255
226 238 255
226 238 255
226 238 255
226 238 255
226 238 255
226 238 255
226 238 255
226 238 255
226 238 255
226 238 255
226 238 255
226 238 255
226 238 255
226 238 255
226 238 255
226 238 255
226 238 255
226 238 255
226 238 255
226 238 255
226 238 255
226 238 255
226 238 255
226 238 255
226 238 255
226 238 255
226 238 255
226 238 255
226 238 255
226 238 255
226 238 255
226 238 255
226 238 255
226 238 255
226 238 255
226 238 255
226 238 255
226 238 255
226 238 255
226 238 255
226 238 255
226 238 255
226 238 255
226 238 255
226 238 255
226 238 255
226 238 255
226 238 255
226 238 255
226 238 255
226 238 255
226 238 255
226 238 255
226 238 255
226 238 255
226 238 255
226 238 255
226 238 255
226 238 255
226 238 255
226 238 255
226 238 255
226 238 255
226 238 255
226 238 255
226 238 255
226 238 255
226 238 255
226 238 255
226 238 255
226 238 255
226 238 255
226 238 255
226 238 255
226 238 255
226 238 255
226 238 255
226 238 255
226 238 255
226 238 255
226 238 255
226 238 255
226 238 255
226 238 255
226 238 255
226 238 255
226 238 255
226 238 255
226 238 255
226 238 255
226 238 255
226 238 255
226 238 255
226 238 255
226 238 255
226 238 255
226 238 255
226 238 255
226 238 255
226 238 255
226 238 255
226 238 255
226 238 255
226 238 255
226 238 255
226 238 255
226 238 255
226 238 255
226 238 255
226 238 255
226 238 255
226 238 255
226 238 255
226 238 255
226 238 255
226 238 255
226 238 255
226 238 255
226 238 255
226 238 255
226 238 255
226 238 255
226 238 255
226 238 255
226 238 255
226 238 255
226 238 255
226 238 255
226 238 255
226 238 255
226 238 255
226 238 255
226 238 255
226 238 255
226 238 255
226 238 255
226 238 255
226 238 255
226 238 255
226 238 255
226 238 255
226 238 255
226 238 255
226 238 255
226 238 255
226 238 255
226 238 255
226 238 255
226 238 255
226 238 255
226 238 255
226 238 255
226 238 255
226 238 255
226 238 255
226 238 255
226 238 255
226 238 255
226 238 255
226 238 255
226 238 255
226 238 255
226 238 255
226 238 255
226 238 255
226 238 255
226 238 255
226 238 255
226 238 255
226 238 255
226 238 255
226 238 255
226 238 255
226 238 255
226 238 255
226 238 255
226 238 255
226 238 255
226 238 255
226 238 255
226 238 255
226 238 255
226 238 255
226 238 255
226 238 255
224 236 253
141 149 167
0 4 63
0 0 52
0 0 57
0 0 58
0 0 54
0 0 53
0 0 55
0 0 54
0 0 54
0 0 56
0 0 58
0 0 56
0 0 53
0 0 51
0 0 51
0 0 50
0 0 51
0 0 49
0 0 48
0 0 47
0 0 49
0 0 47
0 0 46
0 0 48
0 0 50
0 0 50
0 0 46
0 0 46
0 0 45
0 0 45
0 0 44
0 0 45
0 0 45
0 0 44
0 0 45
0 0 45
0 0 47
0 0 48
0 0 46
0 0 48
0 0 48
0 0 48
0 0 48
0 0 48
0 0 48
0 0 49
0 0 46
0 0 47
0 0 50
0 0 52
0 0 53
0 0 51
0 0 48
0 0 48
0 0 49
0 0 49
0 0 49
0 0 48
0 0 48
0 0 48
0 0 48
0 0 48
0 0 48
0 0 48
0 0 48
0 0 48
0 0 48
0 0 50
0 0 52
0 0 52
0 0 50
0 0 50
0 0 50
0 0 50
0 0 51
0 0 51
0 0 51
0 0 52
0 0 53
0 0 55
0 0 57
0 0 56
0 0 57
0 0 56
0 0 57
0 0 61
0 0 64
0 0 65
0 7 60
0 12 66
0 27 41
14 38 60
99 117 115
140 148 147
115 104 83
94 80 48
92 78 47
96 83 52
102 86 52
115 100 62
91 78 48
61 65 56
28 36 72
0 13 74
0 21 84
0 16 75
0 15 78
0 15 78
0 9 71
0 0 60
0 0 60
0 3 66
0 13 74
0 11 75
0 9 72
0 3 68
0 0 68
0 3 67
0 1 67
0 4 68
0 8 72
0 8 72
0 4 67
0 7 69
0 16 79
0 14 76
0 11 73
0 16 79
0 17 79
0 11 73
0 2 69
0 0 68
0 8 70
0 5 67
151 160 177
223 235 252
226 238 255
226 238 255
226 238 255
226 238 255
226 238 255
226 238 255
226 238 255
226 238 255
226 238 255
226 238 255
226 238 255
226 238 255
226 238 255
226 238 255
226 238 255
226 238 255
226 238 255
226 238 255
226 238 255
226 238 255
226 238 255
226 238 255
226 238 255
226 238 255
226 238 255
226 238 255
226 238 255
226 238 255
226 238 255
226 238 255
226 238 255
226 238 255
226 238 255
226 238 255
226 238 255
226 238 255
226 238 255
226 238 255
226 238 255
226 238 255
226 238 255
226 238 255
226 238 255
226 238 255
226 238 255
226 238 255
226 238 255
226 238 255
226 238 255
226 238 255
226 238 255
226 238 255
226 238 255
226 238 255
226 238 255
226 238 255
226 238 255
226 238 255
226 238 255
226 238 255
226 238 255
226 238 255
226 238 255
226 238 255
226 238 255
226 238 255
226 238 255
226 238 255
226 238 255
226 238 255
226 238 255
226 238 255
226 238 255
226 238 255
226 238 255
226 238 255
226 238 255
226 238 255
226 238 255
226 238 255
226 238 255
226 238 255
226 238 255
226 238 255
226 238 255
226 238 255
226 238 255
226 238 255
226 238 255
226 238 255
226 238 255
226 238 255
226 238 255
226 238 255
226 238 255
226 238 255
226 238 255
226 238 255
226 238 255
226 238 255
226 238 255
226 238 255
226 238 255
226 238 255
226 238 255
226 238 255
226 238 255
226 238 255
226 238 255
226 238 255
226 238 255
226 238 255
226 238 255
226 238 255
226 238 255
226 238 255
226 238 255
226 238 255
226 238 255
226 238 255
226 238 255
226 238 255
226 238 255
226 238 255
226 238 255
226 238 255
226 238 255
226 238 255
226 238 255
226 238 255
226 238 255
226 238 255
226 238 255
226 238 255
226 238 255
226 238 255
226 238 255
226 238 255
226 238 255
226 238 255
226 238 255
226 238 255
226 238 255
226 238 255
226 238 255
226 238 255
226 238 255
226 238 255
226 238 255
226 238 255
226 238 255
226 238 255
226 238 255
226 238 255
226 238 255
226 238 255
226 238 255
226 238 255
226 238 255
226 238 255
226 238 255
226 238 255
226 238 255
226 238 255
226 238 255
226 238 255
226 238 255
226 238 255
226 238 255
226 238 255
226 238 255
226 238 255
226 238 255
226 238 255
226 238 255
226 238 255
226 238 255
226 238 255
226 238 255
226 238 255
226 238 255
226 238 255
226 238 255
226 238 255
226 238 255
226 238 255
226 238 255
226 238 255
226 238 255
226 238 255
226 238 255
226 238 255
226 238 255
226 238 255
226 238 255
226 238 255
226 238 255
226 238 255
226 238 255
226 238 255
226 238 255
226 238 255
226 238 255
226 238 255
226 238 255
226 238 255
226 238 255
226 238 255
226 238 255
226 238 255
226 238 255
226 238 255
226 238 255
226 238 255
226 238 255
226 238 255
226 238 255
226 238 255
226 238 255
226 238 255
226 238 255
226 238 255
226 238 255
226 238 255
226 238 255
226 238 255
226 238 255
226 238 255
226 238 255
226 238 255
226 238 255
226 238 255
226 238 255
226 238 255
226 238 255
226 238 255
226 238 255
226 238 255
226 238 255
226 238 255
226 238 255
226 238 255
226 238 255
226 238 255
226 238 255
226 238 255
226 238 255
226 238 255
226 238 255
226 238 255
226 238 255
226 238 255
226 238 255
226 238 255
226 238 255
226 238 255
226 238 255
226 238 255
226 238 255
226 238 255
226 238 255
226 238 255
226 238 255
226 238 255
164 173 191
55 58 89
0 3 59
0 0 63
0 0 63
0 0 61
0 0 59
0 0 57
0 0 58
0 0 57
0 0 58
0 0 60
0 0 61
0 0 58
0 0 54
0 0 54
0 0 53
0 0 52
0 0 50
0 0 51
0 0 53
0 0 54
0 0 51
0 0 46
0 0 45
0 0 48
0 0 47
0 0 45
0 0 45
0 0 45
0 0 45
0 0 44
0 0 45
0 0 43
0 0 45
0 0 47
0 0 47
0 0 48
0 0 47
0 0 48
0 0 48
0 0 48
0 0 48
0 0 48
0 0 47
0 0 48
0 0 47
0 0 47
0 0 46
0 0 50
0 0 51
0 0 51
0 0 48
0 0 48
0 0 48
0 0 47
0 0 46
0 0 46
0 0 48
0 0 50
0 0 49
0 0 49
0 0 49
0 0 48
0 0 48
0 0 48
0 0 48
0 0 52
0 0 52
0 0 53
0 0 51
0 0 50
0 0 50
0 0 50
0 0 52
0 0 53
0 0 52
0 0 52
0 0 53
0 0 54
0 0 54
0 0 57
0 0 57
0 0 57
0 0 60
0 0 61
0 0 63
0 2 68
0 9 75
0 22 63
10 34 52
85 106 103
121 132 134
95 95 81
94 82 54
100 82 48
93 83 48
98 86 50
101 87 56
55 54 69
10 24 80
0 13 70
0 8 72
0 10 71
0 13 73
0 13 74
0 15 75
0 14 75
0 3 63
0 0 62
0 0 65
0 10 71
0 18 79
0 14 75
0 4 69
0 0 70
0 0 68
0 6 69
0 13 73
0 14 74
0 15 76
0 16 78
0 14 73
0 11 73
0 9 73
0 12 74
0 15 77
0 12 72
0 0 65
0 0 67
0 4 67
0 3 68
50 53 85
176 186 203
226 238 255
226 238 255
226 238 255
226 238 255
226 238 255
226 238 255
226 238 255
226 238 255
226 238 255
226 238 255
226 238 255
226 238 255
226 238 255
226 238 255
226 238 255
226 238 255
226 238 255
226 238 255
226 238 255
226 238 255
226 238 255
226 238 255
226 238 255
226 238 255
226 238 255
226 238 255
226 238 255
226 238 255
226 238 255
226 238 255
226 238 255
226 238 255
226 238 255
226 238 255
226 238 255
226 238 255
226 238 255
226 238 255
226 238 255
226 238 255
226 238 255
226 238 255
226 238 255
226 238 255
226 238 255
226 238 255
226 238 255
226 238 255
226 238 255
226 238 255
226 238 255
226 238 255
226 238 255
226 238 255
226 238 255
226 238 255
226 238 255
226 238 255
226 238 255
226 238 255
226 238 255
226 238 255
226 238 255
226 238 255
226 238 255
226 238 255
226 238 255
226 238 255
226 238 255
226 238 255
226 238 255
226 238 255
226 238 255
226 238 255
226 238 255
226 238 255
226 238 255
226 238 255
226 238 255
226 238 255
226 238 255
226 238 255
226 238 255
226 238 255
226 238 255
226 238 255
226 238 255
226 238 255
226 238 255
226 238 255
226 238 255
226 238 255
226 238 255
226 238 255
226 238 255
226 238 255
226 238 255
226 238 255
226 238 255
226 238 255
226 238 255
226 238 255
226 238 255
226 238 255
226 238 255
226 238 255
226 238 255
226 238 255
226 238 255
226 238 255
226 238 255
226 238 255
226 238 255
226 238 255
226 238 255
226 238 255
226 238 255
226 238 255
226 238 255
226 238 255
226 238 255
226 238 255
226 238 255
226 238 255
226 238 255
226 238 255
226 238 255
226 238 255
226 238 255
226 238 255
226 238 255
226 238 255
226 238 255
226 238 255
226 238 255
226 238 255
226 238 255
226 238 255
226 238 255
226 238 255
226 238 255
226 238 255
226 238 255
226 238 255
226 238 255
226 238 255
226 238 255
226 238 255
226 238 255
226 238 255
226 238 255
226 238 255
226 238 255
226 238 255
226 238 255
226 238 255
226 238 255
226 238 255
226 238 255
226 238 255
226 238 255
226 238 255
226 238 255
226 238 255
226 238 255
226 238 255
226 238 255
226 238 255
226 238 255
226 238 255
226 238 255
226 238 255
226 238 255
226 238 255
226 238 255
226 238 255
226 238 255
226 238 255
226 238 255
226 238 255
226 238 255
226 238 255
226 238 255
226 238 255
226 238 255
226 238 255
226 238 255
226 238 255
226 238 255
226 238 255
226 238 255
226 238 255
226 238 255
226 238 255
226 238 255
226 238 255
226 238 255
226 238 255
226 238 255
226 238 255
226 238 255
226 238 255
226 238 255
226 238 255
226 238 255
226 238 255
226 238 255
226 238 255
226 238 255
226 238 255
226 238 255
226 238 255
226 238 255
226 238 255
226 238 255
226 238 255
226 238 255
226 238 255
226 238 255
226 238 255
226 238 255
226 238 255
226 238 255
226 238 255
226 238 255
226 238 255
226 238 255
226 238 255
226 238 255
226 238 255
226 238 255
226 238 255
226 238 255
226 238 255
226 238 255
226 238 255
226 238 255
226 238 255
226 238 255
226 238 255
226 238 255
226 238 255
226 238 255
226 238 255
226 238 255
226 238 255
226 238 255
226 238 255
226 238 255
226 238 255
226 238 255
226 238 255
226 238 255
226 238 255
226 238 255
226 238 255
226 238 255
226 238 255
226 238 255
226 238 255
226 238 255
226 238 255
226 238 255
226 238 255
226 238 255
226 238 255
226 238 255
196 206 224
67 72 101
0 9 64
0 0 63
0 0 66
0 5 69
0 4 65
0 0 61
0 0 63
0 0 63
0 0 64
0 0 63
0 0 63
0 0 63
0 0 60
0 0 56
0 0 59
0 0 54
0 0 52
0 0 55
0 0 54
0 0 55
0 0 52
0 0 50
0 0 49
0 0 47
0 0 46
0 0 45
0 0 47
0 0 46
0 0 47
0 0 47
0 0 47
0 0 47
0 0 45
0 0 47
0 0 48
0 0 48
0 0 48
0 0 49
0 0 49
0 0 49
0 0 49
0 0 48
0 0 49
0 0 48
0 0 48
0 0 48
0 0 48
0 0 48
0 0 49
0 0 49
0 0 49
0 0 49
0 0 50
0 0 50
0 0 50
0 0 51
0 0 50
0 0 50
0 0 49
0 0 48
0 0 51
0 0 50
0 0 51
0 0 51
0 0 51
0 0 52
0 0 54
0 0 53
0 0 51
0 0 51
0 0 51
0 0 53
0 0 53
0 0 52
0 0 52
0 0 53
0 0 52
0 0 54
0 0 55
0 0 57
0 0 58
0 0 60
0 0 63
0 0 65
0 6 70
9 22 59
21 40 37
64 82 83
154 166 173
136 141 138
97 92 80
88 75 42
98 82 47
103 90 52
88 80 45
47 52 68
0 22 87
0 18 80
0 9 70
0 0 67
0 0 67
0 6 70
0 7 71
0 6 70
0 3 66
0 0 66
0 0 66
0 0 67
0 9 71
0 9 73
0 12 75
0 6 70
0 0 69
0 0 68
0 7 69
0 10 72
0 11 72
0 4 70
0 5 69
0 5 70
0 7 71
0 0 69
0 9 71
0 5 68
0 0 65
0 0 66
0 3 67
0 6 69
93 98 121
211 222 239
226 238 255
226 238 255
226 238 255
226 238 255
226 238 255
226 238 255
226 238 255
226 238 255
226 238 255
226 238 255
226 238 255
226 238 255
226 238 255
226 238 255
226 238 255
226 238 255
226 238 255
226 238 255
226 238 255
226 238 255
226 238 255
226 238 255
226 238 255
226 238 255
226 238 255
226 238 255
226 238 255
226 238 255
226 238 255
226 238 255
226 238 255
226 238 255
226 238 255
226 238 255
226 238 255
226 238 255
226 238 255
226 238 255
226 238 255
226 238 255
226 238 255
226 238 255
226 238 255
226 238 255
226 238 255
226 238 255
226 238 255
226 238 255
226 238 255
226 238 255
226 238 255
226 238 255
226 238 255
226 238 255
226 238 255
226 238 255
226 238 255
226 238 255
226 238 255
226 238 255
226 238 255
226 238 255
226 238 255
226 238 255
226 238 255
226 238 255
226 238 255
226 238 255
226 238 255
226 238 255
226 238 255
226 238 255
226 238 255
226 238 255
226 238 255
226 238 255
226 238 255
226 238 255
226 238 255
226 238 255
226 238 255
226 238 255
226 238 255
226 238 255
226 238 255
226 238 255
226 238 255
226 238 255
226 238 255
226 238 255
226 238 255
226 238 255
226 238 255
226 238 255
226 238 255
226 238 255
226 238 255
226 238 255
226 238 255
226 238 255
226 238 255
226 238 255
226 238 255
226 238 255
226 238 255
226 238 255
226 238 255
226 238 255
226 238 255
226 238 255
226 238 255
226 238 255
226 238 255
226 238 255
226 238 255
226 238 255
226 238 255
226 238 255
226 238 255
226 238 255
226 238 255
226 238 255
226 238 255
226 238 255
226 238 255
226 238 255
226 238 255
226 238 255
226 238 255
226 238 255
226 238 255
226 238 255
226 238 255
226 238 255
226 238 255
226 238 255
226 238 255
226 238 255
226 238 255
226 238 255
226 238 255
226 238 255
226 238 255
226 238 255
226 238 255
226 238 255
226 238 255
226 238 255
226 238 255
226 238 255
226 238 255
226 238 255
226 238 255
226 238 255
226 238 255
226 238 255
226 238 255
226 238 255
226 238 255
226 238 255
226 238 255
226 238 255
226 238 255
226 238 255
226 238 255
226 238 255
226 238 255
226 238 255
226 238 255
226 238 255
226 238 255
226 238 255
226 238 255
226 238 255
226 238 255
226 238 255
226 238 255
226 238 255
226 238 255
226 238 255
226 238 255
226 238 255
226 238 255
226 238 255
226 238 255
226 238 255
226 238 255
226 238 255
226 238 255
226 238 255
226 238 255
226 238 255
226 238 255
226 238 255
226 238 255
226 238 255
226 238 255
226 238 255
226 238 255
226 238 255
226 238 255
226 238 255
226 238 255
226 238 255
226 238 255
226 238 255
226 238 255
226 238 255
226 238 255
226 238 255
226 238 255
226 238 255
226 238 255
226 238 255
226 238 255
226 238 255
226 238 255
226 238 255
226 238 255
226 238 255
226 238 255
226 238 255
226 238 255
226 238 255
226 238 255
226 238 255
226 238 255
226 238 255
226 238 255
226 238 255
226 238 255
226 238 255
226 238 255
226 238 255
226 238 255
226 238 255
226 238 255
226 238 255
226 238 255
226 238 255
226 238 255
226 238 255
226 238 255
226 238 255
226 238 255
226 238 255
226 238 255
226 238 255
226 238 255
226 238 255
226 238 255
226 238 255
226 238 255
226 238 255
226 238 255
226 238 255
226 238 255
226 238 255
226 238 255
226 238 255
226 238 255
226 238 255
226 238 255
226 238 255
226 238 255
226 238 255
226 238 255
226 238 255
226 238 255
216 227 245
126 133 154
0 7 68
0 0 63
0 1 66
0 8 70
0 5 66
0 0 66
0 0 66
0 0 65
0 0 64
0 0 65
0 0 67
0 1 66
0 0 61
0 0 63
0 0 59
0 0 58
0 0 57
0 0 56
0 0 57
0 0 57
0 0 58
0 0 57
0 0 54
0 0 52
0 0 49
0 0 48
0 0 48
0 0 48
0 0 48
0 0 48
0 0 48
0 0 47
0 0 49
0 0 47
0 0 48
0 0 49
0 0 50
0 0 51
0 0 51
0 0 51
0 0 50
0 0 51
0 0 50
0 0 49
0 0 49
0 0 48
0 0 49
0 0 51
0 0 52
0 0 51
0 0 52
0 0 54
0 0 52
0 0 52
0 0 53
0 0 53
0 0 53
0 0 52
0 0 52
0 0 52
0 0 50
0 0 51
0 0 53
0 0 51
0 0 52
0 0 54
0 0 54
0 0 53
0 0 53
0 0 53
0 0 53
0 0 53
0 0 53
0 0 54
0 0 53
0 0 53
0 0 55
0 0 55
0 0 57
0 0 60
0 0 63
0 0 66
0 4 69
2 20 64
10 28 47
81 89 88
193 205 215
125 136 146
169 178 180
118 112 92
102 85 53
103 87 54
106 90 52
96 85 52
82 76 52
51 53 68
12 28 82
0 4 71
0 0 70
0 6 71
0 0 69
0 0 67
0 0 66
0 0 65
0 0 69
0 0 67
0 0 63
0 6 68
0 10 73
0 9 71
0 0 68
0 0 66
0 0 65
0 0 66
0 0 68
0 6 70
0 2 66
0 0 64
0 0 66
0 5 68
0 5 69
0 3 67
0 8 69
0 3 69
0 0 67
0 4 69
124 130 150
222 233 251
226 238 255
226 238 255
226 238 255
226 238 255
226 238 255
226 238 255
226 238 255
226 238 255
226 238 255
226 238 255
226 238 255
226 238 255
226 238 255
226 238 255
226 238 255
226 238 255
226 238 255
226 238 255
226 238 255
226 238 255
226 238 255
226 238 255
226 238 255
226 238 255
226 238 255
226 238 255
226 238 255
226 238 255
226 238 255
226 238 255
226 238 255
226 238 255
226 238 255
226 238 255
226 238 255
226 238 255
226 238 255
226 238 255
226 238 255
226 238 255
226 238 255
226 238 255
226 238 255
226 238 255
226 238 255
226 238 255
226 238 255
226 238 255
226 238 255
226 238 255
226 238 255
226 238 255
226 238 255
226 238 255
226 238 255
226 238 255
226 238 255
226 238 255
226 238 255
226 238 255
226 238 255
226 238 255
226 238 255
226 238 255
226 238 255
226 238 255
226 238 255
226 238 255
226 238 255
226 238 255
226 238 255
226 238 255
226 238 255
226 238 255
226 238 255
226 238 255
226 238 255
226 238 255
226 238 255
226 238 255
226 238 255
226 238 255
226 238 255
226 238 255
226 238 255
226 238 255
226 238 255
226 238 255
226 238 255
226 238 255
226 238 255
226 238 255
226 238 255
226 238 255
226 238 255
226 238 255
226 238 255
226 238 255
226 238 255
226 238 255
226 238 255
226 238 255
226 238 255
226 238 255
226 238 255
226 238 255
226 238 255
226 238 255
226 238 255
226 238 255
226 238 255
226 238 255
226 238 255
226 238 255
226 238 255
226 238 255
226 238 255
226 238 255
226 238 255
226 238 255
226 238 255
226 238 255
226 238 255
226 238 255
226 238 255
226 238 255
226 238 255
226 238 255
226 238 255
226 238 255
226 238 255
226 238 255
226 238 255
226 238 255
226 238 255
226 238 255
226 238 255
226 238 255
226 238 255
226 238 255
226 238 255
226 238 255
226 238 255
226 238 255
226 238 255
226 238 255
226 238 255
226 238 255
226 238 255
226 238 255
226 238 255
226 238 255
226 238 255
226 238 255
226 238 255
226 238 255
226 238 255
226 238 255
226 238 255
226 238 255
226 238 255
226 238 255
226 238 255
226 238 255
226 238 255
226 238 255
226 238 255
226 238 255
226 238 255
226 238 255
226 238 255
226 238 255
226 238 255
226 238 255
226 238 255
226 238 255
226 238 255
226 238 255
226 238 255
226 238 255
226 238 255
226 238 255
226 238 255
226 238 255
226 238 255
226 238 255
226 238 255
226 238 255
226 238 255
226 238 255
226 238 255
226 238 255
226 238 255
226 238 255
226 238 255
226 238 255
226 238 255
226 238 255
226 238 255
226 238 255
226 238 255
226 238 255
226 238 255
226 238 255
226 238 255
226 238 255
226 238 255
226 238 255
226 238 255
226 238 255
226 238 255
226 238 255
226 238 255
226 238 255
226 238 255
226 238 255
226 238 255
226 238 255
226 238 255
226 238 255
226 238 255
226 238 255
226 238 255
226 238 255
226 238 255
226 238 255
226 238 255
226 238 255
226 238 255
226 238 255
226 238 255
226 238 255
226 238 255
226 238 255
226 238 255
226 238 255
226 238 255
226 238 255
226 238 255
226 238 255
226 238 255
226 238 255
226 238 255
226 238 255
226 238 255
226 238 255
226 238 255
226 238 255
226 238 255
226 238 255
226 238 255
226 238 255
226 238 255
226 238 255
226 238 255
226 238 255
226 238 255
226 238 255
226 238 255
226 238 255
226 238 255
226 238 255
226 238 255
226 238 255
226 238 255
226 238 255
226 238 255
226 238 255
226 238 255
226 238 255
226 238 255
226 238 255
172 182 200
55 59 92
0 5 68
0 7 65
0 7 67
0 6 69
0 0 68
0 0 67
0 0 67
0 0 66
0 0 65
0 4 66
0 0 69
0 0 66
0 0 66
0 0 59
0 0 59
0 0 62
0 0 60
0 0 56
0 0 61
0 0 62
0 0 64
0 0 60
0 0 57
0 0 53
0 0 52
0 0 49
0 0 46
0 0 48
0 0 49
0 0 50
0 0 54
0 0 52
0 0 55
0 0 55
0 0 52
0 0 52
0 0 53
0 0 52
0 0 52
0 0 51
0 0 53
0 0 51
0 0 50
0 0 50
0 0 50
0 0 52
0 0 54
0 0 53
0 0 54
0 0 55
0 0 54
0 0 53
0 0 55
0 0 57
0 0 56
0 0 53
0 0 53
0 0 52
0 0 52
0 0 52
0 0 52
0 0 51
0 0 51
0 0 52
0 0 54
0 0 53
0 0 53
0 0 53
0 0 53
0 0 54
0 0 53
0 0 55
0 0 54
0 0 53
0 0 54
0 0 57
0 0 58
0 0 63
0 6 68
0 11 74
0 15 79
4 29 76
28 47 79
150 164 172
180 190 197
183 190 199
140 136 114
122 101 72
112 94 61
108 95 58
113 95 56
108 90 50
84 78 48
44 47 74
0 15 77
0 7 72
0 0 69
0 0 67
0 0 67
0 0 66
0 0 63
0 0 65
0 0 67
0 0 68
0 0 63
0 0 61
0 0 62
0 0 65
0 0 63
0 0 61
0 0 65
0 0 65
0 0 64
0 0 65
0 0 64
0 1 67
0 6 71
0 13 73
0 10 72
0 0 67
0 3 67
0 0 65
64 67 96
181 191 208
226 238 255
226 238 255
226 238 255
226 238 255
226 238 255
226 238 255
226 238 255
226 238 255
226 238 255
226 238 255
226 238 255
226 238 255
226 238 255
226 238 255
226 238 255
226 238 255
226 238 255
226 238 255
226 238 255
226 238 255
226 238 255
226 238 255
226 238 255
226 238 255
226 238 255
226 238 255
226 238 255
226 238 255
226 238 255
226 238 255
226 238 255
226 238 255
226 238 255
226 238 255
226 238 255
226 238 255
226 238 255
226 238 255
226 238 255
226 238 255
226 238 255
226 238 255
226 238 255
226 238 255
226 238 255
226 238 255
226 238 255
226 238 255
226 238 255
226 238 255
226 238 255
226 238 255
226 238 255
226 238 255
226 238 255
226 238 255
226 238 255
226 238 255
226 238 255
226 238 255
226 238 255
226 238 255
226 238 255
226 238 255
226 238 255
226 238 255
226 238 255
226 238 255
226 238 255
226 238 255
226 238 255
226 238 255
226 238 255
226 238 255
226 238 255
226 238 255
226 238 255
226 238 255
226 238 255
226 238 255
226 238 255
226 238 255
226 238 255
226 238 255
226 238 255
226 238 255
226 238 255
226 238 255
226 238 255
226 238 255
226 238 255
226 238 255
226 238 255
226 238 255
226 238 255
226 238 255
226 238 255
226 238 255
226 238 255
226 238 255
226 238 255
226 238 255
226 238 255
226 238 255
226 238 255
226 238 255
226 238 255
226 238 255
226 238 255
226 238 255
226 238 255
226 238 255
226 238 255
226 238 255
226 238 255
226 238 255
226 238 255
226 238 255
226 238 255
226 238 255
226 238 255
226 238 255
226 238 255
226 238 255
226 238 255
226 238 255
226 238 255
226 238 255
226 238 255
226 238 255
226 238 255
226 238 255
226 238 255
226 238 255
226 238 255
226 238 255
226 238 255
226 238 255
226 238 255
226 238 255
226 238 255
226 238 255
226 238 255
226 238 255
226 238 255
226 238 255
226 238 255
226 238 255
226 238 255
226 238 255
226 238 255
226 238 255
226 238 255
226 238 255
226 238 255
226 238 255
226 238 255
226 238 255
226 238 255
226 238 255
226 238 255
226 238 255
226 238 255
226 238 255
226 238 255
226 238 255
226 238 255
226 238 255
226 238 255
226 238 255
226 238 255
226 238 255
226 238 255
226 238 255
226 238 255
226 238 255
226 238 255
226 238 255
226 238 255
226 238 255
226 238 255
226 238 255
226 238 255
226 238 255
226 238 255
226 238 255
226 238 255
226 238 255
226 238 255
226 238 255
226 238 255
226 238 255
226 238 255
226 238 255
226 238 255
226 238 255
226 238 255
226 238 255
226 238 255
226 238 255
226 238 255
226 238 255
226 238 255
226 238 255
226 238 255
226 238 255
226 238 255
226 238 255
226 238 255
226 238 255
226 238 255
226 238 255
226 238 255
226 238 255
226 238 255
226 238 255
226 238 255
226 238 255
226 238 255
226 238 255
226 238 255
226 238 255
226 238 255
226 238 255
226 238 255
226 238 255
226 238 255
226 238 255
226 238 255
226 238 255
226 238 255
226 238 255
226 238 255
226 238 255
226 238 255
226 238 255
226 238 255
226 238 255
226 238 255
226 238 255
226 238 255
226 238 255
226 238 255
226 238 255
226 238 255
226 238 255
226 238 255
226 238 255
226 238 255
226 238 255
226 238 255
226 238 255
226 238 255
226 238 255
226 238 255
226 238 255
226 238 255
226 238 255
226 238 255
226 238 255
226 238 255
226 238 255
226 238 255
226 238 255
226 238 255
226 238 255
226 238 255
226 238 255
226 238 255
226 238 255
226 238 255
226 238 255
226 238 255
226 238 255
226 238 255
212 224 241
113 120 144
0 13 76
0 17 78
0 11 72
0 8 72
0 10 71
0 5 70
0 3 68
0 0 66
0 0 64
0 0 65
0 0 68
0 5 69
0 7 69
0 0 62
0 0 60
0 0 63
0 0 61
0 0 60
0 0 56
0 0 57
0 0 59
0 0 57
0 0 57
0 0 56
0 0 54
0 0 50
0 0 47
0 0 48
0 0 52
0 0 57
0 0 55
0 0 55
0 0 54
0 0 54
0 0 56
0 0 56
0 0 55
0 0 54
0 0 54
0 0 53
0 0 57
0 0 53
0 0 52
0 0 54
0 0 53
0 0 54
0 0 56
0 0 56
0 0 57
0 0 56
0 0 55
0 0 57
0 0 57
0 0 56
0 0 57
0 0 57
0 0 54
0 0 52
0 0 52
0 0 52
0 0 49
0 0 51
0 0 52
0 0 53
0 0 56
0 0 57
0 0 54
0 0 55
0 0 59
0 0 57
0 0 58
0 0 57
0 0 57
0 0 56
0 0 59
0 0 60
0 0 65
0 8 71
0 15 79
8 23 69
34 52 58
97 113 123
180 194 207
161 177 184
178 180 165
116 107 73
110 92 47
115 91 50
107 94 60
89 77 59
56 52 70
9 20 76
0 9 73
0 11 75
0 4 70
0 0 67
0 0 67
0 0 67
0 6 68
0 7 67
0 0 66
0 0 69
0 0 64
0 0 60
0 0 60
0 0 61
0 0 61
0 0 61
0 0 61
0 0 61
0 0 62
0 0 63
0 0 65
0 3 68
0 11 74
0 12 74
0 7 70
0 3 68
0 0 67
0 2 66
115 121 143
211 222 240
226 238 255
226 238 255
226 238 255
226 238 255
226 238 255
226 238 255
226 238 255
226 238 255
226 238 255
226 238 255
226 238 255
226 238 255
226 238 255
226 238 255
226 238 255
226 238 255
226 238 255
226 238 255
226 238 255
226 238 255
226 238 255
226 238 255
226 238 255
226 238 255
226 238 255
226 238 255
226 238 255
226 238 255
226 238 255
226 238 255
226 238 255
226 238 255
226 238 255
226 238 255
226 238 255
226 238 255
226 238 255
226 238 255
226 238 255
226 238 255
226 238 255
226 238 255
226 238 255
226 238 255
226 238 255
226 238 255
226 238 255
226 238 255
226 238 255
226 238 255
226 238 255
226 238 255
226 238 255
226 238 255
226 238 255
226 238 255
226 238 255
226 238 255
226 238 255
226 238 255
226 238 255
226 238 255
226 238 255
226 238 255
226 238 255
226 238 255
226 238 255
226 238 255
226 238 255
226 238 255
226 238 255
226 238 255
226 238 255
226 238 255
226 238 255
226 238 255
226 238 255
226 238 255
226 238 255
226 238 255
226 238 255
226 238 255
226 238 255
226 238 255
226 238 255
226 238 255
226 238 255
226 238 255
226 238 255
226 238 255
226 238 255
226 238 255
226 238 255
226 238 255
226 238 255
226 238 255
226 238 255
226 238 255
226 238 255
226 238 255
226 238 255
226 238 255
226 238 255
226 238 255
226 238 255
226 238 255
226 238 255
226 238 255
226 238 255
226 238 255
226 238 255
226 238 255
226 238 255
226 238 255
226 238 255
226 238 255
226 238 255
226 238 255
226 238 255
226 238 255
226 238 255
226 238 255
226 238 255
226 238 255
226 238 255
226 238 255
226 238 255
226 238 255
226 238 255
226 238 255
226 238 255
226 238 255
226 238 255
226 238 255
226 238 255
226 238 255
226 238 255
226 238 255
226 238 255
226 238 255
226 238 255
226 238 255
226 238 255
226 238 255
226 238 255
226 238 255
226 238 255
226 238 255
226 238 255
226 238 255
226 238 255
226 238 255
226 238 255
226 238 255
226 238 255
226 238 255
226 238 255
226 238 255
226 238 255
226 238 255
226 238 255
226 238 255
226 238 255
226 238 255
226 238 255
226 238 255
226 238 255
226 238 255
226 238 255
226 238 255
226 238 255
226 238 255
226 238 255
226 238 255
226 238 255
226 238 255
226 238 255
226 238 255
226 238 255
226 238 255
226 238 255
226 238 255
226 238 255
226 238 255
226 238 255
226 238 255
226 238 255
226 238 255
226 238 255
226 238 255
226 238 255
226 238 255
226 238 255
226 238 255
226 238 255
226 238 255
226 238 255
226 238 255
226 238 255
226 238 255
226 238 255
226 238 255
226 238 255
226 238 255
226 238 255
226 238 255
226 238 255
226 238 255
226 238 255
226 238 255
226 238 255
226 238 255
226 238 255
226 238 255
226 238 255
226 238 255
226 238 255
226 238 255
226 238 255
226 238 255
226 238 255
226 238 255
226 238 255
226 238 255
226 238 255
226 238 255
226 238 255
226 238 255
226 238 255
226 238 255
226 238 255
226 238 255
226 238 255
226 238 255
226 238 255
226 238 255
226 238 255
226 238 255
226 238 255
226 238 255
226 238 255
226 238 255
226 238 255
226 238 255
226 238 255
226 238 255
226 238 255
226 238 255
226 238 255
226 238 255
226 238 255
226 238 255
226 238 255
226 238 255
226 238 255
226 238 255
226 238 255
226 238 255
226 238 255
226 238 255
226 238 255
226 238 255
226 238 255
226 238 255
226 238 255
226 238 255
226 238 255
226 238 255
226 238 255
226 238 255
226 238 255
226 238 255
226 238 255
226 238 255
226 238 255
226 238 255
226 238 255
226 238 255
177 186 206
60 66 105
0 22 83
0 17 78
0 11 72
0 9 71
0 7 68
0 8 71
0 0 66
0 0 66
0 0 67
0 0 63
0 5 67
0 3 68
0 0 65
0 0 63
0 0 61
0 0 64
0 0 64
0 0 61
0 0 58
0 0 56
0 0 55
0 0 52
0 0 56
0 0 54
0 0 52
0 0 50
0 0 48
0 0 52
0 0 60
0 0 59
0 0 57
0 0 53
0 0 54
0 0 62
0 0 60
0 0 57
0 0 57
0 0 55
0 0 58
0 0 55
0 0 56
0 0 56
0 0 61
0 0 59
0 0 57
0 0 54
0 0 56
0 0 57
0 0 57
0 0 57
0 0 57
0 0 58
0 0 60
0 0 62
0 0 58
0 0 56
0 0 55
0 0 53
0 0 50
0 0 50
0 0 51
0 0 52
0 0 53
0 0 56
0 0 57
0 0 57
0 0 57
0 0 57
0 0 57
0 0 57
0 0 57
0 0 58
0 0 59
0 0 59
0 0 63
0 0 69
0 15 77
30 49 70
98 117 134
167 177 193
201 216 225
134 143 131
121 109 75
114 99 57
106 93 53
98 84 44
87 79 51
25 38 76
0 10 74
0 11 73
0 12 77
0 0 70
0 0 68
0 0 67
0 0 68
0 1 69
0 4 71
0 2 69
0 0 69
0 0 65
0 0 62
0 0 62
0 0 63
0 0 65
0 0 64
0 0 64
0 0 65
0 0 64
0 0 65
0 3 67
0 5 70
0 13 76
0 12 74
0 1 67
0 7 71
0 3 69
45 47 82
171 180 198
224 236 253
226 238 255
226 238 255
226 238 255
226 238 255
226 238 255
226 238 255
226 238 255
226 238 255
226 238 255
226 238 255
226 238 255
226 238 255
226 238 255
226 238 255
226 238 255
226 238 255
226 238 255
226 238 255
226 238 255
226 238 255
226 238 255
226 238 255
226 238 255
226 238 255
226 238 255
226 238 255
226 238 255
226 238 255
226 238 255
226 238 255
226 238 255
226 238 255
226 238 255
226 238 255
226 238 255
226 238 255
226 238 255
226 238 255
226 238 255
226 238 255
226 238 255
226 238 255
226 238 255
226 238 255
226 238 255
226 238 255
226 238 255
226 238 255
226 238 255
226 238 255
226 238 255
226 238 255
226 238 255
226 238 255
226 238 255
226 238 255
226 238 255
226 238 255
226 238 255
226 238 255
226 238 255
226 238 255
226 238 255
226 238 255
226 238 255
226 238 255
226 238 255
226 238 255
226 238 255
226 238 255
226 238 255
226 238 255
226 238 255
226 238 255
226 238 255
226 238 255
226 238 255
226 238 255
226 238 255
226 238 255
226 238 255
226 238 255
226 238 255
226 238 255
226 238 255
226 238 255
226 238 255
226 238 255
226 238 255
226 238 255
226 238 255
226 238 255
226 238 255
226 238 255
226 238 255
226 238 255
226 238 255
226 238 255
226 238 255
226 238 255
226 238 255
226 238 255
226 238 255
226 238 255
226 238 255
226 238 255
226 238 255
226 238 255
226 238 255
226 238 255
226 238 255
226 238 255
226 238 255
226 238 255
226 238 255
226 238 255
226 238 255
226 238 255
226 238 255
226 238 255
226 238 255
226 238 255
226 238 255
226 238 255
226 238 255
226 238 255
226 238 255
226 238 255
226 238 255
226 238 255
226 238 255
226 238 255
226 238 255
226 238 255
226 238 255
226 238 255
226 238 255
226 238 255
226 238 255
226 238 255
226 238 255
226 238 255
226 238 255
226 238 255
226 238 255
226 238 255
226 238 255
226 238 255
226 238 255
226 238 255
226 238 255
226 238 255
226 238 255
226 238 255
226 238 255
226 238 255
226 238 255
226 238 255
226 238 255
226 238 255
226 238 255
226 238 255
226 238 255
226 238 255
226 238 255
226 238 255
226 238 255
226 238 255
226 238 255
226 238 255
226 238 255
226 238 255
226 238 255
226 238 255
226 238 255
226 238 255
226 238 255
226 238 255
226 238 255
226 238 255
226 238 255
226 238 255
226 238 255
226 238 255
226 238 255
226 238 255
226 238 255
226 238 255
226 238 255
226 238 255
226 238 255
226 238 255
226 238 255
226 238 255
226 238 255
226 238 255
226 238 255
226 238 255
226 238 255
226 238 255
226 238 255
226 238 255
226 238 255
226 238 255
226 238 255
226 238 255
226 238 255
226 238 255
226 238 255
226 238 255
226 238 255
226 238 255
226 238 255
226 238 255
226 238 255
226 238 255
226 238 255
226 238 255
226 238 255
226 238 255
226 238 255
226 238 255
226 238 255
226 238 255
226 238 255
226 238 255
226 238 255
226 238 255
226 238 255
226 238 255
226 238 255
226 238 255
226 238 255
226 238 255
226 238 255
226 238 255
226 238 255
226 238 255
226 238 255
226 238 255
226 238 255
226 238 255
226 238 255
226 238 255
226 238 255
226 238 255
226 238 255
226 238 255
226 238 255
226 238 255
226 238 255
226 238 255
226 238 255
226 238 255
226 238 255
226 238 255
226 238 255
226 238 255
226 238 255
226 238 255
226 238 255
226 238 255
226 238 255
226 238 255
226 238 255
226 238 255
226 238 255
226 238 255
226 238 255
226 238 255
226 238 255
226 238 255
226 238 255
226 238 255
226 238 255
226 238 255
226 238 255
226 238 255
226 238 255
226 238 255
209 220 238
117 126 151
0 25 86
0 21 82
0 15 76
0 11 72
0 10 71
0 11 73
0 4 68
0 1 69
0 3 69
0 4 68
0 5 68
0 3 69
0 0 65
0 0 64
0 0 65
0 0 64
0 0 64
0 0 60
0 0 57
0 0 56
0 0 52
0 0 52
0 0 54
0 0 52
0 0 54
0 0 54
0 0 52
0 0 54
0 0 58
0 0 63
0 0 62
0 0 62
0 0 56
0 0 54
0 0 62
0 0 61
0 0 58
0 0 61
0 0 61
0 0 60
0 0 60
0 0 60
0 0 58
0 0 59
0 0 59
0 0 58
0 0 61
0 0 61
0 0 61
0 0 63
0 0 63
0 0 61
0 0 65
0 0 65
0 0 61
0 0 57
0 0 55
0 0 53
0 0 53
0 0 53
0 0 52
0 0 52
0 0 54
0 0 58
0 0 59
0 0 60
0 0 60
0 0 58
0 0 56
0 0 56
0 0 58
0 0 59
0 0 59
0 0 63
0 0 66
5 18 80
25 46 70
104 126 148
196 207 220
157 174 177
122 121 98
113 102 64
98 85 40
83 73 55
35 42 77
11 23 79
0 15 80
0 17 79
0 9 72
0 8 72
0 0 67
0 1 66
0 5 68
24 35 65
31 33 69
21 24 67
0 2 71
0 0 65
0 0 64
0 0 63
0 0 63
0 0 65
0 0 64
0 0 63
0 0 66
0 0 66
0 0 66
0 2 69
0 13 75
12 22 80
11 18 73
0 1 68
0 10 70
0 11 72
126 133 153
207 219 236
226 238 255
226 238 255
226 238 255
226 238 255
226 238 255
226 238 255
226 238 255
226 238 255
226 238 255
226 238 255
226 238 255
226 238 255
226 238 255
226 238 255
226 238 255
226 238 255
226 238 255
226 238 255
226 238 255
226 238 255
226 238 255
226 238 255
226 238 255
226 238 255
226 238 255
226 238 255
226 238 255
226 238 255
226 238 255
226 238 255
226 238 255
226 238 255
226 238 255
226 238 255
226 238 255
226 238 255
226 238 255
226 238 255
226 238 255
226 238 255
226 238 255
226 238 255
226 238 255
226 238 255
226 238 255
226 238 255
226 238 255
226 238 255
226 238 255
226 238 255
226 238 255
226 238 255
226 238 255
226 238 255
226 238 255
226 238 255
226 238 255
226 238 255
226 238 255
226 238 255
226 238 255
226 238 255
226 238 255
226 238 255
226 238 255
226 238 255
226 238 255
226 238 255
226 238 255
226 238 255
226 238 255
226 238 255
226 238 255
226 238 255
226 238 255
226 238 255
226 238 255
226 238 255
226 238 255
226 238 255
226 238 255
226 238 255
226 238 255
226 238 255
226 238 255
226 238 255
226 238 255
226 238 255
226 238 255
226 238 255
226 238 255
226 238 255
226 238 255
226 238 255
226 238 255
226 238 255
226 238 255
226 238 255
226 238 255
226 238 255
226 238 255
226 238 255
226 238 255
226 238 255
226 238 255
226 238 255
226 238 255
226 238 255
226 238 255
226 238 255
226 238 255
226 238 255
226 238 255
226 238 255
226 238 255
226 238 255
226 238 255
226 238 255
226 238 255
226 238 255
226 238 255
226 238 255
226 238 255
226 238 255
226 238 255
226 238 255
226 238 255
226 238 255
226 238 255
226 238 255
226 238 255
226 238 255
226 238 255
226 238 255
226 238 255
226 238 255
226 238 255
226 238 255
226 238 255
226 238 255
226 238 255
226 238 255
226 238 255
226 238 255
226 238 255
226 238 255
226 238 255
226 238 255
226 238 255
226 238 255
226 238 255
226 238 255
226 238 255
226 238 255
226 238 255
226 238 255
226 238 255
226 238 255
226 238 255
226 238 255
226 238 255
226 238 255
226 238 255
226 238 255
226 238 255
226 238 255
226 238 255
226 238 255
226 238 255
226 238 255
226 238 255
226 238 255
226 238 255
226 238 255
226 238 255
226 238 255
226 238 255
226 238 255
226 238 255
226 238 255
226 238 255
226 238 255
226 238 255
226 238 255
226 238 255
226 238 255
226 238 255
226 238 255
226 238 255
226 238 255
226 238 255
226 238 255
226 238 255
226 238 255
226 238 255
226 238 255
226 238 255
226 238 255
226 238 255
226 238 255
226 238 255
226 238 255
226 238 255
226 238 255
226 238 255
226 238 255
226 238 255
226 238 255
226 238 255
226 238 255
226 238 255
226 238 255
226 238 255
226 238 255
226 238 255
226 238 255
226 238 255
226 238 255
226 238 255
226 238 255
226 238 255
226 238 255
226 238 255
226 238 255
226 238 255
226 238 255
226 238 255
226 238 255
226 238 255
226 238 255
226 238 255
226 238 255
226 238 255
226 238 255
226 238 255
226 238 255
226 238 255
226 238 255
226 238 255
226 238 255
226 238 255
226 238 255
226 238 255
226 238 255
226 238 255
226 238 255
226 238 255
226 238 255
226 238 255
226 238 255
226 238 255
226 238 255
226 238 255
226 238 255
226 238 255
226 238 255
226 238 255
226 238 255
226 238 255
226 238 255
226 238 255
226 238 255
226 238 255
226 238 255
226 238 255
226 238 255
226 238 255
226 238 255
226 238 255
226 238 255
226 238 255
226 238 255
226 238 255
226 238 255
226 238 255
226 238 255
226 238 255
226 238 255
226 238 255
226 238 255
226 238 255
226 238 255
226 238 255
224 236 253
175 186 206
55 64 106
0 22 84
0 18 80
0 18 78
0 15 77
0 11 73
0 6 68
0 0 66
0 0 66
0 8 71
0 7 67
0 3 66
0 6 69
0 6 68
0 0 65
0 0 65
0 3 67
0 11 71
0 7 67
0 0 61
0 0 53
0 0 53
0 0 53
0 0 53
0 0 57
0 0 60
0 0 63
0 0 61
0 0 57
0 0 58
0 0 63
0 0 63
0 0 59
0 0 57
0 0 56
0 0 59
0 0 63
0 0 64
0 0 64
0 0 61
0 0 62
0 0 58
0 0 58
0 0 62
0 0 63
0 0 65
0 0 65
0 0 65
0 5 65
0 1 67
0 0 65
0 0 60
0 0 62
0 0 65
0 0 63
0 0 63
0 0 61
0 0 60
0 0 54
0 0 55
0 0 55
0 0 54
0 0 55
0 0 59
0 0 61
0 0 65
0 0 64
0 0 63
0 0 61
0 0 63
0 0 64
0 0 63
0 0 65
0 3 67
6 22 82
41 67 93
109 126 143
173 182 187
115 106 86
106 94 52
89 77 37
74 66 31
43 50 78
0 21 81
0 18 81
0 16 80
0 15 77
0 9 73
0 1 70
0 7 72
7 17 71
20 33 62
42 55 59
31 39 64
4 12 70
0 4 69
0 0 65
0 0 64
0 0 64
0 4 66
0 2 67
0 6 67
0 7 69
0 8 70
0 4 69
0 8 70
0 7 71
0 14 77
36 45 91
21 28 79
0 16 78
68 73 108
191 201 219
226 238 255
226 238 255
226 238 255
226 238 255
226 238 255
226 238 255
226 238 255
226 238 255
226 238 255
226 238 255
226 238 255
226 238 255
226 238 255
226 238 255
226 238 255
226 238 255
226 238 255
226 238 255
226 238 255
226 238 255
226 238 255
226 238 255
226 238 255
226 238 255
226 238 255
226 238 255
226 238 255
226 238 255
226 238 255
226 238 255
226 238 255
226 238 255
226 238 255
226 238 255
226 238 255
226 238 255
226 238 255
226 238 255
226 238 255
226 238 255
226 238 255
226 238 255
226 238 255
226 238 255
226 238 255
226 238 255
226 238 255
226 238 255
226 238 255
226 238 255
226 238 255
226 238 255
226 238 255
226 238 255
226 238 255
226 238 255
226 238 255
226 238 255
226 238 255
226 238 255
226 238 255
226 238 255
226 238 255
226 238 255
226 238 255
226 238 255
226 238 255
226 238 255
226 238 255
226 238 255
226 238 255
226 238 255
226 238 255
226 238 255
226 238 255
226 238 255
226 238 255
226 238 255
226 238 255
226 238 255
226 238 255
226 238 255
226 238 255
226 238 255
226 238 255
226 238 255
226 238 255
226 238 255
226 238 255
226 238 255
226 238 255
226 238 255
226 238 255
226 238 255
226 238 255
226 238 255
226 238 255
226 238 255
226 238 255
226 238 255
226 238 255
226 238 255
226 238 255
226 238 255
226 238 255
226 238 255
226 238 255
226 238 255
226 238 255
226 238 255
226 238 255
226 238 255
226 238 255
226 238 255
226 238 255
226 238 255
226 238 255
226 238 255
226 238 255
226 238 255
226 238 255
226 238 255
226 238 255
226 238 255
226 238 255
226 238 255
226 238 255
226 238 255
226 238 255
226 238 255
226 238 255
226 238 255
226 238 255
226 238 255
226 238 255
226 238 255
226 238 255
226 238 255
226 238 255
226 238 255
226 238 255
226 238 255
226 238 255
226 238 255
226 238 255
226 238 255
226 238 255
226 238 255
226 238 255
226 238 255
226 238 255
226 238 255
226 238 255
226 238 255
226 238 255
226 238 255
226 238 255
226 238 255
226 238 255
226 238 255
226 238 255
226 238 255
226 238 255
226 238 255
226 238 255
226 238 255
226 238 255
226 238 255
226 238 255
226 238 255
226 238 255
226 238 255
226 238 255
226 238 255
226 238 255
226 238 255
226 238 255
226 238 255
226 238 255
226 238 255
226 238 255
226 238 255
226 238 255
226 238 255
226 238 255
226 238 255
226 238 255
226 238 255
226 238 255
226 238 255
226 238 255
226 238 255
226 238 255
226 238 255
226 238 255
226 238 255
226 238 255
226 238 255
226 238 255
226 238 255
226 238 255
226 238 255
226 238 255
226 238 255
226 238 255
226 238 255
226 238 255
226 238 255
226 238 255
226 238 255
226 238 255
226 238 255
226 238 255
226 238 255
226 238 255
226 238 255
226 238 255
226 238 255
226 238 255
226 238 255
226 238 255
226 238 255
226 238 255
226 238 255
226 238 255
226 238 255
226 238 255
226 238 255
226 238 255
226 238 255
226 238 255
226 238 255
226 238 255
226 238 255
226 238 255
226 238 255
226 238 255
226 238 255
226 238 255
226 238 255
226 238 255
226 238 255
226 238 255
226 238 255
226 238 255
226 238 255
226 238 255
226 238 255
226 238 255
226 238 255
226 238 255
226 238 255
226 238 255
226 238 255
226 238 255
226 238 255
226 238 255
226 238 255
226 238 255
226 238 255
226 238 255
226 238 255
226 238 255
226 238 255
226 238 255
226 238 255
226 238 255
226 238 255
226 238 255
226 238 255
226 238 255
226 238 255
226 238 255
226 238 255
226 238 255
226 238 255
226 238 255
226 238 255
226 238 255
226 238 255
226 238 255
226 238 255
226 238 255
226 238 255
226 238 255
226 238 255
226 238 255
220 231 249
141 151 175
22 38 94
0 22 84
0 15 77
0 16 78
0 19 81
0 13 73
0 7 68
0 0 66
0 9 73
0 9 74
0 10 73
0 13 72
0 6 68
0 0 65
0 0 66
0 4 69
0 6 71
0 3 68
0 0 62
0 0 53
0 0 53
0 0 58
0 0 57
0 0 57
0 0 64
0 0 64
0 0 62
0 0 58
0 0 55
0 0 59
0 0 61
0 0 64
0 0 64
0 0 63
0 0 65
0 0 68
0 6 71
0 0 66
0 0 66
0 0 63
0 0 57
0 0 60
0 0 65
0 0 62
0 0 63
0 0 66
0 5 67
0 7 64
0 0 62
0 6 68
0 0 67
0 0 67
0 0 66
0 0 66
0 0 65
0 0 62
0 0 58
0 0 58
0 0 58
0 0 56
0 0 54
0 0 57
0 0 63
0 0 67
0 0 66
0 0 64
0 0 64
0 0 65
0 0 67
0 10 72
0 13 73
0 14 75
15 35 84
29 55 84
95 113 128
82 97 110
92 96 76
87 74 43
71 69 50
55 61 60
17 40 80
0 19 81
0 16 80
0 14 75
0 4 69
0 0 68
0 3 69
0 5 69
0 7 72
0 15 74
0 14 74
0 10 75
0 0 65
0 0 66
0 0 63
0 0 63
0 0 67
0 1 70
0 6 70
0 2 71
0 10 71
0 6 69
0 3 68
0 10 73
0 11 71
0 17 78
0 17 78
0 19 80
152 161 182
223 235 252
226 238 255
226 238 255
226 238 255
226 238 255
226 238 255
226 238 255
226 238 255
226 238 255
226 238 255
226 238 255
226 238 255
226 238 255
226 238 255
226 238 255
226 238 255
226 238 255
226 238 255
226 238 255
226 238 255
226 238 255
226 238 255
226 238 255
226 238 255
226 238 255
226 238 255
226 238 255
226 238 255
226 238 255
226 238 255
226 238 255
226 238 255
226 238 255
226 238 255
226 238 255
226 238 255
226 238 255
226 238 255
226 238 255
226 238 255
226 238 255
226 238 255
226 238 255
226 238 255
226 238 255
226 238 255
226 238 255
226 238 255
226 238 255
226 238 255
226 238 255
226 238 255
226 238 255
226 238 255
226 238 255
226 238 255
226 238 255
226 238 255
226 238 255
226 238 255
226 238 255
226 238 255
226 238 255
226 238 255
226 238 255
226 238 255
226 238 255
226 238 255
226 238 255
226 238 255
226 238 255
226 238 255
226 238 255
226 238 255
226 238 255
226 238 255
226 238 255
226 238 255
226 238 255
226 238 255
226 238 255
226 238 255
226 238 255
226 238 255
226 238 255
226 238 255
226 238 255
226 238 255
226 238 255
226 238 255
226 238 255
226 238 255
226 238 255
226 238 255
226 238 255
226 238 255
226 238 255
226 238 255
226 238 255
226 238 255
226 238 255
226 238 255
226 238 255
226 238 255
226 238 255
226 238 255
226 238 255
226 238 255
226 238 255
226 238 255
226 238 255
226 238 255
226 238 255
226 238 255
226 238 255
226 238 255
226 238 255
226 238 255
226 238 255
226 238 255
226 238 255
226 238 255
226 238 255
226 238 255
226 238 255
226 238 255
226 238 255
226 238 255
226 238 255
226 238 255
226 238 255
226 238 255
226 238 255
226 238 255
226 238 255
226 238 255
226 238 255
226 238 255
226 238 255
226 238 255
226 238 255
226 238 255
226 238 255
226 238 255
226 238 255
226 238 255
226 238 255
226 238 255
226 238 255
226 238 255
226 238 255
226 238 255
226 238 255
226 238 255
226 238 255
226 238 255
226 238 255
226 238 255
226 238 255
226 238 255
226 238 255
226 238 255
226 238 255
226 238 255
226 238 255
226 238 255
226 238 255
226 238 255
226 238 255
226 238 255
226 238 255
226 238 255
226 238 255
226 238 255
226 238 255
226 238 255
226 238 255
226 238 255
226 238 255
226 238 255
226 238 255
226 238 255
226 238 255
226 238 255
226 238 255
226 238 255
226 238 255
226 238 255
226 238 255
226 238 255
226 238 255
226 238 255
226 238 255
226 238 255
226 238 255
226 238 255
226 238 255
226 238 255
226 238 255
226 238 255
226 238 255
226 238 255
226 238 255
226 238 255
226 238 255
226 238 255
226 238 255
226 238 255
226 238 255
226 238 255
226 238 255
226 238 255
226 238 255
226 238 255
226 238 255
226 238 255
226 238 255
226 238 255
226 238 255
226 238 255
226 238 255
226 238 255
226 238 255
226 238 255
226 238 255
226 238 255
226 238 255
226 238 255
226 238 255
226 238 255
226 238 255
226 238 255
226 238 255
226 238 255
226 238 255
226 238 255
226 238 255
226 238 255
226 238 255
226 238 255
226 238 255
226 238 255
226 238 255
226 238 255
226 239 255
226 239 255
226 239 255
226 239 255
226 239 255
226 239 255
226 239 255
226 239 255
226 239 255
226 239 255
226 239 255
226 239 255
226 239 255
226 239 255
226 239 255
226 239 255
226 239 255
226 239 255
226 239 255
226 239 255
226 239 255
226 239 255
226 239 255
226 239 255
226 239 255
226 239 255
226 239 255
226 239 255
226 239 255
226 239 255
226 239 255
226 239 255
226 239 255
226 239 255
226 239 255
226 239 255
226 239 255
227 239 255
227 239 255
226 239 255
227 239 255
227 239 255
227 239 255
227 239 255
227 239 255
227 239 255
227 239 255
205 216 235
130 140 166
22 39 95
0 24 85
0 20 82
0 23 85
0 19 81
0 10 73
0 5 67
0 11 71
0 11 73
0 14 74
0 14 76
0 13 76
0 3 68
0 6 69
0 3 69
0 3 67
0 9 72
0 6 67
0 0 64
0 0 57
0 0 59
0 0 58
0 0 58
0 0 59
0 0 60
0 0 62
0 0 61
0 0 60
0 0 61
0 0 59
0 0 61
0 0 63
0 0 66
0 0 67
0 7 70
0 0 67
0 0 62
0 0 61
0 0 62
0 0 55
0 0 56
0 0 62
0 0 67
0 0 67
0 3 68
0 16 78
0 3 70
0 6 67
0 2 66
0 0 66
0 0 66
0 0 66
0 0 63
0 0 60
0 0 58
0 0 61
0 0 64
0 0 58
0 0 57
0 0 61
0 0 65
0 0 68
0 0 68
0 0 64
0 0 63
0 2 65
0 8 71
0 13 73
0 12 74
0 14 75
0 25 81
23 52 91
108 129 149
110 127 147
80 104 110
38 50 69
64 67 50
84 75 46
24 44 91
0 19 81
0 15 77
0 8 71
0 7 70
0 11 72
0 6 69
0 4 69
0 12 74
0 9 71
0 10 71
0 0 70
0 5 69
0 0 65
0 0 63
0 0 63
0 0 67
0 9 69
0 13 74
0 9 73
0 10 71
0 14 75
0 16 78
0 14 77
0 22 83
2 20 81
136 144 165
211 223 240
227 239 255
227 239 255
227 239 255
227 239 255
227 239 255
227 239 255
227 239 255
227 239 255
226 239 255
226 239 255
226 239 255
226 239 255
226 239 255
226 239 255
226 239 255
226 239 255
226 239 255
226 239 255
226 239 255
226 239 255
226 239 255
226 239 255
226 239 255
226 239 255
226 239 255
226 239 255
226 239 255
226 239 255
226 239 255
226 239 255
226 239 255
226 239 255
226 239 255
226 239 255
226 239 255
226 239 255
226 239 255
226 239 255
226 239 255
226 239 255
226 239 255
226 239 255
226 239 255
226 239 255
226 239 255
226 239 255
226 239 255
226 238 255
226 238 255
226 238 255
226 238 255
226 238 255
226 238 255
226 238 255
226 238 255
226 238 255
226 238 255
226 238 255
226 238 255
226 238 255
226 238 255
226 238 255
226 238 255
226 238 255
226 238 255
226 238 255
226 238 255
226 238 255
226 238 255
226 238 255
226 238 255
226 238 255
226 238 255
226 238 255
226 238 255
226 238 255
226 238 255
226 238 255
226 238 255
226 238 255
226 238 255
226 238 255
226 238 255
226 238 255
226 238 255
226 238 255
226 238 255
226 238 255
226 238 255
226 238 255
226 238 255
226 238 255
226 238 255
226 238 255
226 238 255
226 238 255
226 238 255
226 238 255
226 238 255
226 238 255
226 238 255
226 238 255
226 238 255
226 238 255
226 238 255
226 238 255
226 238 255
226 238 255
226 238 255
226 238 255
226 238 255
226 238 255
226 238 255
226 238 255
226 238 255
226 238 255
226 238 255
226 238 255
226 238 255
226 238 255
226 238 255
226 238 255
226 238 255
226 238 255
226 238 255
226 238 255
226 238 255
226 238 255
226 238 255
226 238 255
226 238 255
226 238 255
226 238 255
226 238 255
226 238 255
226 238 255
226 238 255
226 238 255
226 238 255
226 238 255
226 238 255
226 238 255
226 238 255
226 238 255
226 238 255
226 238 255
226 238 255
226 238 255
226 238 255
226 238 255
226 238 255
226 238 255
226 238 255
226 238 255
226 238 255
226 238 255
226 238 255
226 238 255
226 238 255
226 238 255
226 238 255
226 238 255
226 238 255
226 238 255
226 238 255
226 238 255
226 238 255
226 238 255
226 238 255
226 238 255
226 238 255
226 238 255
226 238 255
226 238 255
226 238 255
226 238 255
226 238 255
226 238 255
226 238 255
226 238 255
226 238 255
226 238 255
226 238 255
226 238 255
226 238 255
226 238 255
226 238 255
226 238 255
226 238 255
226 238 255
226 238 255
226 238 255
226 238 255
226 238 255
226 238 255
226 238 255
226 238 255
226 238 255
226 238 255
226 238 255
226 238 255
226 238 255
226 238 255
226 238 255
226 238 255
226 238 255
226 238 255
226 238 255
226 239 255
226 239 255
226 239 255
226 239 255
226 239 255
226 239 255
226 239 255
226 239 255
226 239 255
226 239 255
226 239 255
226 239 255
226 239 255
226 239 255
226 239 255
226 239 255
226 239 255
226 239 255
226 239 255
226 239 255
226 239 255
226 239 255
226 239 255
226 239 255
226 239 255
227 239 255
227 239 255
227 239 255
227 239 255
227 239 255
227 239 255
227 239 255
227 239 255
227 239 255
227 239 255
227 239 255
227 239 255
227 239 255
227 239 255
227 239 255
227 239 255
227 239 255
227 239 255
227 239 255
227 239 255
227 239 255
227 239 255
227 239 255
227 239 255
227 239 255
227 239 255
227 239 255
227 239 255
227 239 255
227 239 255
227 239 255
227 239 255
227 239 255
227 239 255
227 239 255
227 239 255
227 239 255
227 239 255
227 239 255
227 239 255
227 239 255
227 239 255
227 239 255
227 239 255
227 239 255
227 239 255
227 239 255
227 239 255
227 239 255
227 239 255
227 239 255
227 239 255
227 239 255
227 239 255
227 239 255
227 239 255
227 239 255
227 239 255
227 239 255
227 239 255
227 239 255
203 214 233
87 99 134
0 32 93
0 25 86
0 24 85
0 25 86
0 17 78
0 11 72
0 12 71
0 16 77
0 18 78
0 16 79
0 19 81
0 11 73
0 11 73
0 9 72
0 1 70
0 14 75
0 12 74
0 7 68
0 2 58
0 0 60
0 1 64
0 0 61
0 3 64
0 5 68
0 4 63
0 2 63
0 0 59
0 0 63
0 0 62
0 2 64
0 1 64
0 0 68
0 0 68
0 0 69
0 0 67
0 0 64
0 0 62
0 0 60
0 0 58
0 0 62
0 0 66
0 0 68
0 2 70
0 12 73
0 8 73
0 8 72
0 2 68
0 0 68
0 0 65
0 0 66
0 0 64
0 0 61
0 0 58
0 0 62
0 0 64
0 0 61
0 0 61
0 0 67
0 0 68
0 0 66
0 0 64
0 0 65
0 0 66
0 0 69
0 9 71
0 8 67
0 0 68
0 0 69
0 12 78
12 38 83
76 95 121
89 110 137
109 125 148
114 135 149
95 106 105
84 86 64
51 61 53
22 34 67
8 21 75
0 13 70
0 11 71
0 12 74
0 6 71
0 5 69
0 12 75
0 15 76
0 11 73
0 0 67
0 0 64
0 5 68
0 5 68
0 3 68
0 3 69
0 11 74
0 22 82
0 23 83
0 14 74
0 16 77
0 15 77
0 16 80
75 80 112
199 209 227
227 239 255
227 239 255
227 239 255
227 239 255
227 239 255
227 239 255
227 239 255
227 239 255
227 239 255
227 239 255
227 239 255
227 239 255
227 239 255
227 239 255
227 239 255
227 239 255
227 239 255
227 239 255
227 239 255
227 239 255
227 239 255
227 239 255
227 239 255
227 239 255
227 239 255
227 239 255
227 239 255
227 239 255
227 239 255
227 239 255
227 239 255
227 239 255
227 239 255
227 239 255
227 239 255
227 239 255
227 239 255
227 239 255
227 239 255
227 239 255
227 239 255
227 239 255
227 239 255
227 239 255
227 239 255
227 239 255
227 239 255
227 239 255
227 239 255
227 239 255
227 239 255
227 239 255
227 239 255
227 239 255
227 239 255
227 239 255
227 239 255
227 239 255
227 239 255
227 239 255
226 239 255
226 239 255
226 239 255
226 239 255
226 239 255
226 239 255
226 239 255
226 239 255
226 239 255
226 239 255
226 239 255
226 239 255
226 239 255
226 239 255
226 239 255
226 239 255
226 239 255
226 239 255
226 239 255
226 239 255
226 239 255
226 239 255
226 239 255
226 239 255
226 239 255
226 239 255
226 239 255
226 238 255
226 238 255
226 238 255
226 238 255
226 238 255
226 238 255
226 238 255
226 238 255
226 238 255
226 238 255
226 238 255
226 238 255
226 238 255
226 238 255
226 238 255
226 238 255
226 238 255
226 238 255
226 238 255
226 238 255
226 238 255
226 238 255
226 238 255
226 238 255
226 238 255
226 238 255
226 238 255
226 238 255
226 238 255
226 238 255
226 238 255
226 238 255
226 238 255
226 238 255
226 238 255
226 238 255
226 238 255
226 238 255
226 238 255
226 238 255
226 238 255
226 238 255
226 238 255
226 238 255
226 238 255
226 238 255
226 238 255
226 238 255
226 238 255
226 238 255
226 238 255
226 238 255
226 238 255
226 238 255
226 238 255
226 238 255
226 238 255
226 238 255
226 238 255
226 238 255
226 238 255
226 238 255
226 238 255
226 238 255
226 238 255
226 238 255
226 238 255
226 238 255
226 238 255
226 238 255
226 238 255
226 238 255
226 238 255
226 238 255
226 238 255
226 238 255
226 238 255
226 238 255
226 238 255
226 238 255
226 238 255
226 238 255
226 238 255
226 238 255
226 238 255
226 238 255
226 238 255
226 238 255
226 238 255
226 238 255
226 238 255
226 238 255
226 238 255
226 238 255
226 239 255
226 239 255
226 239 255
226 239 255
226 239 255
226 239 255
226 239 255
226 239 255
226 239 255
226 239 255
226 239 255
226 239 255
226 239 255
226 239 255
226 239 255
226 239 255
226 239 255
226 239 255
226 239 255
226 239 255
226 239 255
227 239 255
227 239 255
227 239 255
227 239 255
227 239 255
227 239 255
227 239 255
227 239 255
227 239 255
227 239 255
227 239 255
227 239 255
227 239 255
227 239 255
227 239 255
227 239 255
227 239 255
227 239 255
227 239 255
227 239 255
227 239 255
227 239 255
227 239 255
227 239 255
227 239 255
227 239 255
227 239 255
227 239 255
227 239 255
227 239 255
227 239 255
227 239 255
227 239 255
227 239 255
227 239 255
227 239 255
227 239 255
227 239 255
227 239 255
227 239 255
227 239 255
227 239 255
227 239 255
227 239 255
227 239 255
227 239 255
227 239 255
227 239 255
227 239 255
227 239 255
227 239 255
227 239 255
227 239 255
227 239 255
227 239 255
227 239 255
227 239 255
227 239 255
227 239 255
227 239 255
227 239 255
227 239 255
227 239 255
227 239 255
227 239 255
227 239 255
227 239 255
227 239 255
227 239 255
227 239 255
227 239 255
227 239 255
227 239 255
227 239 255
227 239 255
227 239 255
227 239 255
227 239 255
227 239 255
227 239 255
227 239 255
227 239 255
227 239 255
227 239 255
227 239 255
227 239 255
227 239 255
227 239 255
227 239 255
227 239 255
227 239 255
227 239 255
227 239 255
227 239 255
227 239 255
227 239 255
193 204 223
122 131 157
5 29 91
0 30 91
0 23 86
0 24 86
0 25 87
0 25 86
0 21 83
0 20 83
0 19 82
0 21 82
0 20 81
0 16 77
0 21 82
0 20 81
0 16 79
0 19 82
0 15 75
0 12 72
0 13 74
0 9 70
0 2 67
0 10 72
0 11 73
0 11 75
0 12 74
0 11 72
0 4 69
0 0 69
0 3 66
0 0 68
0 1 70
0 5 70
0 8 72
0 0 67
0 0 64
0 0 63
0 0 59
0 0 67
0 4 67
0 0 64
0 3 68
0 4 69
0 11 72
0 7 71
0 0 67
0 0 70
0 0 68
0 0 66
0 0 63
0 0 62
0 0 61
0 0 63
0 0 65
0 0 63
0 0 63
0 0 66
0 0 67
0 0 66
0 3 67
0 0 65
0 0 67
0 0 63
0 0 62
0 11 71
0 6 73
0 6 65
0 7 68
0 12 77
7 22 77
30 44 91
41 65 100
68 87 110
42 72 89
27 44 75
14 28 77
4 11 73
0 8 71
0 4 71
0 4 69
0 4 71
0 11 73
0 17 80
0 15 78
0 14 74
0 8 71
0 10 73
0 9 74
0 7 72
0 13 75
0 20 80
0 18 80
0 21 82
0 28 89
0 30 91
11 25 84
7 17 79
99 105 131
190 200 218
227 239 255
227 239 255
227 239 255
227 239 255
227 239 255
227 239 255
227 239 255
227 239 255
227 239 255
227 239 255
227 239 255
227 239 255
227 239 255
227 239 255
227 239 255
227 239 255
227 239 255
227 239 255
227 239 255
227 239 255
227 239 255
227 239 255
227 239 255
227 239 255
227 239 255
227 239 255
227 239 255
227 239 255
227 239 255
227 239 255
227 239 255
227 239 255
227 239 255
227 239 255
227 239 255
227 239 255
227 239 255
227 239 255
227 239 255
227 239 255
227 239 255
227 239 255
227 239 255
227 239 255
227 239 255
227 239 255
227 239 255
227 239 255
227 239 255
227 239 255
227 239 255
227 239 255
227 239 255
227 239 255
227 239 255
227 239 255
227 239 255
227 239 255
227 239 255
227 239 255
227 239 255
227 239 255
227 239 255
227 239 255
227 239 255
227 239 255
227 239 255
227 239 255
227 239 255
227 239 255
227 239 255
227 239 255
227 239 255
227 239 255
227 239 255
227 239 255
227 239 255
227 239 255
227 239 255
227 239 255
227 239 255
227 239 255
227 239 255
227 239 255
227 239 255
227 239 255
227 239 255
227 239 255
227 239 255
227 239 255
227 239 255
227 239 255
227 239 255
227 239 255
227 239 255
227 239 255
226 239 255
226 239 255
226 239 255
226 239 255
226 239 255
226 239 255
226 239 255
226 239 255
226 239 255
226 239 255
226 239 255
226 239 255
226 239 255
226 239 255
226 239 255
226 239 255
226 239 255
226 239 255
226 239 255
226 239 255
226 239 255
226 238 255
226 238 255
226 238 255
226 238 255
226 238 255
226 238 255
226 238 255
226 238 255
226 238 255
226 238 255
226 238 255
226 238 255
226 238 255
226 238 255
226 238 255
226 238 255
226 238 255
226 238 255
226 238 255
226 238 255
226 238 255
226 238 255
226 238 255
226 238 255
226 238 255
226 238 255
226 238 255
226 238 255
226 238 255
226 238 255
226 238 255
226 238 255
226 238 255
226 238 255
226 238 255
226 238 255
226 238 255
226 238 255
226 238 255
226 239 255
226 238 255
226 239 255
226 239 255
226 239 255
226 239 255
226 239 255
226 239 255
226 239 255
226 239 255
226 239 255
226 239 255
226 239 255
226 239 255
226 239 255
226 239 255
226 239 255
226 239 255
227 239 255
227 239 255
227 239 255
227 239 255
227 239 255
227 239 255
227 239 255
227 239 255
227 239 255
227 239 255
227 239 255
227 239 255
227 239 255
227 239 255
227 239 255
227 239 255
227 239 255
227 239 255
227 239 255
227 239 255
227 239 255
227 239 255
227 239 255
227 239 255
227 239 255
227 239 255
227 239 255
227 239 255
227 239 255
227 239 255
227 239 255
227 239 255
227 239 255
227 239 255
227 239 255
227 239 255
227 239 255
227 239 255
227 239 255
227 239 255
227 239 255
227 239 255
227 239 255
227 239 255
227 239 255
227 239 255
227 239 255
227 239 255
227 239 255
227 239 255
227 239 255
227 239 255
227 239 255
227 239 255
227 239 255
227 239 255
227 239 255
227 239 255
227 239 255
227 239 255
227 239 255
227 239 255
227 239 255
227 239 255
227 239 255
227 239 255
227 239 255
227 239 255
227 239 255
227 239 255
227 239 255
227 239 255
227 239 255
227 239 255
227 239 255
227 239 255
227 239 255
227 239 255
227 239 255
227 239 255
227 239 255
227 239 255
227 239 255
227 239 255
227 239 255
227 239 255
227 239 255
227 239 255
227 239 255
227 239 255
227 239 255
227 239 255
227 239 255
227 239 255
227 239 255
227 239 255
227 239 255
227 239 255
227 239 255
227 239 255
227 239 255
227 239 255
227 239 255
227 239 255
227 239 255
227 239 255
227 239 255
227 239 255
227 239 255
227 239 255
227 239 255
227 239 255
227 239 255
227 239 255
227 239 255
227 239 255
227 239 255
227 239 255
227 239 255
227 239 255
227 239 255
227 239 255
227 239 255
227 239 255
227 239 255
227 239 255
227 239 255
227 239 255
184 194 213
118 127 155
4 33 92
0 29 90
0 29 90
0 27 89
0 27 88
0 23 86
0 23 84
0 24 85
0 24 86
0 24 84
0 19 81
0 27 87
0 25 85
0 22 82
0 19 80
0 18 80
0 19 80
0 12 72
0 3 65
0 0 65
0 3 67
0 3 65
0 7 68
0 11 71
0 5 65
0 6 66
0 7 67
0 4 70
0 10 73
0 11 72
0 9 74
0 8 71
0 7 68
0 10 69
0 5 64
0 4 69
0 9 73
0 0 69
0 7 70
0 8 69
0 0 67
0 5 70
0 7 72
0 0 72
0 0 67
0 0 63
0 0 64
0 0 63
0 0 64
0 9 70
0 10 70
0 0 63
0 0 62
0 0 65
0 0 64
0 8 67
0 8 71
0 7 68
0 5 67
0 0 63
0 5 67
0 19 80
0 11 72
0 5 71
0 7 72
0 5 70
0 2 67
0 4 67
0 7 73
0 18 80
0 22 83
0 17 79
0 9 72
0 12 72
0 16 78
0 18 78
0 19 78
0 19 81
0 18 79
0 16 76
0 13 73
0 4 71
0 11 75
0 15 77
0 16 78
0 17 79
0 18 80
0 21 81
0 26 88
0 29 89
69 75 116
106 113 142
154 164 188
182 192 211
227 239 255
227 239 255
227 239 255
227 239 255
227 239 255
227 239 255
227 239 255
227 239 255
227 239 255
227 239 255
227 239 255
227 239 255
227 239 255
227 239 255
227 239 255
227 239 255
227 239 255
227 239 255
227 239 255
227 239 255
227 239 255
227 239 255
227 239 255
227 239 255
227 239 255
227 239 255
227 239 255
227 239 255
227 239 255
227 239 255
227 239 255
227 239 255
227 239 255
227 239 255
227 239 255
227 239 255
227 239 255
227 239 255
227 239 255
227 239 255
227 239 255
227 239 255
227 239 255
227 239 255
227 239 255
227 239 255
227 239 255
227 239 255
227 239 255
227 239 255
227 239 255
227 239 255
227 239 255
227 239 255
227 239 255
227 239 255
227 239 255
227 239 255
227 239 255
227 239 255
227 239 255
227 239 255
227 239 255
227 239 255
227 239 255
227 239 255
227 239 255
227 239 255
227 239 255
227 239 255
227 239 255
227 239 255
227 239 255
227 239 255
227 239 255
227 239 255
227 239 255
227 239 255
227 239 255
227 239 255
227 239 255
227 239 255
227 239 255
227 239 255
227 239 255
227 239 255
227 239 255
227 239 255
227 239 255
227 239 255
227 239 255
227 239 255
227 239 255
227 239 255
227 239 255
227 239 255
227 239 255
227 239 255
227 239 255
227 239 255
227 239 255
227 239 255
227 239 255
227 239 255
227 239 255
227 239 255
227 239 255
227 239 255
227 239 255
227 239 255
227 239 255
227 239 255
227 239 255
227 239 255
227 239 255
227 239 255
227 239 255
227 239 255
227 239 255
227 239 255
227 239 255
227 239 255
227 239 255
227 239 255
227 239 255
227 239 255
226 239 255
226 239 255
226 239 255
226 239 255
226 239 255
226 239 255
226 239 255
226 239 255
226 239 255
226 239 255
226 239 255
226 239 255
226 239 255
226 239 255
226 239 255
226 239 255
226 239 255
226 239 255
226 239 255
226 238 255
226 238 255
226 238 255
226 238 255
226 238 255
226 238 255
226 238 255
226 239 255
226 239 255
227 239 255
227 239 255
227 239 255
227 239 255
227 239 255
227 239 255
227 239 255
227 239 255
227 239 255
227 239 255
227 239 255
227 239 255
227 239 255
227 239 255
227 239 255
227 239 255
227 239 255
227 239 255
227 239 255
227 239 255
227 239 255
227 239 255
227 239 255
227 239 255
227 239 255
227 239 255
227 239 255
227 239 255
227 239 255
227 239 255
227 239 255
227 239 255
227 239 255
227 239 255
227 239 255
227 239 255
227 239 255
227 239 255
227 239 255
227 239 255
227 239 255
227 239 255
227 239 255
227 239 255
227 239 255
227 239 255
227 239 255
227 239 255
227 239 255
227 239 255
227 239 255
227 239 255
227 239 255
227 239 255
227 239 255
227 239 255
227 239 255
227 239 255
227 239 255
227 239 255
227 239 255
227 239 255
227 239 255
227 239 255
227 239 255
227 239 255
227 239 255
227 239 255
227 239 255
227 239 255
227 239 255
227 239 255
227 239 255
227 239 255
227 239 255
227 239 255
227 239 255
227 239 255
227 239 255
227 239 255
227 239 255
227 239 255
227 239 255
227 239 255
227 239 255
227 239 255
227 239 255
227 239 255
227 239 255
227 239 255
227 239 255
227 239 255
227 239 255
227 239 255
227 239 255
227 239 255
227 239 255
227 239 255
227 239 255
227 239 255
227 239 255
227 239 255
227 239 255
227 239 255
227 239 255
227 239 255
227 239 255
227 239 255
227 239 255
227 239 255
227 239 255
227 239 255
227 239 255
227 239 255
227 239 255
227 239 255
227 239 255
227 239 255
227 239 255
227 239 255
227 239 255
227 239 255
227 239 255
227 239 255
227 239 255
227 239 255
227 239 255
227 239 255
227 239 255
227 239 255
227 239 255
227 239 255
227 239 255
227 239 255
227 239 255
227 239 255
227 239 255
227 239 255
227 239 255
227 239 255
227 239 255
227 239 255
227 239 255
227 239 255
227 239 255
227 239 255
227 239 255
227 239 255
227 239 255
227 239 255
227 239 255
227 239 255
203 214 233
141 152 176
81 94 128
5 31 91
62 71 109
0 21 84
0 22 84
0 22 83
0 26 87
0 25 87
0 25 86
0 29 89
0 37 96
0 35 96
0 34 93
0 22 83
0 19 81
0 18 80
0 15 77
0 13 72
0 5 67
0 10 69
0 3 68
0 16 76
0 12 74
0 12 72
0 10 72
0 12 74
0 5 67
0 11 72
0 10 72
0 12 73
0 16 74
0 13 74
0 9 71
0 10 72
0 9 70
0 0 67
0 8 71
0 15 75
0 12 73
0 9 72
0 11 74
0 6 71
0 3 70
0 9 72
0 11 71
0 10 71
0 3 66
0 10 70
0 10 72
0 12 75
0 15 77
0 9 69
0 4 66
0 11 72
0 11 72
0 16 77
0 15 77
0 14 73
0 9 72
0 7 72
0 5 71
0 12 73
0 12 75
0 13 74
0 11 72
0 10 73
0 11 72
0 10 72
0 17 79
0 23 84
0 16 77
0 15 77
0 23 82
0 16 77
0 17 78
0 10 72
0 4 70
0 5 69
0 10 71
0 10 74
0 12 74
0 15 75
10 27 85
36 46 95
118 122 148
162 167 184
125 131 157
199 205 218
217 225 238
207 219 236
227 239 255
227 239 255
227 239 255
227 239 255
227 239 255
227 239 255
227 239 255
227 239 255
227 239 255
227 239 255
227 239 255
227 239 255
227 239 255
227 239 255
227 239 255
227 239 255
227 239 255
227 239 255
227 239 255
227 239 255
227 239 255
227 239 255
227 239 255
227 239 255
227 239 255
227 239 255
227 239 255
227 239 255
227 239 255
227 239 255
227 239 255
227 239 255
227 239 255
227 239 255
227 239 255
227 239 255
227 239 255
227 239 255
227 239 255
227 239 255
227 239 255
227 239 255
227 239 255
227 239 255
227 239 255
227 239 255
227 239 255
227 239 255
227 239 255
227 239 255
227 239 255
227 239 255
227 239 255
227 239 255
227 239 255
227 239 255
227 239 255
227 239 255
227 239 255
227 239 255
227 239 255
227 239 255
227 239 255
227 239 255
227 239 255
227 239 255
227 239 255
227 239 255
227 239 255
227 239 255
227 239 255
227 239 255
227 239 255
227 239 255
227 239 255
227 239 255
227 239 255
227 239 255
227 239 255
227 239 255
227 239 255
227 239 255
227 239 255
227 239 255
227 239 255
227 239 255
227 239 255
227 239 255
227 239 255
227 239 255
227 239 255
227 239 255
227 239 255
227 239 255
227 239 255
227 239 255
227 239 255
227 239 255
227 239 255
227 239 255
227 239 255
227 239 255
227 239 255
227 239 255
227 239 255
227 239 255
227 239 255
227 239 255
227 239 255
227 239 255
227 239 255
227 239 255
227 239 255
227 239 255
227 239 255
227 239 255
227 239 255
227 239 255
227 239 255
227 239 255
227 239 255
227 239 255
227 239 255
227 239 255
227 239 255
227 239 255
227 239 255
227 239 255
227 239 255
227 239 255
227 239 255
227 239 255
227 239 255
227 239 255
227 239 255
227 239 255
227 239 255
227 239 255
227 239 255
227 239 255
227 239 255
227 239 255
227 239 255
227 239 255
227 239 255
227 239 255
227 239 255
227 239 255
227 239 255
227 239 255
227 239 255
227 239 255
227 239 255
226 239 255
227 239 255
227 239 255
227 239 255
227 239 255
227 239 255
227 239 255
227 239 255
227 239 255
227 239 255
227 239 255
227 239 255
227 239 255
227 239 255
227 239 255
227 239 255
227 239 255
227 239 255
227 239 255
227 239 255
227 239 255
227 239 255
227 239 255
227 239 255
227 239 255
227 239 255
227 239 255
227 239 255
227 239 255
227 239 255
227 239 255
227 239 255
227 239 255
227 239 255
227 239 255
227 239 255
227 239 255
227 239 255
227 239 255
227 239 255
227 239 255
227 239 255
227 239 255
227 239 255
227 239 255
227 239 255
227 239 255
227 239 255
227 239 255
227 239 255
227 239 255
227 239 255
227 239 255
227 239 255
227 239 255
227 239 255
227 239 255
227 239 255
227 239 255
227 239 255
227 239 255
227 239 255
227 239 255
227 239 255
227 239 255
227 239 255
227 239 255
227 239 255
227 239 255
227 239 255
227 239 255
227 239 255
227 239 255
227 239 255
227 239 255
227 239 255
227 239 255
227 239 255
227 239 255
227 239 255
227 239 255
227 239 255
227 239 255
227 239 255
227 239 255
227 239 255
227 239 255
227 239 255
227 239 255
227 239 255
227 239 255
227 239 255
227 239 255
227 239 255
227 239 255
227 239 255
227 239 255
227 239 255
227 239 255
227 239 255
227 239 255
227 239 255
227 239 255
227 239 255
227 239 255
227 239 255
227 239 255
227 239 255
227 239 255
227 239 255
227 239 255
227 239 255
227 239 255
227 239 255
227 239 255
227 239 255
227 239 255
227 239 255
227 239 255
227 239 255
227 239 255
227 239 255
227 239 255
227 239 255
227 239 255
227 239 255
227 239 255
227 239 255
227 239 255
227 239 255
227 239 255
227 239 255
227 239 255
227 239 255
227 239 255
227 239 255
227 239 255
227 239 255
227 239 255
227 239 255
227 239 255
227 239 255
227 239 255
227 239 255
227 239 255
227 239 255
227 239 255
227 239 255
227 239 255
227 239 255
227 239 255
227 239 255
227 239 255
227 239 255
227 239 255
227 239 255
227 239 255
225 236 252
216 224 237
199 205 218
114 123 149
82 91 124
62 70 108
15 34 93
3 32 92
0 29 90
0 27 89
0 34 94
0 37 96
0 40 98
0 40 99
0 29 90
0 25 87
0 23 85
0 27 86
0 27 87
0 24 82
0 15 76
0 26 85
0 20 80
0 26 85
0 26 84
0 8 71
0 12 71
0 11 72
0 13 74
0 17 79
0 32 91
0 26 88
0 24 86
0 17 79
0 13 73
0 3 62
0 0 66
0 15 76
0 20 80
0 20 83
0 16 78
0 16 78
0 13 77
0 19 80
0 22 84
0 18 80
0 16 77
0 21 80
0 23 84
0 24 87
0 31 93
0 21 82
0 12 75
0 16 77
0 15 76
0 16 77
0 19 82
0 23 86
0 25 86
0 23 85
0 27 88
0 23 84
0 23 83
0 19 81
0 18 80
0 22 84
0 22 84
0 28 87
0 20 83
0 17 79
0 21 83
0 21 83
0 21 82
0 17 78
0 22 81
5 19 78
2 12 72
56 61 99
94 100 131
124 130 153
137 142 164
103 106 131
175 179 195
212 220 231
224 230 240
237 244 253
233 242 254
229 239 255
227 239 255
227 239 255
227 239 255
227 239 255
227 239 255
227 239 255
227 239 255
227 239 255
227 239 255
227 239 255
227 239 255
227 239 255
227 239 255
227 239 255
227 239 255
227 239 255
227 239 255
227 239 255
227 239 255
227 239 255
227 239 255
227 239 255
227 239 255
227 239 255
227 239 255
227 239 255
227 239 255
227 239 255
227 239 255
227 239 255
227 239 255
227 239 255
227 239 255
227 239 255
227 239 255
227 239 255
227 239 255
227 239 255
227 239 255
227 239 255
227 239 255
227 239 255
227 239 255
227 239 255
227 239 255
227 239 255
227 239 255
227 239 255
227 239 255
227 239 255
227 239 255
227 239 255
227 239 255
227 239 255
227 239 255
227 239 255
227 239 255
227 239 255
227 239 255
227 239 255
227 239 255
227 239 255
227 239 255
227 239 255
227 239 255
227 239 255
227 239 255
227 239 255
227 239 255
227 239 255
227 239 255
227 239 255
227 239 255
227 239 255
227 239 255
227 239 255
227 239 255
227 239 255
227 239 255
227 239 255
227 239 255
227 239 255
227 239 255
227 239 255
227 239 255
227 239 255
227 239 255
227 239 255
227 239 255
227 239 255
227 239 255
227 239 255
227 239 255
227 239 255
227 239 255
227 239 255
227 239 255
227 239 255
227 239 255
227 239 255
227 239 255
227 239 255
227 239 255
227 239 255
227 239 255
227 239 255
227 239 255
227 239 255
227 239 255
227 239 255
227 239 255
227 239 255
227 239 255
227 239 255
227 239 255
227 239 255
227 239 255
227 239 255
227 239 255
227 239 255
227 239 255
227 239 255
227 239 255
227 239 255
227 239 255
227 239 255
227 239 255
227 239 255
227 239 255
227 239 255
227 239 255
227 239 255
227 239 255
227 239 255
227 239 255
227 239 255
227 239 255
227 239 255
227 239 255
227 239 255
227 239 255
227 239 255
227 239 255
227 239 255
227 239 255
227 239 255
227 239 255
227 239 255
227 239 255
227 239 255
227 239 255
227 239 255
227 239 255
227 239 255
227 239 255
227 239 255
227 239 255
227 239 255
227 239 255
227 239 255
227 239 255
227 239 255
227 239 255
227 239 255
227 239 255
227 239 255
227 239 255
227 239 255
227 239 255
227 239 255
227 239 255
227 239 255
227 239 255
227 239 255
227 239 255
227 239 255
227 239 255
227 239 255
227 239 255
227 239 255
227 239 255
227 239 255
227 239 255
227 239 255
227 239 255
227 239 255
227 239 255
227 239 255
227 239 255
227 239 255
227 239 255
227 239 255
227 239 255
227 239 255
227 239 255
227 239 255
227 239 255
227 239 255
227 239 255
227 239 255
227 239 255
227 239 255
227 239 255
227 239 255
227 239 255
227 239 255
227 239 255
227 239 255
227 239 255
227 239 255
227 239 255
227 239 255
227 239 255
227 239 255
227 239 255
227 239 255
227 239 255
227 239 255
227 239 255
227 239 255
227 239 255
227 239 255
227 239 255
227 239 255
227 239 255
227 239 255
227 239 255
227 239 255
227 239 255
227 239 255
227 239 255
227 239 255
227 239 255
227 239 255
227 239 255
227 239 255
227 239 255
227 239 255
227 239 255
227 239 255
227 239 255
227 239 255
227 239 255
227 239 255
227 239 255
227 239 255
227 239 255
227 239 255
227 239 255
227 239 255
227 239 255
227 239 255
227 239 255
227 239 255
227 239 255
227 239 255
227 239 255
227 239 255
227 239 255
227 239 255
227 239 255
227 239 255
227 239 255
227 239 255
227 239 255
227 239 255
227 239 255
227 239 255
227 239 255
227 239 255
227 239 255
227 239 255
227 239 255
227 239 255
227 239 255
227 239 255
227 239 255
227 239 255
227 239 255
227 239 255
227 239 255
227 239 255
227 239 255
227 239 255
227 239 255
227 239 255
227 239 255
227 239 255
227 239 255
227 239 255
227 239 255
227 239 255
227 239 255
227 239 255
227 239 255
227 239 255
227 239 255
227 239 255
227 239 255
227 239 255
227 239 255
227 239 255
227 239 255
227 239 255
227 239 255
227 239 255
227 239 255
227 239 255
227 239 255
227 239 255
227 239 255
227 239 255
227 239 255
227 239 255
227 239 255
231 239 252
198 205 219
191 200 213
179 192 209
164 170 187
134 142 162
51 67 115
0 38 98
0 34 93
0 28 88
0 26 86
8 29 87
0 24 86
0 28 90
0 28 90
0 28 90
0 37 96
0 42 102
0 40 98
0 36 94
0 19 81
0 22 82
0 18 80
0 20 80
0 16 78
0 19 82
0 22 83
0 17 79
0 20 82
0 21 82
0 23 84
0 12 73
0 7 69
0 6 67
0 8 70
0 16 78
0 23 83
0 23 84
0 23 83
0 26 86
0 23 84
0 25 85
0 26 89
0 27 88
0 31 92
0 30 91
0 26 87
0 36 95
0 36 94
0 18 79
0 22 83
0 23 84
0 24 85
0 28 89
0 23 86
0 21 84
0 25 85
0 26 86
0 18 81
0 19 82
0 24 86
0 24 85
0 24 84
0 25 86
0 31 90
0 23 84
0 22 83
0 29 90
0 25 87
6 29 88
33 45 98
43 58 105
114 123 152
170 178 195
226 231 241
221 228 239
226 231 241
240 246 254
239 245 253
241 246 254
241 247 255
233 242 255
227 239 255
227 239 255
227 239 255
227 239 255
227 239 255
227 239 255
227 239 255
227 239 255
227 239 255
227 239 255
227 239 255
227 239 255
227 239 255
227 239 255
227 239 255
227 239 255
227 239 255
227 239 255
227 239 255
227 239 255
227 239 255
227 239 255
227 239 255
227 239 255
227 239 255
227 239 255
227 239 255
227 239 255
227 239 255
227 239 255
227 239 255
227 239 255
227 239 255
227 239 255
227 239 255
227 239 255
227 239 255
227 239 255
227 239 255
227 239 255
227 239 255
227 239 255
227 239 255
227 239 255
227 239 255
227 239 255
227 239 255
227 239 255
227 239 255
227 239 255
227 239 255
227 239 255
227 239 255
227 239 255
227 239 255
227 239 255
227 239 255
227 239 255
227 239 255
227 239 255
227 239 255
227 239 255
227 239 255
227 239 255
227 239 255
227 239 255
227 239 255
227 239 255
227 239 255
227 239 255
227 239 255
227 239 255
227 239 255
227 239 255
227 239 255
227 239 255
227 239 255
227 239 255
227 239 255
227 239 255
227 239 255
227 239 255
227 239 255
227 239 255
227 239 255
227 239 255
227 239 255
227 239 255
227 239 255
227 239 255
227 239 255
227 239 255
227 239 255
227 239 255
227 239 255
227 239 255
227 239 255
227 239 255
227 239 255
227 239 255
227 239 255
227 239 255
227 239 255
227 239 255
227 239 255
227 239 255
227 239 255
227 239 255
227 239 255
227 239 255
227 239 255
227 239 255
227 239 255
227 239 255
227 239 255
227 239 255
227 239 255
227 239 255
227 239 255
227 239 255
227 239 255
227 239 255
227 239 255
227 239 255
227 239 255
227 239 255
227 239 255
227 239 255
227 239 255
227 239 255
227 239 255
227 239 255
227 239 255
227 239 255
227 239 255
227 239 255
227 239 255
227 239 255
227 239 255
227 239 255
227 239 255
227 239 255
227 239 255
227 239 255
227 239 255
227 239 255
227 239 255
227 239 255
227 239 255
227 239 255
227 239 255
227 239 255
227 239 255
227 239 255
227 239 255
227 239 255
227 239 255
227 239 255
227 239 255
227 239 255
227 239 255
227 239 255
227 239 255
227 239 255
227 239 255
227 239 255
227 239 255
227 239 255
227 239 255
227 239 255
227 239 255
227 239 255
227 239 255
227 239 255
227 239 255
227 239 255
227 239 255
227 239 255
227 239 255
227 239 255
227 239 255
227 239 255
227 239 255
227 239 255
227 239 255
227 239 255
227 239 255
227 239 255
227 239 255
227 239 255
227 239 255
227 239 255
227 239 255
227 239 255
227 239 255
227 239 255
227 239 255
227 239 255
227 239 255
227 239 255
227 239 255
227 239 255
227 239 255
227 239 255
227 239 255
227 239 255
227 239 255
227 239 255
227 239 255
227 239 255
227 239 255
227 239 255
227 239 255
227 239 255
227 239 255
227 239 255
227 239 255
227 239 255
227 239 255
227 239 255
227 239 255
227 239 255
227 239 255
227 239 255
227 239 255
227 239 255
227 239 255
227 239 255
227 239 255
227 239 255
227 239 255
227 239 255
227 239 255
227 239 255
227 239 255
227 239 255
227 239 255
227 239 255
227 239 255
227 239 255
227 239 255
227 239 255
227 239 255
227 239 255
227 239 255
227 239 255
227 239 255
227 239 255
227 239 255
227 239 255
227 239 255
227 239 255
227 239 255
227 239 255
227 239 255
227 239 255
227 239 255
227 239 255
227 239 255
227 239 255
227 239 255
227 239 255
227 239 255
227 239 255
227 239 255
227 239 255
227 239 255
227 239 255
227 239 255
227 239 255
227 239 255
227 239 255
227 239 255
227 239 255
227 239 255
227 239 255
227 239 255
227 239 255
227 239 255
227 239 255
227 239 255
227 239 255
227 239 255
227 239 255
227 239 255
227 239 255
227 239 255
227 239 255
227 239 255
227 239 255
227 239 255
227 239 255
227 239 255
227 239 255
227 239 255
227 239 255
227 239 255
227 239 255
227 239 255
227 239 255
227 239 255
227 239 255
227 239 255
227 239 255
227 239 255
227 239 255
227 239 255
227 239 255
227 239 255
227 239 255
227 239 255
227 239 255
227 239 255
227 239 255
227 239 255
227 239 255
227 239 255
227 239 255
227 239 255
227 239 255
230 240 255
236 244 255
242 247 254
243 248 255
239 245 253
215 224 235
176 183 201
145 154 175
97 107 138
135 146 172
111 118 143
45 55 99
3 23 85
6 29 90
5 30 91
0 28 87
8 29 89
13 33 93
0 30 89
0 25 86
0 23 83
4 20 82
3 23 83
0 20 79
0 23 84
0 19 82
0 17 80
0 16 78
0 18 79
0 21 82
0 16 76
17 31 86
7 16 74
0 10 72
0 15 75
0 23 82
0 22 81
0 18 77
0 16 76
0 21 82
60 79 123
86 96 131
85 95 130
77 87 125
50 61 108
57 64 106
6 23 85
4 23 84
0 21 83
0 26 86
0 24 87
0 29 90
0 33 93
0 29 90
0 30 88
17 36 93
4 27 88
14 34 91
0 28 90
0 32 92
11 44 102
77 88 127
111 118 144
94 106 139
58 75 121
57 70 113
109 119 147
149 159 179
201 209 224
212 218 230
239 244 252
241 246 253
243 248 255
242 248 255
244 249 255
244 249 255
238 245 255
229 240 255
227 239 255
227 239 255
227 239 255
227 239 255
227 239 255
227 239 255
227 239 255
227 239 255
227 239 255
227 239 255
227 239 255
227 239 255
227 239 255
227 239 255
227 239 255
227 239 255
227 239 255
227 239 255
227 239 255
227 239 255
227 239 255
227 239 255
227 239 255
227 239 255
227 239 255
227 239 255
227 239 255
227 239 255
227 239 255
227 239 255
227 239 255
227 239 255
227 239 255
227 239 255
227 239 255
227 239 255
227 239 255
227 239 255
227 239 255
227 239 255
227 239 255
227 239 255
227 239 255
227 239 255
227 239 255
227 239 255
227 239 255
227 239 255
227 239 255
227 239 255
227 239 255
227 239 255
227 239 255
227 239 255
227 239 255
227 239 255
227 239 255
227 239 255
227 239 255
227 239 255
227 239 255
227 239 255
227 239 255
227 239 255
227 239 255
227 239 255
227 239 255
227 239 255
227 239 255
227 239 255
227 239 255
227 239 255
227 239 255
227 239 255
227 239 255
227 239 255
227 239 255
227 239 255
227 239 255
227 239 255
227 239 255
227 239 255
227 239 255
227 239 255
227 239 255
227 239 255
227 239 255
227 239 255
227 239 255
227 239 255
227 239 255
227 239 255
227 239 255
227 239 255
227 239 255
227 239 255
227 239 255
227 239 255
227 239 255
227 239 255
227 239 255
227 239 255
227 239 255
227 239 255
227 239 255
227 239 255
227 239 255
227 239 255
227 239 255
227 239 255
227 239 255
227 239 255
227 239 255
227 239 255
227 239 255
227 239 255
227 239 255
227 239 255
227 239 255
227 239 255
227 239 255
227 239 255
227 239 255
227 239 255
227 239 255
227 239 255
227 239 255
227 239 255
227 239 255
227 239 255
227 239 255
227 239 255
227 239 255
227 239 255
227 239 255
227 239 255
227 239 255
227 239 255
227 239 255
227 239 255
227 239 255
227 239 255
227 239 255
227 239 255
227 239 255
227 239 255
227 239 255
227 239 255
227 239 255
227 239 255
227 239 255
227 239 255
227 239 255
227 239 255
227 239 255
227 239 255
227 239 255
227 239 255
227 239 255
227 239 255
227 239 255
227 239 255
227 239 255
227 239 255
227 239 255
227 239 255
227 239 255
227 239 255
227 239 255
227 239 255
227 239 255
227 239 255
227 239 255
227 239 255
227 239 255
227 239 255
227 239 255
227 239 255
227 239 255
227 239 255
227 239 255
227 239 255
227 239 255
227 239 255
227 239 255
227 239 255
227 239 255
227 239 255
227 239 255
227 239 255
227 239 255
227 239 255
227 239 255
227 239 255
227 239 255
227 239 255
227 239 255
227 239 255
227 239 255
227 239 255
227 239 255
227 239 255
227 239 255
227 239 255
227 239 255
227 239 255
227 239 255
227 239 255
227 239 255
227 239 255
227 239 255
227 239 255
227 239 255
227 239 255
227 239 255
227 239 255
227 239 255
227 239 255
227 239 255
227 239 255
227 239 255
227 239 255
227 239 255
227 239 255
227 239 255
227 239 255
227 239 255
227 239 255
227 239 255
227 239 255
227 239 255
227 239 255
227 239 255
227 239 255
227 239 255
227 239 255
227 239 255
227 239 255
227 239 255
227 239 255
227 239 255
227 239 255
227 239 255
227 239 255
227 239 255
227 239 255
227 239 255
227 239 255
227 239 255
227 239 255
227 239 255
227 239 255
227 239 255
227 239 255
227 239 255
227 239 255
227 239 255
227 239 255
227 239 255
227 239 255
227 239 255
227 239 255
227 239 255
227 239 255
227 239 255
227 239 255
227 239 255
227 239 255
227 239 255
227 239 255
227 239 255
227 239 255
227 239 255
227 239 255
227 239 255
227 239 255
227 239 255
227 239 255
227 239 255
227 239 255
227 239 255
227 239 255
227 239 255
227 239 255
227 239 255
227 239 255
227 239 255
227 239 255
227 239 255
227 239 255
227 239 255
227 239 255
227 239 255
227 239 255
227 239 255
227 239 255
227 239 255
227 239 255
227 239 255
227 239 255
227 239 255
227 239 255
227 239 255
227 239 255
227 239 255
227 239 255
227 239 255
227 239 255
227 239 255
227 239 255
227 239 255
227 239 255
227 239 255
227 239 255
227 239 255
227 239 255
227 239 255
227 239 255
227 239 255
227 239 255
227 239 255
227 239 255
227 239 255
227 239 255
227 239 255
232 242 255
238 245 255
242 248 255
243 248 255
242 247 255
243 248 255
239 245 253
240 247 254
238 244 251
217 223 232
197 203 216
148 156 176
158 165 185
132 139 162
157 168 191
149 160 180
120 131 159
173 181 196
166 174 193
152 163 186
161 169 188
180 187 203
177 184 200
158 164 183
110 116 141
83 93 125
51 66 112
57 70 115
82 93 129
153 164 188
166 173 192
147 156 178
99 104 133
129 136 151
139 142 162
75 81 112
46 53 95
107 115 149
196 204 219
236 242 253
207 212 226
210 216 227
150 157 177
101 112 142
129 139 163
124 134 162
44 63 111
75 90 127
97 109 142
86 93 127
57 68 114
24 48 100
40 62 109
39 60 109
12 50 105
0 37 96
75 99 135
205 220 231
224 231 241
197 209 224
223 232 241
226 233 244
226 234 245
238 244 251
240 247 254
241 247 255
243 248 255
243 248 255
241 247 255
241 247 255
238 245 255
234 243 255
228 239 255
227 239 255
227 239 255
227 239 255
227 239 255
227 239 255
227 239 255
227 239 255
227 239 255
227 239 255
227 239 255
227 239 255
227 239 255
227 239 255
227 239 255
227 239 255
227 239 255
227 239 255
227 239 255
227 239 255
227 239 255
227 239 255
227 239 255
227 239 255
227 239 255
227 239 255
227 239 255
227 239 255
227 239 255
227 239 255
227 239 255
227 239 255
227 239 255
227 239 255
227 239 255
227 239 255
227 239 255
227 239 255
227 239 255
227 239 255
227 239 255
227 239 255
227 239 255
227 239 255
227 239 255
227 239 255
227 239 255
227 239 255
227 239 255
227 239 255
227 239 255
227 239 255
227 239 255
227 239 255
227 239 255
227 239 255
227 239 255
227 239 255
227 239 255
227 239 255
227 239 255
227 239 255
227 239 255
227 239 255
227 239 255
227 239 255
227 239 255
227 239 255
227 239 255
227 239 255
227 239 255
227 239 255
227 239 255
227 239 255
227 239 255
227 239 255
227 239 255
227 239 255
227 239 255
227 239 255
227 239 255
227 239 255
227 239 255
227 239 255
227 239 255
227 239 255
227 239 255
227 239 255
227 239 255
227 239 255
227 239 255
227 239 255
227 239 255
227 239 255
227 239 255
227 239 255
227 239 255
227 239 255
227 239 255
227 239 255
227 239 255
227 239 255
227 239 255
227 239 255
227 239 255
227 239 255
227 239 255
227 239 255
227 239 255
227 239 255
227 239 255
227 239 255
227 239 255
227 239 255
227 239 255
227 239 255
227 239 255
227 239 255
227 239 255
227 239 255
227 239 255
227 239 255
227 239 255
227 239 255
227 239 255
227 239 255
227 239 255
227 239 255
227 239 255
227 239 255
227 239 255
227 239 255
227 239 255
227 239 255
227 239 255
227 239 255
227 239 255
227 239 255
227 239 255
227 239 255
227 239 255
227 239 255
227 239 255
227 239 255
227 239 255
227 239 255
227 239 255
227 239 255
227 239 255
227 239 255
227 239 255
227 239 255
227 239 255
227 239 255
227 239 255
227 239 255
227 239 255
227 239 255
227 239 255
227 239 255
227 239 255
227 239 255
227 239 255
227 239 255
227 239 255
227 239 255
227 239 255
227 239 255
227 239 255
227 239 255
227 239 255
227 239 255
227 239 255
227 239 255
227 239 255
227 239 255
227 239 255
227 239 255
227 239 255
227 239 255
227 239 255
227 239 255
227 239 255
227 239 255
227 239 255
227 239 255
227 239 255
227 239 255
227 239 255
227 239 255
227 239 255
227 239 255
227 239 255
227 239 255
227 239 255
227 239 255
227 239 255
227 239 255
227 239 255
227 239 255
227 239 255
227 239 255
227 239 255
227 239 255
227 239 255
227 239 255
227 239 255
227 239 255
227 239 255
227 239 255
227 239 255
227 239 255
227 239 255
227 239 255
227 239 255
227 239 255
227 239 255
227 239 255
227 239 255
227 239 255
227 239 255
227 239 255
227 239 255
227 239 255
227 239 255
227 239 255
227 239 255
227 239 255
227 239 255
227 239 255
227 239 255
227 239 255
227 239 255
227 239 255
227 239 255
227 239 255
227 239 255
227 239 255
227 239 255
227 239 255
227 239 255
227 239 255
227 239 255
227 239 255
227 239 255
227 239 255
227 239 255
227 239 255
227 239 255
227 239 255
227 239 255
227 239 255
227 239 255
227 239 255
227 239 255
227 239 255
227 239 255
227 239 255
227 239 255
227 239 255
227 239 255
227 239 255
227 239 255
227 239 255
227 239 255
227 239 255
227 239 255
227 239 255
227 239 255
227 239 255
227 239 255
227 239 255
227 239 255
227 239 255
227 239 255
227 239 255
227 239 255
227 239 255
227 239 255
227 239 255
227 239 255
227 239 255
227 239 255
227 239 255
227 239 255
227 239 255
227 239 255
227 239 255
227 239 255
227 239 255
227 239 255
227 239 255
227 239 255
227 239 255
227 239 255
227 239 255
227 239 255
227 239 255
227 239 255
227 239 255
227 239 255
227 239 255
227 239 255
227 239 255
227 239 255
227 239 255
227 239 255
227 239 255
227 239 255
227 239 255
227 239 255
227 239 255
227 239 255
227 239 255
227 239 255
227 239 255
227 239 255
227 239 255
227 239 255
227 239 255
227 239 255
227 239 255
227 239 255
227 239 255
227 239 255
227 239 255
227 239 255
227 239 255
227 239 255
227 239 255
227 239 255
232 242 255
238 245 255
241 247 255
243 248 255
242 248 255
243 248 255
243 248 255
244 248 255
243 248 255
240 247 255
243 248 255
242 247 253
243 248 255
243 248 255
241 247 254
242 247 254
243 247 253
242 247 254
241 246 253
240 246 255
240 247 253
240 246 254
242 247 253
237 244 251
235 242 249
224 231 242
222 228 240
206 216 228
219 225 236
211 218 228
169 179 199
158 166 188
165 174 192
221 228 238
234 241 249
242 247 253
242 247 254
230 237 246
227 233 242
218 223 236
196 203 214
196 202 217
206 214 224
227 234 244
240 246 254
242 247 254
242 247 254
233 240 249
238 245 253
231 238 246
229 235 243
217 227 239
214 222 235
220 230 241
215 227 239
223 233 243
239 245 253
241 247 255
242 248 255
242 248 255
243 248 255
241 247 255
243 248 255
244 248 255
235 243 255
232 242 255
228 239 255
227 239 255
227 239 255
227 239 255
227 239 255
227 239 255
227 239 255
227 239 255
227 239 255
227 239 255
227 239 255
227 239 255
227 239 255
227 239 255
227 239 255
227 239 255
227 239 255
227 239 255
227 239 255
227 239 255
227 239 255
227 239 255
227 239 255
227 239 255
227 239 255
227 239 255
227 239 255
227 239 255
227 239 255
227 239 255
227 239 255
227 239 255
227 239 255
227 239 255
227 239 255
227 239 255
227 239 255
227 239 255
227 239 255
227 239 255
227 239 255
227 239 255
227 239 255
227 239 255
227 239 255
227 239 255
227 239 255
227 239 255
227 239 255
227 239 255
227 239 255
227 239 255
227 239 255
227 239 255
227 239 255
227 239 255
227 239 255
227 239 255
227 239 255
227 239 255
227 239 255
227 239 255
227 239 255
227 239 255
227 239 255
227 239 255
227 239 255
227 239 255
227 239 255
227 239 255
227 239 255
227 239 255
227 239 255
227 239 255
227 239 255
227 239 255
227 239 255
227 239 255
227 239 255
227 239 255
227 239 255
227 239 255
227 239 255
227 239 255
227 239 255
227 239 255
227 239 255
227 239 255
227 239 255
227 239 255
227 239 255
227 239 255
227 239 255
227 239 255
227 239 255
227 239 255
227 239 255
227 239 255
227 239 255
227 239 255
227 239 255
227 239 255
227 239 255
227 239 255
227 239 255
227 239 255
227 239 255
227 239 255
227 239 255
227 239 255
227 239 255
227 239 255
227 239 255
227 239 255
227 239 255
227 239 255
227 239 255
227 239 255
227 239 255
227 239 255
227 239 255
227 239 255
227 239 255
227 239 255
227 239 255
227 239 255
227 239 255
227 239 255
227 239 255
227 239 255
227 239 255
227 239 255
227 239 255
227 239 255
227 239 255
227 239 255
227 239 255
227 239 255
227 239 255
227 239 255
227 239 255
227 239 255
227 239 255
227 239 255
227 239 255
227 239 255
227 239 255
227 239 255
227 239 255
227 239 255
227 239 255
227 239 255
227 239 255
227 239 255
227 239 255
227 239 255
227 239 255
227 239 255
227 239 255
227 239 255
227 239 255
227 239 255
227 239 255
227 239 255
227 239 255
227 239 255
227 239 255
227 239 255
227 239 255
227 239 255
227 239 255
227 239 255
227 239 255
227 239 255
227 239 255
227 239 255
227 239 255
227 239 255
227 239 255
227 239 255
227 239 255
227 239 255
227 239 255
227 239 255
227 239 255
227 239 255
227 239 255
227 239 255
227 239 255
227 239 255
227 239 255
227 239 255
227 239 255
227 239 255
227 239 255
227 239 255
227 239 255
227 239 255
227 239 255
227 239 255
227 239 255
227 239 255
227 239 255
227 239 255
227 239 255
227 239 255
227 239 255
227 239 255
227 239 255
227 239 255
227 239 255
227 239 255
227 239 255
227 239 255
227 239 255
227 239 255
227 239 255
227 239 255
227 239 255
227 239 255
227 239 255
227 239 255
227 239 255
227 239 255
227 239 255
227 239 255
227 239 255
227 239 255
227 239 255
227 239 255
227 239 255
227 239 255
227 239 255
227 239 255
227 239 255
227 239 255
227 239 255
227 239 255
227 239 255
227 239 255
227 239 255
227 239 255
227 239 255
227 239 255
227 239 255
227 239 255
227 239 255
227 239 255
227 239 255
227 239 255
227 239 255
227 239 255
227 239 255
227 239 255
227 239 255
227 239 255
227 239 255
227 239 255
227 239 255
227 239 255
227 239 255
227 239 255
227 239 255
227 239 255
227 239 255
227 239 255
227 239 255
227 239 255
227 239 255
227 239 255
227 239 255
227 239 255
227 239 255
227 239 255
227 239 255
227 239 255
227 239 255
227 239 255
227 239 255
227 239 255
227 239 255
227 239 255
227 239 255
227 239 255
227 239 255
227 239 255
227 239 255
227 239 255
227 239 255
227 239 255
227 239 255
227 239 255
227 239 255
227 239 255
227 239 255
227 239 255
227 239 255
227 239 255
227 239 255
227 239 255
227 239 255
227 239 255
227 239 255
227 239 255
227 239 255
227 239 255
227 239 255
227 239 255
227 239 255
227 239 255
227 239 255
227 239 255
227 239 255
227 239 255
227 239 255
227 239 255
227 239 255
227 239 255
227 239 255
227 239 255
227 239 255
227 239 255
227 239 255
227 239 255
227 239 255
227 239 255
227 239 255
227 239 255
227 239 255
227 239 255
227 239 255
227 239 255
227 239 255
227 239 255
227 239 255
227 239 255
227 239 255
230 240 255
235 244 255
239 246 255
244 249 255
243 248 255
242 247 255
241 247 255
243 248 255
243 248 255
242 248 255
241 247 255
243 248 255
243 248 255
242 248 255
244 248 255
243 248 255
243 248 255
242 247 255
244 249 255
243 248 255
241 247 255
241 247 255
245 249 255
244 249 255
242 248 255
240 246 255
242 247 255
241 246 255
241 246 255
241 247 255
243 248 255
241 247 255
243 248 255
242 248 255
242 248 255
244 249 255
242 248 255
243 248 255
243 248 255
243 248 255
241 247 255
242 248 255
242 248 255
242 248 255
242 247 255
240 246 254
229 238 247
228 237 246
227 237 246
231 240 249
239 245 253
242 247 255
244 249 255
244 248 255
243 248 255
244 248 255
243 248 255
241 247 255
236 244 255
232 242 255
227 239 255
227 239 255
227 239 255
227 239 255
227 239 255
227 239 255
227 239 255
227 239 255
227 239 255
227 239 255
227 239 255
227 239 255
227 239 255
227 239 255
227 239 255
227 239 255
227 239 255
227 239 255
227 239 255
227 239 255
227 239 255
227 239 255
227 239 255
227 239 255
227 239 255
227 239 255
227 239 255
227 239 255
227 239 255
227 239 255
227 239 255
227 239 255
227 239 255
227 239 255
227 239 255
227 239 255
227 239 255
227 239 255
227 239 255
227 239 255
227 239 255
227 239 255
227 239 255
227 239 255
227 239 255
227 239 255
227 239 255
227 239 255
227 239 255
227 239 255
227 239 255
227 239 255
227 239 255
227 239 255
227 239 255
227 239 255
227 239 255
227 239 255
227 239 255
227 239 255
227 239 255
227 239 255
227 239 255
227 239 255
227 239 255
227 239 255
227 239 255
227 239 255
227 239 255
227 239 255
227 239 255
227 239 255
227 239 255
227 239 255
227 239 255
227 239 255
227 239 255
227 239 255
227 239 255
227 239 255
227 239 255
227 239 255
227 239 255
227 239 255
227 239 255
227 239 255
227 239 255
227 239 255
227 239 255
227 239 255
227 239 255
227 239 255
227 239 255
227 239 255
227 239 255
227 239 255
227 239 255
227 239 255
227 239 255
227 239 255
227 239 255
227 239 255
227 239 255
227 239 255
227 239 255
227 239 255
227 239 255
227 239 255
227 239 255
227 239 255
227 239 255
227 239 255
227 239 255
227 239 255
227 239 255
227 239 255
227 239 255
227 239 255
227 239 255
227 239 255
227 239 255
227 239 255
227 239 255
227 239 255
227 239 255
227 239 255
227 239 255
227 239 255
227 239 255
227 239 255
227 239 255
227 239 255
227 239 255
227 239 255
227 239 255
227 239 255
227 239 255
227 239 255
227 239 255
227 239 255
227 239 255
227 239 255
227 239 255
227 239 255
227 239 255
227 239 255
227 239 255
227 239 255
227 239 255
227 239 255
227 239 255
227 239 255
227 239 255
227 239 255
227 239 255
227 239 255
227 239 255
227 239 255
227 239 255
227 239 255
227 239 255
227 239 255
227 239 255
227 239 255
227 239 255
227 239 255
227 239 255
227 239 255
227 239 255
227 239 255
227 239 255
227 239 255
227 239 255
227 239 255
227 239 255
227 239 255
227 239 255
227 239 255
227 239 255
227 239 255
227 239 255
227 239 255
227 239 255
227 239 255
227 239 255
227 239 255
227 239 255
227 239 255
227 239 255
227 239 255
227 239 255
227 239 255
227 239 255
227 239 255
227 239 255
227 239 255
227 239 255
227 239 255
227 239 255
227 239 255
227 239 255
227 239 255
227 239 255
227 239 255
227 239 255
227 239 255
227 239 255
227 239 255
227 239 255
227 239 255
227 239 255
227 239 255
227 239 255
227 239 255
227 239 255
227 239 255
227 239 255
227 239 255
227 239 255
227 239 255
227 239 255
227 239 255
227 239 255
227 239 255
227 239 255
227 239 255
227 239 255
227 239 255
227 239 255
227 239 255
227 239 255
227 239 255
227 239 255
227 239 255
227 239 255
227 239 255
227 239 255
227 239 255
227 239 255
227 239 255
227 239 255
227 239 255
227 239 255
227 239 255
227 239 255
227 239 255
227 239 255
227 239 255
227 239 255
227 239 255
227 239 255
227 239 255
227 239 255
227 239 255
227 239 255
227 239 255
227 239 255
227 239 255
227 239 255
227 239 255
227 239 255
227 239 255
227 239 255
227 239 255
227 239 255
227 239 255
227 239 255
227 239 255
227 239 255
227 239 255
227 239 255
227 239 255
227 239 255
227 239 255
227 239 255
227 239 255
227 239 255
227 239 255
227 239 255
227 239 255
227 239 255
227 239 255
227 239 255
227 239 255
227 239 255
227 239 255
227 239 255
227 239 255
227 239 255
227 239 255
227 239 255
227 239 255
227 239 255
227 239 255
227 239 255
227 239 255
227 239 255
227 239 255
227 239 255
227 239 255
227 239 255
227 239 255
227 239 255
227 239 255
227 239 255
227 239 255
227 239 255
227 239 255
227 239 255
227 239 255
227 239 255
227 239 255
227 239 255
227 239 255
227 239 255
227 239 255
227 239 255
227 239 255
227 239 255
227 239 255
227 239 255
227 239 255
227 239 255
227 239 255
227 239 255
227 239 255
227 239 255
227 239 255
227 239 255
227 239 255
227 239 255
227 239 255
227 239 255
227 239 255
227 239 255
227 239 255
227 239 255
227 239 255
227 239 255
227 239 255
227 239 255
227 239 255
227 239 255
228 239 255
232 242 255
236 244 255
239 245 255
242 247 255
243 248 255
243 248 255
244 249 255
243 248 255
243 248 255
243 248 255
244 249 255
242 247 255
243 248 255
242 247 255
244 249 255
245 249 255
245 249 255
242 248 255
242 247 255
243 248 255
243 248 255
243 248 255
243 248 255
242 248 255
242 247 255
243 248 255
243 248 255
241 247 255
244 249 255
244 249 255
243 248 255
243 248 255
243 248 255
242 248 255
244 249 255
242 247 255
242 247 255
242 247 255
237 244 250
233 241 250
236 243 251
235 242 250
219 231 242
221 233 244
235 242 251
243 248 255
244 249 255
242 248 255
243 248 255
240 246 255
235 244 255
230 241 255
227 239 255
227 239 255
227 239 255
227 239 255
227 239 255
227 239 255
227 239 255
227 239 255
227 239 255
227 239 255
227 239 255
227 239 255
227 239 255
227 239 255
227 239 255
227 239 255
227 239 255
227 239 255
227 239 255
227 239 255
227 239 255
227 239 255
227 239 255
227 239 255
227 239 255
227 239 255
227 239 255
227 239 255
227 239 255
227 239 255
227 239 255
227 239 255
227 239 255
227 239 255
227 239 255
227 239 255
227 239 255
227 239 255
227 239 255
227 239 255
227 239 255
227 239 255
227 239 255
227 239 255
227 239 255
227 239 255
227 239 255
227 239 255
227 239 255
227 239 255
227 239 255
227 239 255
227 239 255
227 239 255
227 239 255
227 239 255
227 239 255
227 239 255
227 239 255
227 239 255
227 239 255
227 239 255
227 239 255
227 239 255
227 239 255
227 239 255
227 239 255
227 239 255
227 239 255
227 239 255
227 239 255
227 239 255
227 239 255
227 239 255
227 239 255
227 239 255
227 239 255
227 239 255
227 239 255
227 239 255
227 239 255
227 239 255
227 239 255
227 239 255
227 239 255
227 239 255
227 239 255
227 239 255
227 239 255
227 239 255
227 239 255
227 239 255
227 239 255
227 239 255
227 239 255
227 239 255
227 239 255
227 239 255
227 239 255
227 239 255
227 239 255
227 239 255
227 239 255
227 239 255
227 239 255
227 239 255
227 239 255
227 239 255
227 239 255
227 239 255
227 239 255
227 239 255
227 239 255
227 239 255
227 239 255
227 239 255
227 239 255
227 239 255
227 239 255
227 239 255
227 239 255
227 239 255
227 239 255
227 239 255
227 239 255
227 239 255
227 239 255
227 239 255
227 239 255
227 239 255
227 239 255
227 239 255
227 239 255
227 239 255
227 239 255
227 239 255
227 239 255
227 239 255
227 239 255
227 239 255
227 239 255
227 239 255
227 239 255
227 239 255
227 239 255
227 239 255
227 239 255
227 239 255
227 239 255
227 239 255
227 239 255
227 239 255
227 239 255
227 239 255
227 239 255
227 239 255
227 239 255
227 239 255
227 239 255
227 239 255
227 239 255
227 239 255
227 239 255
227 239 255
227 239 255
227 239 255
227 239 255
227 239 255
227 239 255
227 239 255
227 239 255
227 239 255
227 239 255
227 239 255
227 239 255
227 239 255
227 239 255
227 239 255
227 239 255
227 239 255
227 239 255
227 239 255
227 239 255
227 239 255
227 239 255
227 239 255
227 239 255
227 239 255
227 239 255
227 239 255
227 239 255
227 239 255
227 239 255
227 239 255
227 239 255
227 239 255
227 239 255
227 239 255
227 239 255
227 239 255
227 239 255
227 239 255
227 239 255
227 239 255
227 239 255
227 239 255
227 239 255
227 239 255
227 239 255
227 239 255
227 239 255
227 239 255
227 239 255
227 239 255
227 239 255
227 239 255
227 239 255
227 239 255
227 239 255
227 239 255
227 239 255
227 239 255
227 239 255
227 239 255
227 239 255
227 239 255
227 239 255
227 239 255
227 239 255
227 239 255
227 239 255
227 239 255
227 239 255
227 239 255
227 239 255
227 239 255
227 239 255
227 239 255
227 239 255
227 239 255
227 239 255
227 239 255
227 239 255
227 239 255
227 239 255
227 239 255
227 239 255
227 239 255
227 239 255
227 239 255
227 239 255
227 239 255
227 239 255
227 239 255
227 239 255
227 239 255
227 239 255
227 239 255
227 239 255
227 239 255
227 239 255
227 239 255
227 239 255
227 239 255
227 239 255
227 239 255
227 239 255
227 239 255
227 239 255
227 239 255
227 239 255
227 239 255
227 239 255
227 239 255
227 239 255
227 239 255
227 239 255
227 239 255
227 239 255
227 239 255
227 239 255
227 239 255
227 239 255
227 239 255
227 239 255
227 239 255
227 239 255
227 239 255
227 239 255
227 239 255
227 239 255
227 239 255
227 239 255
227 239 255
227 239 255
227 239 255
227 239 255
227 239 255
227 239 255
227 239 255
227 239 255
227 239 255
227 239 255
227 239 255
227 239 255
227 239 255
227 239 255
227 239 255
227 239 255
227 239 255
227 239 255
227 239 255
227 239 255
227 239 255
227 239 255
227 239 255
227 239 255
227 239 255
227 239 255
227 239 255
227 239 255
227 239 255
227 239 255
227 239 255
227 239 255
227 239 255
227 239 255
227 239 255
227 239 255
227 239 255
227 239 255
227 239 255
227 239 255
227 239 255
227 239 255
227 239 255
227 239 255
227 239 255
227 239 255
227 239 255
227 239 255
227 239 255
227 239 255
227 239 255
227 239 255
227 239 255
227 239 255
227 239 255
227 239 255
227 239 255
227 239 255
228 239 255
231 241 255
235 243 255
234 243 254
236 244 254
239 245 252
242 247 254
242 247 254
244 249 255
244 249 255
243 248 255
243 248 255
242 248 255
244 249 255
243 248 255
244 248 255
242 247 255
242 247 254
242 247 255
245 249 255
244 249 255
243 248 255
243 248 255
244 248 255
245 249 255
244 249 255
243 248 255
244 249 255
244 249 255
242 248 255
244 248 255
243 247 254
234 240 249
234 240 249
234 241 249
222 233 242
222 233 244
223 234 243
223 233 243
233 241 249
241 246 254
240 246 255
236 244 255
234 243 255
230 241 255
227 239 255
227 239 255
227 239 255
227 239 255
227 239 255
227 239 255
227 239 255
227 239 255
227 239 255
227 239 255
227 239 255
227 239 255
227 239 255
227 239 255
227 239 255
227 239 255
227 239 255
227 239 255
227 239 255
227 239 255
227 239 255
227 239 255
227 239 255
227 239 255
227 239 255
227 239 255
227 239 255
227 239 255
227 239 255
227 239 255
227 239 255
227 239 255
227 239 255
227 239 255
227 239 255
227 239 255
227 239 255
227 239 255
227 239 255
227 239 255
227 239 255
227 239 255
227 239 255
227 239 255
227 239 255
227 239 255
227 239 255
227 239 255
227 239 255
227 239 255
227 239 255
227 239 255
227 239 255
227 239 255
227 239 255
227 239 255
227 239 255
227 239 255
227 239 255
227 239 255
227 239 255
227 239 255
227 239 255
227 239 255
227 239 255
227 239 255
227 239 255
227 239 255
227 239 255
227 239 255
227 239 255
227 239 255
227 239 255
227 239 255
227 239 255
227 239 255
227 239 255
227 239 255
227 239 255
227 239 255
227 239 255
227 239 255
227 239 255
227 239 255
227 239 255
227 239 255
227 239 255
227 239 255
227 239 255
227 239 255
227 239 255
227 239 255
227 239 255
227 239 255
227 239 255
227 239 255
227 239 255
227 239 255
227 239 255
227 239 255
227 239 255
227 239 255
227 239 255
227 239 255
227 239 255
227 239 255
227 239 255
227 239 255
227 239 255
227 239 255
227 239 255
227 239 255
227 239 255
227 239 255
227 239 255
227 239 255
227 239 255
227 239 255
227 239 255
227 239 255
227 239 255
227 239 255
227 239 255
227 239 255
227 239 255
227 239 255
227 239 255
227 239 255
227 239 255
227 239 255
227 239 255
227 239 255
227 239 255
227 239 255
227 239 255
227 239 255
227 239 255
227 239 255
227 239 255
227 239 255
227 239 255
227 239 255
227 239 255
227 239 255
227 239 255
227 239 255
227 239 255
227 239 255
227 239 255
227 239 255
227 239 255
227 239 255
227 239 255
227 239 255
227 239 255
227 239 255
227 239 255
227 239 255
227 239 255
227 239 255
227 239 255
227 239 255
227 239 255
227 239 255
227 239 255
227 239 255
227 239 255
227 239 255
227 239 255
227 239 255
227 239 255
227 239 255
227 239 255
227 239 255
227 239 255
227 239 255
227 239 255
227 239 255
227 239 255
227 239 255
227 239 255
227 239 255
227 239 255
227 239 255
227 239 255
227 239 255
227 239 255
227 239 255
227 239 255
227 239 255
227 239 255
227 239 255
227 239 255
227 239 255
227 239 255
227 239 255
227 239 255
227 239 255
227 239 255
227 239 255
227 239 255
227 239 255
227 239 255
227 239 255
227 239 255
227 239 255
227 239 255
227 239 255
227 239 255
227 239 255
227 239 255
227 239 255
227 239 255
227 239 255
227 239 255
227 239 255
227 239 255
227 239 255
227 239 255
227 239 255
227 239 255
227 239 255
227 239 255
227 239 255
227 239 255
227 239 255
227 239 255
227 239 255
227 239 255
227 239 255
227 239 255
227 239 255
227 239 255
227 239 255
227 239 255
227 239 255
227 239 255
227 239 255
227 239 255
227 239 255
227 239 255
227 239 255
227 239 255
227 239 255
227 239 255
227 239 255
227 239 255
227 239 255
227 239 255
227 239 255
227 239 255
227 239 255
227 239 255
227 239 255
227 239 255
227 239 255
227 239 255
227 239 255
227 239 255
227 239 255
227 239 255
227 239 255
227 239 255
227 239 255
227 239 255
227 239 255
227 239 255
227 239 255
227 239 255
227 239 255
227 239 255
227 239 255
227 239 255
227 239 255
227 239 255
227 239 255
227 239 255
227 239 255
227 239 255
227 239 255
227 239 255
227 239 255
227 239 255
227 239 255
227 239 255
227 239 255
227 239 255
227 239 255
227 239 255
227 239 255
227 239 255
227 239 255
227 239 255
227 239 255
227 239 255
227 239 255
227 239 255
227 239 255
227 239 255
227 239 255
227 239 255
227 239 255
227 239 255
227 239 255
227 239 255
227 239 255
227 239 255
227 239 255
227 239 255
227 239 255
227 239 255
227 239 255
227 239 255
227 239 255
227 239 255
227 239 255
227 239 255
227 239 255
227 239 255
227 239 255
227 239 255
227 239 255
227 239 255
227 239 255
227 239 255
227 239 255
227 239 255
227 239 255
227 239 255
227 239 255
227 239 255
227 239 255
227 239 255
227 239 255
227 239 255
227 239 255
227 239 255
227 239 255
227 239 255
227 239 255
227 239 255
227 239 255
227 239 255
227 239 255
227 239 255
227 239 255
227 239 255
227 239 255
227 239 255
227 239 255
227 239 255
227 239 255
227 239 255
227 239 255
227 239 255
227 239 255
227 239 255
227 239 255
227 239 255
227 239 255
227 239 255
227 239 255
226 237 253
226 237 251
227 237 251
227 238 250
230 239 251
230 240 250
236 243 251
234 241 250
233 240 248
232 239 248
227 236 245
226 235 245
233 240 248
231 240 248
234 241 249
228 237 246
232 240 249
235 242 251
234 241 250
232 240 248
231 240 248
227 237 246
223 233 242
228 237 246
226 236 245
229 238 247
227 237 248
229 239 250
229 239 251
231 240 253
231 241 254
231 241 255
228 240 255
227 239 255
227 239 255
227 239 255
227 239 255
227 239 255
227 239 255
227 239 255
227 239 255
227 239 255
227 239 255
227 239 255
227 239 255
227 239 255
227 239 255
227 239 255
227 239 255
227 239 255
227 239 255
227 239 255
227 239 255
227 239 255
227 239 255
227 239 255
227 239 255
227 239 255
227 239 255
227 239 255
227 239 255
227 239 255
227 239 255
227 239 255
227 239 255
227 239 255
227 239 255
227 239 255
227 239 255
227 239 255
227 239 255
227 239 255
227 239 255
227 239 255
227 239 255
227 239 255
227 239 255
227 239 255
227 239 255
227 239 255
227 239 255
227 239 255
227 239 255
227 239 255
227 239 255
227 239 255
227 239 255
227 239 255
227 239 255
227 239 255
227 239 255
227 239 255
227 239 255
227 239 255
227 239 255
227 239 255
227 239 255
227 239 255
227 239 255
227 239 255
227 239 255
227 239 255
227 239 255
227 239 255
227 239 255
227 239 255
227 239 255
227 239 255
227 239 255
227 239 255
227 239 255
227 239 255
227 239 255
227 239 255
227 239 255
227 239 255
227 239 255
227 239 255
227 239 255
227 239 255
227 239 255
227 239 255
227 239 255
227 239 255
227 239 255
227 239 255
227 239 255
227 239 255
227 239 255
227 239 255
227 239 255
227 239 255
227 239 255
227 239 255
227 239 255
227 239 255
227 239 255
227 239 255
227 239 255
227 239 255
227 239 255
227 239 255
227 239 255
227 239 255
227 239 255
227 239 255
227 239 255
227 239 255
227 239 255
227 239 255
227 239 255
227 239 255
227 239 255
227 239 255
227 239 255
227 239 255
227 239 255
227 239 255
227 239 255
227 239 255
227 239 255
227 239 255
227 239 255
227 239 255
227 239 255
227 239 255
227 239 255
227 239 255
227 239 255
227 239 255
227 239 255
227 239 255
227 239 255
227 239 255
227 239 255
227 239 255
227 239 255
227 239 255
227 239 255
227 239 255
227 239 255
227 239 255
227 239 255
227 239 255
227 239 255
227 239 255
227 239 255
227 239 255
227 239 255
227 239 255
227 239 255
227 239 255
227 239 255
227 239 255
227 239 255
227 239 255
227 239 255
227 239 255
227 239 255
227 239 255
227 239 255
227 239 255
227 239 255
227 239 255
227 239 255
227 239 255
227 239 255
227 239 255
227 239 255
227 239 255
227 239 255
227 239 255
227 239 255
227 239 255
227 239 255
227 239 255
227 239 255
227 239 255
227 239 255
227 239 255
227 239 255
227 239 255
227 239 255
227 239 255
227 239 255
227 239 255
227 239 255
227 239 255
227 239 255
227 239 255
227 239 255
227 239 255
227 239 255
227 239 255
227 239 255
227 239 255
227 239 255
227 239 255
227 239 255
227 239 255
227 239 255
227 239 255
227 239 255
227 239 255
227 239 255
227 239 255
227 239 255
227 239 255
227 239 255
227 239 255
227 239 255
227 239 255
227 239 255
227 239 255
227 239 255
227 239 255
227 239 255
227 239 255
227 239 255
227 239 255
227 239 255
227 239 255
227 239 255
227 239 255
227 239 255
227 239 255
227 239 255
227 239 255
227 239 255
227 239 255
227 239 255
227 239 255
227 239 255
227 239 255
227 239 255
227 239 255
227 239 255
227 239 255
227 239 255
227 239 255
227 239 255
227 239 255
227 239 255
227 239 255
227 239 255
227 239 255
227 239 255
227 239 255
227 239 255
227 239 255
227 239 255
227 239 255
227 239 255
227 239 255
227 239 255
227 239 255
227 239 255
227 239 255
227 239 255
227 239 255
227 239 255
227 239 255
227 239 255
227 239 255
227 239 255
227 239 255
227 239 255
227 239 255
227 239 255
227 239 255
227 239 255
227 239 255
227 239 255
227 239 255
227 239 255
227 239 255
227 239 255
227 239 255
227 239 255
227 239 255
227 239 255
227 239 255
227 239 255
227 239 255
227 239 255
227 239 255
227 239 255
227 239 255
227 239 255
227 239 255
227 239 255
227 239 255
227 239 255
227 239 255
227 239 255
227 239 255
227 239 255
227 239 255
227 239 255
227 239 255
227 239 255
227 239 255
227 239 255
227 239 255
227 239 255
227 239 255
227 239 255
227 239 255
227 239 255
227 239 255
227 239 255
227 239 255
227 239 255
227 239 255
227 239 255
227 239 255
227 239 255
227 239 255
227 239 255
227 239 255
227 239 255
227 239 255
227 239 255
227 239 255
227 239 255
227 239 255
227 239 255
227 239 255
227 239 255
227 239 255
227 239 255
227 239 255
227 239 255
227 239 255
227 239 255
227 239 255
227 239 255
227 239 255
227 239 255
227 239 255
227 239 255
227 239 255
227 239 255
227 239 255
227 239 255
227 239 255
227 239 255
227 239 255
227 239 255
227 239 255
227 239 255
227 239 255
227 239 255
227 239 255
227 239 255
227 239 255
227 239 255
227 239 255
227 239 255
227 239 255
227 239 255
227 239 255
227 239 255
227 239 255
227 239 255
227 239 255
227 239 255
227 239 255
227 239 255
226 238 253
226 238 253
226 237 252
227 238 254
225 237 251
226 237 251
225 237 251
225 236 250
225 237 251
224 236 250
225 237 251
226 238 253
229 239 254
228 239 255
229 240 255
227 239 255
227 239 255
227 239 255
227 239 255
227 239 255
227 239 255
227 239 255
227 239 255
227 239 255
227 239 255
227 239 255
227 239 255
227 239 255
227 239 255
227 239 255
227 239 255
227 239 255
227 239 255
227 239 255
227 239 255
227 239 255
227 239 255
227 239 255
227 239 255
227 239 255
227 239 255
227 239 255
227 239 255
227 239 255
227 239 255
227 239 255
227 239 255
227 239 255
227 239 255
227 239 255
227 239 255
227 239 255
227 239 255
227 239 255
227 239 255
227 239 255
227 239 255
227 239 255
227 239 255
227 239 255
227 239 255
227 239 255
227 239 255
227 239 255
227 239 255
227 239 255
227 239 255
227 239 255
227 239 255
227 239 255
227 239 255
227 239 255
227 239 255
227 239 255
227 239 255
227 239 255
227 239 255
227 239 255
227 239 255
227 239 255
227 239 255
227 239 255
227 239 255
227 239 255
227 239 255
227 239 255
227 239 255
227 239 255
227 239 255
227 239 255
227 239 255
227 239 255
227 239 255
227 239 255
227 239 255
227 239 255
227 239 255
227 239 255
227 239 255
227 239 255
227 239 255
227 239 255
227 239 255
227 239 255
227 239 255
227 239 255
227 239 255
227 239 255
227 239 255
227 239 255
227 239 255
227 239 255
227 239 255
227 239 255
227 239 255
227 239 255
227 239 255
227 239 255
227 239 255
227 239 255
227 239 255
227 239 255
227 239 255
227 239 255
227 239 255
227 239 255
227 239 255
227 239 255
227 239 255
227 239 255
227 239 255
227 239 255
227 239 255
227 239 255
227 239 255
227 239 255
227 239 255
227 239 255
227 239 255
227 239 255
227 239 255
227 239 255
227 239 255
227 239 255
227 239 255
227 239 255
227 239 255
227 239 255
227 239 255
227 239 255
227 239 255
227 239 255
227 239 255
227 239 255
227 239 255
227 239 255
227 239 255
227 239 255
227 239 255
227 239 255
227 239 255
227 239 255
227 239 255
227 239 255
227 239 255
227 239 255
227 239 255
227 239 255
227 239 255
227 239 255
227 239 255
227 239 255
227 239 255
227 239 255
227 239 255
227 239 255
227 239 255
227 239 255
227 239 255
227 239 255
227 239 255
227 239 255
227 239 255
227 239 255
227 239 255
227 239 255
227 239 255
227 239 255
227 239 255
227 239 255
227 239 255
227 239 255
227 239 255
227 239 255
227 239 255
227 239 255
227 239 255
227 239 255
227 239 255
227 239 255
227 239 255
227 239 255
227 239 255
227 239 255
227 239 255
227 239 255
227 239 255
227 239 255
227 239 255
227 239 255
227 239 255
227 239 255
227 239 255
227 239 255
227 239 255
227 239 255
227 239 255
227 239 255
227 239 255
227 239 255
227 239 255
227 239 255
227 239 255
227 239 255
227 239 255
227 239 255
227 239 255
227 239 255
227 239 255
227 239 255
227 239 255
227 239 255
227 239 255
227 239 255
227 239 255
227 239 255
227 239 255
227 239 255
227 239 255
227 239 255
227 239 255
227 239 255
227 239 255
227 239 255
227 239 255
227 239 255
227 239 255
227 239 255
227 239 255
227 239 255
227 239 255
227 239 255
227 239 255
227 239 255
227 239 255
227 239 255
227 239 255
227 239 255
227 239 255
227 239 255
227 239 255
227 239 255
227 239 255
227 239 255
227 239 255
227 239 255
227 239 255
227 239 255
227 239 255
227 239 255
227 239 255
227 239 255
227 239 255
227 239 255
227 239 255
227 239 255
227 239 255
227 239 255
227 239 255
227 239 255
227 239 255
227 239 255
227 239 255
227 239 255
227 239 255
227 239 255
227 239 255
227 239 255
227 239 255
227 239 255
227 239 255
227 239 255
227 239 255
227 239 255
227 239 255
227 239 255
227 239 255
227 239 255
227 239 255
227 239 255
227 239 255
227 239 255
227 239 255
227 239 255
227 239 255
227 239 255
227 239 255
227 239 255
227 239 255
227 239 255
227 239 255
227 239 255
227 239 255
227 239 255
227 239 255
227 239 255
227 239 255
227 239 255
227 239 255
227 239 255
227 239 255
227 239 255
227 239 255
227 239 255
227 239 255
227 239 255
227 239 255
227 239 255
227 239 255
227 239 255
227 239 255
227 239 255
227 239 255
227 239 255
227 239 255
227 239 255
227 239 255
227 239 255
227 239 255
227 239 255
227 239 255
227 239 255
227 239 255
227 239 255
227 239 255
227 239 255
227 239 255
227 239 255
227 239 255
227 239 255
227 239 255
227 239 255
227 239 255
227 239 255
227 239 255
227 239 255
227 239 255
227 239 255
227 239 255
227 239 255
227 239 255
227 239 255
227 239 255
227 239 255
227 239 255
227 239 255
227 239 255
227 239 255
227 239 255
227 239 255
227 239 255
227 239 255
227 239 255
227 239 255
227 239 255
227 239 255
227 239 255
227 239 255
227 239 255
227 239 255
227 239 255
227 239 255
227 239 255
227 239 255
227 239 255
227 239 255
227 239 255
227 239 255
227 239 255
227 239 255
227 239 255
227 239 255
227 239 255
227 239 255
227 239 255
227 239 255
227 239 255
227 239 255
227 239 255
227 239 255
227 239 255
227 239 255
227 239 255
227 239 255
227 239 255
227 239 255
227 239 255
227 239 255
227 239 255
227 239 255
227 239 255
227 239 255
227 239 255
227 239 255
227 239 255
227 239 255
227 239 255
227 239 255
227 239 255
227 239 255
227 239 255
227 239 255
227 239 255
227 239 255
227 239 255
227 239 255
227 239 255
227 239 255
227 239 255
227 239 255
227 239 255
227 239 255
227 239 255
227 239 255
227 239 255
227 239 255
227 239 255
227 239 255
227 239 255
227 239 255
227 239 255
227 239 255
227 239 255
227 239 255
227 239 255
227 239 255
227 239 255
227 239 255
227 239 255
227 239 255
227 239 255
227 239 255
227 239 255
227 239 255
227 239 255
227 239 255
227 239 255
227 239 255
227 239 255
227 239 255
227 239 255
227 239 255
227 239 255
227 239 255
227 239 255
227 239 255
227 239 255
227 239 255
227 239 255
227 239 255
227 239 255
227 239 255
227 239 255
227 239 255
227 239 255
227 239 255
227 239 255
227 239 255
227 239 255
227 239 255
227 239 255
227 239 255
227 239 255
227 239 255
227 239 255
227 239 255
227 239 255
227 239 255
227 239 255
227 239 255
227 239 255
227 239 255
227 239 255
227 239 255
227 239 255
227 239 255
227 239 255
227 239 255
227 239 255
227 239 255
227 239 255
227 239 255
227 239 255
227 239 255
227 239 255
227 239 255
227 239 255
227 239 255
227 239 255
227 239 255
227 239 255
227 239 255
227 239 255
227 239 255
227 239 255
227 239 255
227 239 255
227 239 255
227 239 255
227 239 255
227 239 255
227 239 255
227 239 255
227 239 255
227 239 255
227 239 255
227 239 255
227 239 255
227 239 255
227 239 255
227 239 255
227 239 255
227 239 255
227 239 255
227 239 255
227 239 255
227 239 255
227 239 255
227 239 255
227 239 255
227 239 255
227 239 255
227 239 255
227 239 255
227 239 255
227 239 255
227 239 255
227 239 255
227 239 255
227 239 255
227 239 255
227 239 255
227 239 255
227 239 255
227 239 255
227 239 255
227 239 255
227 239 255
227 239 255
227 239 255
227 239 255
227 239 255
227 239 255
227 239 255
227 239 255
227 239 255
227 239 255
227 239 255
227 239 255
227 239 255
227 239 255
227 239 255
227 239 255
227 239 255
227 239 255
227 239 255
227 239 255
227 239 255
227 239 255
227 239 255
227 239 255
227 239 255
227 239 255
227 239 255
227 239 255
227 239 255
227 239 255
227 239 255
227 239 255
227 239 255
227 239 255
227 239 255
227 239 255
227 239 255
227 239 255
227 239 255
227 239 255
227 239 255
227 239 255
227 239 255
227 239 255
227 239 255
227 239 255
227 239 255
227 239 255
227 239 255
227 239 255
227 239 255
227 239 255
227 239 255
227 239 255
227 239 255
227 239 255
227 239 255
227 239 255
227 239 255
227 239 255
227 239 255
227 239 255
227 239 255
227 239 255
227 239 255
227 239 255
227 239 255
227 239 255
227 239 255
227 239 255
227 239 255
227 239 255
227 239 255
227 239 255
227 239 255
227 239 255
227 239 255
227 239 255
227 239 255
227 239 255
227 239 255
227 239 255
227 239 255
227 239 255
227 239 255
227 239 255
227 239 255
227 239 255
227 239 255
227 239 255
227 239 255
227 239 255
227 239 255
227 239 255
227 239 255
227 239 255
227 239 255
227 239 255
227 239 255
227 239 255
227 239 255
227 239 255
227 239 255
227 239 255
227 239 255
227 239 255
227 239 255
227 239 255
227 239 255
227 239 255
227 239 255
227 239 255
227 239 255
227 239 255
227 239 255
227 239 255
227 239 255
227 239 255
227 239 255
227 239 255
227 239 255
227 239 255
227 239 255
227 239 255
227 239 255
227 239 255
227 239 255
227 239 255
227 239 255
227 239 255
227 239 255
227 239 255
227 239 255
227 239 255
227 239 255
227 239 255
227 239 255
227 239 255
227 239 255
227 239 255
227 239 255
227 239 255
227 239 255
227 239 255
227 239 255
227 239 255
227 239 255
227 239 255
227 239 255
227 239 255
227 239 255
227 239 255
227 239 255
227 239 255
227 239 255
227 239 255
227 239 255
227 239 255
227 239 255
227 239 255
227 239 255
227 239 255
227 239 255
227 239 255
227 239 255
227 239 255
227 239 255
227 239 255
227 239 255
227 239 255
227 239 255
227 239 255
227 239 255
227 239 255
227 239 255
227 239 255
227 239 255
227 239 255
227 239 255
227 239 255
227 239 255
227 239 255
227 239 255
227 239 255
227 239 255
227 239 255
227 239 255
227 239 255
227 239 255
227 239 255
227 239 255
227 239 255
227 239 255
227 239 255
227 239 255
227 239 255
227 239 255
227 239 255
227 239 255
227 239 255
227 239 255
227 239 255
227 239 255
227 239 255
227 239 255
227 239 255
227 239 255
227 239 255
227 239 255
227 239 255
227 239 255
227 239 255
227 239 255
227 239 255
227 239 255
227 239 255
227 239 255
227 239 255
227 239 255
227 239 255
227 239 255
227 239 255
227 239 255
227 239 255
227 239 255
227 239 255
227 239 255
227 239 255
227 239 255
227 239 255
227 239 255
227 239 255
227 239 255
227 239 255
227 239 255
227 239 255
227 239 255
227 239 255
227 239 255
227 239 255
227 239 255
227 239 255
227 239 255
227 239 255
227 239 255
227 239 255
227 239 255
227 239 255
227 239 255
227 239 255
227 239 255
227 239 255
227 239 255
227 239 255
227 239 255
227 239 255
227 239 255
227 239 255
227 239 255
227 239 255
227 239 255
227 239 255
227 239 255
227 239 255
227 239 255
227 239 255
227 239 255
227 239 255
227 239 255
227 239 255
227 239 255
227 239 255
227 239 255
227 239 255
227 239 255
227 239 255
227 239 255
227 239 255
227 239 255
227 239 255
227 239 255
227 239 255
227 239 255
227 239 255
227 239 255
227 239 255
227 239 255
227 239 255
227 239 255
227 239 255
227 239 255
227 239 255
227 239 255
227 239 255
227 239 255
227 239 255
227 239 255
227 239 255
227 239 255
227 239 255
227 239 255
227 239 255
227 239 255
227 239 255
227 239 255
227 239 255
227 239 255
227 239 255
227 239 255
227 239 255
227 239 255
227 239 255
227 239 255
227 239 255
227 239 255
227 239 255
227 239 255
227 239 255
227 239 255
227 239 255
227 239 255
227 239 255
227 239 255
227 239 255
227 239 255
227 239 255
227 239 255
227 239 255
227 239 255
227 239 255
227 239 255
227 239 255
227 239 255
227 239 255
227 239 255
227 239 255
227 239 255
227 239 255
227 239 255
227 239 255
227 239 255
227 239 255
227 239 255
227 239 255
227 239 255
227 239 255
227 239 255
227 239 255
227 239 255
227 239 255
227 239 255
227 239 255
227 239 255
227 239 255
227 239 255
227 239 255
227 239 255
227 239 255
227 239 255
227 239 255
227 239 255
227 239 255
227 239 255
227 239 255
227 239 255
227 239 255
227 239 255
227 239 255
227 239 255
227 239 255
227 239 255
227 239 255
227 239 255
227 239 255
227 239 255
227 239 255
227 239 255
227 239 255
227 239 255
227 239 255
227 239 255
227 239 255
227 239 255
227 239 255
227 239 255
227 239 255
227 239 255
227 239 255
227 239 255
227 239 255
227 239 255
227 239 255
227 239 255
227 239 255
227 239 255
227 239 255
227 239 255
227 239 255
227 239 255
227 239 255
227 239 255
227 239 255
227 239 255
227 239 255
227 239 255
227 239 255
227 239 255
227 239 255
227 239 255
227 239 255
227 239 255
227 239 255
227 239 255
227 239 255
227 239 255
227 239 255
227 239 255
227 239 255
227 239 255
227 239 255
227 239 255
227 239 255
227 239 255
227 239 255
227 239 255
227 239 255
227 239 255
227 239 255
227 239 255
227 239 255
227 239 255
227 239 255
227 239 255
227 239 255
227 239 255
227 239 255
227 239 255
227 239 255
227 239 255
227 239 255
227 239 255
227 239 255
227 239 255
227 239 255
227 239 255
227 239 255
227 239 255
227 239 255
227 239 255
227 239 255
227 239 255
227 239 255
227 239 255
227 239 255
227 239 255
227 239 255
227 239 255
227 239 255
227 239 255
227 239 255
227 239 255
227 239 255
227 239 255
227 239 255
227 239 255
227 239 255
227 239 255
227 239 255
227 239 255
227 239 255
227 239 255
227 239 255
227 239 255
227 239 255
227 239 255
227 239 255
227 239 255
227 239 255
227 239 255
227 239 255
227 239 255
227 239 255
227 239 255
227 239 255
227 239 255
227 239 255
227 239 255
227 239 255
227 239 255
227 239 255
227 239 255
227 239 255
227 239 255
227 239 255
227 239 255
227 239 255
227 239 255
227 239 255
227 239 255
227 239 255
227 239 255
227 239 255
227 239 255
227 239 255
227 239 255
227 239 255
227 239 255
227 239 255
227 239 255
227 239 255
227 239 255
227 239 255
227 239 255
227 239 255
227 239 255
227 239 255
227 239 255
227 239 255
227 239 255
227 239 255
227 239 255
227 239 255
227 239 255
227 239 255
227 239 255
227 239 255
227 239 255
227 239 255
227 239 255
227 239 255
227 239 255
227 239 255
227 239 255
227 239 255
227 239 255
227 239 255
227 239 255
227 239 255
227 239 255
227 239 255
227 239 255
227 239 255
227 239 255
227 239 255
227 239 255
227 239 255
227 239 255
227 239 255
227 239 255
227 239 255
227 239 255
227 239 255
227 239 255
227 239 255
227 239 255
227 239 255
227 239 255
227 239 255
227 239 255
227 239 255
227 239 255
227 239 255
227 239 255
227 239 255
227 239 255
227 239 255
227 239 255
227 239 255
227 239 255
227 239 255
227 239 255
227 239 255
227 239 255
227 239 255
227 239 255
227 239 255
227 239 255
227 239 255
227 239 255
227 239 255
227 239 255
227 239 255
227 239 255
227 239 255
227 239 255
227 239 255
227 239 255
227 239 255
227 239 255
227 239 255
227 239 255
227 239 255
227 239 255
227 239 255
227 239 255
227 239 255
227 239 255
227 239 255
227 239 255
227 239 255
227 239 255
227 239 255
227 239 255
227 239 255
227 239 255
227 239 255
227 239 255
227 239 255
227 239 255
227 239 255
227 239 255
227 239 255
227 239 255
227 239 255
227 239 255
227 239 255
227 239 255
227 239 255
227 239 255
227 239 255
227 239 255
227 239 255
227 239 255
227 239 255
227 239 255
227 239 255
227 239 255
227 239 255
227 239 255
227 239 255
227 239 255
227 239 255
227 239 255
227 239 255
227 239 255
227 239 255
227 239 255
227 239 255
227 239 255
227 239 255
227 239 255
227 239 255
227 239 255
227 239 255
227 239 255
227 239 255
227 239 255
227 239 255
227 239 255
227 239 255
227 239 255
227 239 255
227 239 255
227 239 255
227 239 255
227 239 255
227 239 255
227 239 255
227 239 255
227 239 255
227 239 255
227 239 255
227 239 255
227 239 255
227 239 255
227 239 255
227 239 255
227 239 255
227 239 255
227 239 255
227 239 255
227 239 255
227 239 255
227 239 255
227 239 255
227 239 255
227 239 255
227 239 255
227 239 255
227 239 255
227 239 255
227 239 255
227 239 255
227 239 255
227 239 255
227 239 255
227 239 255
227 239 255
227 239 255
227 239 255
227 239 255
227 239 255
227 239 255
227 239 255
227 239 255
227 239 255
227 239 255
227 239 255
227 239 255
227 239 255
227 239 255
227 239 255
227 239 255
227 239 255
227 239 255
227 239 255
227 239 255
227 239 255
227 239 255
227 239 255
227 239 255
227 239 255
227 239 255
227 239 255
227 239 255
227 239 255
227 239 255
227 239 255
227 239 255
227 239 255
227 239 255
227 239 255
227 239 255
227 239 255
227 239 255
227 239 255
227 239 255
227 239 255
227 239 255
227 239 255
227 239 255
227 239 255
227 239 255
227 239 255
227 239 255
227 239 255
227 239 255
227 239 255
227 239 255
227 239 255
227 239 255
227 239 255
227 239 255
227 239 255
227 239 255
227 239 255
227 239 255
227 239 255
227 239 255
227 239 255
227 239 255
227 239 255
227 239 255
227 239 255
227 239 255
227 239 255
227 239 255
227 239 255
227 239 255
227 239 255
227 239 255
227 239 255
227 239 255
227 239 255
227 239 255
227 239 255
227 239 255
227 239 255
227 239 255
227 239 255
227 239 255
227 239 255
227 239 255
227 239 255
227 239 255
227 239 255
227 239 255
227 239 255
227 239 255
227 239 255
227 239 255
227 239 255
227 239 255
227 239 255
227 239 255
227 239 255
227 239 255
227 239 255
227 239 255
227 239 255
227 239 255
227 239 255
227 239 255
227 239 255
227 239 255
227 239 255
227 239 255
227 239 255
227 239 255
227 239 255
227 239 255
227 239 255
227 239 255
227 239 255
227 239 255
227 239 255
227 239 255
227 239 255
227 239 255
227 239 255
227 239 255
227 239 255
227 239 255
227 239 255
227 239 255
227 239 255
227 239 255
227 239 255
227 239 255
227 239 255
227 239 255
227 239 255
227 239 255
227 239 255
227 239 255
227 239 255
227 239 255
227 239 255
227 239 255
227 239 255
227 239 255
227 239 255
227 239 255
227 239 255
227 239 255
227 239 255
227 239 255
227 239 255
227 239 255
227 239 255
227 239 255
227 239 255
227 239 255
227 239 255
227 239 255
227 239 255
227 239 255
227 239 255
227 239 255
227 239 255
227 239 255
227 239 255
227 239 255
227 239 255
227 239 255
227 239 255
227 239 255
227 239 255
227 239 255
227 239 255
227 239 255
227 239 255
227 239 255
227 239 255
227 239 255
227 239 255
227 239 255
227 239 255
227 239 255
227 239 255
227 239 255
227 239 255
227 239 255
227 239 255
227 239 255
227 239 255
227 239 255
227 239 255
227 239 255
227 239 255
227 239 255
227 239 255
227 239 255
227 239 255
227 239 255
227 239 255
227 239 255
227 239 255
227 239 255
227 239 255
227 239 255
227 239 255
227 239 255
227 239 255
227 239 255
227 239 255
227 239 255
227 239 255
227 239 255
227 239 255
227 239 255
227 239 255
227 239 255
227 239 255
227 239 255
227 239 255
227 239 255
227 239 255
227 239 255
227 239 255
227 239 255
227 239 255
227 239 255
227 239 255
227 239 255
227 239 255
227 239 255
227 239 255
227 239 255
227 239 255
227 239 255
227 239 255
227 239 255
227 239 255
227 239 255
227 239 255
227 239 255
227 239 255
227 239 255
227 239 255
227 239 255
227 239 255
227 239 255
227 239 255
227 239 255
227 239 255
227 239 255
227 239 255
227 239 255
227 239 255
227 239 255
227 239 255
227 239 255
227 239 255
227 239 255
227 239 255
227 239 255
227 239 255
227 239 255
227 239 255
227 239 255
227 239 255
227 239 255
227 239 255
227 239 255
227 239 255
227 239 255
227 239 255
227 239 255
227 239 255
227 239 255
227 239 255
227 239 255
227 239 255
227 239 255
227 239 255
227 239 255
227 239 255
227 239 255
227 239 255
227 239 255
227 239 255
227 239 255
227 239 255
227 239 255
227 239 255
227 239 255
227 239 255
227 239 255
227 239 255
227 239 255
227 239 255
227 239 255
227 239 255
227 239 255
227 239 255
227 239 255
227 239 255
227 239 255
227 239 255
227 239 255
227 239 255
227 239 255
227 239 255
227 239 255
227 239 255
227 239 255
227 239 255
227 239 255
227 239 255
227 239 255
227 239 255
227 239 255
227 239 255
227 239 255
227 239 255
227 239 255
227 239 255
227 239 255
227 239 255
227 239 255
227 239 255
227 239 255
227 239 255
227 239 255
227 239 255
227 239 255
227 239 255
227 239 255
227 239 255
227 239 255
227 239 255
227 239 255
227 239 255
227 239 255
227 239 255
227 239 255
227 239 255
227 239 255
227 239 255
227 239 255
227 239 255
227 239 255
227 239 255
227 239 255
227 239 255
227 239 255
227 239 255
227 239 255
227 239 255
227 239 255
228 239 255
228 239 255
228 239 255
228 239 255
228 239 255
228 239 255
227 239 255
228 239 255
228 239 255
227 239 255
228 239 255
228 239 255
228 239 255
227 239 255
227 239 255
228 239 255
228 239 255
227 239 255
227 239 255
228 239 255
227 239 255
227 239 255
227 239 255
227 239 255
227 239 255
228 239 255
227 239 255
227 239 255
227 239 255
227 239 255
227 239 255
227 239 255
227 239 255
227 239 255
227 239 255
227 239 255
227 239 255
227 239 255
227 239 255
227 239 255
227 239 255
227 239 255
227 239 255
227 239 255
227 239 255
227 239 255
227 239 255
227 239 255
227 239 255
227 239 255
227 239 255
227 239 255
227 239 255
227 239 255
227 239 255
227 239 255
227 239 255
227 239 255
227 239 255
227 239 255
227 239 255
227 239 255
227 239 255
227 239 255
227 239 255
227 239 255
227 239 255
227 239 255
227 239 255
227 239 255
227 239 255
227 239 255
227 239 255
227 239 255
227 239 255
227 239 255
227 239 255
227 239 255
227 239 255
227 239 255
227 239 255
227 239 255
227 239 255
227 239 255
227 239 255
227 239 255
227 239 255
227 239 255
227 239 255
227 239 255
227 239 255
227 239 255
227 239 255
227 239 255
227 239 255
227 239 255
227 239 255
227 239 255
227 239 255
227 239 255
227 239 255
227 239 255
227 239 255
227 239 255
227 239 255
227 239 255
227 239 255
227 239 255
227 239 255
227 239 255
227 239 255
227 239 255
227 239 255
227 239 255
227 239 255
227 239 255
227 239 255
227 239 255
227 239 255
227 239 255
227 239 255
227 239 255
227 239 255
227 239 255
227 239 255
227 239 255
227 239 255
227 239 255
227 239 255
227 239 255
227 239 255
227 239 255
227 239 255
227 239 255
227 239 255
227 239 255
227 239 255
227 239 255
227 239 255
227 239 255
227 239 255
227 239 255
227 239 255
227 239 255
227 239 255
227 239 255
227 239 255
227 239 255
227 239 255
227 239 255
227 239 255
227 239 255
227 239 255
227 239 255
227 239 255
227 239 255
227 239 255
227 239 255
227 239 255
227 239 255
227 239 255
227 239 255
227 239 255
227 239 255
227 239 255
227 239 255
227 239 255
227 239 255
227 239 255
227 239 255
227 239 255
227 239 255
227 239 255
227 239 255
227 239 255
227 239 255
227 239 255
227 239 255
227 239 255
227 239 255
227 239 255
227 239 255
227 239 255
227 239 255
227 239 255
227 239 255
227 239 255
227 239 255
227 239 255
227 239 255
227 239 255
227 239 255
227 239 255
227 239 255
227 239 255
227 239 255
227 239 255
227 239 255
227 239 255
227 239 255
227 239 255
227 239 255
227 239 255
227 239 255
227 239 255
227 239 255
227 239 255
227 239 255
227 239 255
